N10 ; PROGRAM NAME: 4444450
N11 ; ORDER       : 44444
N12 ; OPER. NAME  : Side Milling:144
N13 ; OPER. DESCR.: Side Milling/podciecie wk
N14 ; OPER. TYPE  : sideMill
N15 ; GEO. OPTION : 1
N16 ; MACHINE     : SH_HX151_24_SIM840D
N17 ;             : STARRAG_HECKERT_5axis_finish_milling_machine
N18 ; CONTROL     : SINUMERIK 840D
N19 ; created:   2022-11-03 13:37:10.006373
;-------DODATKOWE DANE-------------------
; PROGRAMISTA : Mariusz Malec
; PARTID      : 139T004654P1015_-
;  ap         : 1.0
;  ae         : 1.0
;  lean_angle : 0.0
;  fin_offset : 0.0
;----------------------------------------
N20 ;----------------------------------------
RAPORT("T44444","Side Milling:144")
N21 TRAFOOF
N22 D0
N23 G90 G94
N24 STOPRE
N25 M9 ; chlodziwo wyl
N26 ; --- Side Milling:144 - Side Milling/podciecie wk ---
N28 ;ToolChange : concat=None ,current_tdmid=None, PP.tdmId=941119
N29 MSG(" TLID=941119 D=8.0 R=1.81 Ang=0.0 Len=103.0 ")
N30 TRAFOOF
N31 D0
N32 G0 G53 Z290 B0
N33 G0 X200
N34 G0 Y150
N35 T="7741119"
N36 G0 X500
RAPORT("T44444","ToolChangeStart 7741119")
N37 M6
RAPORT("T44444","ToolChangeEnd")
N38 ; (Preloading tool)
N39 T="7740783"
N40 G0 X200
N41 STOPRE
N42 S7161 M03
N43 STOPRE
N44 TOL(0.1,1,1)
N45 G0 X152.462 A308.0000
N46 TRAORI
N47 G54 D1
N48 D1 
STOPRE
E_ZDARZ=300019
;ACS_FINISH_UNDERCUT=7741119
STOPRE
N49 ; DELTA A > 40.1
N50 TRAFOOF
N51 STOPRE
N52 G0 G53 D0 Z265.000
N53 G1 G53 A308.0000 F10000
N54 TRAORI
N55 G54 D1
N56 TRANS 
N57 G00 X152.462 Y74.951 Z13.254 A308.0000 B0.0000 
N58 M342 ; chlodziwo woda
N59 X152.462 Y35.550 Z-17.529 
N60 G01 X152.485 Y32.814 Z-19.047 F537 
N61 X152.552 Y29.744 Z-19.645 
N62 X152.656 Y26.640 Z-19.266 
N63 X152.786 Y23.806 Z-17.946 
N64 ;NGE_2_1
N65 G01 G41 X152.931 Y21.520 Z-15.815 F537
N66 X152.931 Y21.520 Z-15.815 
N67 X152.936 Y21.465 Z-15.744 F268 
N68 X152.940 Y21.410 Z-15.674 
N69 X152.944 Y21.355 Z-15.604 
N70 X152.948 Y21.300 Z-15.534 
N71 X152.952 Y21.246 Z-15.463 
N72 X152.957 Y21.191 Z-15.393 
N73 X152.961 Y21.136 Z-15.323 
N74 X152.965 Y21.081 Z-15.252 
N75 X152.969 Y21.026 Z-15.182 
N76 X152.973 Y20.971 Z-15.112 
N77 X152.977 Y20.916 Z-15.042 
N78 X152.982 Y20.861 Z-14.971 
N79 X152.986 Y20.806 Z-14.901 
N80 X152.990 Y20.751 Z-14.831 
N81 X152.994 Y20.696 Z-14.760 
N82 X152.998 Y20.642 Z-14.690 
N83 X153.003 Y20.587 Z-14.620 
N84 X153.007 Y20.532 Z-14.550 
N85 X153.011 Y20.477 Z-14.479 
N86 X153.015 Y20.422 Z-14.409 
N87 X153.019 Y20.367 Z-14.339 
N88 X153.024 Y20.312 Z-14.268 
N89 X153.028 Y20.257 Z-14.198 
N90 X153.032 Y20.202 Z-14.128 
N91 X153.036 Y20.147 Z-14.058 
N92 X153.040 Y20.092 Z-13.987 
N93 X153.044 Y20.038 Z-13.917 
N94 X153.049 Y19.983 Z-13.847 
N95 X153.053 Y19.928 Z-13.777 
N96 X153.057 Y19.873 Z-13.706 
N97 X153.061 Y19.818 Z-13.636 
N98 X153.065 Y19.763 Z-13.566 
N99 X153.070 Y19.708 Z-13.495 
N100 X153.074 Y19.653 Z-13.425 
N101 X153.078 Y19.598 Z-13.355 
N102 X153.082 Y19.543 Z-13.285 
N103 X153.086 Y19.488 Z-13.214 
N104 X153.091 Y19.434 Z-13.144 
N105 X153.095 Y19.379 Z-13.074 
N106 X153.099 Y19.324 Z-13.003 
N107 X153.103 Y19.269 Z-12.933 
N108 X153.107 Y19.214 Z-12.863 
N109 X153.112 Y19.159 Z-12.793 
N110 X153.116 Y19.104 Z-12.722 
N111 X153.120 Y19.049 Z-12.652 
N112 X153.124 Y18.994 Z-12.582 
N113 X153.128 Y18.939 Z-12.511 
N114 X153.132 Y18.884 Z-12.441 
N115 X153.137 Y18.830 Z-12.371 
N116 X153.141 Y18.775 Z-12.301 
N117 X153.145 Y18.720 Z-12.230 
N118 X153.149 Y18.665 Z-12.160 
N119 X153.153 Y18.610 Z-12.090 
N120 X153.158 Y18.555 Z-12.020 
N121 X153.162 Y18.500 Z-11.949 
N122 X153.166 Y18.445 Z-11.879 
N123 X153.170 Y18.390 Z-11.809 
N124 X153.174 Y18.335 Z-11.738 
N125 X153.179 Y18.280 Z-11.668 
N126 X153.183 Y18.226 Z-11.598 
N127 X153.187 Y18.171 Z-11.528 
N128 X153.191 Y18.116 Z-11.457 
N129 X153.195 Y18.061 Z-11.387 
N130 X153.200 Y18.006 Z-11.317 
N131 X153.204 Y17.951 Z-11.246 
N132 X153.208 Y17.896 Z-11.176 
N133 X153.212 Y17.841 Z-11.106 
N134 X153.216 Y17.786 Z-11.036 
N135 X153.220 Y17.731 Z-10.965 
N136 X153.225 Y17.676 Z-10.895 
N137 X153.229 Y17.622 Z-10.825 
N138 X153.233 Y17.567 Z-10.754 
N139 X153.237 Y17.512 Z-10.684 
N140 X153.241 Y17.457 Z-10.614 
N141 X153.246 Y17.402 Z-10.544 
N142 X153.250 Y17.347 Z-10.473 
N143 X153.254 Y17.292 Z-10.403 
N144 X153.258 Y17.237 Z-10.333 
N145 X153.262 Y17.182 Z-10.263 
N146 X153.267 Y17.127 Z-10.192 
N147 X153.271 Y17.072 Z-10.122 
N148 X153.275 Y17.018 Z-10.052 
N149 X153.279 Y16.963 Z-9.981 
N150 X153.283 Y16.908 Z-9.911 
N151 X153.288 Y16.853 Z-9.841 
N152 X153.292 Y16.798 Z-9.771 
N153 X153.296 Y16.743 Z-9.700 
N154 X153.300 Y16.688 Z-9.630 
N155 X153.304 Y16.633 Z-9.560 
N156 X153.308 Y16.578 Z-9.489 
N157 X153.313 Y16.523 Z-9.419 
N158 X153.317 Y16.468 Z-9.349 
N159 X153.321 Y16.414 Z-9.279 
N160 X153.325 Y16.359 Z-9.208 
N161 X153.329 Y16.304 Z-9.138 
N162 X153.334 Y16.249 Z-9.068 
N163 X153.338 Y16.194 Z-8.997 
N164 X153.342 Y16.139 Z-8.927 
N165 X153.346 Y16.084 Z-8.857 
N166 X153.350 Y16.029 Z-8.787 
N167 X153.355 Y15.974 Z-8.716 
N168 X153.359 Y15.919 Z-8.646 
N169 X153.363 Y15.864 Z-8.576 
N170 X153.367 Y15.810 Z-8.505 
N171 X153.371 Y15.755 Z-8.435 
N172 X153.375 Y15.700 Z-8.365 
N173 X153.380 Y15.645 Z-8.295 
N174 X153.384 Y15.590 Z-8.224 
N175 X153.388 Y15.535 Z-8.154 
N176 X153.392 Y15.480 Z-8.084 
N177 X153.396 Y15.425 Z-8.014 
N178 X153.401 Y15.370 Z-7.943 
N179 X153.405 Y15.315 Z-7.872 F277 
N180 X153.409 Y15.257 Z-7.799 F286 
N181 X153.414 Y15.198 Z-7.723 F295 
N182 X153.418 Y15.137 Z-7.645 F304 
N183 X153.423 Y15.074 Z-7.564 F313 
N184 X153.428 Y15.009 Z-7.481 F322 
N185 X153.433 Y14.943 Z-7.396 F331 
N186 X153.438 Y14.875 Z-7.309 F340 
N187 X153.444 Y14.804 Z-7.219 F349 
N188 X153.449 Y14.733 Z-7.127 F357 
N189 X153.455 Y14.659 Z-7.032 F366 
N190 X153.461 Y14.583 Z-6.936 F375 
N191 X153.467 Y14.506 Z-6.837 F384 
N192 X153.473 Y14.426 Z-6.735 F393 
N193 X153.479 Y14.345 Z-6.631 F402 
N194 X153.485 Y14.262 Z-6.525 F411 
N195 X153.492 Y14.178 Z-6.417 F420 
N196 X153.498 Y14.091 Z-6.306 F429 
N197 X153.505 Y14.003 Z-6.193 F438 
N198 X153.512 Y13.913 Z-6.077 F447 
N199 X153.519 Y13.821 Z-5.960 F456 
N200 X153.526 Y13.727 Z-5.840 F465 
N201 X153.533 Y13.631 Z-5.717 F474 
N202 X153.541 Y13.534 Z-5.592 F483 
N203 X153.548 Y13.434 Z-5.465 F492 
N204 X153.556 Y13.333 Z-5.336 F501 
N205 X153.564 Y13.230 Z-5.204 F510 
N206 X153.572 Y13.125 Z-5.070 F519 
N207 X153.580 Y13.019 Z-4.933 F528 
N208 X153.588 Y12.910 Z-4.795 F537 
N209 X153.597 Y12.801 Z-4.654 
N210 X153.605 Y12.691 Z-4.514 
N211 X153.613 Y12.582 Z-4.374 
N212 X153.622 Y12.472 Z-4.234 
N213 X153.630 Y12.362 Z-4.093 
N214 X153.639 Y12.253 Z-3.953 
N215 X153.647 Y12.143 Z-3.813 
N216 X153.655 Y12.034 Z-3.672 
N217 X153.664 Y11.924 Z-3.532 
N218 X153.672 Y11.814 Z-3.392 
N219 X153.680 Y11.705 Z-3.252 
N220 X153.689 Y11.595 Z-3.111 
N221 X153.697 Y11.486 Z-2.971 
N222 X153.705 Y11.376 Z-2.831 
N223 X153.714 Y11.266 Z-2.690 
N224 X153.722 Y11.157 Z-2.550 
N225 X153.731 Y11.047 Z-2.410 
N226 X153.739 Y10.938 Z-2.270 
N227 X153.747 Y10.828 Z-2.129 
N228 X153.756 Y10.718 Z-1.989 
N229 X153.763 Y10.609 Z-1.849 
N230 X153.769 Y10.499 Z-1.708 
N231 X153.775 Y10.389 Z-1.568 
N232 X153.780 Y10.280 Z-1.428 
N233 X153.786 Y10.170 Z-1.287 
N234 X153.792 Y10.060 Z-1.147 
N235 X153.798 Y9.951 Z-1.007 
N236 X153.803 Y9.841 Z-0.866 
N237 X153.809 Y9.731 Z-0.726 
N238 X153.815 Y9.622 Z-0.585 
N239 X153.821 Y9.512 Z-0.445 
N240 X153.826 Y9.402 Z-0.305 
N241 X153.832 Y9.293 Z-0.164 
N242 X153.838 Y9.183 Z-0.024 
N243 X153.843 Y9.073 Z0.116 
N244 X153.849 Y8.964 Z0.257 
N245 X153.855 Y8.854 Z0.397 
N246 X153.861 Y8.744 Z0.537 
N247 X153.866 Y8.635 Z0.678 
N248 X153.872 Y8.525 Z0.818 
N249 X153.878 Y8.415 Z0.959 
N250 X153.884 Y8.306 Z1.099 
N251 X153.889 Y8.196 Z1.239 
N252 X153.895 Y8.086 Z1.380 
N253 X153.901 Y7.977 Z1.520 
N254 X153.907 Y7.867 Z1.660 
N255 X153.909 Y7.757 Z1.801 
N256 X153.912 Y7.648 Z1.941 
N257 X153.914 Y7.538 Z2.082 
N258 X153.916 Y7.428 Z2.222 
N259 X153.919 Y7.319 Z2.362 
N260 X153.921 Y7.209 Z2.503 
N261 X153.924 Y7.099 Z2.643 
N262 X153.926 Y6.989 Z2.784 
N263 X153.928 Y6.880 Z2.924 
N264 X153.931 Y6.770 Z3.065 
N265 X153.933 Y6.660 Z3.205 
N266 X153.936 Y6.551 Z3.345 
N267 X153.938 Y6.441 Z3.486 
N268 X153.940 Y6.331 Z3.626 
N269 X153.943 Y6.221 Z3.767 
N270 X153.945 Y6.112 Z3.907 
N271 X153.948 Y6.002 Z4.048 
N272 X153.950 Y5.892 Z4.188 
N273 X153.953 Y5.783 Z4.328 
N274 X153.955 Y5.673 Z4.469 
N275 X153.957 Y5.563 Z4.609 
N276 X153.960 Y5.454 Z4.750 
N277 X153.962 Y5.344 Z4.890 
N278 X153.965 Y5.234 Z5.030 
N279 X153.967 Y5.124 Z5.171 
N280 X153.969 Y5.015 Z5.311 
N281 X153.972 Y4.905 Z5.452 
N282 X153.974 Y4.795 Z5.592 
N283 X153.977 Y4.686 Z5.733 
N284 X153.979 Y4.576 Z5.873 
N285 X153.981 Y4.466 Z6.013 
N286 X153.984 Y4.356 Z6.154 
N287 X153.986 Y4.247 Z6.294 
N288 X153.985 Y4.137 Z6.435 
N289 X153.984 Y4.027 Z6.575 
N290 X153.982 Y3.918 Z6.716 
N291 X153.981 Y3.808 Z6.856 
N292 X153.979 Y3.698 Z6.996 
N293 X153.978 Y3.588 Z7.137 
N294 X153.977 Y3.479 Z7.277 
N295 X153.975 Y3.369 Z7.418 
N296 X153.974 Y3.259 Z7.558 
N297 X153.972 Y3.150 Z7.699 
N298 X153.971 Y3.040 Z7.839 
N299 X153.969 Y2.930 Z7.979 
N300 X153.968 Y2.820 Z8.120 
N301 X153.966 Y2.711 Z8.260 
N302 X153.965 Y2.601 Z8.401 
N303 X153.963 Y2.491 Z8.541 
N304 X153.962 Y2.382 Z8.682 
N305 X153.960 Y2.272 Z8.822 
N306 X153.959 Y2.162 Z8.962 
N307 X153.958 Y2.052 Z9.103 
N308 X153.956 Y1.943 Z9.243 
N309 X153.955 Y1.833 Z9.384 
N310 X153.953 Y1.723 Z9.524 
N311 X153.952 Y1.613 Z9.665 
N312 X153.950 Y1.504 Z9.805 
N313 X153.949 Y1.394 Z9.945 
N314 X153.947 Y1.284 Z10.086 
N315 X153.946 Y1.175 Z10.226 
N316 X153.944 Y1.065 Z10.367 
N317 X153.943 Y0.955 Z10.507 
N318 X153.941 Y0.845 Z10.648 
N319 X153.940 Y0.736 Z10.788 
N320 X153.939 Y0.626 Z10.929 
N321 X153.937 Y0.516 Z11.069 
N322 X153.936 Y0.407 Z11.209 
N323 X153.934 Y0.295 Z11.353 
N324 X153.933 Y0.183 Z11.496 
N325 X153.931 Y0.071 Z11.639 
N326 X153.930 Y-0.041 Z11.782 
N327 X153.928 Y-0.153 Z11.926 
N328 X153.927 Y-0.265 Z12.069 
N329 X153.925 Y-0.377 Z12.212 
N330 X153.924 Y-0.489 Z12.356 
N331 X153.922 Y-0.601 Z12.499 
N332 X153.921 Y-0.713 Z12.642 
N333 X153.919 Y-0.825 Z12.785 
N334 X153.918 Y-0.937 Z12.929 
N335 X153.916 Y-1.049 Z13.072 
N336 X153.915 Y-1.160 Z13.215 
N337 X153.913 Y-1.272 Z13.358 
N338 X153.912 Y-1.384 Z13.502 
N339 X153.910 Y-1.496 Z13.645 
N340 X153.909 Y-1.608 Z13.788 
N341 X153.907 Y-1.720 Z13.931 
N342 X153.906 Y-1.832 Z14.075 
N343 X153.904 Y-1.944 Z14.218 
N344 X153.903 Y-2.056 Z14.361 
N345 G40 X153.821 Y-8.212 Z22.241 F537
N346 X153.821 Y-8.212 Z22.241 
N347 G00 X153.821 Y31.188 Z53.024 
RAPORT("T44444","Side Milling:144 End")
N349 ;trailer : concat=None
; points cnt = 284
N350 MSG (" --- GROUPED OF SUBPROGRAM --- ")
N351 FGROUP()
N352 TRAFOOF
N10 ; PROGRAM NAME: 4444450
N11 ; ORDER       : 44444
N12 ; OPER. NAME  : Side Milling:145
N13 ; OPER. DESCR.: Undercut finish milling NGA
N14 ; OPER. TYPE  : sideMill
N15 ; GEO. OPTION : 1
N16 ; MACHINE     : SH_HX151_24_SIM840D
N17 ;             : STARRAG_HECKERT_5axis_finish_milling_machine
N18 ; CONTROL     : SINUMERIK 840D
N19 ; created:   2022-11-03 13:37:14.502475
;-------DODATKOWE DANE-------------------
; PROGRAMISTA : Mariusz Malec
; PARTID      : 139T004654P1015_-
;  ap         : 1.0
;  ae         : 1.0
;  lean_angle : 0.0
;  fin_offset : 0.0
;----------------------------------------
N20 ;----------------------------------------
RAPORT("T44444","Side Milling:145")
N21 TRAFOOF
N22 D0
N23 G0 G90 G94 Z260.0
N24 STOPRE
N25 M9 ; chlodziwo wyl
N26 ; --- Side Milling:145 - Undercut finish milling NGA ---
N28 ;ToolChange : concat=None ,current_tdmid=None, PP.tdmId=941119
N29 TRAFOOF
N30 D0
N31 G0 G54 Z270.0
N32 S7161 M03
N33 STOPRE
N34 TOL(0.1,1,1)
N35 G0  A128.0000
N36 TRAORI
N37 G54 D2
N38 D2 
STOPRE
E_ZDARZ=300019
;ACS_FINISH_UNDERCUT=7741119
STOPRE
N39 ; DELTA A > 40.1
N40 TRAFOOF
N41 STOPRE
N42 G0 G53 D0 Z265.000
N43 G1 G53 A128.0000 F10000
N44 TRAORI
N45 G54 D2
N46 TRANS 
N47 G00 X152.366 Y-77.926 Z-6.777 A128.0000 B0.0000 
N48 M342 ; chlodziwo woda
N49 X152.366 Y-38.525 Z24.006 
N50 G01 X152.390 Y-35.789 Z25.523 F537 
N51 X152.461 Y-32.719 Z26.122 
N52 X152.571 Y-29.615 Z25.743 
N53 X152.709 Y-26.782 Z24.423 
N54 ;NGA_2_1
N55 G01 G41 X152.863 Y-24.496 Z22.292 F537
N56 X152.863 Y-24.496 Z22.292 
N57 X152.867 Y-24.441 Z22.222 F268 
N58 X152.871 Y-24.386 Z22.152 
N59 X152.876 Y-24.331 Z22.082 
N60 X152.880 Y-24.276 Z22.011 
N61 X152.885 Y-24.221 Z21.941 
N62 X152.889 Y-24.166 Z21.871 
N63 X152.894 Y-24.112 Z21.801 
N64 X152.898 Y-24.057 Z21.730 
N65 X152.902 Y-24.002 Z21.660 
N66 X152.907 Y-23.947 Z21.590 
N67 X152.911 Y-23.892 Z21.519 
N68 X152.916 Y-23.837 Z21.449 
N69 X152.920 Y-23.782 Z21.379 
N70 X152.925 Y-23.727 Z21.309 
N71 X152.929 Y-23.672 Z21.238 
N72 X152.933 Y-23.617 Z21.168 
N73 X152.938 Y-23.563 Z21.098 
N74 X152.942 Y-23.508 Z21.028 
N75 X152.947 Y-23.453 Z20.957 
N76 X152.951 Y-23.398 Z20.887 
N77 X152.956 Y-23.343 Z20.817 
N78 X152.960 Y-23.288 Z20.746 
N79 X152.964 Y-23.233 Z20.676 
N80 X152.969 Y-23.178 Z20.606 
N81 X152.973 Y-23.123 Z20.536 
N82 X152.978 Y-23.068 Z20.465 
N83 X152.982 Y-23.013 Z20.395 
N84 X152.987 Y-22.959 Z20.325 
N85 X152.991 Y-22.904 Z20.255 
N86 X152.996 Y-22.849 Z20.184 
N87 X153.000 Y-22.794 Z20.114 
N88 X153.004 Y-22.739 Z20.044 
N89 X153.009 Y-22.684 Z19.973 
N90 X153.013 Y-22.629 Z19.903 
N91 X153.018 Y-22.574 Z19.833 
N92 X153.022 Y-22.519 Z19.763 
N93 X153.027 Y-22.464 Z19.692 
N94 X153.031 Y-22.410 Z19.622 
N95 X153.035 Y-22.355 Z19.552 
N96 X153.040 Y-22.300 Z19.482 
N97 X153.044 Y-22.245 Z19.411 
N98 X153.049 Y-22.190 Z19.341 
N99 X153.053 Y-22.135 Z19.271 
N100 X153.058 Y-22.080 Z19.200 
N101 X153.062 Y-22.025 Z19.130 
N102 X153.066 Y-21.970 Z19.060 
N103 X153.071 Y-21.915 Z18.990 
N104 X153.075 Y-21.861 Z18.919 
N105 X153.080 Y-21.806 Z18.849 
N106 X153.084 Y-21.751 Z18.779 
N107 X153.089 Y-21.696 Z18.709 
N108 X153.093 Y-21.641 Z18.638 
N109 X153.097 Y-21.586 Z18.568 
N110 X153.102 Y-21.531 Z18.498 
N111 X153.106 Y-21.476 Z18.427 
N112 X153.111 Y-21.421 Z18.357 
N113 X153.115 Y-21.366 Z18.287 
N114 X153.120 Y-21.312 Z18.217 
N115 X153.124 Y-21.257 Z18.146 
N116 X153.129 Y-21.202 Z18.076 
N117 X153.133 Y-21.147 Z18.006 
N118 X153.137 Y-21.092 Z17.936 
N119 X153.142 Y-21.037 Z17.865 
N120 X153.146 Y-20.982 Z17.795 
N121 X153.151 Y-20.927 Z17.725 
N122 X153.155 Y-20.872 Z17.654 
N123 X153.160 Y-20.817 Z17.584 
N124 X153.164 Y-20.763 Z17.514 
N125 X153.168 Y-20.708 Z17.444 
N126 X153.173 Y-20.653 Z17.373 
N127 X153.177 Y-20.598 Z17.303 
N128 X153.182 Y-20.543 Z17.233 
N129 X153.186 Y-20.488 Z17.163 
N130 X153.191 Y-20.433 Z17.092 
N131 X153.195 Y-20.378 Z17.022 
N132 X153.199 Y-20.323 Z16.952 
N133 X153.204 Y-20.268 Z16.882 
N134 X153.208 Y-20.213 Z16.811 
N135 X153.213 Y-20.159 Z16.741 
N136 X153.217 Y-20.104 Z16.671 
N137 X153.222 Y-20.049 Z16.600 
N138 X153.226 Y-19.994 Z16.530 
N139 X153.230 Y-19.939 Z16.460 
N140 X153.235 Y-19.884 Z16.390 
N141 X153.239 Y-19.829 Z16.319 
N142 X153.244 Y-19.774 Z16.249 
N143 X153.248 Y-19.719 Z16.179 
N144 X153.253 Y-19.664 Z16.109 
N145 X153.257 Y-19.610 Z16.038 
N146 X153.262 Y-19.555 Z15.968 
N147 X153.266 Y-19.500 Z15.898 
N148 X153.270 Y-19.445 Z15.827 
N149 X153.275 Y-19.390 Z15.757 
N150 X153.279 Y-19.335 Z15.687 
N151 X153.284 Y-19.280 Z15.617 
N152 X153.288 Y-19.225 Z15.546 
N153 X153.293 Y-19.170 Z15.476 
N154 X153.297 Y-19.115 Z15.406 
N155 X153.301 Y-19.061 Z15.336 
N156 X153.306 Y-19.006 Z15.265 
N157 X153.310 Y-18.951 Z15.195 
N158 X153.315 Y-18.896 Z15.125 
N159 X153.319 Y-18.841 Z15.054 
N160 X153.324 Y-18.786 Z14.984 
N161 X153.328 Y-18.731 Z14.914 
N162 X153.332 Y-18.676 Z14.844 
N163 X153.337 Y-18.621 Z14.773 
N164 X153.341 Y-18.566 Z14.703 
N165 X153.346 Y-18.512 Z14.633 
N166 X153.350 Y-18.457 Z14.563 
N167 X153.355 Y-18.402 Z14.492 
N168 X153.359 Y-18.347 Z14.422 
N169 X153.364 Y-18.291 Z14.351 F277 
N170 X153.368 Y-18.234 Z14.277 F286 
N171 X153.373 Y-18.175 Z14.202 F295 
N172 X153.378 Y-18.114 Z14.124 F304 
N173 X153.383 Y-18.051 Z14.043 F313 
N174 X153.388 Y-17.986 Z13.960 F322 
N175 X153.394 Y-17.920 Z13.875 F331 
N176 X153.399 Y-17.851 Z13.788 F340 
N177 X153.405 Y-17.781 Z13.698 F349 
N178 X153.411 Y-17.709 Z13.606 F357 
N179 X153.417 Y-17.635 Z13.511 F366 
N180 X153.423 Y-17.560 Z13.415 F375 
N181 X153.429 Y-17.482 Z13.315 F384 
N182 X153.435 Y-17.403 Z13.214 F393 
N183 X153.442 Y-17.322 Z13.110 F402 
N184 X153.449 Y-17.239 Z13.004 F411 
N185 X153.455 Y-17.154 Z12.896 F420 
N186 X153.462 Y-17.068 Z12.785 F429 
N187 X153.469 Y-16.979 Z12.672 F438 
N188 X153.477 Y-16.889 Z12.556 F447 
N189 X153.484 Y-16.797 Z12.439 F456 
N190 X153.492 Y-16.703 Z12.319 F465 
N191 X153.499 Y-16.608 Z12.196 F474 
N192 X153.507 Y-16.510 Z12.071 F483 
N193 X153.515 Y-16.411 Z11.944 F492 
N194 X153.524 Y-16.310 Z11.815 F501 
N195 X153.532 Y-16.207 Z11.683 F510 
N196 X153.540 Y-16.102 Z11.549 F519 
N197 X153.549 Y-15.996 Z11.413 F528 
N198 X153.558 Y-15.887 Z11.274 F537 
N199 X153.567 Y-15.777 Z11.132 
N200 X153.576 Y-15.666 Z10.991 
N201 X153.584 Y-15.556 Z10.849 
N202 X153.593 Y-15.445 Z10.708 
N203 X153.602 Y-15.335 Z10.566 
N204 X153.611 Y-15.224 Z10.425 
N205 X153.620 Y-15.113 Z10.283 
N206 X153.629 Y-15.003 Z10.142 
N207 X153.638 Y-14.892 Z10.001 
N208 X153.647 Y-14.782 Z9.859 
N209 X153.656 Y-14.671 Z9.718 
N210 X153.665 Y-14.561 Z9.576 
N211 X153.674 Y-14.450 Z9.435 
N212 X153.683 Y-14.340 Z9.293 
N213 X153.692 Y-14.229 Z9.152 
N214 X153.700 Y-14.119 Z9.010 
N215 X153.709 Y-14.008 Z8.869 
N216 X153.718 Y-13.898 Z8.727 
N217 X153.726 Y-13.787 Z8.586 
N218 X153.732 Y-13.676 Z8.444 
N219 X153.739 Y-13.566 Z8.303 
N220 X153.745 Y-13.455 Z8.161 
N221 X153.752 Y-13.345 Z8.019 
N222 X153.758 Y-13.234 Z7.878 
N223 X153.765 Y-13.123 Z7.736 
N224 X153.771 Y-13.013 Z7.595 
N225 X153.778 Y-12.902 Z7.453 
N226 X153.784 Y-12.792 Z7.312 
N227 X153.791 Y-12.681 Z7.170 
N228 X153.797 Y-12.570 Z7.028 
N229 X153.804 Y-12.460 Z6.887 
N230 X153.811 Y-12.349 Z6.745 
N231 X153.817 Y-12.239 Z6.604 
N232 X153.824 Y-12.128 Z6.462 
N233 X153.830 Y-12.017 Z6.321 
N234 X153.837 Y-11.907 Z6.179 
N235 X153.843 Y-11.796 Z6.037 
N236 X153.850 Y-11.686 Z5.896 
N237 X153.856 Y-11.575 Z5.754 
N238 X153.863 Y-11.464 Z5.613 
N239 X153.869 Y-11.354 Z5.471 
N240 X153.873 Y-11.243 Z5.330 
N241 X153.877 Y-11.132 Z5.188 
N242 X153.880 Y-11.022 Z5.046 
N243 X153.883 Y-10.911 Z4.905 
N244 X153.887 Y-10.800 Z4.763 
N245 X153.890 Y-10.690 Z4.621 
N246 X153.893 Y-10.579 Z4.480 
N247 X153.897 Y-10.468 Z4.338 
N248 X153.900 Y-10.358 Z4.197 
N249 X153.903 Y-10.247 Z4.055 
N250 X153.907 Y-10.137 Z3.913 
N251 X153.910 Y-10.026 Z3.772 
N252 X153.913 Y-9.915 Z3.630 
N253 X153.917 Y-9.805 Z3.488 
N254 X153.920 Y-9.694 Z3.347 
N255 X153.923 Y-9.583 Z3.205 
N256 X153.927 Y-9.473 Z3.063 
N257 X153.930 Y-9.362 Z2.922 
N258 X153.933 Y-9.251 Z2.780 
N259 X153.937 Y-9.141 Z2.639 
N260 X153.940 Y-9.030 Z2.497 
N261 X153.943 Y-8.919 Z2.355 
N262 X153.947 Y-8.809 Z2.214 
N263 X153.950 Y-8.698 Z2.072 
N264 X153.953 Y-8.587 Z1.930 
N265 X153.957 Y-8.477 Z1.789 
N266 X153.960 Y-8.366 Z1.647 
N267 X153.963 Y-8.255 Z1.506 
N268 X153.966 Y-8.145 Z1.364 
N269 X153.970 Y-8.034 Z1.222 
N270 X153.973 Y-7.923 Z1.081 
N271 X153.976 Y-7.813 Z0.939 
N272 X153.979 Y-7.702 Z0.797 
N273 X153.979 Y-7.591 Z0.656 
N274 X153.979 Y-7.481 Z0.514 
N275 X153.980 Y-7.370 Z0.372 
N276 X153.980 Y-7.259 Z0.231 
N277 X153.980 Y-7.149 Z0.089 
N278 X153.980 Y-7.038 Z-0.053 
N279 X153.981 Y-6.927 Z-0.194 
N280 X153.981 Y-6.817 Z-0.336 
N281 X153.981 Y-6.706 Z-0.478 
N282 X153.981 Y-6.595 Z-0.619 
N283 X153.982 Y-6.485 Z-0.761 
N284 X153.982 Y-6.374 Z-0.903 
N285 X153.982 Y-6.263 Z-1.044 
N286 X153.982 Y-6.153 Z-1.186 
N287 X153.983 Y-6.042 Z-1.328 
N288 X153.983 Y-5.931 Z-1.469 
N289 X153.983 Y-5.821 Z-1.611 
N290 X153.983 Y-5.710 Z-1.752 
N291 X153.984 Y-5.599 Z-1.894 
N292 X153.984 Y-5.489 Z-2.036 
N293 X153.983 Y-5.378 Z-2.177 
N294 X153.981 Y-5.267 Z-2.319 
N295 X153.978 Y-5.157 Z-2.461 
N296 X153.976 Y-5.046 Z-2.602 
N297 X153.974 Y-4.935 Z-2.744 
N298 X153.972 Y-4.825 Z-2.886 
N299 X153.970 Y-4.714 Z-3.027 
N300 X153.968 Y-4.603 Z-3.169 
N301 X153.966 Y-4.493 Z-3.311 
N302 X153.964 Y-4.382 Z-3.452 
N303 X153.962 Y-4.271 Z-3.594 
N304 X153.960 Y-4.161 Z-3.736 
N305 X153.958 Y-4.050 Z-3.877 
N306 X153.956 Y-3.939 Z-4.019 
N307 X153.954 Y-3.829 Z-4.161 
N308 X153.952 Y-3.718 Z-4.302 
N309 X153.950 Y-3.607 Z-4.444 
N310 X153.948 Y-3.497 Z-4.585 
N311 X153.946 Y-3.386 Z-4.727 
N312 X153.944 Y-3.274 Z-4.870 
N313 X153.942 Y-3.162 Z-5.014 
N314 X153.940 Y-3.050 Z-5.157 
N315 X153.938 Y-2.938 Z-5.300 
N316 X153.936 Y-2.826 Z-5.443 
N317 X153.934 Y-2.714 Z-5.587 
N318 X153.932 Y-2.602 Z-5.730 
N319 X153.930 Y-2.490 Z-5.873 
N320 X153.927 Y-2.379 Z-6.017 
N321 X153.925 Y-2.267 Z-6.160 
N322 X153.923 Y-2.155 Z-6.303 
N323 X153.921 Y-2.043 Z-6.446 
N324 X153.919 Y-1.931 Z-6.590 
N325 X153.917 Y-1.819 Z-6.733 
N326 X153.915 Y-1.707 Z-6.876 
N327 X153.913 Y-1.595 Z-7.019 
N328 X153.911 Y-1.483 Z-7.163 
N329 X153.909 Y-1.371 Z-7.306 
N330 X153.907 Y-1.259 Z-7.449 
N331 X153.905 Y-1.147 Z-7.592 
N332 X153.903 Y-1.035 Z-7.736 
N333 X153.901 Y-0.923 Z-7.879 
N334 G40 X153.788 Y5.233 Z-15.759 F537
N335 X153.788 Y5.233 Z-15.759 
N336 G00 X153.788 Y-34.168 Z-46.542 
RAPORT("T44444","Side Milling:145 End")
N338 ;trailer : concat=None
; points cnt = 283
N339 M9 ; chlodziwo wyl.
N340 M9 ; chlodziwo wyl.
N341 MSG (" --- KONIEC PROGRAMU --- ")
N342 TRANS
N343 G54
N344 FGROUP()
N345 TRAFOOF
N346 STOPRE
N347 G0 G53 D0 Z290.0 M9 M5
N348 G0 G53 Y150 A0 B0
N349 M17
