N10 ; PROGRAM NAME: 4444460
N11 ; ORDER       : 44444
N12 ; OPER. NAME  : Contact Milling:166
N13 ; OPER. DESCR.: Contact Milling/podciecie pod ceche
N14 ; OPER. TYPE  : contactMill
N15 ; GEO. OPTION : 1
N16 ; MACHINE     : SH_HX151_24_SIM840D
N17 ;             : STARRAG_HECKERT_5axis_finish_milling_machine
N18 ; CONTROL     : SINUMERIK 840D
N19 ; created:   2022-11-03 13:39:33.934519
;-------DODATKOWE DANE-------------------
; PROGRAMISTA : Mariusz Malec
; PARTID      : 139T004654P1015_-
;  ap         : 1.0
;  ae         : 5.0
;  lean_angle : 0.01
;  tilt_angle : 0.0
;  fin_offset : -0.15
;----------------------------------------
N20 ;----------------------------------------
RAPORT("T44444","Contact Milling:166")
N21 TRAFOOF
N22 D0
N23 G90 G94
N24 STOPRE
N25 M9 ; chlodziwo wyl
N26 ; --- Contact Milling:166 - Contact Milling/podciecie pod ceche ---
N28 ;ToolChange : concat=None ,current_tdmid=None, PP.tdmId=957453
N29 MSG(" TLID=957453 D=5.0 R=0.0 Ang=0.0 Len=109.0 ")
N30 TRAFOOF
N31 D0
N32 G0 G53 Z290 B0
N33 G0 X200
N34 G0 Y150
N35 T="7757453"
N36 G0 X500
RAPORT("T44444","ToolChangeStart 7757453")
N37 M6
RAPORT("T44444","ToolChangeEnd")
N38 ; (Preloading tool)
N39 T="7758677"
N40 G0 X200
N41 STOPRE
N42 S12095 M03
N43 STOPRE
N44 TOL(0.01,1,1)
N45 G0 X138.105 A0.0000
N46 TRAORI
N47 G54 D1
N48 D3 
N49 X138.105 Y-5.841 Z45.662 A0.0001 B0.0131 
N50 M342 ; chlodziwo woda
N51 X138.100 Y-5.841 Z15.662 
N52 G01 X138.099 Y-5.841 Z9.662 F544 
N53 X138.148 Y-5.841 Z9.352 
N54 X138.290 Y-5.841 Z9.074 
N55 X138.511 Y-5.841 Z8.852 
N56 X138.789 Y-5.841 Z8.710 
N57 X139.099 Y-5.841 Z8.661 
N58 X139.237 Y-5.841 Z8.661 
N59 X139.376 Y-5.841 Z8.661 F543 
N60 X139.515 Y-5.841 Z8.661 F544 
N61 X139.654 Y-5.841 Z8.661 
N62 X139.793 Y-5.841 Z8.661 
N63 X139.932 Y-5.841 Z8.661 
N64 X140.071 Y-5.841 Z8.661 
N65 X140.210 Y-5.841 Z8.661 
N66 X140.349 Y-5.841 Z8.661 
N67 X140.487 Y-5.841 Z8.661 
N68 X140.626 Y-5.841 Z8.661 
N69 X140.765 Y-5.841 Z8.661 
N70 X140.904 Y-5.841 Z8.661 
N71 X141.043 Y-5.841 Z8.661 
N72 X141.182 Y-5.841 Z8.661 
N73 X141.321 Y-5.841 Z8.661 
N74 X141.460 Y-5.841 Z8.661 
N75 X141.599 Y-5.841 Z8.661 
N76 X141.737 Y-5.841 Z8.661 
N77 X141.876 Y-5.841 Z8.661 
N78 X142.015 Y-5.841 Z8.661 
N79 X142.154 Y-5.841 Z8.661 
N80 X142.293 Y-5.841 Z8.661 
N81 X142.432 Y-5.841 Z8.661 
N82 X142.571 Y-5.841 Z8.661 
N83 X142.710 Y-5.841 Z8.661 
N84 X142.849 Y-5.841 Z8.661 
N85 X142.987 Y-5.841 Z8.661 
N86 X143.126 Y-5.841 Z8.661 
N87 X143.265 Y-5.841 Z8.661 
N88 X143.404 Y-5.841 Z8.661 
N89 X143.543 Y-5.841 Z8.661 
N90 X143.682 Y-5.841 Z8.661 
N91 X143.821 Y-5.841 Z8.661 
N92 X143.960 Y-5.841 Z8.661 
N93 X144.099 Y-5.841 Z8.661 
N94 X144.237 Y-5.841 Z8.661 F543 
N95 X144.376 Y-5.841 Z8.661 F544 
N96 X144.515 Y-5.841 Z8.661 
N97 X144.654 Y-5.841 Z8.661 
N98 X144.793 Y-5.841 Z8.661 
N99 X144.932 Y-5.841 Z8.661 
N100 X145.071 Y-5.841 Z8.661 
N101 X145.210 Y-5.841 Z8.661 
N102 X145.349 Y-5.841 Z8.661 
N103 X145.487 Y-5.841 Z8.661 
N104 X145.626 Y-5.841 Z8.661 
N105 X145.765 Y-5.841 Z8.661 
N106 X145.904 Y-5.841 Z8.661 
N107 X146.043 Y-5.841 Z8.661 
N108 X146.182 Y-5.841 Z8.661 
N109 X146.321 Y-5.841 Z8.661 
N110 X146.460 Y-5.841 Z8.661 
N111 X146.599 Y-5.841 Z8.661 
N112 X146.736 Y-5.841 Z8.661 
N113 X146.874 Y-5.841 Z8.661 
N114 X147.011 Y-5.841 Z8.661 
N115 X147.149 Y-5.841 Z8.661 
N116 X147.286 Y-5.841 Z8.661 
N117 X147.424 Y-5.841 Z8.661 
N118 X147.561 Y-5.841 Z8.661 
N119 X147.699 Y-5.841 Z8.661 
N120 X147.836 Y-5.841 Z8.661 
N121 X147.974 Y-5.841 Z8.661 
N122 X148.111 Y-5.841 Z8.661 
N123 X148.249 Y-5.841 Z8.661 
N124 X148.386 Y-5.841 Z8.661 
N125 X148.524 Y-5.841 Z8.661 
N126 X148.661 Y-5.841 Z8.661 
N127 X148.799 Y-5.841 Z8.661 
N128 X148.936 Y-5.841 Z8.661 
N129 X149.074 Y-5.841 Z8.661 
N130 X149.211 Y-5.841 Z8.661 
N131 X149.349 Y-5.841 Z8.661 
N132 X149.486 Y-5.841 Z8.661 
N133 X149.624 Y-5.841 Z8.661 
N134 X149.761 Y-5.841 Z8.661 
N135 X149.899 Y-5.841 Z8.661 
N136 X150.036 Y-5.841 Z8.661 
N137 X150.174 Y-5.841 Z8.661 
N138 X150.311 Y-5.841 Z8.661 
N139 X150.449 Y-5.841 Z8.661 
N140 X150.586 Y-5.841 Z8.661 
N141 X150.724 Y-5.841 Z8.661 
N142 X150.861 Y-5.841 Z8.661 
N143 X150.999 Y-5.841 Z8.661 
N144 X151.136 Y-5.841 Z8.661 
N145 X151.274 Y-5.841 Z8.661 
N146 X151.411 Y-5.841 Z8.661 
N147 X151.549 Y-5.841 Z8.661 
N148 X151.686 Y-5.841 Z8.661 
N149 X151.824 Y-5.841 Z8.661 
N150 X151.961 Y-5.841 Z8.661 
N151 X152.099 Y-5.841 Z8.661 
N152 X152.236 Y-5.841 Z8.661 
N153 X152.374 Y-5.841 Z8.661 
N154 X152.511 Y-5.841 Z8.661 
N155 X152.649 Y-5.841 Z8.661 
N156 X152.786 Y-5.841 Z8.661 
N157 X152.924 Y-5.841 Z8.661 
N158 X153.061 Y-5.841 Z8.661 
N159 X153.199 Y-5.841 Z8.661 
N160 X153.336 Y-5.841 Z8.661 
N161 X153.474 Y-5.841 Z8.661 
N162 X153.611 Y-5.841 Z8.661 
N163 X153.749 Y-5.841 Z8.661 
N164 X153.886 Y-5.841 Z8.661 
N165 X154.024 Y-5.841 Z8.661 
N166 X154.161 Y-5.841 Z8.661 
N167 X154.299 Y-5.841 Z8.661 
N168 X154.436 Y-5.841 Z8.661 
N169 X154.574 Y-5.841 Z8.661 
N170 X154.711 Y-5.841 Z8.661 
N171 X154.849 Y-5.841 Z8.661 
N172 X154.986 Y-5.841 Z8.661 
N173 X155.124 Y-5.841 Z8.661 
N174 X155.261 Y-5.841 Z8.661 
N175 X155.399 Y-5.841 Z8.661 
N176 X155.536 Y-5.841 Z8.661 
N177 X155.674 Y-5.841 Z8.661 
N178 X155.811 Y-5.841 Z8.661 
N179 X155.949 Y-5.841 Z8.661 
N180 X156.086 Y-5.841 Z8.661 
N181 X156.224 Y-5.841 Z8.661 
N182 X156.361 Y-5.841 Z8.661 
N183 X156.499 Y-5.841 Z8.661 
N184 X156.636 Y-5.841 Z8.661 
N185 X156.774 Y-5.841 Z8.661 
N186 X156.911 Y-5.841 Z8.661 
N187 X157.049 Y-5.841 Z8.661 
N188 X157.186 Y-5.841 Z8.661 
N189 X157.324 Y-5.841 Z8.661 
N190 X157.461 Y-5.841 Z8.661 
N191 X157.599 Y-5.841 Z8.661 
N192 X157.737 Y-5.841 Z8.661 F543 
N193 X157.876 Y-5.841 Z8.661 F544 
N194 X158.015 Y-5.841 Z8.661 
N195 X158.154 Y-5.841 Z8.661 
N196 X158.293 Y-5.841 Z8.661 
N197 X158.432 Y-5.841 Z8.661 
N198 X158.571 Y-5.841 Z8.661 
N199 X158.710 Y-5.841 Z8.661 
N200 X158.849 Y-5.841 Z8.661 
N201 X158.987 Y-5.841 Z8.661 
N202 X159.126 Y-5.841 Z8.661 
N203 X159.265 Y-5.841 Z8.661 
N204 X159.404 Y-5.841 Z8.661 
N205 X159.543 Y-5.841 Z8.661 
N206 X159.682 Y-5.841 Z8.661 
N207 X159.821 Y-5.841 Z8.661 
N208 X159.960 Y-5.841 Z8.661 
N209 X160.099 Y-5.841 Z8.661 
N210 X160.408 Y-5.841 Z8.710 
N211 X160.686 Y-5.841 Z8.852 
N212 X160.908 Y-5.841 Z9.073 
N213 X161.050 Y-5.841 Z9.352 
N214 X161.099 Y-5.841 Z9.661 
N215 G00 X161.107 Y-5.841 Z59.661 
RAPORT("T44444","Contact Milling:166 End")
N217 ;trailer : concat=None
; points cnt = 163
N218 M9 ; chlodziwo wyl.
N219 M9 ; chlodziwo wyl.
N220 MSG (" --- KONIEC PROGRAMU --- ")
N221 TRANS
N222 G54
N223 FGROUP()
N224 TRAFOOF
N225 STOPRE
N226 G0 G53 D0 Z290.0 M9 M5
N227 G0 G53 Y150 A0 B0
N228 M17
