N10 ; PROGRAM NAME: 4444414
N11 ; ORDER       : 44444
N12 ; OPER. NAME  : Spiral Rough Rhombic:105
N13 ; OPER. DESCR.: spiral roughing rhombic/bandaz zgr
N14 ; OPER. TYPE  : rouRoot
N15 ; GEO. OPTION : 4
N16 ; MACHINE     : SH_HX151_24_SIM840D
N17 ;             : STARRAG_HECKERT_5axis_finish_milling_machine
N18 ; CONTROL     : SINUMERIK 840D
N19 ; created:   2022-11-03 13:34:58.499475
;-------DODATKOWE DANE-------------------
; PROGRAMISTA : Mariusz Malec
; PARTID      : 139T004654P1015_-
;  ap         : 2.5
;  ae         : 24.0
;  lean_angle : 1.0
;  fin_offset : 0.6
;----------------------------------------
N20 ;----------------------------------------
RAPORT("T44444","Spiral Rough Rhombic:105")
N21 TRAFOOF
N22 D0
N23 G90 G94
N24 STOPRE
N25 M9 ; chlodziwo wyl
N26 ; --- Spiral Rough Rhombic:105 - spiral roughing rhombic/bandaz zgr ---
N28 ;ToolChange : concat=None ,current_tdmid=None, PP.tdmId=941292
N29 MSG(" TLID=941292 D=40.0 R=6.0 Ang=0.0 Len=90.0 ")
N30 TRAFOOF
N31 D0
N32 G0 G53 Z290 B0
N33 G0 X200
N34 G0 Y150
N35 T="7741292"
N36 G0 X500
RAPORT("T44444","ToolChangeStart 7741292")
N37 M6
RAPORT("T44444","ToolChangeEnd")
N38 ; (Preloading tool)
N39 T="7740626"
N40 G0 X200
N41 STOPRE
N42 S2148 M03
N43 STOPRE
N44 TOL(0.1,1,1)
N45 G0 X242.319 A88.5705
N46 TRAORI
N47 G54 D1
N48 D1 
N49 ; DELTA A > 40.1
N50 TRAFOOF
N51 STOPRE
N52 G0 G53 D0 Z265.000
N53 G1 G53 A88.5705 F10000
N54 TRAORI
N55 G54 D1
N56 TRANS 
N57 G00 X242.319 Y-88.595 Z-38.278 A88.5705 B0.0000 
N58 M346 ; chlodziwo mgla
N59 X242.319 Y-38.610 Z-39.525 
N60 G01 X242.319 Y-35.516 Z-39.059 F2835 
N61 X242.319 Y-32.718 Z-37.659 
N62 X242.319 Y-30.489 Z-35.464 
N63 X242.319 Y-29.048 Z-32.687 
N64 X242.319 Y-28.536 Z-29.600 
N65 X242.319 Y-28.516 Z-26.557 A88.5548 
N66 X242.319 Y-28.495 Z-23.566 A88.5432 
N67 X242.319 Y-28.473 Z-20.679 A88.5397 
N68 X242.319 Y-28.451 Z-17.939 A88.5397 
N69 X242.319 Y-28.431 Z-15.383 
N70 X242.319 Y-28.412 Z-13.038 
N71 X242.319 Y-28.395 Z-10.922 
N72 X242.319 Y-28.380 Z-9.043 
N73 X242.319 Y-28.367 Z-7.398 A88.5381 
N74 X242.319 Y-28.368 Z-5.978 A88.4855 
N75 X242.319 Y-28.526 Z-4.760 A87.7772 
N76 X242.319 Y-29.084 Z-3.701 A85.3430 
N77 X242.319 Y-30.031 Z-2.723 A81.1288 
N78 X242.319 Y-31.241 Z-1.735 A75.5635 
N79 X242.319 Y-32.602 Z-0.656 A69.0097 
N80 X242.319 Y-34.024 Z0.578 A61.7064 
N81 X242.319 Y-35.395 Z1.998 A53.9521 
N82 X242.319 Y-36.616 Z3.596 A46.0042 
N83 X242.319 Y-37.648 Z5.394 A37.7905 
N84 X242.319 Y-38.383 Z7.300 A29.7173 
N85 X242.319 Y-38.744 Z9.160 A22.3113 
N86 X242.319 Y-38.752 Z10.894 A15.6683 
N87 X242.319 Y-38.443 Z12.473 A9.7237 
N88 X242.319 Y-37.836 Z13.753 A4.9241 
N89 X242.319 Y-36.980 Z14.660 A1.4944 
N90 X242.319 Y-35.914 Z15.145 A359.6297 
N91 X242.319 Y-34.658 Z15.267 A359.1610 
N92 X242.319 Y-33.203 Z15.276 A359.1405 
N93 X242.319 Y-31.537 Z15.280 
N94 X242.319 Y-29.657 Z15.284 
N95 X242.319 Y-27.568 Z15.290 
N96 X242.319 Y-25.283 Z15.295 
N97 X242.319 Y-22.826 Z15.301 
N98 X242.319 Y-20.227 Z15.308 
N99 X242.319 Y-17.527 Z15.314 
N100 X242.319 Y-14.768 Z15.321 
N101 X242.319 Y-12.000 Z15.328 
N102 X242.319 Y-9.269 Z15.334 
N103 X242.319 Y-6.621 Z15.341 
N104 X242.319 Y-4.098 Z15.347 
N105 X242.319 Y-1.735 Z15.353 
N106 X242.319 Y0.443 Z15.358 
N107 X242.319 Y2.418 Z15.363 
N108 X242.319 Y4.182 Z15.367 
N109 X242.319 Y5.734 Z15.381 A359.1017 
N110 X242.319 Y7.085 Z15.516 A358.5425 
N111 X242.319 Y8.262 Z15.959 A356.6387 
N112 X242.319 Y9.319 Z16.721 A353.2564 
N113 X242.319 Y10.322 Z17.717 A348.6904 
N114 X242.319 Y11.330 Z18.845 A343.3072 B0.0014 
N115 X242.319 Y12.395 Z20.038 A337.3332 B0.0079 
N116 X242.319 Y13.550 Z21.232 A330.9608 B0.0214 
N117 X242.319 Y14.812 Z22.369 A324.3436 B0.0337 
N118 X242.319 Y16.178 Z23.391 A317.6539 B0.0302 
N119 X242.319 Y17.592 Z24.222 A311.2119 B0.0125 
N120 X242.318 Y19.052 Z24.864 A304.9603 B-0.0050 
N121 X242.318 Y20.565 Z25.324 A298.7777 B-0.0144 
N122 X242.318 Y22.082 Z25.569 A292.8242 B-0.0158 
N123 X242.318 Y23.545 Z25.587 A287.2475 B-0.0120 
N124 X242.318 Y24.912 Z25.382 A282.1174 B-0.0068 
N125 X242.318 Y26.136 Z24.969 A277.5452 B-0.0028 
N126 X242.319 Y27.134 Z24.365 A273.7961 B-0.0008 
N127 X242.319 Y27.833 Z23.604 A271.1397 B0.0000 
N128 X242.319 Y28.238 Z22.718 A269.5732 
N129 X242.319 Y28.410 Z21.729 A268.8846 B-0.0017 
N130 X242.318 Y28.448 Z20.644 A268.7152 B-0.0055 
N131 X242.318 Y28.445 Z19.469 A268.7031 B-0.0131 
N132 X242.318 Y28.438 Z18.216 B-0.0252 
N133 X242.318 Y28.431 Z16.898 A268.7031 B-0.0419 
N134 X242.318 Y28.424 Z15.535 A268.7031 B-0.0631 
N135 X242.318 Y28.417 Z14.147 A268.7031 B-0.0883 
N136 X242.318 Y28.410 Z12.758 A268.7031 B-0.1158 
N137 X242.318 Y28.403 Z11.389 A268.7032 B-0.1412 
N138 X242.318 Y28.396 Z10.064 A268.7032 B-0.1594 
N139 X242.318 Y28.389 Z8.800 A268.7032 B-0.1714 
N140 X242.318 Y28.383 Z7.615 A268.7032 B-0.1812 
N141 X242.318 Y28.378 Z6.519 A268.7004 B-0.1902 
N142 X242.318 Y28.406 Z5.520 A268.5626 B-0.1993 
N143 X242.318 Y28.591 Z4.617 A267.7665 B-0.2140 
N144 X242.318 Y29.048 Z3.792 A265.7875 B-0.2437 
N145 X242.318 Y29.770 Z3.012 A262.6038 B-0.2967 
N146 X242.317 Y30.698 Z2.231 A258.4128 B-0.3778 
N147 X242.317 Y31.768 Z1.404 A253.4195 B-0.4899 
N148 X242.316 Y32.927 Z0.489 A247.7781 B-0.6337 
N149 X242.316 Y34.137 Z-0.559 A241.5460 B-0.8045 
N150 X242.315 Y35.338 Z-1.771 A234.8337 B-0.9798 
N151 X242.315 Y36.465 Z-3.160 A227.7572 B-1.1011 
N152 X242.315 Y37.441 Z-4.712 A220.4942 B-1.1064 
N153 X242.315 Y38.186 Z-6.368 A213.3172 B-1.0019 
N154 X242.316 Y38.663 Z-8.080 A206.3451 B-0.8447 
N155 X242.316 Y38.847 Z-9.785 A199.7038 B-0.6840 
N156 X242.317 Y38.729 Z-11.417 A193.5188 B-0.5423 
N157 X242.317 Y38.309 Z-12.863 A188.1059 B-0.4295 
N158 X242.317 Y37.611 Z-14.006 A183.8303 B-0.3499 
N159 X242.318 Y36.677 Z-14.791 A180.8575 B-0.3019 
N160 X242.318 Y35.540 Z-15.153 A179.4693 B-0.2795 
N161 X242.318 Y34.209 Z-15.226 A179.1984 B-0.2701 
N162 X242.318 Y32.673 Z-15.236 A179.1793 B-0.2631 
N163 X242.318 Y30.924 Z-15.241 A179.1788 B-0.2555 
N164 X242.318 Y28.961 Z-15.247 A179.1788 B-0.2470 
N165 X242.318 Y26.793 Z-15.254 A179.1788 B-0.2376 
N166 X242.318 Y24.436 Z-15.262 A179.1787 B-0.2275 
N167 X242.318 Y21.917 Z-15.269 A179.1787 B-0.2166 
N168 X242.318 Y19.270 Z-15.278 A179.1787 B-0.2051 
N169 X242.318 Y16.537 Z-15.286 A179.1787 B-0.1933 
N170 X242.318 Y13.763 Z-15.295 A179.1787 B-0.1813 
N171 X242.318 Y10.997 Z-15.303 A179.1786 B-0.1694 
N172 X242.318 Y8.286 Z-15.312 A179.1786 B-0.1576 
N173 X242.318 Y5.675 Z-15.320 A179.1786 B-0.1448 
N174 X242.318 Y3.202 Z-15.328 A179.1786 B-0.1196 
N175 X242.318 Y0.900 Z-15.335 A179.1786 B-0.0859 
N176 X242.318 Y-1.208 Z-15.341 A179.1785 B-0.0575 
N177 X242.318 Y-3.108 Z-15.347 A179.1785 B-0.0366 
N178 X242.318 Y-4.794 Z-15.353 A179.1776 B-0.0215 
N179 X242.318 Y-6.270 Z-15.386 A179.0561 B-0.0108 
N180 X242.318 Y-7.550 Z-15.589 A178.2107 B-0.0049 
N181 X242.318 Y-8.666 Z-16.094 A176.0233 B-0.0063 
N182 X242.318 Y-9.677 Z-16.916 A172.3578 B-0.0168 
N183 X242.318 Y-10.656 Z-17.970 A167.5094 B-0.0359 
N184 X242.318 Y-11.657 Z-19.139 A161.9067 B-0.0588 
N185 X242.318 Y-12.728 Z-20.354 A155.7784 B-0.0764 
N186 X242.318 Y-13.893 Z-21.545 A149.3353 B-0.0799 
N187 X242.318 Y-15.186 Z-22.689 A142.5756 B-0.0655 
N188 X242.318 Y-16.615 Z-23.732 A135.5964 B-0.0366 
N189 X242.318 Y-18.088 Z-24.555 A128.9409 B-0.0071 
N190 X242.319 Y-19.569 Z-25.149 A122.6734 B0.0117 
N191 X242.319 Y-21.069 Z-25.539 A116.6199 B0.0175 
N192 X242.319 Y-22.550 Z-25.711 A110.8557 B0.0138 
N193 X242.319 Y-23.964 Z-25.662 A105.4908 B0.0074 
N194 X242.319 Y-25.274 Z-25.401 A100.5822 B0.0027 
N195 X242.319 Y-26.430 Z-24.939 A96.2478 B0.0000 
N196 X242.319 Y-27.353 Z-24.298 A92.7611 
N197 X242.319 Y-27.977 Z-23.509 A90.3616 
N198 X242.319 Y-28.322 Z-22.604 A88.9983 
N199 X242.319 Y-28.457 Z-21.597 A88.4265 
N200 X242.319 Y-28.476 Z-20.496 A88.2962 
N201 X242.319 Y-28.463 Z-19.306 A88.2886 
N202 X242.319 Y-28.448 Z-18.039 
N203 X242.319 Y-28.431 Z-16.710 
N204 X242.319 Y-28.414 Z-15.338 
N205 X242.319 Y-28.397 Z-13.946 
N206 X242.319 Y-28.380 Z-12.556 
N207 X242.319 Y-28.363 Z-11.191 
N208 X242.319 Y-28.346 Z-9.872 
N209 X242.319 Y-28.331 Z-8.618 
N210 X242.319 Y-28.316 Z-7.444 A88.2884 
N211 X242.319 Y-28.305 Z-6.363 A88.2800 
N212 X242.319 Y-28.339 Z-5.378 A88.0855 
N213 X242.319 Y-28.554 Z-4.487 A87.1326 
N214 X242.319 Y-29.051 Z-3.667 A84.9483 
N215 X242.319 Y-29.812 Z-2.883 A81.5593 
N216 X242.319 Y-30.775 Z-2.088 A77.1678 
N217 X242.319 Y-31.872 Z-1.235 A71.9899 
N218 X242.319 Y-33.044 Z-0.285 A66.1995 
N219 X242.319 Y-34.238 Z0.796 A59.9164 
N220 X242.319 Y-35.385 Z2.021 A53.3123 
N221 X242.319 Y-36.436 Z3.399 A46.4643 
N222 X242.319 Y-37.374 Z4.969 A39.2198 
N223 X242.319 Y-38.117 Z6.703 A31.7526 
N224 X242.319 Y-38.569 Z8.487 A24.5203 
N225 X242.319 Y-38.693 Z10.205 A17.8574 
N226 X242.319 Y-38.510 Z11.820 A11.7406 
N227 X242.319 Y-38.028 Z13.208 A6.5218 
N228 X242.319 Y-37.282 Z14.252 A2.5813 
N229 X242.319 Y-36.318 Z14.912 A0.0505 
N230 X242.319 Y-35.164 Z15.164 A359.0615 
N231 X242.319 Y-33.822 Z15.195 A358.9317 
N232 X242.319 Y-32.278 Z15.194 A358.9283 
N233 X242.319 Y-30.526 Z15.192 A358.9282 
N234 X242.319 Y-28.567 Z15.189 
N235 X242.319 Y-26.411 Z15.187 
N236 X242.319 Y-24.078 Z15.184 
N237 X242.319 Y-21.593 Z15.181 
N238 X242.319 Y-18.991 Z15.177 
N239 X242.319 Y-16.315 Z15.174 
N240 X242.319 Y-13.608 Z15.171 
N241 X242.319 Y-10.917 Z15.169 A358.9211 
N242 X242.319 Y-8.287 Z15.188 A358.8235 
N243 X242.319 Y-5.760 Z15.230 A358.6030 
N244 X242.319 Y-3.372 Z15.261 A358.3886 
N245 X242.319 Y-1.154 Z15.284 A358.1859 
N246 X242.319 Y0.875 Z15.304 A357.9733 
N247 X242.319 Y2.702 Z15.310 A357.8023 
N248 X242.319 Y4.324 Z15.303 A357.6876 
N249 X242.319 Y5.747 Z15.348 A357.3584 
N250 X242.319 Y6.994 Z15.609 A356.1110 
N251 X242.319 Y8.108 Z16.204 A353.3739 B0.0014 
N252 X242.319 Y9.154 Z17.094 A349.2311 B0.0084 
N253 X242.319 Y10.198 Z18.174 A344.0446 B0.0246 
N254 X242.319 Y11.286 Z19.332 A338.2137 B0.0472 
N255 X242.319 Y12.446 Z20.487 A332.0140 B0.0665 
N256 X242.319 Y13.690 Z21.577 A325.6438 B0.0716 
N257 X242.319 Y15.025 Z22.567 A319.1788 B0.0579 
N258 X242.319 Y16.422 Z23.398 A312.8366 B0.0303 
N259 X242.319 Y17.849 Z24.039 A306.7423 B-0.0013 
N260 X242.318 Y19.328 Z24.510 A300.7096 B-0.0316 
N261 X242.318 Y20.838 Z24.789 A294.7838 B-0.0584 
N262 X242.318 Y22.323 Z24.851 A289.1255 B-0.0812 
N263 X242.318 Y23.737 Z24.693 A283.8323 B-0.1001 
N264 X242.318 Y25.020 Z24.320 A279.0641 B-0.1159 
N265 X242.318 Y26.081 Z23.749 A275.1164 B-0.1295 
N266 X242.318 Y26.836 Z23.011 A272.2965 B-0.1418 
N267 X242.318 Y27.283 Z22.147 A270.6247 B-0.1539 
N268 X242.318 Y27.487 Z21.178 A269.8810 B-0.1662 
N269 X242.318 Y27.547 Z20.119 A269.6936 B-0.1785 
N270 X242.318 Y27.564 Z18.975 A269.6794 B-0.1914 
N271 X242.318 Y27.578 Z17.758 A269.6794 B-0.2051 
N272 X242.318 Y27.593 Z16.483 A269.6794 B-0.2194 
N273 X242.318 Y27.609 Z15.168 A269.6795 B-0.2342 
N274 X242.318 Y27.625 Z13.833 A269.6795 B-0.2492 
N275 X242.318 Y27.641 Z12.500 A269.6795 B-0.2642 
N276 X242.318 Y27.656 Z11.190 A269.6792 B-0.2789 
N277 X242.318 Y27.672 Z9.924 A269.6752 B-0.2934 
N278 X242.317 Y27.689 Z8.720 A269.6651 B-0.3081 
N279 X242.317 Y27.705 Z7.593 A269.6504 B-0.3231 
N280 X242.317 Y27.733 Z6.553 A269.5827 B-0.3382 
N281 X242.317 Y27.815 Z5.607 A269.2831 B-0.3553 
N282 X242.317 Y28.048 Z4.754 A268.3306 B-0.3805 
N283 X242.317 Y28.527 Z3.977 A266.2958 B-0.4230 
N284 X242.317 Y29.267 Z3.243 A263.0797 B-0.4899 
N285 X242.317 Y30.232 Z2.501 A258.7808 B-0.5863 
N286 X242.316 Y31.352 Z1.702 A253.6288 B-0.7143 
N287 X242.316 Y32.546 Z0.811 A247.8882 B-0.8720 
N288 X242.315 Y33.760 Z-0.205 A241.6985 B-1.0525 
N289 X242.314 Y34.929 Z-1.356 A235.2317 B-1.2322 
N290 X242.314 Y36.013 Z-2.653 A228.5398 B-1.3599 
N291 X242.314 Y36.975 Z-4.108 A221.6179 B-1.3810 
N292 X242.314 Y37.757 Z-5.699 A214.5928 B-1.2951 
N293 X242.315 Y38.307 Z-7.383 A207.6009 B-1.1489 
N294 X242.315 Y38.579 Z-9.091 A200.8437 B-0.9890 
N295 X242.316 Y38.553 Z-10.735 A194.5403 B-0.8407 
N296 X242.316 Y38.227 Z-12.205 A188.9997 B-0.7165 
N297 X242.316 Y37.627 Z-13.380 A184.5891 B-0.6235 
N298 X242.317 Y36.798 Z-14.217 A181.4211 B-0.5625 
N299 X242.317 Y35.771 Z-14.685 A179.6209 B-0.5310 
N300 X242.317 Y34.563 Z-14.830 A179.0519 B-0.5209 
N301 X242.317 Y33.165 Z-14.850 A178.9702 B-0.5194 
N302 X242.317 Y31.568 Z-14.851 A178.9643 B-0.5197 
N303 X242.317 Y29.769 Z-14.850 B-0.5201 
N304 X242.317 Y27.773 Z-14.848 B-0.5206 
N305 X242.317 Y25.593 Z-14.847 A178.9643 B-0.5211 
N306 X242.317 Y23.251 Z-14.846 B-0.5216 
N307 X242.317 Y20.778 Z-14.844 B-0.5222 
N308 X242.317 Y18.208 Z-14.842 A178.9643 B-0.5228 
N309 X242.317 Y15.583 Z-14.841 B-0.5234 
N310 X242.317 Y12.947 Z-14.844 A178.9408 B-0.5240 
N311 X242.317 Y10.344 Z-14.899 A178.6922 B-0.5263 
N312 X242.317 Y7.815 Z-15.006 A178.1556 B-0.5365 
N313 X242.317 Y5.400 Z-15.089 A177.6260 B-0.5503 
N314 X242.317 Y3.131 Z-15.142 A177.1514 B-0.5333 
N315 X242.317 Y1.034 Z-15.174 A176.7133 B-0.4921 
N316 X242.317 Y-0.875 Z-15.189 A176.3152 B-0.4537 
N317 X242.317 Y-2.587 Z-15.171 A176.0478 B-0.4236 
N318 X242.317 Y-4.100 Z-15.129 A175.8930 B-0.3991 
N319 X242.317 Y-5.429 Z-15.173 A175.4051 B-0.3769 
N320 X242.317 Y-6.607 Z-15.472 A173.8379 B-0.3542 
N321 X242.317 Y-7.688 Z-16.122 A170.7120 B-0.3294 
N322 X242.318 Y-8.748 Z-17.092 A166.0561 B-0.3007 
N323 X242.318 Y-9.848 Z-18.236 A160.3702 B-0.2668 
N324 X242.318 Y-11.013 Z-19.402 A154.2200 B-0.2274 
N325 X242.318 Y-12.241 Z-20.491 A147.9751 B-0.1827 
N326 X242.318 Y-13.540 Z-21.476 A141.6985 B-0.1323 
N327 X242.318 Y-14.933 Z-22.357 A135.3008 B-0.0750 
N328 X242.318 Y-16.367 Z-23.058 A129.0978 B-0.0180 
N329 X242.319 Y-17.811 Z-23.560 A123.1884 B0.0298 
N330 X242.319 Y-19.283 Z-23.882 A117.3931 B0.0672 
N331 X242.319 Y-20.759 Z-24.009 A111.7594 B0.0950 
N332 X242.319 Y-22.205 Z-23.929 A106.3465 B0.1149 
N333 X242.319 Y-23.561 Z-23.637 A101.3193 B0.1278 
N334 X242.319 Y-24.725 Z-23.137 A97.0143 B0.1345 
N335 X242.319 Y-25.596 Z-22.457 A93.7992 B0.1351 
N336 X242.319 Y-26.145 Z-21.638 A91.7884 B0.1292 
N337 X242.319 Y-26.420 Z-20.713 A90.8179 B0.1166 
N338 X242.319 Y-26.518 Z-19.697 A90.5359 B0.0985 
N339 X242.319 Y-26.554 Z-18.601 A90.5068 B0.0776 
N340 X242.319 Y-26.585 Z-17.436 A90.5067 B0.0566 
N341 X242.319 Y-26.617 Z-16.215 A90.5067 B0.0374 
N342 X242.319 Y-26.650 Z-14.955 B0.0211 
N343 X242.319 Y-26.684 Z-13.675 A90.5067 B0.0093 
N344 X242.319 Y-26.717 Z-12.395 B0.0027 
N345 X242.319 Y-26.752 Z-11.137 A90.5023 B0.0000 
N346 X242.319 Y-26.799 Z-9.919 A90.4392 
N347 X242.319 Y-26.873 Z-8.759 A90.2470 
N348 X242.319 Y-26.949 Z-7.672 A90.0291 
N349 X242.319 Y-27.008 Z-6.667 A89.8567 
N350 X242.319 Y-27.097 Z-5.751 A89.5417 
N351 X242.319 Y-27.311 Z-4.924 A88.6841 
N352 X242.319 Y-27.749 Z-4.175 A86.8434 
N353 X242.319 Y-28.452 Z-3.471 A83.8173 
N354 X242.319 Y-29.405 Z-2.760 A79.6156 
N355 X242.319 Y-30.542 Z-1.990 A74.4500 
N356 X242.319 Y-31.758 Z-1.125 A68.6827 
N357 X242.319 Y-32.971 Z-0.147 A62.5813 
N358 X242.319 Y-34.117 Z0.943 A56.3478 
N359 X242.319 Y-35.151 Z2.138 A50.0955 
N360 X242.319 Y-36.088 Z3.474 A43.6291 
N361 X242.319 Y-36.927 Z5.003 A36.7051 
N362 X242.319 Y-37.589 Z6.706 A29.4615 
N363 X242.319 Y-37.975 Z8.464 A22.3741 
N364 X242.319 Y-38.048 Z10.165 A15.7725 
N365 X242.319 Y-37.813 Z11.713 A9.8856 
N366 X242.319 Y-37.291 Z12.961 A5.1729 
N367 X242.319 Y-36.535 Z13.851 A1.7989 
N368 X242.319 Y-35.585 Z14.371 A359.8019 
N369 X242.319 Y-34.459 Z14.553 A359.0895 
N370 X242.319 Y-33.153 Z14.583 A358.9686 
N371 X242.319 Y-31.656 Z14.585 A358.9573 
N372 X242.319 Y-29.962 Z14.583 A358.9573 
N373 X242.319 Y-28.077 Z14.582 
N374 X242.319 Y-26.009 Z14.580 
N375 X242.319 Y-23.778 Z14.579 
N376 X242.319 Y-21.410 Z14.577 
N377 X242.319 Y-18.940 Z14.575 
N378 X242.319 Y-16.405 Z14.573 
N379 X242.319 Y-13.847 Z14.571 
N380 X242.319 Y-11.309 Z14.573 A358.9415 
N381 X242.319 Y-8.831 Z14.639 A358.6446 
N382 X242.319 Y-6.448 Z14.795 A357.8929 
N383 X242.319 Y-4.195 Z14.927 A357.1149 
N384 X242.319 Y-2.100 Z15.013 A356.4388 
N385 X242.319 Y-0.178 Z15.080 A355.7724 
N386 X242.319 Y1.557 Z15.113 A355.2044 B0.0008 
N387 X242.319 Y3.103 Z15.110 A354.7757 B0.0076 
N388 X242.319 Y4.471 Z15.166 A354.1126 B0.0270 
N389 X242.319 Y5.694 Z15.423 A352.5951 B0.0600 
N390 X242.319 Y6.821 Z15.988 A349.7069 B0.1008 
N391 X242.319 Y7.921 Z16.854 A345.3809 B0.1332 
N392 X242.319 Y9.056 Z17.915 A339.9529 B0.1451 
N393 X242.319 Y10.256 Z19.022 A333.9552 B0.1419 
N394 X242.319 Y11.516 Z20.063 A327.8132 B0.1288 
N395 X242.319 Y12.823 Z20.981 A321.7402 B0.1057 
N396 X242.319 Y14.180 Z21.766 A315.7426 B0.0706 
N397 X242.319 Y15.564 Z22.386 A309.9387 B0.0253 
N398 X242.318 Y16.980 Z22.845 A304.2594 B-0.0241 
N399 X242.318 Y18.456 Z23.153 A298.5220 B-0.0746 
N400 X242.318 Y19.959 Z23.277 A292.8371 B-0.1245 
N401 X242.318 Y21.437 Z23.193 A287.3521 B-0.1724 
N402 X242.318 Y22.807 Z22.888 A282.3276 B-0.2169 
N403 X242.318 Y23.959 Z22.370 A278.1386 B-0.2564 
N404 X242.318 Y24.804 Z21.673 A275.1078 B-0.2896 
N405 X242.317 Y25.326 Z20.838 A273.2937 B-0.3166 
N406 X242.317 Y25.579 Z19.899 A272.5216 B-0.3381 
N407 X242.317 Y25.682 Z18.874 A272.3551 B-0.3564 
N408 X242.317 Y25.748 Z17.778 A272.3469 B-0.3745 
N409 X242.317 Y25.815 Z16.622 A272.3470 B-0.3936 
N410 X242.317 Y25.885 Z15.423 A272.3471 B-0.4134 
N411 X242.317 Y25.957 Z14.196 A272.3471 B-0.4337 
N412 X242.317 Y26.029 Z12.961 A272.3472 B-0.4540 
N413 X242.317 Y26.101 Z11.738 A272.3472 B-0.4743 
N414 X242.317 Y26.174 Z10.544 A272.3323 B-0.4941 
N415 X242.317 Y26.267 Z9.400 A272.2248 B-0.5144 
N416 X242.317 Y26.384 Z8.320 A271.9869 B-0.5354 
N417 X242.317 Y26.503 Z7.314 A271.7064 B-0.5560 
N418 X242.317 Y26.632 Z6.393 A271.3493 B-0.5770 
N419 X242.317 Y26.826 Z5.560 A270.6834 B-0.6027 
N420 X242.316 Y27.175 Z4.812 A269.3247 B-0.6416 
N421 X242.316 Y27.751 Z4.132 A266.9468 B-0.7031 
N422 X242.316 Y28.567 Z3.481 A263.4693 B-0.7938 
N423 X242.316 Y29.596 Z2.809 A258.9622 B-0.9165 
N424 X242.315 Y30.765 Z2.069 A253.6731 B-1.0696 
N425 X242.314 Y31.982 Z1.230 A247.9102 B-1.2476 
N426 X242.314 Y33.193 Z0.275 A241.8370 B-1.4399 
N427 X242.313 Y34.329 Z-0.793 A235.6627 B-1.6213 
N428 X242.313 Y35.368 Z-1.976 A229.4118 B-1.7488 
N429 X242.313 Y36.307 Z-3.304 A222.9414 B-1.7814 
N430 X242.313 Y37.116 Z-4.786 A216.2262 B-1.7166 
N431 X242.313 Y37.740 Z-6.401 A209.3534 B-1.5867 
N432 X242.314 Y38.118 Z-8.082 A202.5601 B-1.4304 
N433 X242.314 Y38.211 Z-9.733 A196.1310 B-1.2741 
N434 X242.315 Y38.008 Z-11.239 A190.3972 B-1.1336 
N435 X242.315 Y37.532 Z-12.475 A185.7321 B-1.0203 
N436 X242.315 Y36.827 Z-13.379 A182.3148 B-0.9397 
N437 X242.316 Y35.930 Z-13.944 A180.1517 B-0.8912 
N438 X242.316 Y34.861 Z-14.186 A179.2129 B-0.8705 
N439 X242.316 Y33.619 Z-14.239 A179.0051 B-0.8656 
N440 X242.316 Y32.194 Z-14.244 A178.9800 B-0.8652 
N441 X242.316 Y30.581 Z-14.244 A178.9794 B-0.8653 
N442 X242.316 Y28.781 Z-14.243 B-0.8656 
N443 X242.316 Y26.804 Z-14.242 B-0.8658 
N444 X242.316 Y24.667 Z-14.242 B-0.8660 
N445 X242.316 Y22.393 Z-14.241 A178.9794 B-0.8663 
N446 X242.316 Y20.013 Z-14.240 B-0.8666 
N447 X242.316 Y17.563 Z-14.239 B-0.8668 
N448 X242.316 Y15.081 Z-14.238 A178.9792 B-0.8671 
N449 X242.316 Y12.609 Z-14.257 A178.8904 B-0.8670 
N450 X242.316 Y10.182 Z-14.398 A178.2555 B-0.8687 
N451 X242.316 Y7.833 Z-14.639 A177.0559 B-0.8841 
N452 X242.316 Y5.598 Z-14.832 A175.8714 B-0.9050 
N453 X242.316 Y3.505 Z-14.958 A174.8158 B-0.8747 
N454 X242.316 Y1.575 Z-15.037 A173.8570 B-0.8085 
N455 X242.316 Y-0.179 Z-15.062 A173.0683 B-0.7487 
N456 X242.316 Y-1.747 Z-15.021 A172.5440 B-0.7021 
N457 X242.316 Y-3.138 Z-14.965 A172.1112 B-0.6629 
N458 X242.316 Y-4.380 Z-15.037 A171.1823 B-0.6235 
N459 X242.317 Y-5.523 Z-15.395 A169.0420 B-0.5772 
N460 X242.317 Y-6.633 Z-16.100 A165.3248 B-0.5201 
N461 X242.317 Y-7.784 Z-17.085 A160.1796 B-0.4509 
N462 X242.317 Y-9.012 Z-18.178 A154.2070 B-0.3728 
N463 X242.318 Y-10.306 Z-19.217 A148.0157 B-0.2905 
N464 X242.318 Y-11.638 Z-20.120 A141.9450 B-0.2076 
N465 X242.318 Y-13.007 Z-20.880 A136.0013 B-0.1242 
N466 X242.318 Y-14.404 Z-21.481 A130.2230 B-0.0428 
N467 X242.319 Y-15.817 Z-21.914 A124.6297 B0.0292 
N468 X242.319 Y-17.282 Z-22.200 A118.9957 B0.0898 
N469 X242.319 Y-18.774 Z-22.310 A113.3974 B0.1386 
N470 X242.319 Y-20.245 Z-22.220 A107.9714 B0.1762 
N471 X242.319 Y-21.615 Z-21.916 A102.9799 B0.2024 
N472 X242.319 Y-22.763 Z-21.401 A98.8400 B0.2169 
N473 X242.319 Y-23.600 Z-20.709 A95.8775 B0.2204 
N474 X242.319 Y-24.118 Z-19.885 A94.1288 B0.2149 
N475 X242.319 Y-24.376 Z-18.960 A93.3911 B0.2032 
N476 X242.319 Y-24.495 Z-17.956 A93.2108 B0.1881 
N477 X242.319 Y-24.580 Z-16.889 A93.1841 B0.1717 
N478 X242.319 Y-24.663 Z-15.772 A93.1814 B0.1538 
N479 X242.319 Y-24.747 Z-14.620 A93.1813 B0.1324 
N480 X242.319 Y-24.832 Z-13.448 A93.1813 B0.1036 
N481 X242.319 Y-24.919 Z-12.276 A93.1790 B0.0680 
N482 X242.319 Y-25.010 Z-11.121 A93.1514 B0.0352 
N483 X242.319 Y-25.120 Z-10.002 A93.0281 B0.0138 
N484 X242.319 Y-25.276 Z-8.936 A92.6925 B0.0039 
N485 X242.319 Y-25.459 Z-7.934 A92.1947 B0.0007 
N486 X242.319 Y-25.620 Z-7.004 A91.7368 B0.0000 
N487 X242.319 Y-25.772 Z-6.154 A91.2696 
N488 X242.319 Y-25.992 Z-5.387 A90.4819 
N489 X242.319 Y-26.384 Z-4.699 A88.9292 
N490 X242.319 Y-27.015 Z-4.067 A86.3083 
N491 X242.319 Y-27.891 Z-3.448 A82.5654 
N492 X242.319 Y-28.977 Z-2.789 A77.7987 
N493 X242.319 Y-30.185 Z-2.044 A72.3052 
N494 X242.319 Y-31.419 Z-1.194 A66.4251 
N495 X242.319 Y-32.610 Z-0.233 A60.3724 
N496 X242.319 Y-33.705 Z0.828 A54.3173 
N497 X242.319 Y-34.689 Z1.991 A48.2644 
N498 X242.319 Y-35.582 Z3.297 A41.9676 
N499 X242.319 Y-36.372 Z4.785 A35.2586 
N500 X242.319 Y-36.990 Z6.435 A28.2568 
N501 X242.319 Y-37.344 Z8.133 A21.4154 
N502 X242.319 Y-37.407 Z9.785 A14.9836 
N503 X242.319 Y-37.174 Z11.278 A9.2854 
N504 X242.319 Y-36.672 Z12.471 A4.7584 
N505 X242.319 Y-35.950 Z13.314 A1.5470 
N506 X242.319 Y-35.048 Z13.788 A359.7157 
N507 X242.319 Y-33.982 Z13.946 A359.1010 
N508 X242.319 Y-32.746 Z13.971 A358.9998 
N509 X242.319 Y-31.331 Z13.973 A358.9904 
N510 X242.319 Y-29.733 Z13.973 A358.9904 
N511 X242.319 Y-27.956 Z13.973 
N512 X242.319 Y-26.010 Z13.973 
N513 X242.319 Y-23.912 Z13.972 
N514 X242.319 Y-21.688 Z13.972 
N515 X242.319 Y-19.368 Z13.971 
N516 X242.319 Y-16.986 Z13.971 
N517 X242.319 Y-14.582 Z13.971 
N518 X242.319 Y-12.194 Z13.971 A358.9871 
N519 X242.319 Y-9.859 Z14.027 A358.7445 
N520 X242.319 Y-7.605 Z14.254 A357.7104 
N521 X242.319 Y-5.458 Z14.541 A356.2388 
N522 X242.319 Y-3.448 Z14.750 A354.9010 
N523 X242.319 Y-1.593 Z14.905 A353.6536 
N524 X242.319 Y0.096 Z15.007 A352.5347 B0.0073 
N525 X242.319 Y1.613 Z15.048 A351.6265 B0.0368 
N526 X242.319 Y2.969 Z15.102 A350.6589 B0.0907 
N527 X242.319 Y4.200 Z15.305 A349.0594 B0.1431 
N528 X242.319 Y5.360 Z15.768 A346.2979 B0.1756 
N529 X242.319 Y6.516 Z16.518 A342.1668 B0.1910 
N530 X242.319 Y7.730 Z17.473 A336.8696 B0.1926 
N531 X242.319 Y9.021 Z18.481 A330.9356 B0.1811 
N532 X242.319 Y10.363 Z19.402 A324.9163 B0.1573 
N533 X242.319 Y11.717 Z20.158 A319.1523 B0.1223 
N534 X242.319 Y13.074 Z20.750 A313.6452 B0.0749 
N535 X242.319 Y14.435 Z21.184 A308.3547 B0.0164 
N536 X242.318 Y15.840 Z21.489 A303.0355 B-0.0497 
N537 X242.318 Y17.323 Z21.666 A297.5098 B-0.1220 
N538 X242.318 Y18.839 Z21.669 A291.9550 B-0.1976 
N539 X242.318 Y20.297 Z21.460 A286.6899 B-0.2723 
N540 X242.317 Y21.567 Z21.026 A282.1766 B-0.3408 
N541 X242.317 Y22.539 Z20.391 A278.8144 B-0.3988 
N542 X242.317 Y23.180 Z19.603 A276.7220 B-0.4446 
N543 X242.317 Y23.531 Z18.701 A275.7622 B-0.4785 
N544 X242.317 Y23.712 Z17.717 A275.4912 B-0.5043 
N545 X242.317 Y23.842 Z16.671 A275.4422 B-0.5276 
N546 X242.317 Y23.967 Z15.581 A275.4366 B-0.5509 
N547 X242.317 Y24.093 Z14.459 A275.4367 B-0.5748 
N548 X242.317 Y24.221 Z13.323 A275.4368 B-0.5990 
N549 X242.316 Y24.349 Z12.188 A275.4369 B-0.6231 
N550 X242.316 Y24.475 Z11.072 A275.4364 B-0.6469 
N551 X242.316 Y24.607 Z9.993 A275.3966 B-0.6706 
N552 X242.316 Y24.777 Z8.969 A275.1649 B-0.6967 
N553 X242.316 Y24.994 Z8.012 A274.6912 B-0.7256 
N554 X242.316 Y25.220 Z7.127 A274.1177 B-0.7549 
N555 X242.316 Y25.459 Z6.321 A273.4231 B-0.7860 
N556 X242.316 Y25.766 Z5.597 A272.3831 B-0.8248 
N557 X242.316 Y26.219 Z4.951 A270.6649 B-0.8809 
N558 X242.315 Y26.878 Z4.364 A268.0051 B-0.9637 
N559 X242.315 Y27.749 Z3.798 A264.3631 B-1.0779 
N560 X242.314 Y28.804 Z3.206 A259.8229 B-1.2239 
N561 X242.314 Y29.980 Z2.543 A254.5961 B-1.3977 
N562 X242.313 Y31.196 Z1.785 A248.9693 B-1.5914 
N563 X242.313 Y32.401 Z0.915 A243.0829 B-1.7943 
N564 X242.312 Y33.536 Z-0.060 A237.1304 B-1.9826 
N565 X242.312 Y34.564 Z-1.130 A231.2208 B-2.1207 
N566 X242.311 Y35.501 Z-2.322 A225.1708 B-2.1774 
N567 X242.311 Y36.342 Z-3.666 A218.8437 B-2.1457 
N568 X242.312 Y37.049 Z-5.170 A212.2168 B-2.0439 
N569 X242.312 Y37.556 Z-6.789 A205.4783 B-1.9003 
N570 X242.313 Y37.807 Z-8.434 A198.9266 B-1.7409 
N571 X242.313 Y37.774 Z-9.993 A192.8955 B-1.5847 
N572 X242.314 Y37.463 Z-11.340 A187.7639 B-1.4473 
N573 X242.314 Y36.914 Z-12.384 A183.8097 B-1.3400 
N574 X242.314 Y36.168 Z-13.094 A181.1025 B-1.2673 
N575 X242.314 Y35.256 Z-13.483 A179.6006 B-1.2277 
N576 X242.315 Y34.184 Z-13.614 A179.0895 B-1.2138 
N577 X242.315 Y32.948 Z-13.635 A179.0050 B-1.2112 
N578 X242.315 Y31.539 Z-13.637 A178.9968 B-1.2109 
N579 X242.315 Y29.956 Z-13.637 A178.9968 B-1.2109 
N580 X242.315 Y28.202 Z-13.637 B-1.2109 
N581 X242.315 Y26.291 Z-13.636 B-1.2109 
N582 X242.315 Y24.239 Z-13.636 B-1.2109 
N583 X242.315 Y22.071 Z-13.636 B-1.2109 
N584 X242.315 Y19.817 Z-13.635 B-1.2109 
N585 X242.315 Y17.511 Z-13.635 B-1.2109 
N586 X242.315 Y15.187 Z-13.634 A178.9967 B-1.2108 
N587 X242.315 Y12.882 Z-13.658 A178.8948 B-1.2098 
N588 X242.315 Y10.626 Z-13.847 A178.0588 B-1.2063 
N589 X242.315 Y8.439 Z-14.222 A176.2579 B-1.2130 
N590 X242.314 Y6.348 Z-14.578 A174.2584 B-1.2336 
N591 X242.315 Y4.382 Z-14.835 A172.4323 B-1.1975 
N592 X242.315 Y2.562 Z-15.009 A170.7752 B-1.1025 
N593 X242.315 Y0.904 Z-15.082 A169.4391 B-1.0121 
N594 X242.315 Y-0.582 Z-15.052 A168.5037 B-0.9424 
N595 X242.316 Y-1.909 Z-14.990 A167.7345 B-0.8843 
N596 X242.316 Y-3.117 Z-15.041 A166.5283 B-0.8250 
N597 X242.316 Y-4.266 Z-15.349 A164.2184 B-0.7534 
N598 X242.316 Y-5.430 Z-15.978 A160.4231 B-0.6631 
N599 X242.317 Y-6.674 Z-16.864 A155.2489 B-0.5536 
N600 X242.317 Y-8.015 Z-17.831 A149.2896 B-0.4327 
N601 X242.317 Y-9.408 Z-18.701 A143.2554 B-0.3119 
N602 X242.318 Y-10.794 Z-19.385 A137.5676 B-0.1994 
N603 X242.318 Y-12.168 Z-19.896 A132.1879 B-0.0950 
N604 X242.319 Y-13.540 Z-20.252 A127.0139 B0.0000 
N605 X242.319 Y-14.955 Z-20.484 A121.7802 B0.0825 
N606 X242.319 Y-16.441 Z-20.588 A116.3415 B0.1539 
N607 X242.319 Y-17.941 Z-20.518 A110.9147 B0.2118 
N608 X242.319 Y-19.350 Z-20.237 A105.8879 B0.2537 
N609 X242.319 Y-20.525 Z-19.739 A101.7827 B0.2771 
N610 X242.319 Y-21.379 Z-19.060 A98.9190 B0.2830 
N611 X242.319 Y-21.916 Z-18.247 A97.2810 B0.2752 
N612 X242.319 Y-22.212 Z-17.338 A96.5946 B0.2584 
N613 X242.319 Y-22.390 Z-16.363 A96.3936 B0.2374 
N614 X242.319 Y-22.531 Z-15.341 A96.3561 B0.2146 
N615 X242.319 Y-22.668 Z-14.288 A96.3544 B0.1910 
N616 X242.319 Y-22.806 Z-13.218 A96.3544 B0.1669 
N617 X242.319 Y-22.944 Z-12.147 A96.3539 B0.1411 
N618 X242.319 Y-23.086 Z-11.090 A96.3321 B0.1088 
N619 X242.319 Y-23.248 Z-10.066 A96.2042 B0.0696 
N620 X242.319 Y-23.459 Z-9.091 A95.8407 B0.0344 
N621 X242.319 Y-23.727 Z-8.177 A95.1830 B0.0120 
N622 X242.319 Y-24.003 Z-7.329 A94.4156 B0.0027 
N623 X242.319 Y-24.256 Z-6.548 A93.6704 B0.0000 
N624 X242.319 Y-24.529 Z-5.843 A92.7766 
N625 X242.319 Y-24.905 Z-5.213 A91.3921 
N626 X242.319 Y-25.469 Z-4.647 A89.1554 
N627 X242.319 Y-26.254 Z-4.113 A85.9157 
N628 X242.319 Y-27.245 Z-3.567 A81.7077 
N629 X242.319 Y-28.399 Z-2.959 A76.6686 
N630 X242.319 Y-29.630 Z-2.255 A71.0969 
N631 X242.319 Y-30.853 Z-1.444 A65.2796 
N632 X242.319 Y-32.017 Z-0.527 A59.3792 
N633 X242.319 Y-33.080 Z0.485 A53.5260 
N634 X242.319 Y-34.038 Z1.596 A47.6709 
N635 X242.319 Y-34.908 Z2.842 A41.5978 
N636 X242.319 Y-35.682 Z4.263 A35.1398 
N637 X242.319 Y-36.301 Z5.846 A28.3641 
N638 X242.319 Y-36.679 Z7.489 A21.6846 
N639 X242.319 Y-36.783 Z9.107 A15.3411 
N640 X242.319 Y-36.606 Z10.583 A9.6699 
N641 X242.319 Y-36.168 Z11.785 A5.0896 
N642 X242.319 Y-35.516 Z12.649 A1.7850 
N643 X242.319 Y-34.691 Z13.150 A359.8487 
N644 X242.319 Y-33.713 Z13.327 A359.1596 
N645 X242.319 Y-32.577 Z13.359 A359.0375 
N646 X242.319 Y-31.276 Z13.362 A359.0245 
N647 X242.319 Y-29.805 Z13.363 A359.0243 
N648 X242.319 Y-28.167 Z13.364 
N649 X242.319 Y-26.371 Z13.365 
N650 X242.319 Y-24.432 Z13.365 
N651 X242.319 Y-22.372 Z13.366 
N652 X242.319 Y-20.218 Z13.367 
N653 X242.319 Y-18.002 Z13.368 
N654 X242.319 Y-15.758 Z13.369 
N655 X242.319 Y-13.521 Z13.370 
N656 X242.319 Y-11.324 Z13.382 A358.9787 
N657 X242.319 Y-9.194 Z13.540 A358.2943 
N658 X242.319 Y-7.148 Z13.929 A356.4968 
N659 X242.319 Y-5.201 Z14.350 A354.2934 
N660 X242.319 Y-3.379 Z14.679 A352.2204 
N661 X242.319 Y-1.694 Z14.927 A350.3016 B0.0036 
N662 X242.319 Y-0.161 Z15.081 A348.6531 B0.0344 
N663 X242.319 Y1.224 Z15.172 A347.2084 B0.0991 
N664 X242.319 Y2.490 Z15.314 A345.5281 B0.1583 
N665 X242.319 Y3.692 Z15.626 A343.0682 B0.1967 
N666 X242.319 Y4.892 Z16.175 A339.4667 B0.2171 
N667 X242.319 Y6.154 Z16.934 A334.6988 B0.2214 
N668 X242.319 Y7.506 Z17.790 A329.1055 B0.2081 
N669 X242.319 Y8.919 Z18.586 A323.2741 B0.1782 
N670 X242.319 Y10.324 Z19.204 A317.7554 B0.1353 
N671 X242.319 Y11.682 Z19.623 A312.7037 B0.0810 
N672 X242.319 Y13.013 Z19.882 A307.9462 B0.0146 
N673 X242.318 Y14.391 Z20.037 A303.0721 B-0.0642 
N674 X242.318 Y15.869 Z20.097 A297.8204 B-0.1567 
N675 X242.318 Y17.385 Z20.000 A292.4597 B-0.2580 
N676 X242.317 Y18.802 Z19.690 A287.5333 B-0.3582 
N677 X242.317 Y19.962 Z19.157 A283.6241 B-0.4466 
N678 X242.317 Y20.789 Z18.440 A281.0186 B-0.5173 
N679 X242.317 Y21.295 Z17.588 A279.6795 B-0.5686 
N680 X242.317 Y21.584 Z16.647 A279.2151 B-0.6047 
N681 X242.316 Y21.789 Z15.650 A279.1061 B-0.6342 
N682 X242.316 Y21.976 Z14.620 A279.0934 B-0.6622 
N683 X242.316 Y22.162 Z13.572 A279.0935 B-0.6904 
N684 X242.316 Y22.349 Z12.520 A279.0937 B-0.7187 
N685 X242.316 Y22.535 Z11.481 A279.0936 B-0.7466 
N686 X242.316 Y22.716 Z10.468 A279.0896 B-0.7734 
N687 X242.316 Y22.906 Z9.497 A279.0177 B-0.7990 
N688 X242.316 Y23.152 Z8.589 A278.6652 B-0.8282 
N689 X242.316 Y23.465 Z7.754 A277.9626 B-0.8646 
N690 X242.316 Y23.800 Z6.989 A277.0795 B-0.9057 
N691 X242.315 Y24.156 Z6.299 A276.0157 B-0.9518 
N692 X242.315 Y24.579 Z5.684 A274.5846 B-1.0089 
N693 X242.315 Y25.129 Z5.140 A272.5348 B-1.0858 
N694 X242.315 Y25.856 Z4.647 A269.6607 B-1.1911 
N695 X242.314 Y26.763 Z4.171 A265.9407 B-1.3280 
N696 X242.314 Y27.822 Z3.667 A261.4698 B-1.4946 
N697 X242.313 Y28.989 Z3.098 A256.4025 B-1.6860 
N698 X242.312 Y30.192 Z2.440 A250.9814 B-1.8936 
N699 X242.312 Y31.388 Z1.678 A245.3436 B-2.1077 
N700 X242.311 Y32.536 Z0.810 A239.5963 B-2.3095 
N701 X242.310 Y33.573 Z-0.139 A233.9766 B-2.4669 
N702 X242.310 Y34.514 Z-1.183 A228.3535 B-2.5553 
N703 X242.310 Y35.382 Z-2.360 A222.5002 B-2.5663 
N704 X242.310 Y36.167 Z-3.705 A216.2673 B-2.5068 
N705 X242.311 Y36.819 Z-5.216 A209.6899 B-2.3925 
N706 X242.311 Y37.261 Z-6.823 A203.0557 B-2.2436 
N707 X242.312 Y37.444 Z-8.427 A196.6916 B-2.0799 
N708 X242.312 Y37.349 Z-9.901 A190.9904 B-1.9201 
N709 X242.313 Y36.998 Z-11.129 A186.3031 B-1.7812 
N710 X242.313 Y36.434 Z-12.041 A182.8245 B-1.6752 
N711 X242.313 Y35.696 Z-12.630 A180.5687 B-1.6059 
N712 X242.313 Y34.807 Z-12.926 A179.4200 B-1.5705 
N713 X242.313 Y33.770 Z-13.015 A179.0717 B-1.5591 
N714 X242.313 Y32.579 Z-13.029 A179.0204 B-1.5571 
N715 X242.313 Y31.226 Z-13.030 A179.0157 B-1.5567 
N716 X242.313 Y29.714 Z-13.030 A179.0157 B-1.5565 
N717 X242.313 Y28.047 Z-13.030 B-1.5563 
N718 X242.313 Y26.239 Z-13.030 A179.0157 B-1.5561 
N719 X242.313 Y24.307 Z-13.031 B-1.5558 
N720 X242.313 Y22.274 Z-13.031 A179.0157 B-1.5555 
N721 X242.313 Y20.169 Z-13.031 B-1.5553 
N722 X242.313 Y18.022 Z-13.031 A179.0157 B-1.5550 
N723 X242.313 Y15.864 Z-13.031 B-1.5547 
N724 X242.313 Y13.726 Z-13.039 A178.9826 B-1.5539 
N725 X242.313 Y11.635 Z-13.178 A178.3841 B-1.5465 
N726 X242.313 Y9.604 Z-13.599 A176.4648 B-1.5341 
N727 X242.313 Y7.635 Z-14.160 A173.6444 B-1.5346 
N728 X242.314 Y5.755 Z-14.643 A170.7903 B-1.5125 
N729 X242.314 Y3.986 Z-15.009 A168.1328 B-1.3984 
N730 X242.314 Y2.354 Z-15.232 A165.8587 B-1.2585 
N731 X242.315 Y0.880 Z-15.292 A164.1720 B-1.1475 
N732 X242.315 Y-0.440 Z-15.245 A162.9259 B-1.0612 
N733 X242.315 Y-1.650 Z-15.226 A161.5846 B-0.9808 
N734 X242.316 Y-2.819 Z-15.382 A159.4852 B-0.8889 
N735 X242.316 Y-4.021 Z-15.805 A156.1273 B-0.7738 
N736 X242.316 Y-5.324 Z-16.474 A151.4178 B-0.6329 
N737 X242.317 Y-6.745 Z-17.249 A145.7822 B-0.4754 
N738 X242.317 Y-8.218 Z-17.933 A140.0067 B-0.3205 
N739 X242.318 Y-9.644 Z-18.405 A134.7216 B-0.1841 
N740 X242.318 Y-11.002 Z-18.674 A129.9564 B-0.0672 
N741 X242.319 Y-12.345 Z-18.809 A125.3509 B0.0348 
N742 X242.319 Y-13.774 Z-18.867 A120.3969 B0.1271 
N743 X242.319 Y-15.280 Z-18.813 A115.1384 B0.2078 
N744 X242.319 Y-16.746 Z-18.576 A110.0630 B0.2699 
N745 X242.320 Y-18.000 Z-18.120 A105.8374 B0.3068 
N746 X242.320 Y-18.933 Z-17.470 A102.8758 B0.3186 
N747 X242.320 Y-19.544 Z-16.678 A101.1759 B0.3108 
N748 X242.319 Y-19.913 Z-15.791 A100.4407 B0.2907 
N749 X242.319 Y-20.156 Z-14.849 A100.2215 B0.2649 
N750 X242.319 Y-20.356 Z-13.876 A100.1918 B0.2369 
N751 X242.319 Y-20.551 Z-12.892 A100.1915 B0.2083 
N752 X242.319 Y-20.745 Z-11.910 A100.1914 B0.1798 
N753 X242.319 Y-20.938 Z-10.943 A100.1855 B0.1516 
N754 X242.319 Y-21.143 Z-10.007 A100.1052 B0.1226 
N755 X242.319 Y-21.391 Z-9.120 A99.7996 B0.0895 
N756 X242.319 Y-21.710 Z-8.297 A99.1363 B0.0531 
N757 X242.319 Y-22.084 Z-7.541 A98.1561 B0.0239 
N758 X242.319 Y-22.458 Z-6.847 A97.0756 B0.0080 
N759 X242.319 Y-22.830 Z-6.217 A95.9106 B0.0018 
N760 X242.319 Y-23.253 Z-5.655 A94.4524 B0.0000 
N761 X242.319 Y-23.794 Z-5.157 A92.4179 
N762 X242.319 Y-24.510 Z-4.704 A89.5774 
N763 X242.319 Y-25.409 Z-4.263 A85.8901 
N764 X242.319 Y-26.467 Z-3.790 A81.4316 
N765 X242.319 Y-27.644 Z-3.244 A76.3365 
N766 X242.319 Y-28.866 Z-2.602 A70.8580 
N767 X242.319 Y-30.064 Z-1.857 A65.2287 
N768 X242.319 Y-31.200 Z-1.010 A59.5589 
N769 X242.319 Y-32.244 Z-0.073 A53.9384 
N770 X242.319 Y-33.192 Z0.961 A48.3149 
N771 X242.319 Y-34.057 Z2.118 A42.5276 
N772 X242.319 Y-34.840 Z3.440 A36.3736 
N773 X242.319 Y-35.503 Z4.940 A29.8136 
N774 X242.319 Y-35.955 Z6.529 A23.2305 
N775 X242.319 Y-36.154 Z8.124 A16.8874 
N776 X242.319 Y-36.082 Z9.616 A11.1015 
N777 X242.319 Y-35.753 Z10.878 A6.2663 
N778 X242.319 Y-35.207 Z11.826 A2.6329 
N779 X242.319 Y-34.488 Z12.427 A0.3133 
N780 X242.319 Y-33.621 Z12.682 A359.3184 
N781 X242.319 Y-32.610 Z12.741 A359.0919 
N782 X242.319 Y-31.447 Z12.750 A359.0611 
N783 X242.319 Y-30.128 Z12.752 A359.0597 
N784 X242.319 Y-28.652 Z12.753 
N785 X242.319 Y-27.028 Z12.755 
N786 X242.319 Y-25.267 Z12.757 
N787 X242.319 Y-23.388 Z12.759 
N788 X242.319 Y-21.414 Z12.761 
N789 X242.319 Y-19.373 Z12.763 
N790 X242.319 Y-17.295 Z12.765 
N791 X242.319 Y-15.211 Z12.767 
N792 X242.319 Y-13.151 Z12.770 A359.0597 
N793 X242.319 Y-11.144 Z12.793 A358.9691 
N794 X242.319 Y-9.209 Z13.014 A358.0179 
N795 X242.319 Y-7.346 Z13.527 A355.6675 
N796 X242.319 Y-5.557 Z14.125 A352.6360 
N797 X242.319 Y-3.858 Z14.641 A349.6132 
N798 X242.319 Y-2.269 Z15.041 A346.8071 B0.0109 
N799 X242.319 Y-0.805 Z15.310 A344.3607 B0.0547 
N800 X242.319 Y0.538 Z15.490 A342.1792 B0.1263 
N801 X242.319 Y1.798 Z15.691 A339.8257 B0.1804 
N802 X242.319 Y3.037 Z16.016 A336.8180 B0.2114 
N803 X242.319 Y4.317 Z16.505 A332.8843 B0.2257 
N804 X242.319 Y5.682 Z17.118 A328.0507 B0.2203 
N805 X242.319 Y7.130 Z17.742 A322.6828 B0.1936 
N806 X242.319 Y8.591 Z18.234 A317.3943 B0.1493 
N807 X242.319 Y9.973 Z18.505 A312.6990 B0.0939 
N808 X242.319 Y11.271 Z18.587 A308.5322 B0.0282 
N809 X242.318 Y12.580 Z18.568 A304.3592 B-0.0526 
N810 X242.318 Y14.004 Z18.500 A299.6565 B-0.1557 
N811 X242.318 Y15.492 Z18.319 A294.6724 B-0.2762 
N812 X242.317 Y16.873 Z17.943 A290.1264 B-0.3977 
N813 X242.317 Y17.975 Z17.351 A286.6917 B-0.5027 
N814 X242.317 Y18.735 Z16.583 A284.6203 B-0.5820 
N815 X242.316 Y19.199 Z15.693 A283.7442 B-0.6346 
N816 X242.316 Y19.509 Z14.739 A283.5007 B-0.6710 
N817 X242.316 Y19.771 Z13.758 A283.4662 B-0.7019 
N818 X242.316 Y20.026 Z12.772 A283.4658 B-0.7318 
N819 X242.316 Y20.278 Z11.793 A283.4660 B-0.7615 
N820 X242.316 Y20.525 Z10.836 A283.4653 B-0.7905 
N821 X242.316 Y20.767 Z9.914 A283.4516 B-0.8185 
N822 X242.316 Y21.017 Z9.040 A283.3493 B-0.8461 
N823 X242.316 Y21.327 Z8.238 A282.9273 B-0.8801 
N824 X242.315 Y21.720 Z7.517 A282.0593 B-0.9269 
N825 X242.315 Y22.158 Z6.872 A280.8890 B-0.9836 
N826 X242.315 Y22.632 Z6.298 A279.4560 B-1.0499 
N827 X242.315 Y23.171 Z5.794 A277.6363 B-1.1307 
N828 X242.314 Y23.815 Z5.354 A275.2804 B-1.2322 
N829 X242.314 Y24.598 Z4.960 A272.2442 B-1.3612 
N830 X242.314 Y25.531 Z4.579 A268.4960 B-1.5204 
N831 X242.313 Y26.587 Z4.176 A264.1363 B-1.7066 
N832 X242.312 Y27.734 Z3.715 A259.2808 B-1.9143 
N833 X242.312 Y28.923 Z3.173 A254.0969 B-2.1358 
N834 X242.311 Y30.106 Z2.538 A248.7358 B-2.3626 
N835 X242.310 Y31.269 Z1.797 A243.2136 B-2.5836 
N836 X242.309 Y32.349 Z0.967 A237.7499 B-2.7708 
N837 X242.309 Y33.311 Z0.072 A232.4767 B-2.8973 
N838 X242.309 Y34.200 Z-0.923 A227.1232 B-2.9562 
N839 X242.309 Y35.035 Z-2.061 A221.4549 B-2.9504 
N840 X242.309 Y35.808 Z-3.387 A215.2959 B-2.8862 
N841 X242.309 Y36.454 Z-4.887 A208.7447 B-2.7718 
N842 X242.310 Y36.893 Z-6.483 A202.1379 B-2.6210 
N843 X242.310 Y37.073 Z-8.064 A195.8383 B-2.4515 
N844 X242.311 Y36.982 Z-9.494 A190.2834 B-2.2841 
N845 X242.311 Y36.646 Z-10.661 A185.8053 B-2.1386 
N846 X242.312 Y36.113 Z-11.512 A182.5475 B-2.0278 
N847 X242.312 Y35.421 Z-12.047 A180.4929 B-1.9560 
N848 X242.312 Y34.588 Z-12.315 A179.4523 B-1.9190 
N849 X242.312 Y33.618 Z-12.404 A179.1065 B-1.9061 
N850 X242.312 Y32.503 Z-12.420 A179.0433 B-1.9032 
N851 X242.312 Y31.239 Z-12.423 A179.0360 B-1.9026 
N852 X242.312 Y29.828 Z-12.423 A179.0359 B-1.9022 
N853 X242.312 Y28.276 Z-12.424 A179.0359 B-1.9018 
N854 X242.312 Y26.594 Z-12.424 A179.0358 B-1.9014 
N855 X242.312 Y24.801 Z-12.425 A179.0358 B-1.9009 
N856 X242.312 Y22.919 Z-12.426 A179.0358 B-1.9004 
N857 X242.312 Y20.971 Z-12.426 A179.0358 B-1.8999 
N858 X242.312 Y18.987 Z-12.427 A179.0358 B-1.8994 
N859 X242.312 Y16.993 Z-12.428 A179.0358 B-1.8989 
N860 X242.312 Y15.018 Z-12.429 A179.0354 B-1.8983 
N861 X242.312 Y13.085 Z-12.464 A178.8916 B-1.8949 
N862 X242.312 Y11.210 Z-12.721 A177.7715 B-1.8769 
N863 X242.312 Y9.385 Z-13.323 A175.0069 B-1.8443 
N864 X242.313 Y7.594 Z-14.078 A171.2139 B-1.8124 
N865 X242.313 Y5.850 Z-14.763 A167.2665 B-1.7285 
N866 X242.313 Y4.184 Z-15.300 A163.5518 B-1.5423 
N867 X242.314 Y2.635 Z-15.629 A160.4235 B-1.3483 
N868 X242.315 Y1.237 Z-15.736 A158.0863 B-1.1995 
N869 X242.315 Y-0.026 Z-15.705 A156.2939 B-1.0838 
N870 X242.315 Y-1.217 Z-15.683 A154.4410 B-0.9750 
N871 X242.316 Y-2.422 Z-15.803 A151.8733 B-0.8506 
N872 X242.316 Y-3.720 Z-16.131 A148.1568 B-0.6979 
N873 X242.317 Y-5.154 Z-16.612 A143.3320 B-0.5195 
N874 X242.317 Y-6.672 Z-17.073 A138.0378 B-0.3373 
N875 X242.318 Y-8.133 Z-17.334 A133.1837 B-0.1803 
N876 X242.318 Y-9.467 Z-17.365 A129.0757 B-0.0571 
N877 X242.319 Y-10.763 Z-17.273 A125.1645 B0.0464 
N878 X242.319 Y-12.159 Z-17.145 A120.7536 B0.1432 
N879 X242.319 Y-13.637 Z-16.939 A115.9280 B0.2293 
N880 X242.319 Y-15.017 Z-16.559 A111.4711 B0.2901 
N881 X242.320 Y-16.118 Z-15.973 A108.1288 B0.3178 
N882 X242.320 Y-16.886 Z-15.222 A106.1051 B0.3170 
N883 X242.319 Y-17.377 Z-14.364 A105.1856 B0.2975 
N884 X242.319 Y-17.707 Z-13.451 A104.9202 B0.2691 
N885 X242.319 Y-17.979 Z-12.523 A104.8930 B0.2380 
N886 X242.319 Y-18.241 Z-11.603 A104.8929 B0.2069 
N887 X242.319 Y-18.497 Z-10.704 A104.8928 B0.1765 
N888 X242.319 Y-18.749 Z-9.837 A104.8720 B0.1472 
N889 X242.319 Y-19.024 Z-9.020 A104.6983 B0.1186 
N890 X242.319 Y-19.363 Z-8.271 A104.1835 B0.0885 
N891 X242.319 Y-19.782 Z-7.600 A103.2338 B0.0571 
N892 X242.319 Y-20.255 Z-7.001 A101.9390 B0.0295 
N893 X242.319 Y-20.745 Z-6.463 A100.4556 B0.0110 
N894 X242.319 Y-21.265 Z-5.986 A98.7376 B0.0026 
N895 X242.319 Y-21.852 Z-5.568 A96.6362 B0.0000 
N896 X242.319 Y-22.550 Z-5.199 A93.9864 
N897 X242.319 Y-23.389 Z-4.856 A90.6667 
N898 X242.319 Y-24.365 Z-4.507 A86.6929 
N899 X242.319 Y-25.455 Z-4.116 A82.1547 
N900 X242.319 Y-26.625 Z-3.652 A77.1557 
N901 X242.319 Y-27.823 Z-3.094 A71.8773 
N902 X242.319 Y-28.993 Z-2.441 A66.5052 
N903 X242.319 Y-30.108 Z-1.693 A61.1082 
N904 X242.319 Y-31.148 Z-0.853 A55.7326 
N905 X242.319 Y-32.106 Z0.081 A50.3550 
N906 X242.319 Y-32.983 Z1.120 A44.8879 
N907 X242.319 Y-33.791 Z2.302 A39.1318 
N908 X242.319 Y-34.527 Z3.680 A32.8593 
N909 X242.319 Y-35.102 Z5.195 A26.3669 
N910 X242.319 Y-35.452 Z6.762 A19.9700 
N911 X242.319 Y-35.546 Z8.282 A13.9712 
N912 X242.319 Y-35.384 Z9.640 A8.7173 
N913 X242.319 Y-34.995 Z10.733 A4.5166 
N914 X242.319 Y-34.420 Z11.512 A1.5194 
N915 X242.319 Y-33.695 Z11.946 A359.8328 
N916 X242.319 Y-32.834 Z12.100 A359.2375 
N917 X242.319 Y-31.837 Z12.133 A359.1123 
N918 X242.319 Y-30.696 Z12.139 A359.0964 
N919 X242.319 Y-29.408 Z12.142 A359.0962 
N920 X242.319 Y-27.978 Z12.144 
N921 X242.319 Y-26.415 Z12.147 
N922 X242.319 Y-24.732 Z12.149 
N923 X242.319 Y-22.949 Z12.152 
N924 X242.319 Y-21.090 Z12.156 
N925 X242.319 Y-19.182 Z12.159 
N926 X242.319 Y-17.252 Z12.162 
N927 X242.319 Y-15.328 Z12.165 
N928 X242.319 Y-13.437 Z12.168 
N929 X242.319 Y-11.602 Z12.183 A359.0495 
N930 X242.319 Y-9.838 Z12.356 A358.3207 
N931 X242.319 Y-8.141 Z12.876 A356.0048 
N932 X242.319 Y-6.483 Z13.648 A352.3212 
N933 X242.319 Y-4.858 Z14.432 A348.1727 
N934 X242.319 Y-3.284 Z15.103 A344.0911 B0.0071 
N935 X242.319 Y-1.788 Z15.606 A340.3767 B0.0452 
N936 X242.319 Y-0.386 Z15.946 A337.1068 B0.1088 
N937 X242.319 Y0.946 Z16.203 A334.0001 B0.1626 
N938 X242.319 Y2.262 Z16.467 A330.6415 B0.1923 
N939 X242.319 Y3.614 Z16.782 A326.7678 B0.2027 
N940 X242.319 Y5.035 Z17.129 A322.3466 B0.1921 
N941 X242.319 Y6.503 Z17.427 A317.6494 B0.1591 
N942 X242.319 Y7.934 Z17.564 A313.2356 B0.1093 
N943 X242.319 Y9.235 Z17.481 A309.5552 B0.0517 
N944 X242.318 Y10.451 Z17.247 A306.3074 B-0.0157 
N945 X242.318 Y11.738 Z16.982 A302.6782 B-0.1069 
N946 X242.318 Y13.136 Z16.685 A298.4721 B-0.2274 
N947 X242.317 Y14.491 Z16.256 A294.3862 B-0.3596 
N948 X242.317 Y15.605 Z15.635 A291.2544 B-0.4774 
N949 X242.317 Y16.385 Z14.838 A289.4739 B-0.5631 
N950 X242.316 Y16.886 Z13.926 A288.8351 B-0.6150 
N951 X242.316 Y17.262 Z12.973 A288.7053 B-0.6496 
N952 X242.316 Y17.605 Z12.022 A288.6983 B-0.6794 
N953 X242.316 Y17.938 Z11.092 A288.6985 B-0.7083 
N954 X242.316 Y18.259 Z10.194 A288.6983 B-0.7362 
N955 X242.316 Y18.568 Z9.340 A288.6856 B-0.7631 
N956 X242.316 Y18.877 Z8.542 A288.5939 B-0.7902 
N957 X242.316 Y19.233 Z7.825 A288.1991 B-0.8254 
N958 X242.316 Y19.684 Z7.206 A287.2755 B-0.8800 
N959 X242.315 Y20.211 Z6.677 A285.8881 B-0.9536 
N960 X242.315 Y20.792 Z6.225 A284.1262 B-1.0438 
N961 X242.315 Y21.445 Z5.844 A281.9327 B-1.1535 
N962 X242.314 Y22.185 Z5.521 A279.2536 B-1.2854 
N963 X242.314 Y23.029 Z5.237 A276.0397 B-1.4423 
N964 X242.313 Y23.990 Z4.966 A272.2543 B-1.6266 
N965 X242.312 Y25.052 Z4.675 A267.9665 B-1.8351 
N966 X242.312 Y26.184 Z4.336 A263.2998 B-2.0614 
N967 X242.311 Y27.354 Z3.926 A258.3589 B-2.2989 
N968 X242.310 Y28.529 Z3.432 A253.2553 B-2.5410 
N969 X242.309 Y29.689 Z2.843 A248.0353 B-2.7813 
N970 X242.309 Y30.825 Z2.149 A242.6780 B-3.0060 
N971 X242.308 Y31.855 Z1.385 A237.5168 B-3.1814 
N972 X242.308 Y32.770 Z0.565 A232.5742 B-3.2914 
N973 X242.308 Y33.629 Z-0.353 A227.5140 B-3.3422 
N974 X242.308 Y34.457 Z-1.418 A222.0848 B-3.3403 
N975 X242.308 Y35.249 Z-2.684 A216.0731 B-3.2879 
N976 X242.308 Y35.941 Z-4.147 A209.5599 B-3.1852 
N977 X242.309 Y36.442 Z-5.728 A202.9071 B-3.0393 
N978 X242.309 Y36.692 Z-7.316 A196.5015 B-2.8655 
N979 X242.310 Y36.672 Z-8.764 A190.8199 B-2.6868 
N980 X242.310 Y36.408 Z-9.945 A186.2534 B-2.5276 
N981 X242.311 Y35.949 Z-10.810 A182.9285 B-2.4037 
N982 X242.311 Y35.336 Z-11.359 A180.8158 B-2.3215 
N983 X242.311 Y34.591 Z-11.650 A179.6936 B-2.2761 
N984 X242.311 Y33.717 Z-11.772 A179.2233 B-2.2564 
N985 X242.311 Y32.708 Z-11.808 A179.0849 B-2.2502 
N986 X242.311 Y31.561 Z-11.815 A179.0585 B-2.2487 
N987 X242.311 Y30.275 Z-11.817 A179.0568 B-2.2481 
N988 X242.311 Y28.857 Z-11.818 A179.0568 B-2.2475 
N989 X242.311 Y27.317 Z-11.818 A179.0568 B-2.2469 
N990 X242.311 Y25.671 Z-11.820 A179.0568 B-2.2463 
N991 X242.311 Y23.939 Z-11.821 A179.0568 B-2.2456 
N992 X242.311 Y22.145 Z-11.822 A179.0567 B-2.2449 
N993 X242.311 Y20.314 Z-11.823 A179.0567 B-2.2442 
N994 X242.311 Y18.473 Z-11.824 A179.0567 B-2.2434 
N995 X242.311 Y16.645 Z-11.825 A179.0567 B-2.2427 
N996 X242.311 Y14.855 Z-11.827 A179.0554 B-2.2420 
N997 X242.311 Y13.119 Z-11.868 A178.8833 B-2.2370 
N998 X242.311 Y11.445 Z-12.145 A177.6881 B-2.2110 
N999 X242.311 Y9.812 Z-12.819 A174.6421 B-2.1538 
N1000 X242.312 Y8.171 Z-13.769 A170.0414 B-2.0727 
N1001 X242.312 Y6.505 Z-14.743 A164.8049 B-1.9347 
N1002 X242.313 Y4.842 Z-15.567 A159.6447 B-1.6735 
N1003 X242.314 Y3.245 Z-16.133 A155.1042 B-1.3862 
N1004 X242.315 Y1.778 Z-16.400 A151.5345 B-1.1586 
N1005 X242.315 Y0.459 Z-16.421 A148.8704 B-0.9901 
N1006 X242.316 Y-0.766 Z-16.322 A146.6324 B-0.8514 
N1007 X242.316 Y-1.994 Z-16.243 A144.1400 B-0.7110 
N1008 X242.317 Y-3.319 Z-16.273 A140.8427 B-0.5480 
N1009 X242.317 Y-4.764 Z-16.377 A136.7354 B-0.3663 
N1010 X242.318 Y-6.225 Z-16.396 A132.5236 B-0.1961 
N1011 X242.318 Y-7.545 Z-16.197 A129.0574 B-0.0683 
N1012 X242.319 Y-8.752 Z-15.843 A126.1229 B0.0267 
N1013 X242.319 Y-10.010 Z-15.466 A122.8548 B0.1137 
N1014 X242.319 Y-11.372 Z-15.083 A118.9788 B0.1969 
N1015 X242.319 Y-12.662 Z-14.585 A115.3057 B0.2559 
N1016 X242.319 Y-13.693 Z-13.917 A112.6495 B0.2791 
N1017 X242.319 Y-14.414 Z-13.106 A111.2297 B0.2716 
N1018 X242.319 Y-14.900 Z-12.215 A110.7495 B0.2468 
N1019 X242.319 Y-15.277 Z-11.309 A110.6879 B0.2162 
N1020 X242.319 Y-15.627 Z-10.429 A110.6875 B0.1858 
N1021 X242.319 Y-15.961 Z-9.590 A110.6874 B0.1568 
N1022 X242.319 Y-16.282 Z-8.799 A110.6609 B0.1296 
N1023 X242.319 Y-16.626 Z-8.079 A110.4379 B0.1052 
N1024 X242.319 Y-17.038 Z-7.450 A109.8006 B0.0834 
N1025 X242.319 Y-17.534 Z-6.917 A108.6585 B0.0611 
N1026 X242.319 Y-18.102 Z-6.471 A107.0627 B0.0370 
N1027 X242.319 Y-18.723 Z-6.095 A105.1035 B0.0167 
N1028 X242.319 Y-19.406 Z-5.782 A102.7500 B0.0054 
N1029 X242.319 Y-20.166 Z-5.518 A99.9653 B0.0014 
N1030 X242.319 Y-21.012 Z-5.285 A96.7277 B0.0000 
N1031 X242.319 Y-21.960 Z-5.059 A92.9944 
N1032 X242.319 Y-23.002 Z-4.814 A88.7943 
N1033 X242.319 Y-24.115 Z-4.520 A84.2258 
N1034 X242.319 Y-25.275 Z-4.156 A79.3661 
N1035 X242.319 Y-26.450 Z-3.705 A74.3130 
N1036 X242.319 Y-27.600 Z-3.165 A69.1965 
N1037 X242.319 Y-28.704 Z-2.534 A64.0726 
N1038 X242.319 Y-29.755 Z-1.812 A58.9291 
N1039 X242.319 Y-30.743 Z-0.996 A53.7597 
N1040 X242.319 Y-31.656 Z-0.086 A48.5596 
N1041 X242.319 Y-32.496 Z0.933 A43.2366 
N1042 X242.319 Y-33.304 Z2.138 A37.3904 
N1043 X242.319 Y-34.026 Z3.538 A31.0474 
N1044 X242.319 Y-34.570 Z5.050 A24.5953 
N1045 X242.319 Y-34.883 Z6.585 A18.3412 
N1046 X242.319 Y-34.942 Z8.030 A12.6351 
N1047 X242.319 Y-34.763 Z9.286 A7.7679 
N1048 X242.319 Y-34.378 Z10.275 A3.9584 
N1049 X242.319 Y-33.828 Z10.964 A1.3014 
N1050 X242.319 Y-33.140 Z11.341 A359.8386 
N1051 X242.319 Y-32.324 Z11.484 A359.2899 
N1052 X242.319 Y-31.378 Z11.521 A359.1514 
N1053 X242.319 Y-30.297 Z11.528 A359.1338 
N1054 X242.319 Y-29.079 Z11.531 A359.1337 
N1055 X242.319 Y-27.729 Z11.534 
N1056 X242.319 Y-26.255 Z11.537 
N1057 X242.319 Y-24.674 Z11.541 
N1058 X242.319 Y-23.004 Z11.545 
N1059 X242.319 Y-21.269 Z11.549 
N1060 X242.319 Y-19.493 Z11.553 
N1061 X242.319 Y-17.704 Z11.557 
N1062 X242.319 Y-15.926 Z11.562 
N1063 X242.319 Y-14.184 Z11.566 
N1064 X242.319 Y-12.496 Z11.570 A359.1303 
N1065 X242.319 Y-10.878 Z11.632 A358.8865 
N1066 X242.319 Y-9.329 Z11.968 A357.4445 
N1067 X242.319 Y-7.819 Z12.711 A354.1068 
N1068 X242.319 Y-6.289 Z13.722 A349.2464 
N1069 X242.319 Y-4.709 Z14.785 A343.6421 
N1070 X242.319 Y-3.101 Z15.704 A338.0529 B0.0177 
N1071 X242.319 Y-1.517 Z16.387 A332.9414 B0.0717 
N1072 X242.319 Y0.007 Z16.828 A328.4239 B0.1194 
N1073 X242.319 Y1.474 Z17.082 A324.3368 B0.1431 
N1074 X242.319 Y2.899 Z17.192 A320.5290 B0.1483 
N1075 X242.319 Y4.292 Z17.179 A316.9073 B0.1371 
N1076 X242.319 Y5.665 Z17.058 A313.3967 B0.1081 
N1077 X242.319 Y6.974 Z16.794 A310.2184 B0.0649 
N1078 X242.319 Y8.148 Z16.349 A307.7197 B0.0170 
N1079 X242.318 Y9.250 Z15.797 A305.5439 B-0.0389 
N1080 X242.318 Y10.429 Z15.252 A302.9116 B-0.1213 
N1081 X242.318 Y11.672 Z14.693 A299.8646 B-0.2316 
N1082 X242.317 Y12.807 Z14.028 A297.1779 B-0.3452 
N1083 X242.317 Y13.679 Z13.211 A295.5496 B-0.4319 
N1084 X242.317 Y14.281 Z12.278 A295.0310 B-0.4798 
N1085 X242.317 Y14.767 Z11.323 A294.9552 B-0.5088 
N1086 X242.317 Y15.219 Z10.396 A294.9535 B-0.5337 
N1087 X242.317 Y15.647 Z9.516 A294.9536 B-0.5573 
N1088 X242.317 Y16.050 Z8.691 A294.9501 B-0.5796 
N1089 X242.317 Y16.432 Z7.931 A294.9030 B-0.6018 
N1090 X242.316 Y16.828 Z7.259 A294.6409 B-0.6310 
N1091 X242.316 Y17.308 Z6.708 A293.8359 B-0.6845 
N1092 X242.316 Y17.892 Z6.278 A292.3858 B-0.7699 
N1093 X242.316 Y18.557 Z5.949 A290.4011 B-0.8835 
N1094 X242.315 Y19.304 Z5.702 A287.9034 B-1.0247 
N1095 X242.315 Y20.139 Z5.518 A284.8921 B-1.1937 
N1096 X242.314 Y21.057 Z5.370 A281.4270 B-1.3871 
N1097 X242.313 Y22.057 Z5.232 A277.5356 B-1.6037 
N1098 X242.312 Y23.141 Z5.077 A273.2351 B-1.8419 
N1099 X242.312 Y24.282 Z4.879 A268.6329 B-2.0952 
N1100 X242.311 Y25.449 Z4.616 A263.8468 B-2.3559 
N1101 X242.310 Y26.621 Z4.276 A258.9506 B-2.6187 
N1102 X242.309 Y27.782 Z3.851 A253.9765 B-2.8800 
N1103 X242.308 Y28.934 Z3.330 A248.8805 B-3.1369 
N1104 X242.307 Y30.070 Z2.702 A243.6415 B-3.3727 
N1105 X242.307 Y31.076 Z2.019 A238.7343 B-3.5473 
N1106 X242.307 Y31.963 Z1.295 A234.1121 B-3.6552 
N1107 X242.306 Y32.806 Z0.480 A229.3861 B-3.7129 
N1108 X242.306 Y33.633 Z-0.471 A224.2986 B-3.7285 
N1109 X242.306 Y34.455 Z-1.621 A218.5933 B-3.7017 
N1110 X242.307 Y35.226 Z-2.996 A212.2303 B-3.6260 
N1111 X242.307 Y35.848 Z-4.539 A205.5269 B-3.4992 
N1112 X242.308 Y36.240 Z-6.143 A198.8987 B-3.3304 
N1113 X242.308 Y36.366 Z-7.666 A192.8133 B-3.1409 
N1114 X242.309 Y36.234 Z-8.952 A187.7866 B-2.9606 
N1115 X242.309 Y35.893 Z-9.911 A184.0722 B-2.8138 
N1116 X242.310 Y35.395 Z-10.549 A181.6133 B-2.7101 
N1117 X242.310 Y34.768 Z-10.916 A180.2039 B-2.6476 
N1118 X242.310 Y34.019 Z-11.097 A179.5061 B-2.6153 
N1119 X242.310 Y33.145 Z-11.177 A179.2016 B-2.6007 
N1120 X242.310 Y32.142 Z-11.204 A179.0983 B-2.5956 
N1121 X242.310 Y31.007 Z-11.210 A179.0791 B-2.5942 
N1122 X242.310 Y29.743 Z-11.211 A179.0785 B-2.5935 
N1123 X242.310 Y28.359 Z-11.212 A179.0784 B-2.5928 
N1124 X242.310 Y26.867 Z-11.214 A179.0784 B-2.5920 
N1125 X242.310 Y25.286 Z-11.215 A179.0784 B-2.5911 
N1126 X242.310 Y23.637 Z-11.216 A179.0784 B-2.5903 
N1127 X242.310 Y21.944 Z-11.218 A179.0784 B-2.5894 
N1128 X242.310 Y20.231 Z-11.219 A179.0783 B-2.5885 
N1129 X242.310 Y18.525 Z-11.221 A179.0783 B-2.5876 
N1130 X242.310 Y16.847 Z-11.222 A179.0783 B-2.5867 
N1131 X242.310 Y15.216 Z-11.224 A179.0782 B-2.5859 
N1132 X242.310 Y13.646 Z-11.244 A179.0013 B-2.5827 
N1133 X242.310 Y12.142 Z-11.425 A178.2302 B-2.5607 
N1134 X242.310 Y10.687 Z-11.985 A175.7660 B-2.4976 
N1135 X242.311 Y9.211 Z-12.996 A171.1082 B-2.3776 
N1136 X242.311 Y7.631 Z-14.258 A164.8489 B-2.1921 
N1137 X242.312 Y5.912 Z-15.520 A157.8409 B-1.8670 
N1138 X242.314 Y4.129 Z-16.519 A151.1245 B-1.4335 
N1139 X242.315 Y2.410 Z-17.121 A145.4434 B-1.0493 
N1140 X242.316 Y0.856 Z-17.318 A141.0944 B-0.7669 
N1141 X242.317 Y-0.491 Z-17.173 A138.0625 B-0.5748 
N1142 X242.317 Y-1.688 Z-16.810 A135.9023 B-0.4396 
N1143 X242.317 Y-2.869 Z-16.386 A133.7975 B-0.3171 
N1144 X242.318 Y-4.115 Z-15.971 A131.2901 B-0.1877 
N1145 X242.318 Y-5.350 Z-15.488 A128.7888 B-0.0727 
N1146 X242.319 Y-6.456 Z-14.856 A126.8950 B0.0039 
N1147 X242.319 Y-7.500 Z-14.151 A125.2376 B0.0593 
N1148 X242.319 Y-8.597 Z-13.464 A123.2117 B0.1135 
N1149 X242.319 Y-9.718 Z-12.781 A120.9065 B0.1610 
N1150 X242.319 Y-10.706 Z-12.022 A119.0468 B0.1839 
N1151 X242.319 Y-11.462 Z-11.162 A118.0936 B0.1788 
N1152 X242.319 Y-12.033 Z-10.253 A117.8521 B0.1583 
N1153 X242.319 Y-12.525 Z-9.368 A117.8359 B0.1348 
N1154 X242.319 Y-12.981 Z-8.539 A117.8359 B0.1127 
N1155 X242.319 Y-13.403 Z-7.775 A117.8307 B0.0923 
N1156 X242.319 Y-13.813 Z-7.094 A117.7029 B0.0748 
N1157 X242.319 Y-14.269 Z-6.527 A117.1764 B0.0616 
N1158 X242.319 Y-14.809 Z-6.089 A116.0564 B0.0504 
N1159 X242.319 Y-15.449 Z-5.777 A114.2878 B0.0367 
N1160 X242.319 Y-16.183 Z-5.567 A111.9134 B0.0216 
N1161 X242.319 Y-17.017 Z-5.437 A108.9561 B0.0101 
N1162 X242.319 Y-17.945 Z-5.357 A105.4769 B0.0039 
N1163 X242.319 Y-18.946 Z-5.293 A101.6063 B0.0013 
N1164 X242.319 Y-20.013 Z-5.217 A97.4035 B0.0000 
N1165 X242.319 Y-21.142 Z-5.107 A92.8918 
N1166 X242.319 Y-22.309 Z-4.939 A88.1663 
N1167 X242.319 Y-23.491 Z-4.698 A83.3170 
N1168 X242.319 Y-24.669 Z-4.375 A78.3949 
N1169 X242.319 Y-25.823 Z-3.966 A73.4504 
N1170 X242.319 Y-26.935 Z-3.471 A68.5290 
N1171 X242.319 Y-28.010 Z-2.886 A63.5774 
N1172 X242.319 Y-29.049 Z-2.202 A58.5475 
N1173 X242.319 Y-30.028 Z-1.423 A53.4853 
N1174 X242.319 Y-30.917 Z-0.570 A48.5049 
N1175 X242.319 Y-31.769 Z0.417 A43.2339 
N1176 X242.319 Y-32.613 Z1.618 A37.2997 
N1177 X242.319 Y-33.362 Z3.002 A30.9492 
N1178 X242.319 Y-33.930 Z4.485 A24.5503 
N1179 X242.319 Y-34.269 Z5.974 A18.4299 
N1180 X242.319 Y-34.364 Z7.357 A12.9309 
N1181 X242.319 Y-34.235 Z8.554 A8.2686 
N1182 X242.319 Y-33.916 Z9.512 A4.5712 
N1183 X242.319 Y-33.441 Z10.207 A1.8907 
N1184 X242.319 Y-32.832 Z10.633 A0.2477 
N1185 X242.319 Y-32.101 Z10.833 A359.4768 
N1186 X242.319 Y-31.247 Z10.901 A359.2186 
N1187 X242.319 Y-30.265 Z10.915 A359.1737 
N1188 X242.319 Y-29.153 Z10.919 A359.1725 
N1189 X242.319 Y-27.915 Z10.923 
N1190 X242.319 Y-26.559 Z10.927 
N1191 X242.319 Y-25.097 Z10.931 
N1192 X242.319 Y-23.549 Z10.936 
N1193 X242.319 Y-21.935 Z10.941 
N1194 X242.319 Y-20.280 Z10.946 
N1195 X242.319 Y-18.609 Z10.951 
N1196 X242.319 Y-16.947 Z10.956 
N1197 X242.319 Y-15.316 Z10.960 
N1198 X242.319 Y-13.735 Z10.965 
N1199 X242.319 Y-12.218 Z10.973 A359.1602 
N1200 X242.319 Y-10.772 Z11.062 A358.8040 
N1201 X242.319 Y-9.389 Z11.458 A357.1095 
N1202 X242.319 Y-8.015 Z12.323 A353.2464 
N1203 X242.319 Y-6.546 Z13.595 A347.2441 
N1204 X242.319 Y-4.879 Z15.068 A339.6714 
N1205 X242.319 Y-3.026 Z16.400 A331.7147 B0.0170 
N1206 X242.319 Y-1.125 Z17.337 A324.4677 B0.0630 
N1207 X242.319 Y0.685 Z17.825 A318.4020 B0.0806 
N1208 X242.319 Y2.308 Z17.898 A313.6810 B0.0694 
N1209 X242.319 Y3.634 Z17.566 A310.6614 B0.0508 
N1210 X242.319 Y4.721 Z16.959 A308.9215 B0.0338 
N1211 X242.319 Y5.741 Z16.247 A307.5434 B0.0117 
N1212 X242.318 Y6.699 Z15.444 A306.4807 B-0.0133 
N1213 X242.318 Y7.605 Z14.571 A305.6809 B-0.0391 
N1214 X242.318 Y8.530 Z13.691 A304.7661 B-0.0749 
N1215 X242.318 Y9.477 Z12.822 A303.6583 B-0.1247 
N1216 X242.318 Y10.363 Z11.923 A302.7278 B-0.1748 
N1217 X242.318 Y11.106 Z10.966 A302.3612 B-0.2045 
N1218 X242.318 Y11.749 Z10.000 A302.3333 B-0.2194 
N1219 X242.318 Y12.354 Z9.080 A302.3333 B-0.2322 
N1220 X242.318 Y12.919 Z8.221 A302.3333 B-0.2442 
N1221 X242.318 Y13.439 Z7.431 A302.3327 B-0.2553 
N1222 X242.318 Y13.913 Z6.717 A302.3153 B-0.2661 
N1223 X242.318 Y14.380 Z6.107 A302.0903 B-0.2870 
N1224 X242.317 Y14.942 Z5.662 A301.1437 B-0.3490 
N1225 X242.317 Y15.633 Z5.387 A299.3280 B-0.4636 
N1226 X242.316 Y16.413 Z5.236 A296.8601 B-0.6195 
N1227 X242.316 Y17.276 Z5.174 A293.8343 B-0.8114 
N1228 X242.315 Y18.226 Z5.174 A290.2857 B-1.0370 
N1229 X242.314 Y19.254 Z5.201 A286.3117 B-1.2896 
N1230 X242.313 Y20.350 Z5.224 A281.9914 B-1.5636 
N1231 X242.312 Y21.513 Z5.216 A277.3600 B-1.8559 
N1232 X242.311 Y22.719 Z5.151 A272.5156 B-2.1589 
N1233 X242.310 Y23.938 Z5.011 A267.5821 B-2.4635 
N1234 X242.309 Y25.146 Z4.787 A262.6290 B-2.7642 
N1235 X242.308 Y26.347 Z4.473 A257.6156 B-3.0619 
N1236 X242.307 Y27.576 Z4.047 A252.3592 B-3.3609 
N1237 X242.307 Y28.830 Z3.490 A246.8080 B-3.6420 
N1238 X242.306 Y29.918 Z2.876 A241.7497 B-3.8448 
N1239 X242.305 Y30.872 Z2.218 A237.0637 B-3.9756 
N1240 X242.305 Y31.773 Z1.477 A232.3442 B-4.0594 
N1241 X242.305 Y32.647 Z0.620 A227.3892 B-4.1053 
N1242 X242.305 Y33.508 Z-0.397 A221.9999 B-4.1137 
N1243 X242.305 Y34.332 Z-1.607 A216.0777 B-4.0780 
N1244 X242.305 Y35.052 Z-2.986 A209.7873 B-3.9914 
N1245 X242.306 Y35.590 Z-4.454 A203.4823 B-3.8563 
N1246 X242.306 Y35.903 Z-5.916 A197.4779 B-3.6852 
N1247 X242.307 Y35.984 Z-7.280 A192.0411 B-3.4977 
N1248 X242.308 Y35.849 Z-8.456 A187.4398 B-3.3169 
N1249 X242.308 Y35.531 Z-9.377 A183.8613 B-3.1637 
N1250 X242.309 Y35.065 Z-10.014 A181.3901 B-3.0519 
N1251 X242.309 Y34.474 Z-10.381 A179.9628 B-2.9853 
N1252 X242.309 Y33.767 Z-10.546 A179.3166 B-2.9547 
N1253 X242.309 Y32.941 Z-10.596 A179.1246 B-2.9454 
N1254 X242.309 Y31.990 Z-10.602 A179.1024 B-2.9437 
N1255 X242.309 Y30.912 Z-10.604 A179.1022 B-2.9428 
N1256 X242.309 Y29.711 Z-10.605 A179.1022 B-2.9418 
N1257 X242.309 Y28.395 Z-10.606 A179.1022 B-2.9408 
N1258 X242.309 Y26.977 Z-10.608 A179.1022 B-2.9396 
N1259 X242.309 Y25.475 Z-10.610 A179.1021 B-2.9384 
N1260 X242.309 Y23.910 Z-10.612 A179.1021 B-2.9371 
N1261 X242.309 Y22.306 Z-10.613 A179.1021 B-2.9358 
N1262 X242.309 Y20.687 Z-10.615 A179.1020 B-2.9345 
N1263 X242.309 Y19.078 Z-10.617 A179.1020 B-2.9332 
N1264 X242.309 Y17.499 Z-10.619 A179.1020 B-2.9320 
N1265 X242.309 Y15.970 Z-10.621 A179.1020 B-2.9307 
N1266 X242.309 Y14.501 Z-10.624 A179.0943 B-2.9292 
N1267 X242.309 Y13.100 Z-10.686 A178.8394 B-2.9194 
N1268 X242.309 Y11.758 Z-11.002 A177.4881 B-2.8755 
N1269 X242.309 Y10.428 Z-11.803 A173.9453 B-2.7629 
N1270 X242.310 Y8.982 Z-13.161 A167.6540 B-2.5441 
N1271 X242.311 Y7.247 Z-14.886 A159.0028 B-2.1649 
N1272 X242.313 Y5.161 Z-16.570 A149.2064 B-1.5481 
N1273 X242.316 Y2.972 Z-17.711 A140.3447 B-0.8980 
N1274 X242.317 Y0.959 Z-18.199 A133.3633 B-0.4070 
N1275 X242.318 Y-0.701 Z-18.113 A128.5639 B-0.0951 
N1276 X242.319 Y-1.832 Z-17.492 A126.5237 B0.0274 
N1277 X242.319 Y-2.606 Z-16.554 A126.3366 B0.0356 
N1278 X242.319 Y-3.363 Z-15.562 A126.3345 B0.0331 
N1279 X242.319 Y-4.137 Z-14.548 B0.0303 
N1280 X242.319 Y-4.923 Z-13.518 B0.0276 
N1281 X242.319 Y-5.712 Z-12.483 B0.0248 
N1282 X242.319 Y-6.495 Z-11.457 B0.0220 
N1283 X242.319 Y-7.262 Z-10.452 B0.0193 
N1284 X242.319 Y-8.001 Z-9.482 B0.0167 
N1285 X242.319 Y-8.703 Z-8.562 B0.0143 
N1286 X242.319 Y-9.359 Z-7.701 B0.0119 
N1287 X242.319 Y-9.963 Z-6.910 B0.0098 
N1288 X242.319 Y-10.509 Z-6.194 A126.3327 B0.0079 
N1289 X242.319 Y-11.014 Z-5.570 A126.2365 B0.0071 
N1290 X242.319 Y-11.546 Z-5.087 A125.6954 B0.0092 
N1291 X242.319 Y-12.193 Z-4.799 A124.2597 B0.0141 
N1292 X242.319 Y-12.971 Z-4.690 A121.8928 B0.0165 
N1293 X242.319 Y-13.839 Z-4.695 A118.8754 B0.0134 
N1294 X242.319 Y-14.794 Z-4.778 A115.2957 B0.0081 
N1295 X242.319 Y-15.845 Z-4.907 A111.1866 B0.0037 
N1296 X242.319 Y-16.984 Z-5.041 A106.6516 B0.0013 
N1297 X242.319 Y-18.202 Z-5.146 A101.7672 B0.0000 
N1298 X242.319 Y-19.484 Z-5.190 A96.6047 
N1299 X242.319 Y-20.796 Z-5.149 A91.3093 
N1300 X242.319 Y-22.096 Z-5.009 A86.0241 
N1301 X242.319 Y-23.360 Z-4.770 A80.8167 
N1302 X242.319 Y-24.581 Z-4.434 A75.6879 
N1303 X242.319 Y-25.774 Z-3.995 A70.5348 
N1304 X242.319 Y-26.967 Z-3.436 A65.1940 
N1305 X242.319 Y-28.132 Z-2.753 A59.7183 
N1306 X242.319 Y-29.153 Z-2.012 A54.6009 
N1307 X242.319 Y-30.058 Z-1.215 A49.7182 
N1308 X242.319 Y-30.945 Z-0.275 A44.4820 
N1309 X242.319 Y-31.817 Z0.856 A38.6994 
N1310 X242.319 Y-32.591 Z2.137 A32.6410 
N1311 X242.319 Y-33.199 Z3.498 A26.6232 
N1312 X242.319 Y-33.605 Z4.870 A20.8664 
N1313 X242.319 Y-33.801 Z6.181 A15.5721 
N1314 X242.319 Y-33.794 Z7.371 A10.8857 
N1315 X242.319 Y-33.604 Z8.402 A6.8890 
N1316 X242.319 Y-33.254 Z9.237 A3.6668 
N1317 X242.319 Y-32.762 Z9.823 A1.4106 
N1318 X242.319 Y-32.146 Z10.145 A0.1779 
N1319 X242.319 Y-31.412 Z10.280 A359.6741 
N1320 X242.319 Y-30.557 Z10.322 A359.5374 
N1321 X242.319 Y-29.576 Z10.335 A359.5233 
N1322 X242.319 Y-28.470 Z10.345 A359.5233 
N1323 X242.319 Y-27.243 Z10.356 
N1324 X242.319 Y-25.906 Z10.368 
N1325 X242.319 Y-24.472 Z10.381 
N1326 X242.319 Y-22.960 Z10.395 
N1327 X242.319 Y-21.394 Z10.410 
N1328 X242.319 Y-19.795 Z10.424 
N1329 X242.319 Y-18.190 Z10.439 
N1330 X242.319 Y-16.601 Z10.453 
N1331 X242.319 Y-15.049 Z10.468 
N1332 X242.319 Y-13.549 Z10.481 
N1333 X242.319 Y-12.112 Z10.499 A359.5033 
N1334 X242.319 Y-10.743 Z10.613 A359.0764 
N1335 X242.319 Y-9.428 Z11.062 A357.1895 
N1336 X242.319 Y-8.101 Z12.043 A352.8570 
N1337 X242.319 Y-6.611 Z13.547 A345.8355 
N1338 X242.319 Y-4.776 Z15.372 A336.4977 
N1339 X242.319 Y-2.629 Z16.973 A326.6912 B0.0190 
N1340 X242.319 Y-0.466 Z17.947 A318.2590 B0.0515 
N1341 X242.319 Y1.456 Z18.270 A311.8801 B0.0411 
N1342 X242.319 Y2.975 Z18.034 A307.8208 B0.0100 
N1343 X242.318 Y3.934 Z17.273 A306.6535 B-0.0055 
N1344 X242.318 Y4.690 Z16.315 A306.5969 B-0.0079 
N1345 X242.318 Y5.455 Z15.322 B-0.0095 
N1346 X242.318 Y6.236 Z14.307 B-0.0110 
N1347 X242.318 Y7.028 Z13.279 B-0.0126 
N1348 X242.318 Y7.821 Z12.249 B-0.0142 
N1349 X242.318 Y8.606 Z11.230 B-0.0158 
N1350 X242.318 Y9.371 Z10.236 B-0.0174 
N1351 X242.318 Y10.107 Z9.280 B-0.0188 
N1352 X242.318 Y10.803 Z8.376 B-0.0202 
N1353 X242.318 Y11.452 Z7.534 B-0.0215 
N1354 X242.318 Y12.046 Z6.762 A306.5959 B-0.0228 
N1355 X242.318 Y12.592 Z6.073 A306.5441 B-0.0270 
N1356 X242.318 Y13.134 Z5.503 A306.2048 B-0.0487 
N1357 X242.318 Y13.762 Z5.115 A305.1047 B-0.1184 
N1358 X242.318 Y14.509 Z4.912 A303.0994 B-0.2471 
N1359 X242.317 Y15.334 Z4.836 A300.4526 B-0.4196 
N1360 X242.316 Y16.223 Z4.848 A297.2977 B-0.6278 
N1361 X242.316 Y17.189 Z4.923 A293.6526 B-0.8700 
N1362 X242.315 Y18.231 Z5.028 A289.5828 B-1.1413 
N1363 X242.314 Y19.342 Z5.131 A285.1718 B-1.4353 
N1364 X242.313 Y20.519 Z5.203 A280.4621 B-1.7482 
N1365 X242.312 Y21.744 Z5.217 A275.5437 B-2.0724 
N1366 X242.311 Y22.981 Z5.154 A270.5511 B-2.3978 
N1367 X242.310 Y24.204 Z5.005 A265.5797 B-2.7173 
N1368 X242.309 Y25.416 Z4.765 A260.5876 B-3.0326 
N1369 X242.308 Y26.681 Z4.412 A255.2768 B-3.3558 
N1370 X242.306 Y28.052 Z3.897 A249.3446 B-3.6769 
N1371 X242.306 Y29.258 Z3.300 A243.8971 B-3.9122 
N1372 X242.305 Y30.280 Z2.665 A239.0271 B-4.0645 
N1373 X242.305 Y31.217 Z1.963 A234.2851 B-4.1658 
N1374 X242.305 Y32.112 Z1.162 A229.4220 B-4.2291 
N1375 X242.305 Y32.986 Z0.222 A224.2228 B-4.2566 
N1376 X242.305 Y33.834 Z-0.895 A218.5451 B-4.2435 
N1377 X242.305 Y34.603 Z-2.184 A212.4724 B-4.1819 
N1378 X242.305 Y35.216 Z-3.578 A206.3185 B-4.0703 
N1379 X242.306 Y35.622 Z-4.984 A200.4248 B-3.9183 
N1380 X242.306 Y35.809 Z-6.326 A195.0048 B-3.7422 
N1381 X242.307 Y35.789 Z-7.546 A190.1936 B-3.5593 
N1382 X242.307 Y35.583 Z-8.594 A186.1142 B-3.3874 
N1383 X242.308 Y35.213 Z-9.406 A182.9652 B-3.2451 
N1384 X242.308 Y34.705 Z-9.931 A180.9328 B-3.1483 
N1385 X242.308 Y34.078 Z-10.199 A179.8983 B-3.0966 
N1386 X242.308 Y33.333 Z-10.304 A179.5050 B-3.0751 
N1387 X242.308 Y32.468 Z-10.331 A179.4193 B-3.0678 
N1388 X242.308 Y31.477 Z-10.339 A179.4146 B-3.0637 
N1389 X242.308 Y30.361 Z-10.346 A179.4145 B-3.0594 
N1390 X242.308 Y29.125 Z-10.354 A179.4144 B-3.0545 
N1391 X242.309 Y27.779 Z-10.363 A179.4142 B-3.0492 
N1392 X242.309 Y26.339 Z-10.373 A179.4141 B-3.0436 
N1393 X242.309 Y24.823 Z-10.383 A179.4140 B-3.0376 
N1394 X242.309 Y23.254 Z-10.393 A179.4138 B-3.0315 
N1395 X242.309 Y21.656 Z-10.403 A179.4136 B-3.0252 
N1396 X242.309 Y20.054 Z-10.414 A179.4135 B-3.0189 
N1397 X242.309 Y18.473 Z-10.424 A179.4133 B-3.0127 
N1398 X242.309 Y16.931 Z-10.434 A179.4132 B-3.0067 
N1399 X242.309 Y15.446 Z-10.444 A179.4130 B-3.0009 
N1400 X242.309 Y14.029 Z-10.462 A179.3771 B-2.9940 
N1401 X242.309 Y12.684 Z-10.585 A178.8912 B-2.9724 
N1402 X242.309 Y11.399 Z-11.024 A177.0263 B-2.9084 
N1403 X242.309 Y10.110 Z-11.973 A172.8181 B-2.7670 
N1404 X242.310 Y8.682 Z-13.412 A166.0981 B-2.5177 
N1405 X242.312 Y6.964 Z-15.127 A157.3676 B-2.1001 
N1406 X242.314 Y4.961 Z-16.692 A148.0414 B-1.4809 
N1407 X242.316 Y2.929 Z-17.709 A139.8974 B-0.8749 
N1408 X242.317 Y1.088 Z-18.143 A133.5384 B-0.4227 
N1409 X242.318 Y-0.438 Z-18.083 A129.1067 B-0.1298 
N1410 X242.319 Y-1.529 Z-17.576 A126.9425 B0.0034 
N1411 X242.319 Y-2.262 Z-16.757 A126.6222 B0.0209 
N1412 X242.319 Y-2.948 Z-15.870 A126.6159 B0.0199 
N1413 X242.319 Y-3.645 Z-14.965 B0.0185 
N1414 X242.319 Y-4.353 Z-14.046 B0.0171 
N1415 X242.319 Y-5.067 Z-13.119 B0.0157 
N1416 X242.319 Y-11.171 Z-5.198 
N1417 G00 X242.329 Y-51.304 Z-35.020 
RAPORT("T44444","Spiral Rough Rhombic:105 End")
N1419 ;trailer : concat=None
; points cnt = 1357
N1420 MSG (" --- GROUPED OF SUBPROGRAM --- ")
N1421 FGROUP()
N1422 TRAFOOF
N10 ; PROGRAM NAME: 4444414
N11 ; ORDER       : 44444
N12 ; OPER. NAME  : Spiral Finish Rhombic:106
N13 ; OPER. DESCR.: Spiral Finish rhombic shroud
N14 ; OPER. TYPE  : rhombMillFinish
N15 ; GEO. OPTION : 2
N16 ; MACHINE     : SH_HX151_24_SIM840D
N17 ;             : STARRAG_HECKERT_5axis_finish_milling_machine
N18 ; CONTROL     : SINUMERIK 840D
N19 ; created:   2022-11-03 13:35:02.352372
;-------DODATKOWE DANE-------------------
; PROGRAMISTA : Mariusz Malec
; PARTID      : 139T004654P1015_-
;  ae         : 24.0
;  lean_angle : 1.0
;  pln_offset : 0.25
;----------------------------------------
N20 ;----------------------------------------
RAPORT("T44444","Spiral Finish Rhombic:106")
N21 TRAFOOF
N22 D0
N23 G0 G90 G94 Z260.0
N24 STOPRE
N25 M9 ; chlodziwo wyl
N26 ; --- Spiral Finish Rhombic:106 - Spiral Finish rhombic shroud ---
N28 ;ToolChange : concat=None ,current_tdmid=None, PP.tdmId=941292
N29 TRAFOOF
N30 D0
N31 G0 G54 Z270.0
N32 S2148 M03
N33 STOPRE
N34 TOL(0.01,1,1)
N35 G0  A359.0000
N36 TRAORI
N37 G54 D1
N38 D1 
N39 X242.319 Y-54.030 Z59.299 A359.0000 B0.0000 
N40 M346 ; chlodziwo mgla
N41 X242.319 Y-54.903 Z9.306 
N42 G01 X242.319 Y-44.903 Z9.306 F800 
N43 X242.319 Y-39.903 Z9.306 
N44 X242.319 Y-39.636 Z9.306 
N45 X242.319 Y-39.370 Z9.306 
N46 X242.319 Y-39.103 Z9.306 
N47 X242.319 Y-38.836 Z9.306 
N48 X242.319 Y-38.570 Z9.306 
N49 X242.319 Y-38.303 Z9.306 
N50 X242.319 Y-38.036 Z9.306 
N51 X242.319 Y-37.770 Z9.306 
N52 X242.319 Y-37.503 Z9.306 
N53 X242.319 Y-37.236 Z9.306 
N54 X242.319 Y-36.970 Z9.306 
N55 X242.319 Y-36.703 Z9.306 
N56 X242.319 Y-36.436 Z9.306 
N57 X242.319 Y-36.170 Z9.306 
N58 X242.319 Y-35.903 Z9.306 
N59 X242.319 Y-35.636 Z9.306 
N60 X242.319 Y-35.370 Z9.306 
N61 X242.319 Y-35.103 Z9.306 
N62 X242.319 Y-34.836 Z9.306 
N63 X242.319 Y-34.570 Z9.306 
N64 X242.319 Y-34.303 Z9.306 
N65 X242.319 Y-34.036 Z9.306 
N66 X242.319 Y-33.770 Z9.306 
N67 X242.319 Y-33.503 Z9.306 
N68 X242.319 Y-33.236 Z9.306 
N69 X242.319 Y-32.970 Z9.306 
N70 X242.319 Y-32.703 Z9.306 
N71 X242.319 Y-32.436 Z9.306 
N72 X242.319 Y-32.170 Z9.306 
N73 X242.319 Y-31.903 Z9.306 
N74 X242.319 Y-31.636 Z9.306 
N75 X242.319 Y-31.370 Z9.306 
N76 X242.319 Y-31.103 Z9.306 
N77 X242.319 Y-30.836 Z9.306 
N78 X242.319 Y-30.570 Z9.306 
N79 X242.319 Y-30.303 Z9.306 
N80 X242.319 Y-30.036 Z9.306 
N81 X242.319 Y-29.770 Z9.306 
N82 X242.319 Y-29.503 Z9.306 
N83 X242.319 Y-29.236 Z9.306 
N84 X242.319 Y-28.970 Z9.306 
N85 X242.319 Y-28.703 Z9.306 
N86 X242.319 Y-28.436 Z9.306 
N87 X242.319 Y-28.170 Z9.306 
N88 X242.319 Y-27.903 Z9.306 
N89 X242.319 Y-27.636 Z9.306 
N90 X242.319 Y-27.370 Z9.306 
N91 X242.319 Y-27.103 Z9.306 
N92 X242.319 Y-26.836 Z9.306 
N93 X242.319 Y-26.570 Z9.306 
N94 X242.319 Y-26.303 Z9.306 
N95 X242.319 Y-26.036 Z9.306 
N96 X242.319 Y-25.770 Z9.306 
N97 X242.319 Y-25.503 Z9.306 
N98 X242.319 Y-25.236 Z9.306 
N99 X242.319 Y-24.970 Z9.306 
N100 X242.319 Y-24.703 Z9.306 
N101 X242.319 Y-24.436 Z9.306 
N102 X242.319 Y-24.170 Z9.306 
N103 X242.319 Y-23.903 Z9.306 
N104 X242.319 Y-23.636 Z9.306 
N105 X242.319 Y-23.370 Z9.306 
N106 X242.319 Y-23.103 Z9.306 
N107 X242.319 Y-22.836 Z9.306 
N108 X242.319 Y-22.570 Z9.306 
N109 X242.319 Y-22.303 Z9.306 
N110 X242.319 Y-22.036 Z9.306 
N111 X242.319 Y-21.770 Z9.306 
N112 X242.319 Y-21.503 Z9.306 
N113 X242.319 Y-21.236 Z9.306 
N114 X242.319 Y-20.970 Z9.306 
N115 X242.319 Y-20.703 Z9.306 
N116 X242.319 Y-20.436 Z9.306 
N117 X242.319 Y-20.170 Z9.306 
N118 X242.319 Y-19.903 Z9.306 
N119 X242.319 Y8.015 Z9.306 
N120 X242.319 Y8.282 Z9.306 
N121 X242.319 Y8.549 Z9.306 
N122 X242.319 Y8.815 Z9.306 
N123 X242.319 Y9.082 Z9.306 
N124 X242.319 Y9.349 Z9.306 
N125 X242.319 Y9.615 Z9.306 
N126 X242.319 Y9.882 Z9.306 
N127 X242.319 Y10.149 Z9.306 
N128 X242.319 Y10.415 Z9.306 
N129 X242.319 Y10.682 Z9.306 
N130 X242.319 Y10.949 Z9.306 
N131 X242.319 Y11.215 Z9.306 
N132 X242.319 Y11.482 Z9.306 
N133 X242.319 Y11.749 Z9.306 
N134 X242.319 Y12.015 Z9.306 
N135 X242.319 Y12.282 Z9.306 
N136 X242.319 Y12.549 Z9.306 
N137 X242.319 Y12.815 Z9.306 
N138 X242.319 Y13.082 Z9.306 
N139 X242.319 Y13.349 Z9.306 
N140 X242.319 Y13.615 Z9.306 
N141 X242.319 Y13.882 Z9.306 
N142 X242.319 Y14.149 Z9.306 
N143 X242.319 Y14.415 Z9.306 
N144 X242.319 Y14.682 Z9.306 
N145 X242.319 Y14.949 Z9.306 
N146 X242.319 Y15.215 Z9.306 
N147 X242.319 Y15.482 Z9.306 
N148 X242.319 Y15.749 Z9.306 
N149 X242.319 Y16.015 Z9.306 
N150 X242.319 Y16.282 Z9.306 
N151 X242.319 Y16.549 Z9.306 
N152 X242.319 Y16.815 Z9.306 
N153 X242.319 Y17.082 Z9.306 
N154 X242.319 Y17.349 Z9.306 
N155 X242.319 Y17.615 Z9.306 
N156 X242.319 Y17.882 Z9.306 
N157 X242.319 Y18.149 Z9.306 
N158 X242.319 Y18.415 Z9.306 
N159 X242.319 Y18.682 Z9.306 
N160 X242.319 Y18.949 Z9.306 
N161 X242.319 Y19.215 Z9.306 
N162 X242.319 Y19.482 Z9.306 
N163 X242.319 Y19.749 Z9.306 
N164 X242.319 Y20.015 Z9.306 
N165 X242.319 Y20.282 Z9.306 
N166 X242.319 Y20.549 Z9.306 
N167 X242.319 Y20.815 Z9.306 
N168 X242.319 Y21.082 Z9.306 
N169 X242.319 Y21.349 Z9.306 
N170 X242.319 Y21.615 Z9.306 
N171 X242.319 Y21.882 Z9.306 
N172 X242.319 Y22.149 Z9.306 
N173 X242.319 Y22.415 Z9.306 
N174 X242.319 Y22.682 Z9.306 
N175 X242.319 Y22.949 Z9.306 
N176 X242.319 Y23.215 Z9.306 
N177 X242.319 Y23.482 Z9.306 
N178 X242.319 Y23.749 Z9.306 
N179 X242.319 Y24.015 Z9.306 
N180 X242.319 Y24.282 Z9.306 
N181 X242.319 Y24.549 Z9.306 
N182 X242.319 Y24.815 Z9.306 
N183 X242.319 Y25.082 Z9.306 
N184 X242.319 Y25.349 Z9.306 
N185 X242.319 Y25.615 Z9.306 
N186 X242.319 Y25.882 Z9.306 
N187 X242.319 Y26.149 Z9.306 
N188 X242.319 Y26.415 Z9.306 
N189 X242.319 Y26.682 Z9.306 
N190 X242.319 Y26.949 Z9.306 
N191 X242.319 Y27.215 Z9.306 
N192 X242.319 Y27.482 Z9.306 
N193 X242.319 Y27.749 Z9.306 
N194 X242.319 Y28.015 Z9.306 
N195 X242.319 Y28.190 Z19.305 
N196 G00 X242.319 Y29.063 Z69.297 
N197 ; DELTA A > 40.1
N198 TRAFOOF
N199 STOPRE
N200 G0 G53 D0 Z265.000
N201 G1 G53 A307.0000 F10000
N202 TRAORI
N203 G54 D1
N204 TRANS 
N205 X242.319 Y40.972 Z65.006 A307.0000 F15000 
N206 X242.319 Y1.040 Z34.915 
N207 X242.319 Y-6.946 Z28.897 F800 
N208 X242.319 Y-3.868 Z24.957 
N209 X242.319 Y-3.704 Z24.747 
N210 X242.319 Y-3.540 Z24.537 
N211 X242.319 Y-3.376 Z24.326 
N212 X242.319 Y-3.211 Z24.116 
N213 X242.319 Y-3.047 Z23.906 
N214 X242.319 Y-2.883 Z23.696 
N215 X242.319 Y-2.719 Z23.486 
N216 X242.319 Y-2.555 Z23.276 
N217 X242.319 Y-2.391 Z23.066 
N218 X242.319 Y-2.226 Z22.856 
N219 X242.319 Y-2.062 Z22.645 
N220 X242.319 Y-1.898 Z22.435 
N221 X242.319 Y-1.734 Z22.225 
N222 X242.319 Y-1.570 Z22.015 
N223 X242.319 Y-1.406 Z21.805 
N224 X242.319 Y-1.241 Z21.595 
N225 X242.319 Y-1.077 Z21.385 
N226 X242.319 Y-0.913 Z21.174 
N227 X242.319 Y-0.749 Z20.964 
N228 X242.319 Y-0.585 Z20.754 
N229 X242.319 Y-0.420 Z20.544 
N230 X242.319 Y-0.256 Z20.334 
N231 X242.319 Y-0.092 Z20.124 
N232 X242.319 Y0.072 Z19.914 
N233 X242.319 Y0.236 Z19.703 
N234 X242.319 Y0.400 Z19.493 
N235 X242.319 Y0.565 Z19.283 
N236 X242.319 Y0.729 Z19.073 
N237 X242.319 Y0.893 Z18.863 
N238 X242.319 Y1.057 Z18.653 
N239 X242.319 Y1.221 Z18.443 
N240 X242.319 Y1.385 Z18.233 
N241 X242.319 Y1.550 Z18.022 
N242 X242.319 Y1.714 Z17.812 
N243 X242.319 Y1.878 Z17.602 
N244 X242.319 Y2.042 Z17.392 
N245 X242.319 Y2.206 Z17.182 
N246 X242.319 Y2.371 Z16.972 
N247 X242.319 Y2.535 Z16.762 
N248 X242.319 Y2.699 Z16.551 
N249 X242.319 Y2.863 Z16.341 
N250 X242.319 Y3.027 Z16.131 
N251 X242.319 Y3.191 Z15.921 
N252 X242.319 Y3.356 Z15.711 
N253 X242.319 Y3.520 Z15.501 
N254 X242.319 Y3.684 Z15.291 
N255 X242.319 Y3.848 Z15.080 
N256 X242.319 Y4.012 Z14.870 
N257 X242.319 Y4.176 Z14.660 
N258 X242.319 Y4.341 Z14.450 
N259 X242.319 Y4.505 Z14.240 
N260 X242.319 Y4.669 Z14.030 
N261 X242.319 Y4.833 Z13.820 
N262 X242.319 Y4.997 Z13.610 
N263 X242.319 Y5.162 Z13.399 
N264 X242.319 Y5.326 Z13.189 
N265 X242.319 Y5.490 Z12.979 
N266 X242.319 Y5.654 Z12.769 
N267 X242.319 Y5.818 Z12.559 
N268 X242.319 Y5.982 Z12.349 
N269 X242.319 Y6.147 Z12.139 
N270 X242.319 Y6.311 Z11.928 
N271 X242.319 Y6.475 Z11.718 
N272 X242.319 Y6.639 Z11.508 
N273 X242.319 Y6.803 Z11.298 
N274 X242.319 Y6.967 Z11.088 
N275 X242.319 Y7.132 Z10.878 
N276 X242.319 Y7.296 Z10.668 
N277 X242.319 Y7.460 Z10.457 
N278 X242.319 Y7.624 Z10.247 
N279 X242.319 Y7.788 Z10.037 
N280 X242.319 Y7.953 Z9.827 
N281 X242.319 Y8.117 Z9.617 
N282 X242.319 Y8.281 Z9.407 
N283 X242.319 Y8.445 Z9.197 
N284 X242.319 Y22.158 Z-8.356 
N285 X242.319 Y22.323 Z-8.566 
N286 X242.319 Y22.487 Z-8.776 
N287 X242.319 Y22.651 Z-8.986 
N288 X242.319 Y22.815 Z-9.196 
N289 X242.319 Y22.979 Z-9.406 
N290 X242.319 Y23.143 Z-9.616 
N291 X242.319 Y23.308 Z-9.826 
N292 X242.319 Y23.472 Z-10.037 
N293 X242.319 Y23.636 Z-10.247 
N294 X242.319 Y23.800 Z-10.457 
N295 X242.319 Y23.964 Z-10.667 
N296 X242.319 Y24.128 Z-10.877 
N297 X242.319 Y24.293 Z-11.087 
N298 X242.319 Y24.457 Z-11.297 
N299 X242.319 Y24.621 Z-11.508 
N300 X242.319 Y24.785 Z-11.718 
N301 X242.319 Y24.949 Z-11.928 
N302 X242.319 Y25.114 Z-12.138 
N303 X242.319 Y25.278 Z-12.348 
N304 X242.319 Y25.442 Z-12.558 
N305 X242.319 Y25.606 Z-12.768 
N306 X242.319 Y25.770 Z-12.979 
N307 X242.319 Y25.934 Z-13.189 
N308 X242.319 Y26.099 Z-13.399 
N309 X242.319 Y26.263 Z-13.609 
N310 X242.319 Y26.427 Z-13.819 
N311 X242.319 Y26.591 Z-14.029 
N312 X242.319 Y26.755 Z-14.239 
N313 X242.319 Y26.919 Z-14.449 
N314 X242.319 Y27.084 Z-14.660 
N315 X242.319 Y27.248 Z-14.870 
N316 X242.319 Y27.412 Z-15.080 
N317 X242.319 Y27.576 Z-15.290 
N318 X242.319 Y27.740 Z-15.500 
N319 X242.319 Y27.905 Z-15.710 
N320 X242.319 Y28.069 Z-15.920 
N321 X242.319 Y28.233 Z-16.131 
N322 X242.319 Y28.397 Z-16.341 
N323 X242.319 Y28.561 Z-16.551 
N324 X242.319 Y28.725 Z-16.761 
N325 X242.319 Y28.890 Z-16.971 
N326 X242.319 Y29.054 Z-17.181 
N327 X242.319 Y29.218 Z-17.391 
N328 X242.319 Y29.382 Z-17.602 
N329 X242.319 Y29.546 Z-17.812 
N330 X242.319 Y29.710 Z-18.022 
N331 X242.319 Y29.875 Z-18.232 
N332 X242.319 Y30.039 Z-18.442 
N333 X242.319 Y30.203 Z-18.652 
N334 X242.319 Y30.367 Z-18.862 
N335 X242.319 Y30.531 Z-19.072 
N336 X242.319 Y30.696 Z-19.283 
N337 X242.319 Y30.860 Z-19.493 
N338 X242.319 Y31.024 Z-19.703 
N339 X242.319 Y31.188 Z-19.913 
N340 X242.319 Y31.352 Z-20.123 
N341 X242.319 Y31.516 Z-20.333 
N342 X242.319 Y31.681 Z-20.543 
N343 X242.319 Y31.845 Z-20.754 
N344 X242.319 Y32.009 Z-20.964 
N345 X242.319 Y32.173 Z-21.174 
N346 X242.319 Y32.337 Z-21.384 
N347 X242.319 Y32.501 Z-21.594 
N348 X242.319 Y32.666 Z-21.804 
N349 X242.319 Y32.830 Z-22.014 
N350 X242.319 Y32.994 Z-22.225 
N351 X242.319 Y33.158 Z-22.435 
N352 X242.319 Y33.322 Z-22.645 
N353 X242.319 Y33.487 Z-22.855 
N354 X242.319 Y33.651 Z-23.065 
N355 X242.319 Y33.815 Z-23.275 
N356 X242.319 Y33.979 Z-23.485 
N357 X242.319 Y34.143 Z-23.695 
N358 X242.319 Y34.307 Z-23.906 
N359 X242.319 Y34.472 Z-24.116 
N360 X242.319 Y42.458 Z-18.098 
N361 G00 X242.319 Y82.390 Z11.993 
N362 ; DELTA A > 40.1
N363 TRAFOOF
N364 STOPRE
N365 G0 G53 D0 Z265.000
N366 G1 G53 A179.0026 F10000
N367 TRAORI
N368 G54 D1
N369 TRANS 
N370 X239.468 Y45.834 Z-69.181 A179.0026 B-3.5265 F15000 
N371 X241.824 Y46.750 Z-19.245 
N372 X242.295 Y46.933 Z-9.258 F800 
N373 X242.295 Y41.933 Z-9.253 
N374 X242.295 Y41.667 Z-9.253 
N375 X242.295 Y41.400 Z-9.253 
N376 X242.295 Y41.133 Z-9.253 
N377 X242.295 Y40.867 Z-9.253 
N378 X242.295 Y40.600 Z-9.252 
N379 X242.295 Y40.333 Z-9.252 
N380 X242.295 Y40.067 Z-9.252 
N381 X242.295 Y39.800 Z-9.252 
N382 X242.295 Y39.533 Z-9.251 
N383 X242.295 Y39.267 Z-9.251 
N384 X242.295 Y39.000 Z-9.251 
N385 X242.295 Y38.733 Z-9.251 
N386 X242.295 Y38.467 Z-9.250 
N387 X242.295 Y38.200 Z-9.250 
N388 X242.295 Y37.933 Z-9.250 
N389 X242.295 Y37.667 Z-9.250 
N390 X242.295 Y37.400 Z-9.250 
N391 X242.295 Y37.133 Z-9.249 
N392 X242.295 Y36.867 Z-9.249 
N393 X242.295 Y36.600 Z-9.249 
N394 X242.295 Y36.333 Z-9.249 
N395 X242.295 Y36.067 Z-9.248 
N396 X242.295 Y35.800 Z-9.248 
N397 X242.295 Y35.533 Z-9.248 
N398 X242.295 Y35.267 Z-9.248 
N399 X242.295 Y35.000 Z-9.247 
N400 X242.295 Y34.733 Z-9.247 
N401 X242.295 Y34.467 Z-9.247 
N402 X242.295 Y34.200 Z-9.247 
N403 X242.295 Y33.933 Z-9.246 
N404 X242.295 Y33.667 Z-9.246 
N405 X242.295 Y33.400 Z-9.246 
N406 X242.295 Y33.133 Z-9.246 
N407 X242.295 Y32.867 Z-9.246 
N408 X242.295 Y32.600 Z-9.245 
N409 X242.295 Y32.333 Z-9.245 
N410 X242.295 Y32.067 Z-9.245 
N411 X242.295 Y31.800 Z-9.245 
N412 X242.295 Y31.533 Z-9.244 
N413 X242.295 Y31.267 Z-9.244 
N414 X242.295 Y31.000 Z-9.244 
N415 X242.295 Y30.733 Z-9.244 
N416 X242.295 Y30.467 Z-9.243 
N417 X242.295 Y30.200 Z-9.243 
N418 X242.295 Y29.933 Z-9.243 
N419 X242.295 Y29.667 Z-9.243 
N420 X242.295 Y29.400 Z-9.243 
N421 X242.295 Y29.133 Z-9.242 
N422 X242.295 Y28.867 Z-9.242 
N423 X242.295 Y28.600 Z-9.242 
N424 X242.295 Y28.333 Z-9.242 
N425 X242.295 Y28.067 Z-9.241 
N426 X242.295 Y27.800 Z-9.241 
N427 X242.295 Y27.533 Z-9.241 
N428 X242.295 Y27.267 Z-9.241 
N429 X242.295 Y27.000 Z-9.240 
N430 X242.295 Y26.733 Z-9.240 
N431 X242.295 Y26.467 Z-9.240 
N432 X242.295 Y26.200 Z-9.240 
N433 X242.295 Y25.933 Z-9.240 
N434 X242.295 Y25.667 Z-9.239 
N435 X242.295 Y25.400 Z-9.239 
N436 X242.295 Y25.133 Z-9.239 
N437 X242.295 Y24.867 Z-9.239 
N438 X242.295 Y24.600 Z-9.238 
N439 X242.295 Y24.333 Z-9.238 
N440 X242.295 Y24.067 Z-9.238 
N441 X242.295 Y23.800 Z-9.238 
N442 X242.295 Y23.533 Z-9.237 
N443 X242.295 Y23.267 Z-9.237 
N444 X242.295 Y23.000 Z-9.237 
N445 X242.295 Y22.733 Z-9.237 
N446 X242.295 Y22.467 Z-9.237 
N447 X242.295 Y22.200 Z-9.236 
N448 X242.295 Y21.933 Z-9.236 
N449 X242.295 Y-6.004 Z-9.212 
N450 X242.295 Y-6.271 Z-9.212 
N451 X242.295 Y-6.537 Z-9.211 
N452 X242.295 Y-6.804 Z-9.211 
N453 X242.295 Y-7.071 Z-9.211 
N454 X242.295 Y-7.337 Z-9.211 
N455 X242.295 Y-7.604 Z-9.210 
N456 X242.295 Y-7.871 Z-9.210 
N457 X242.295 Y-8.137 Z-9.210 
N458 X242.295 Y-8.404 Z-9.210 
N459 X242.295 Y-8.671 Z-9.209 
N460 X242.295 Y-8.937 Z-9.209 
N461 X242.295 Y-9.204 Z-9.209 
N462 X242.295 Y-9.471 Z-9.209 
N463 X242.295 Y-9.737 Z-9.209 
N464 X242.295 Y-10.004 Z-9.208 
N465 X242.295 Y-10.271 Z-9.208 
N466 X242.295 Y-10.537 Z-9.208 
N467 X242.295 Y-10.804 Z-9.208 
N468 X242.295 Y-11.071 Z-9.207 
N469 X242.295 Y-11.337 Z-9.207 
N470 X242.295 Y-11.604 Z-9.207 
N471 X242.295 Y-11.871 Z-9.207 
N472 X242.295 Y-12.137 Z-9.206 
N473 X242.295 Y-12.404 Z-9.206 
N474 X242.295 Y-12.671 Z-9.206 
N475 X242.295 Y-12.937 Z-9.206 
N476 X242.295 Y-13.204 Z-9.206 
N477 X242.295 Y-13.471 Z-9.205 
N478 X242.295 Y-13.737 Z-9.205 
N479 X242.295 Y-14.004 Z-9.205 
N480 X242.295 Y-14.271 Z-9.205 
N481 X242.295 Y-14.537 Z-9.204 
N482 X242.295 Y-14.804 Z-9.204 
N483 X242.295 Y-15.071 Z-9.204 
N484 X242.295 Y-15.337 Z-9.204 
N485 X242.295 Y-15.604 Z-9.203 
N486 X242.295 Y-15.871 Z-9.203 
N487 X242.295 Y-16.137 Z-9.203 
N488 X242.295 Y-16.404 Z-9.203 
N489 X242.295 Y-16.671 Z-9.202 
N490 X242.295 Y-16.937 Z-9.202 
N491 X242.295 Y-17.204 Z-9.202 
N492 X242.295 Y-17.471 Z-9.202 
N493 X242.295 Y-17.737 Z-9.202 
N494 X242.295 Y-18.004 Z-9.201 
N495 X242.295 Y-18.271 Z-9.201 
N496 X242.295 Y-18.537 Z-9.201 
N497 X242.295 Y-18.804 Z-9.201 
N498 X242.295 Y-19.071 Z-9.200 
N499 X242.295 Y-19.337 Z-9.200 
N500 X242.295 Y-19.604 Z-9.200 
N501 X242.295 Y-19.871 Z-9.200 
N502 X242.295 Y-20.137 Z-9.199 
N503 X242.295 Y-20.404 Z-9.199 
N504 X242.295 Y-20.671 Z-9.199 
N505 X242.295 Y-20.937 Z-9.199 
N506 X242.295 Y-21.204 Z-9.199 
N507 X242.295 Y-21.471 Z-9.198 
N508 X242.295 Y-21.737 Z-9.198 
N509 X242.295 Y-22.004 Z-9.198 
N510 X242.295 Y-22.271 Z-9.198 
N511 X242.295 Y-22.537 Z-9.197 
N512 X242.295 Y-22.804 Z-9.197 
N513 X242.295 Y-23.071 Z-9.197 
N514 X242.295 Y-23.337 Z-9.197 
N515 X242.295 Y-23.604 Z-9.196 
N516 X242.295 Y-23.871 Z-9.196 
N517 X242.295 Y-24.137 Z-9.196 
N518 X242.295 Y-24.404 Z-9.196 
N519 X242.295 Y-24.671 Z-9.196 
N520 X242.295 Y-24.937 Z-9.195 
N521 X242.295 Y-25.204 Z-9.195 
N522 X242.295 Y-25.471 Z-9.195 
N523 X242.295 Y-25.737 Z-9.195 
N524 X242.295 Y-26.004 Z-9.194 
N525 X241.824 Y-26.187 Z-19.182 
N526 G00 X239.468 Y-27.103 Z-69.118 
N527 ; DELTA A > 40.1
N528 TRAFOOF
N529 STOPRE
N530 G0 G53 D0 Z265.000
N531 G1 G53 A127.0000 F10000
N532 TRAORI
N533 G54 D1
N534 TRANS 
N535 X242.319 Y-38.960 Z-64.912 A127.0000 B0.0000 F15000 
N536 X242.319 Y0.972 Z-34.821 
N537 X242.319 Y8.958 Z-28.803 F800 
N538 X242.319 Y5.880 Z-24.863 
N539 X242.319 Y5.716 Z-24.653 
N540 X242.319 Y5.552 Z-24.443 
N541 X242.319 Y5.387 Z-24.233 
N542 X242.319 Y5.223 Z-24.022 
N543 X242.319 Y5.059 Z-23.812 
N544 X242.319 Y4.895 Z-23.602 
N545 X242.319 Y4.731 Z-23.392 
N546 X242.319 Y4.567 Z-23.182 
N547 X242.319 Y4.402 Z-22.972 
N548 X242.319 Y4.238 Z-22.762 
N549 X242.319 Y4.074 Z-22.551 
N550 X242.319 Y3.910 Z-22.341 
N551 X242.319 Y3.746 Z-22.131 
N552 X242.319 Y3.582 Z-21.921 
N553 X242.319 Y3.417 Z-21.711 
N554 X242.319 Y3.253 Z-21.501 
N555 X242.319 Y3.089 Z-21.291 
N556 X242.319 Y2.925 Z-21.080 
N557 X242.319 Y2.761 Z-20.870 
N558 X242.319 Y2.596 Z-20.660 
N559 X242.319 Y2.432 Z-20.450 
N560 X242.319 Y2.268 Z-20.240 
N561 X242.319 Y2.104 Z-20.030 
N562 X242.319 Y1.940 Z-19.820 
N563 X242.319 Y1.776 Z-19.610 
N564 X242.319 Y1.611 Z-19.399 
N565 X242.319 Y1.447 Z-19.189 
N566 X242.319 Y1.283 Z-18.979 
N567 X242.319 Y1.119 Z-18.769 
N568 X242.319 Y0.955 Z-18.559 
N569 X242.319 Y0.791 Z-18.349 
N570 X242.319 Y0.626 Z-18.139 
N571 X242.319 Y0.462 Z-17.928 
N572 X242.319 Y0.298 Z-17.718 
N573 X242.319 Y0.134 Z-17.508 
N574 X242.319 Y-0.030 Z-17.298 
N575 X242.319 Y-0.195 Z-17.088 
N576 X242.319 Y-0.359 Z-16.878 
N577 X242.319 Y-0.523 Z-16.668 
N578 X242.319 Y-0.687 Z-16.457 
N579 X242.319 Y-0.851 Z-16.247 
N580 X242.319 Y-1.015 Z-16.037 
N581 X242.319 Y-1.180 Z-15.827 
N582 X242.319 Y-1.344 Z-15.617 
N583 X242.319 Y-1.508 Z-15.407 
N584 X242.319 Y-1.672 Z-15.197 
N585 X242.319 Y-1.836 Z-14.987 
N586 X242.319 Y-2.000 Z-14.776 
N587 X242.319 Y-2.165 Z-14.566 
N588 X242.319 Y-2.329 Z-14.356 
N589 X242.319 Y-2.493 Z-14.146 
N590 X242.319 Y-2.657 Z-13.936 
N591 X242.319 Y-2.821 Z-13.726 
N592 X242.319 Y-2.986 Z-13.516 
N593 X242.319 Y-3.150 Z-13.305 
N594 X242.319 Y-3.314 Z-13.095 
N595 X242.319 Y-3.478 Z-12.885 
N596 X242.319 Y-3.642 Z-12.675 
N597 X242.319 Y-3.806 Z-12.465 
N598 X242.319 Y-3.971 Z-12.255 
N599 X242.319 Y-4.135 Z-12.045 
N600 X242.319 Y-4.299 Z-11.834 
N601 X242.319 Y-4.463 Z-11.624 
N602 X242.319 Y-4.627 Z-11.414 
N603 X242.319 Y-4.791 Z-11.204 
N604 X242.319 Y-4.956 Z-10.994 
N605 X242.319 Y-5.120 Z-10.784 
N606 X242.319 Y-5.284 Z-10.574 
N607 X242.319 Y-5.448 Z-10.364 
N608 X242.319 Y-5.612 Z-10.153 
N609 X242.319 Y-5.777 Z-9.943 
N610 X242.319 Y-5.941 Z-9.733 
N611 X242.319 Y-6.105 Z-9.523 
N612 X242.319 Y-6.269 Z-9.313 
N613 X242.319 Y-6.433 Z-9.103 
N614 X242.319 Y-20.128 Z8.425 
N615 X242.319 Y-20.292 Z8.635 
N616 X242.319 Y-20.456 Z8.845 
N617 X242.319 Y-20.620 Z9.056 
N618 X242.319 Y-20.784 Z9.266 
N619 X242.319 Y-20.948 Z9.476 
N620 X242.319 Y-21.113 Z9.686 
N621 X242.319 Y-21.277 Z9.896 
N622 X242.319 Y-21.441 Z10.106 
N623 X242.319 Y-21.605 Z10.316 
N624 X242.319 Y-21.769 Z10.527 
N625 X242.319 Y-21.933 Z10.737 
N626 X242.319 Y-22.098 Z10.947 
N627 X242.319 Y-22.262 Z11.157 
N628 X242.319 Y-22.426 Z11.367 
N629 X242.319 Y-22.590 Z11.577 
N630 X242.319 Y-22.754 Z11.787 
N631 X242.319 Y-22.919 Z11.997 
N632 X242.319 Y-23.083 Z12.208 
N633 X242.319 Y-23.247 Z12.418 
N634 X242.319 Y-23.411 Z12.628 
N635 X242.319 Y-23.575 Z12.838 
N636 X242.319 Y-23.739 Z13.048 
N637 X242.319 Y-23.904 Z13.258 
N638 X242.319 Y-24.068 Z13.468 
N639 X242.319 Y-24.232 Z13.679 
N640 X242.319 Y-24.396 Z13.889 
N641 X242.319 Y-24.560 Z14.099 
N642 X242.319 Y-24.724 Z14.309 
N643 X242.319 Y-24.889 Z14.519 
N644 X242.319 Y-25.053 Z14.729 
N645 X242.319 Y-25.217 Z14.939 
N646 X242.319 Y-25.381 Z15.150 
N647 X242.319 Y-25.545 Z15.360 
N648 X242.319 Y-25.710 Z15.570 
N649 X242.319 Y-25.874 Z15.780 
N650 X242.319 Y-26.038 Z15.990 
N651 X242.319 Y-26.202 Z16.200 
N652 X242.319 Y-26.366 Z16.410 
N653 X242.319 Y-26.530 Z16.620 
N654 X242.319 Y-26.695 Z16.831 
N655 X242.319 Y-26.859 Z17.041 
N656 X242.319 Y-27.023 Z17.251 
N657 X242.319 Y-27.187 Z17.461 
N658 X242.319 Y-27.351 Z17.671 
N659 X242.319 Y-27.515 Z17.881 
N660 X242.319 Y-27.680 Z18.091 
N661 X242.319 Y-27.844 Z18.302 
N662 X242.319 Y-28.008 Z18.512 
N663 X242.319 Y-28.172 Z18.722 
N664 X242.319 Y-28.336 Z18.932 
N665 X242.319 Y-28.501 Z19.142 
N666 X242.319 Y-28.665 Z19.352 
N667 X242.319 Y-28.829 Z19.562 
N668 X242.319 Y-28.993 Z19.773 
N669 X242.319 Y-29.157 Z19.983 
N670 X242.319 Y-29.321 Z20.193 
N671 X242.319 Y-29.486 Z20.403 
N672 X242.319 Y-29.650 Z20.613 
N673 X242.319 Y-29.814 Z20.823 
N674 X242.319 Y-29.978 Z21.033 
N675 X242.319 Y-30.142 Z21.243 
N676 X242.319 Y-30.306 Z21.454 
N677 X242.319 Y-30.471 Z21.664 
N678 X242.319 Y-30.635 Z21.874 
N679 X242.319 Y-30.799 Z22.084 
N680 X242.319 Y-30.963 Z22.294 
N681 X242.319 Y-31.127 Z22.504 
N682 X242.319 Y-31.292 Z22.714 
N683 X242.319 Y-31.456 Z22.925 
N684 X242.319 Y-31.620 Z23.135 
N685 X242.319 Y-31.784 Z23.345 
N686 X242.319 Y-31.948 Z23.555 
N687 X242.319 Y-32.112 Z23.765 
N688 X242.319 Y-32.277 Z23.975 
N689 X242.319 Y-32.441 Z24.185 
N690 X242.319 Y-38.597 Z32.065 
N691 G00 X242.319 Y-78.529 Z1.975 
RAPORT("T44444","Spiral Finish Rhombic:106 End")
N693 ;trailer : concat=None
; points cnt = 622
N694 M347 ; mgla wyl
N695 M347 ; mgla wyl
N696 MSG (" --- KONIEC PROGRAMU --- ")
N697 TRANS
N698 G54
N699 FGROUP()
N700 TRAFOOF
N701 STOPRE
N702 G0 G53 D0 Z290.0 M9 M5
N703 G0 G53 Y150 A0 B0
N704 M17
