N10 ; PROGRAM NAME: 4444413
N11 ; ORDER       : 44444
N12 ; OPER. NAME  : Spiral Rough Airfoil:104
N13 ; OPER. DESCR.: spiral roughing airfoil/pioro zgr
N14 ; OPER. TYPE  : rouAirfoil
N15 ; GEO. OPTION : 6
N16 ; MACHINE     : SH_HX151_24_SIM840D
N17 ;             : STARRAG_HECKERT_5axis_finish_milling_machine
N18 ; CONTROL     : SINUMERIK 840D
N19 ; created:   2022-11-03 13:34:49.875117
;-------DODATKOWE DANE-------------------
; PROGRAMISTA : Mariusz Malec
; PARTID      : 139T004654P1015_-
;  ap         : 2.5
;  ae         : 17.0
;  lean_angle : 1.0
;  airf_offset: 1.0
;----------------------------------------
N20 ;----------------------------------------
RAPORT("T44444","Spiral Rough Airfoil:104")
N21 TRAFOOF
N22 D0
N23 G90 G94
N24 STOPRE
N25 M9 ; chlodziwo wyl
N26 ; --- Spiral Rough Airfoil:104 - spiral roughing airfoil/pioro zgr ---
N28 ;ToolChange : concat=None ,current_tdmid=None, PP.tdmId=941294
N29 MSG(" TLID=941294 D=32.0 R=5.0 Ang=0.0 Len=105.0 ")
N30 TRAFOOF
N31 D0
N32 G0 G53 Z290 B0
N33 G0 X200
N34 G0 Y150
N35 T="7741294"
N36 G0 X500
RAPORT("T44444","ToolChangeStart 7741294")
N37 M6
RAPORT("T44444","ToolChangeEnd")
N38 ; (Preloading tool)
N39 T="7741292"
N40 G0 X200
N41 STOPRE
N42 S2685 M03
N43 STOPRE
N44 TOL(0.1,1,1)
N45 G0 X198.173 A178.8236
N46 TRAORI
N47 G54 D1
N48 D1 
N49 ; DELTA A > 40.1
N50 TRAFOOF
N51 STOPRE
N52 G0 G53 D0 Z265.000
N53 G1 G53 A178.8236 F10000
N54 TRAORI
N55 G54 D1
N56 TRANS 
N57 G00 X198.173 Y48.528 Z-75.436 A178.8236 B0.0000 
N58 M346 ; chlodziwo mgla
N59 X198.173 Y49.554 Z-25.446 
N60 G01 X198.173 Y49.074 Z-22.354 F2792 
N61 X198.173 Y47.662 Z-19.562 
N62 X198.173 Y45.457 Z-17.343 
N63 X198.173 Y42.674 Z-15.914 
N64 X198.173 Y39.585 Z-15.415 
N65 X198.173 Y34.119 Z-15.412 A178.7410 
N66 X198.173 Y28.739 Z-15.393 A178.7227 
N67 X198.173 Y23.526 Z-15.374 A178.7697 
N68 X198.173 Y18.542 Z-15.368 
N69 X198.173 Y13.854 Z-15.363 A178.7688 
N70 X198.173 Y9.511 Z-15.360 A178.7606 
N71 X198.173 Y5.548 Z-15.357 A178.7519 
N72 X198.173 Y1.983 Z-15.354 A178.7453 
N73 X198.173 Y-1.180 Z-15.350 A178.7472 
N74 X198.173 Y-3.950 Z-15.345 A178.7697 
N75 X198.173 Y-6.346 Z-15.346 
N76 X198.173 Y-8.415 Z-15.347 
N77 X198.173 Y-10.176 Z-15.475 A178.0492 
N78 X198.173 Y-11.695 Z-15.879 A175.7185 
N79 X198.173 Y-13.079 Z-16.735 A170.6332 
N80 X198.173 Y-14.531 Z-18.076 A162.2657 
N81 X198.173 Y-16.323 Z-19.774 A150.6220 
N82 X198.173 Y-18.582 Z-21.383 A137.0794 
N83 X198.173 Y-21.122 Z-22.456 A123.5268 
N84 X198.173 Y-23.525 Z-22.801 A111.7372 
N85 X198.173 Y-25.465 Z-22.538 A102.6027 
N86 X198.173 Y-26.858 Z-21.891 A96.0988 
N87 X198.173 Y-27.717 Z-21.025 A92.0523 
N88 X198.173 Y-28.162 Z-20.033 A89.9195 
N89 X198.173 Y-28.358 Z-18.948 A88.9406 
N90 X198.173 Y-28.428 Z-17.778 A88.5522 
N91 X198.173 Y-28.441 Z-16.526 A88.4267 
N92 X198.173 Y-28.431 Z-15.202 A88.4073 
N93 X198.173 Y-28.415 Z-13.818 A88.4203 
N94 X198.173 Y-28.401 Z-12.393 A88.4297 
N95 X198.173 Y-28.390 Z-10.946 A88.4241 
N96 X198.173 Y-28.381 Z-9.501 A88.4104 
N97 X198.173 Y-28.372 Z-8.079 A88.4053 
N98 X198.173 Y-28.358 Z-6.701 A88.4354 
N99 X198.173 Y-28.352 Z-5.387 
N100 X198.173 Y-28.347 Z-4.141 
N101 X198.173 Y-28.365 Z-2.966 A88.3052 
N102 X198.173 Y-28.492 Z-1.883 A87.5660 
N103 X198.173 Y-28.771 Z-0.874 A85.9383 
N104 X198.173 Y-29.299 Z0.091 A82.8350 
N105 X198.173 Y-30.231 Z1.110 A77.2790 
N106 X198.173 Y-31.689 Z2.394 A68.1998 
N107 X198.173 Y-33.408 Z4.171 A56.1197 
N108 X198.173 Y-34.978 Z6.551 A41.9721 
N109 X198.173 Y-35.898 Z9.270 A27.7468 
N110 X198.173 Y-35.968 Z11.768 A15.6482 
N111 X198.173 Y-35.365 Z13.597 A7.0343 
N112 X198.173 Y-34.371 Z14.626 A2.2131 
N113 X198.173 Y-33.158 Z15.076 A0.1041 
N114 X198.173 Y-31.761 Z15.240 A359.3365 
N115 X198.173 Y-30.172 Z15.289 A359.1120 
N116 X198.173 Y-28.379 Z15.300 A359.0741 
N117 X198.173 Y-26.379 Z15.301 A359.0887 
N118 X198.173 Y-24.175 Z15.305 A359.1025 
N119 X198.173 Y-21.783 Z15.313 
N120 X198.173 Y-19.227 Z15.322 
N121 X198.173 Y-16.539 Z15.332 
N122 X198.173 Y-13.761 Z15.342 
N123 X198.173 Y-10.940 Z15.352 A359.1011 
N124 X198.173 Y-8.122 Z15.363 A359.0967 
N125 X198.173 Y-5.357 Z15.375 A359.0878 
N126 X198.173 Y-2.689 Z15.386 A359.0781 
N127 X198.173 Y-0.158 Z15.396 A359.0732 
N128 X198.173 Y2.206 Z15.403 A359.0882 
N129 X198.173 Y4.376 Z15.411 A359.1025 
N130 X198.173 Y6.345 Z15.422 
N131 X198.173 Y8.116 Z15.435 A359.0839 
N132 X198.173 Y9.681 Z15.518 A358.6601 
N133 X198.173 Y11.062 Z15.726 A357.4915 
N134 X198.173 Y12.299 Z16.202 A354.7384 
N135 X198.173 Y13.499 Z17.149 A349.1483 
N136 X198.173 Y14.873 Z18.608 A340.1008 
N137 X198.173 Y16.652 Z20.329 A328.1693 
N138 X198.173 Y18.932 Z21.906 A314.4888 
N139 X198.173 Y21.469 Z22.898 A301.0177 
N140 X198.173 Y23.826 Z23.155 A289.4715 
N141 X198.173 Y25.689 Z22.826 A280.6581 
N142 X198.173 Y26.873 Z22.130 A275.1415 
N143 X198.173 Y27.556 Z21.249 A271.9713 
N144 X198.173 Y27.928 Z20.255 A270.2286 
N145 X198.173 Y28.106 Z19.166 A269.3851 
N146 X198.173 Y28.170 Z17.988 A269.0771 
N147 X198.173 Y28.180 Z16.726 A269.0340 
N148 X198.173 Y28.175 Z15.390 A269.0732 
N149 X198.173 Y28.176 Z13.993 A269.0951 
N150 X198.173 Y28.183 Z12.554 
N151 X198.173 Y28.191 Z11.091 
N152 X198.173 Y28.201 Z9.630 A269.0902 
N153 X198.173 Y28.209 Z8.192 A269.0913 
N154 X198.173 Y28.218 Z6.801 A269.0951 
N155 X198.173 Y28.227 Z5.472 
N156 X198.173 Y28.236 Z4.215 
N157 X198.173 Y28.264 Z3.038 A268.9781 
N158 X198.173 Y28.393 Z1.953 A268.2987 
N159 X198.173 Y28.707 Z0.945 A266.5486 
N160 X198.173 Y29.340 Z-0.026 A262.9311 
N161 X198.173 Y30.370 Z-1.064 A256.8444 
N162 X198.173 Y31.780 Z-2.339 A247.9913 
N163 X198.173 Y33.393 Z-4.046 A236.5714 
N164 X198.173 Y34.882 Z-6.289 A223.2701 
N165 X198.173 Y35.859 Z-8.947 A209.2220 
N166 X198.173 Y35.965 Z-11.287 A197.9607 
N167 X198.173 Y35.475 Z-13.220 A188.8817 
N168 X198.173 Y34.555 Z-14.412 A183.3189 
N169 X198.173 Y33.391 Z-14.997 A180.5884 
N170 X198.173 Y32.039 Z-15.262 A179.3254 
N171 X198.173 Y30.501 Z-15.359 A178.8267 
N172 X198.173 Y28.764 Z-15.377 A178.6935 
N173 X198.173 Y26.825 Z-15.368 A178.6925 
N174 X198.173 Y24.686 Z-15.355 A178.7088 
N175 X198.173 Y22.360 Z-15.345 
N176 X198.173 Y19.869 Z-15.335 
N177 X198.173 Y17.243 Z-15.324 
N178 X198.173 Y14.523 Z-15.314 A178.7073 
N179 X198.173 Y11.751 Z-15.303 A178.7040 
N180 X198.173 Y8.974 Z-15.292 A178.7000 
N181 X198.173 Y6.237 Z-15.281 A178.6966 
N182 X198.173 Y3.586 Z-15.270 A178.7006 
N183 X198.173 Y1.059 Z-15.259 A178.7088 
N184 X198.173 Y-1.313 Z-15.250 
N185 X198.173 Y-3.509 Z-15.246 A178.6905 
N186 X198.173 Y-5.510 Z-15.275 A178.4751 
N187 X198.173 Y-7.314 Z-15.355 A177.9411 
N188 X198.173 Y-8.927 Z-15.525 A176.8434 
N189 X198.173 Y-10.371 Z-15.842 A174.8100 
N190 X198.173 Y-11.698 Z-16.394 A171.2830 
N191 X198.173 Y-13.005 Z-17.271 A165.6105 
N192 X198.173 Y-14.458 Z-18.503 A157.2957 
N193 X198.173 Y-16.188 Z-19.860 A147.0010 
N194 X198.173 Y-18.219 Z-21.065 A135.6420 
N195 X198.173 Y-20.410 Z-21.862 A124.3745 
N196 X198.173 Y-22.508 Z-22.133 A114.2858 
N197 X198.173 Y-24.297 Z-21.929 A106.0183 
N198 X198.173 Y-25.669 Z-21.378 A99.8065 
N199 X198.173 Y-26.618 Z-20.600 A95.5460 
N200 X198.173 Y-27.206 Z-19.679 A92.9433 
N201 X198.173 Y-27.552 Z-18.657 A91.4429 
N202 X198.173 Y-27.765 Z-17.551 A90.5424 
N203 X198.173 Y-27.909 Z-16.371 A89.9242 
N204 X198.173 Y-28.018 Z-15.124 A89.4387 
N205 X198.173 Y-28.103 Z-13.824 A89.0232 
N206 X198.173 Y-28.172 Z-12.485 A88.6482 
N207 X198.173 Y-28.230 Z-11.126 A88.2844 
N208 X198.173 Y-28.283 Z-9.764 A87.8959 
N209 X198.173 Y-28.341 Z-8.419 A87.4396 
N210 X198.173 Y-28.408 Z-7.107 A86.8748 
N211 X198.173 Y-28.491 Z-5.844 A86.1656 
N212 X198.173 Y-28.594 Z-4.638 A85.2772 
N213 X198.173 Y-28.730 Z-3.497 A84.1395 
N214 X198.173 Y-28.926 Z-2.416 A82.5894 
N215 X198.173 Y-29.239 Z-1.378 A80.2856 
N216 X198.173 Y-29.761 Z-0.337 A76.6621 
N217 X198.173 Y-30.581 Z0.800 A71.0527 
N218 X198.173 Y-31.709 Z2.179 A62.9898 
N219 X198.173 Y-33.021 Z3.971 A52.3833 
N220 X198.173 Y-34.165 Z6.204 A40.1890 
N221 X198.173 Y-34.778 Z8.637 A28.0469 
N222 X198.173 Y-34.721 Z10.881 A17.5132 
N223 X198.173 Y-34.076 Z12.487 A10.3126 
N224 X198.173 Y-33.083 Z13.532 A5.7639 
N225 X198.173 Y-31.859 Z14.216 A2.8119 
N226 X198.173 Y-30.439 Z14.646 A0.9465 
N227 X198.173 Y-28.831 Z14.889 A359.8888 
N228 X198.173 Y-27.036 Z15.007 A359.3748 
N229 X198.173 Y-25.056 Z15.055 A359.1713 
N230 X198.173 Y-22.901 Z15.072 A359.1129 
N231 X198.173 Y-20.586 Z15.078 A359.1099 
N232 X198.173 Y-18.137 Z15.082 A359.1218 
N233 X198.173 Y-15.587 Z15.089 A359.1272 
N234 X198.173 Y-12.972 Z15.098 
N235 X198.173 Y-10.335 Z15.109 A359.1216 
N236 X198.173 Y-7.719 Z15.121 A359.1120 
N237 X198.173 Y-5.164 Z15.133 A359.1050 
N238 X198.173 Y-2.710 Z15.143 A359.1119 
N239 X198.173 Y-0.388 Z15.153 A359.1272 
N240 X198.173 Y1.780 Z15.166 
N241 X198.173 Y3.786 Z15.184 A359.0949 
N242 X198.173 Y5.608 Z15.291 A358.5376 
N243 X198.173 Y7.257 Z15.528 A357.1671 
N244 X198.173 Y8.753 Z15.942 A354.6354 
N245 X198.173 Y10.146 Z16.556 A350.7047 
N246 X198.173 Y11.521 Z17.419 A344.9783 
N247 X198.173 Y13.009 Z18.537 A337.1258 
N248 X198.173 Y14.707 Z19.732 A327.6787 
N249 X198.173 Y16.582 Z20.736 A317.7497 
N250 X198.173 Y18.514 Z21.385 A308.2223 
N251 X198.173 Y20.334 Z21.618 A299.8103 
N252 X198.173 Y21.928 Z21.482 A292.7984 
N253 X198.173 Y23.250 Z21.058 A287.1942 
N254 X198.173 Y24.306 Z20.423 A282.8445 
N255 X198.173 Y25.138 Z19.634 A279.4921 
N256 X198.173 Y25.794 Z18.728 A276.8870 
N257 X198.173 Y26.313 Z17.727 A274.8348 
N258 X198.173 Y26.724 Z16.648 A273.2023 
N259 X198.173 Y27.046 Z15.503 A271.9064 
N260 X198.173 Y27.294 Z14.308 A270.8838 
N261 X198.173 Y27.485 Z13.075 A270.0587 
N262 X198.173 Y27.638 Z11.821 A269.3453 
N263 X198.173 Y27.771 Z10.560 A268.6560 
N264 X198.173 Y27.901 Z9.307 A267.9076 
N265 X198.173 Y28.042 Z8.075 A267.0085 
N266 X198.173 Y28.212 Z6.872 A265.8545 
N267 X198.173 Y28.428 Z5.706 A264.3361 
N268 X198.173 Y28.702 Z4.575 A262.3522 
N269 X198.173 Y29.052 Z3.471 A259.7807 
N270 X198.173 Y29.499 Z2.375 A256.4505 
N271 X198.173 Y30.057 Z1.251 A252.1944 
N272 X198.173 Y30.724 Z0.052 A246.8861 
N273 X198.173 Y31.458 Z-1.269 A240.5463 
N274 X198.173 Y32.184 Z-2.753 A233.2935 
N275 X198.173 Y32.813 Z-4.416 A225.2972 
N276 X198.173 Y33.230 Z-6.230 A216.8866 
N277 X198.173 Y33.331 Z-8.099 A208.5512 
N278 X198.173 Y33.058 Z-9.895 A200.7746 
N279 X198.173 Y32.417 Z-11.506 A193.8947 
N280 X198.173 Y31.447 Z-12.858 A188.0822 
N281 X198.173 Y30.199 Z-13.871 A183.6350 
N282 X198.173 Y28.725 Z-14.476 A180.9252 
N283 X198.173 Y27.068 Z-14.777 A179.5378 
N284 X198.173 Y25.243 Z-14.906 A178.8992 
N285 X198.173 Y23.256 Z-14.947 A178.6427 
N286 X198.173 Y21.120 Z-14.947 A178.5689 
N287 X198.173 Y18.851 Z-14.931 A178.5638 
N288 X198.173 Y16.475 Z-14.912 A178.5698 
N289 X198.173 Y14.022 Z-14.894 
N290 X198.173 Y11.528 Z-14.876 A178.5676 
N291 X198.173 Y9.030 Z-14.858 A178.5688 
N292 X198.173 Y6.566 Z-14.840 A178.5698 
N293 X198.173 Y4.171 Z-14.823 
N294 X198.173 Y1.876 Z-14.812 A178.5401 
N295 X198.173 Y-0.293 Z-14.824 A178.3783 
N296 X198.173 Y-2.319 Z-14.883 A177.9257 
N297 X198.173 Y-4.192 Z-15.025 A176.9409 
N298 X198.173 Y-5.918 Z-15.291 A175.1181 
N299 X198.173 Y-7.523 Z-15.734 A172.0803 
N300 X198.173 Y-9.057 Z-16.381 A167.5295 
N301 X198.173 Y-10.578 Z-17.160 A161.6903 
N302 X198.173 Y-12.123 Z-17.960 A155.0133 
N303 X198.173 Y-13.728 Z-18.720 A147.6872 
N304 X198.173 Y-15.387 Z-19.355 A140.0653 
N305 X198.173 Y-17.059 Z-19.787 A132.5644 
N306 X198.173 Y-18.677 Z-19.972 A125.5394 
N307 X198.173 Y-20.183 Z-19.911 A119.2026 
N308 X198.173 Y-21.538 Z-19.627 A113.6570 
N309 X198.173 Y-22.721 Z-19.154 A108.9181 
N310 X198.173 Y-23.735 Z-18.529 A104.9222 
N311 X198.173 Y-24.592 Z-17.781 A101.5745 
N312 X198.173 Y-25.311 Z-16.936 A98.7691 
N313 X198.173 Y-25.914 Z-16.012 A96.3943 
N314 X198.173 Y-26.422 Z-15.026 A94.3488 
N315 X198.173 Y-26.854 Z-13.989 A92.5386 
N316 X198.173 Y-27.226 Z-12.915 A90.8760 
N317 X198.173 Y-27.555 Z-11.815 A89.2821 
N318 X198.173 Y-27.854 Z-10.698 A87.6883 
N319 X198.173 Y-28.132 Z-9.574 A86.0337 
N320 X198.173 Y-28.400 Z-8.452 A84.2627 
N321 X198.173 Y-28.666 Z-7.337 A82.3266 
N322 X198.173 Y-28.935 Z-6.233 A80.1834 
N323 X198.173 Y-29.213 Z-5.141 A77.7854 
N324 X198.173 Y-29.509 Z-4.057 A75.0749 
N325 X198.173 Y-29.831 Z-2.970 A71.9794 
N326 X198.173 Y-30.187 Z-1.862 A68.3917 
N327 X198.173 Y-30.591 Z-0.705 A64.1647 
N328 X198.173 Y-31.045 Z0.543 A59.1196 
N329 X198.173 Y-31.535 Z1.933 A53.0947 
N330 X198.173 Y-31.999 Z3.503 A46.0870 
N331 X198.173 Y-32.323 Z5.236 A38.4160 
N332 X198.173 Y-32.395 Z7.064 A30.4930 
N333 X198.173 Y-32.130 Z8.866 A22.8642 
N334 X198.173 Y-31.500 Z10.487 A16.1385 
N335 X198.173 Y-30.538 Z11.820 A10.6872 
N336 X198.173 Y-29.306 Z12.835 A6.5584 
N337 X198.173 Y-27.856 Z13.562 A3.6009 
N338 X198.173 Y-26.222 Z14.051 A1.5947 
N339 X198.173 Y-24.424 Z14.358 A0.3183 
N340 X198.173 Y-22.478 Z14.528 A359.6024 
N341 X198.173 Y-20.400 Z14.603 A359.2922 
N342 X198.173 Y-18.209 Z14.628 A359.2206 
N343 X198.173 Y-15.928 Z14.636 A359.2369 
N344 X198.173 Y-13.587 Z14.646 A359.2549 
N345 X198.173 Y-11.218 Z14.662 A359.2539 
N346 X198.173 Y-8.854 Z14.679 A359.2548 
N347 X198.173 Y-6.530 Z14.697 A359.2595 
N348 X198.173 Y-4.275 Z14.718 
N349 X198.173 Y-2.109 Z14.738 
N350 X198.173 Y-0.058 Z14.787 A359.0723 
N351 X198.173 Y1.858 Z14.913 A358.4049 
N352 X198.173 Y3.639 Z15.161 A356.9346 
N353 X198.173 Y5.298 Z15.589 A354.2388 
N354 X198.173 Y6.876 Z16.204 A350.1320 
N355 X198.173 Y8.423 Z16.957 A344.7316 
N356 X198.173 Y9.988 Z17.767 A338.3202 
N357 X198.173 Y11.585 Z18.519 A331.3967 
N358 X198.173 Y13.204 Z19.138 A324.3350 
N359 X198.173 Y14.809 Z19.566 A317.4698 
N360 X198.173 Y16.351 Z19.773 A311.0983 
N361 X198.173 Y17.787 Z19.763 A305.3736 
N362 X198.173 Y19.100 Z19.563 A300.3086 
N363 X198.173 Y20.288 Z19.202 A295.8429 
N364 X198.173 Y21.358 Z18.709 A291.8916 
N365 X198.173 Y22.321 Z18.106 A288.3708 
N366 X198.173 Y23.187 Z17.409 A285.2047 
N367 X198.173 Y23.967 Z16.633 A282.3264 
N368 X198.173 Y24.670 Z15.790 A279.6779 
N369 X198.173 Y25.304 Z14.891 A277.2054 
N370 X198.173 Y25.878 Z13.946 A274.8598 
N371 X198.173 Y26.398 Z12.965 A272.5953 
N372 X198.173 Y26.873 Z11.956 A270.3698 
N373 X198.173 Y27.308 Z10.928 A268.1435 
N374 X198.173 Y27.712 Z9.887 A265.8715 
N375 X198.173 Y28.093 Z8.838 A263.5049 
N376 X198.173 Y28.458 Z7.784 A260.9896 
N377 X198.173 Y28.817 Z6.726 A258.2717 
N378 X198.173 Y29.174 Z5.659 A255.3006 
N379 X198.173 Y29.536 Z4.577 A252.0245 
N380 X198.173 Y29.900 Z3.472 A248.4054 
N381 X198.173 Y30.261 Z2.330 A244.4130 
N382 X198.173 Y30.610 Z1.138 A240.0340 
N383 X198.173 Y30.926 Z-0.115 A235.2688 
N384 X198.173 Y31.183 Z-1.440 A230.1457 
N385 X198.173 Y31.352 Z-2.843 A224.6758 
N386 X198.173 Y31.399 Z-4.324 A218.8900 
N387 X198.173 Y31.275 Z-5.858 A212.9357 
N388 X198.173 Y30.935 Z-7.401 A206.9912 
N389 X198.173 Y30.355 Z-8.911 A201.1879 
N390 X198.173 Y29.519 Z-10.326 A195.7204 
N391 X198.173 Y28.430 Z-11.588 A190.7722 
N392 X198.173 Y27.106 Z-12.649 A186.4956 
N393 X198.173 Y25.573 Z-13.455 A183.1366 
N394 X198.173 Y23.868 Z-14.005 A180.7382 
N395 X198.173 Y22.021 Z-14.320 A179.2629 
N396 X198.173 Y20.054 Z-14.450 A178.5642 
N397 X198.173 Y17.987 Z-14.471 A178.3490 
N398 X198.173 Y15.838 Z-14.450 A178.3263 
N399 X198.173 Y13.631 Z-14.424 A178.3265 
N400 X198.173 Y11.391 Z-14.404 A178.2926 
N401 X198.173 Y9.148 Z-14.390 A178.2128 
N402 X198.173 Y6.929 Z-14.386 A178.0678 
N403 X198.173 Y4.763 Z-14.396 A177.8080 
N404 X198.173 Y2.671 Z-14.435 A177.3406 
N405 X198.173 Y0.670 Z-14.527 A176.5010 
N406 X198.173 Y-1.230 Z-14.711 A175.0108 
N407 X198.173 Y-3.035 Z-15.027 A172.5500 
N408 X198.173 Y-4.765 Z-15.471 A169.0172 
N409 X198.173 Y-6.438 Z-15.977 A164.6472 
N410 X198.173 Y-8.070 Z-16.492 A159.6663 
N411 X198.173 Y-9.675 Z-16.974 A154.2470 
N412 X198.173 Y-11.255 Z-17.383 A148.5964 
N413 X198.173 Y-12.801 Z-17.682 A142.9220 
N414 X198.173 Y-14.296 Z-17.850 A137.3989 
N415 X198.173 Y-15.724 Z-17.877 A132.1483 
N416 X198.173 Y-17.074 Z-17.769 A127.2214 
N417 X198.173 Y-18.339 Z-17.535 A122.6319 
N418 X198.173 Y-19.517 Z-17.189 A118.3731 
N419 X198.173 Y-20.608 Z-16.743 A114.4238 
N420 X198.173 Y-21.616 Z-16.209 A110.7530 
N421 X198.173 Y-22.544 Z-15.599 A107.3235 
N422 X198.173 Y-23.399 Z-14.922 A104.0956 
N423 X198.173 Y-24.186 Z-14.188 A101.0296 
N424 X198.173 Y-24.911 Z-13.406 A98.0861 
N425 X198.173 Y-25.579 Z-12.583 A95.2276 
N426 X198.173 Y-26.197 Z-11.725 A92.4182 
N427 X198.173 Y-26.769 Z-10.838 A89.6238 
N428 X198.173 Y-27.301 Z-9.927 A86.8124 
N429 X198.173 Y-27.796 Z-8.994 A83.9533 
N430 X198.173 Y-28.259 Z-8.043 A81.0183 
N431 X198.173 Y-28.693 Z-7.073 A77.9804 
N432 X198.173 Y-29.100 Z-6.085 A74.8143 
N433 X198.173 Y-29.481 Z-5.075 A71.4943 
N434 X198.173 Y-29.837 Z-4.038 A67.9935 
N435 X198.173 Y-30.166 Z-2.969 A64.2805 
N436 X198.173 Y-30.465 Z-1.857 A60.3179 
N437 X198.173 Y-30.728 Z-0.690 A56.0645 
N438 X198.173 Y-30.943 Z0.543 A51.4784 
N439 X198.173 Y-31.092 Z1.855 A46.5288 
N440 X198.173 Y-31.145 Z3.251 A41.2225 
N441 X198.173 Y-31.061 Z4.720 A35.6295 
N442 X198.173 Y-30.796 Z6.234 A29.8813 
N443 X198.173 Y-30.312 Z7.750 A24.1325 
N444 X198.173 Y-29.583 Z9.208 A18.5862 
N445 X198.173 Y-28.600 Z10.539 A13.4875 
N446 X198.173 Y-27.374 Z11.688 A9.0144 
N447 X198.173 Y-25.933 Z12.607 A5.3574 
N448 X198.173 Y-24.307 Z13.264 A2.6973 
N449 X198.173 Y-22.532 Z13.685 A0.9630 
N450 X198.173 Y-20.634 Z13.929 A359.9419 
N451 X198.173 Y-18.634 Z14.051 A359.4280 
N452 X198.173 Y-16.553 Z14.100 A359.2369 
N453 X198.173 Y-14.412 Z14.114 A359.2095 
N454 X198.173 Y-12.237 Z14.118 A359.2449 
N455 X198.173 Y-10.056 Z14.130 
N456 X198.173 Y-7.888 Z14.142 
N457 X198.173 Y-5.768 Z14.183 A359.0750 
N458 X198.173 Y-3.715 Z14.266 A358.6286 
N459 X198.173 Y-1.748 Z14.417 A357.7127 
N460 X198.173 Y0.124 Z14.660 A356.1194 
N461 X198.173 Y1.904 Z15.010 A353.6732 
N462 X198.173 Y3.606 Z15.468 A350.2583 
N463 X198.173 Y5.255 Z16.005 A345.9322 
N464 X198.173 Y6.863 Z16.549 A341.0078 
N465 X198.173 Y8.435 Z17.042 A335.7655 
N466 X198.173 Y9.970 Z17.453 A330.3890 
N467 X198.173 Y11.465 Z17.763 A325.0085 
N468 X198.173 Y12.905 Z17.952 A319.7851 
N469 X198.173 Y14.278 Z18.016 A314.8134 
N470 X198.173 Y15.581 Z17.963 A310.1166 
N471 X198.173 Y16.811 Z17.802 A305.6885 
N472 X198.173 Y17.970 Z17.545 A301.5069 
N473 X198.173 Y19.063 Z17.202 A297.5415 
N474 X198.173 Y20.093 Z16.781 A293.7588 
N475 X198.173 Y21.064 Z16.289 A290.1266 
N476 X198.173 Y21.979 Z15.733 A286.6160 
N477 X198.173 Y22.841 Z15.118 A283.2003 
N478 X198.173 Y23.653 Z14.449 A279.8543 
N479 X198.173 Y24.414 Z13.731 A276.5628 
N480 X198.173 Y25.124 Z12.967 A273.3229 
N481 X198.173 Y25.779 Z12.163 A270.1358 
N482 X198.173 Y26.379 Z11.322 A267.0008 
N483 X198.173 Y26.925 Z10.450 A263.9052 
N484 X198.173 Y27.422 Z9.551 A260.8169 
N485 X198.173 Y27.877 Z8.625 A257.6922 
N486 X198.173 Y28.294 Z7.671 A254.4874 
N487 X198.173 Y28.679 Z6.688 A251.1620 
N488 X198.173 Y29.033 Z5.670 A247.6757 
N489 X198.173 Y29.355 Z4.612 A243.9949 
N490 X198.173 Y29.641 Z3.507 A240.0889 
N491 X198.173 Y29.881 Z2.346 A235.9363 
N492 X198.173 Y30.062 Z1.125 A231.5264 
N493 X198.173 Y30.164 Z-0.160 A226.8677 
N494 X198.173 Y30.163 Z-1.506 A221.9901 
N495 X198.173 Y30.028 Z-2.900 A216.9572 
N496 X198.173 Y29.730 Z-4.317 A211.8765 
N497 X198.173 Y29.241 Z-5.719 A206.9029 
N498 X198.173 Y28.547 Z-7.069 A202.1444 
N499 X198.173 Y27.645 Z-8.325 A197.7376 
N500 X198.173 Y26.538 Z-9.441 A193.8603 
N501 X198.173 Y25.242 Z-10.382 A190.6515 
N502 X198.173 Y23.783 Z-11.158 A188.0555 
N503 X198.173 Y22.188 Z-11.802 A185.8937 
N504 X198.173 Y20.475 Z-12.335 A184.0720 
N505 X198.173 Y18.662 Z-12.761 A182.5777 
N506 X198.173 Y16.770 Z-13.092 A181.3726 
N507 X198.173 Y14.817 Z-13.345 A180.3931 
N508 X198.173 Y12.827 Z-13.540 A179.5585 
N509 X198.173 Y10.820 Z-13.701 A178.7583 
N510 X198.173 Y8.815 Z-13.850 A177.8638 
N511 X198.173 Y6.832 Z-14.006 A176.7611 
N512 X198.173 Y4.885 Z-14.180 A175.3514 
N513 X198.173 Y2.986 Z-14.380 A173.5492 
N514 X198.173 Y1.142 Z-14.607 A171.3037 
N515 X198.173 Y-0.645 Z-14.853 A168.5982 
N516 X198.173 Y-2.375 Z-15.113 A165.4393 
N517 X198.173 Y-4.052 Z-15.370 A161.8704 
N518 X198.173 Y-5.680 Z-15.609 A157.9562 
N519 X198.173 Y-7.261 Z-15.812 A153.7820 
N520 X198.173 Y-8.796 Z-15.964 A149.4409 
N521 X198.173 Y-10.281 Z-16.049 A145.0261 
N522 X198.173 Y-11.714 Z-16.058 A140.6201 
N523 X198.173 Y-13.088 Z-15.985 A136.2890 
N524 X198.173 Y-14.401 Z-15.830 A132.0734 
N525 X198.173 Y-15.651 Z-15.597 A127.9899 
N526 X198.173 Y-16.839 Z-15.291 A124.0392 
N527 X198.173 Y-17.966 Z-14.917 A120.2149 
N528 X198.173 Y-19.033 Z-14.482 A116.5101 
N529 X198.173 Y-20.042 Z-13.989 A112.9145 
N530 X198.173 Y-20.995 Z-13.446 A109.4146 
N531 X198.173 Y-21.893 Z-12.856 A105.9937 
N532 X198.173 Y-22.740 Z-12.224 A102.6340 
N533 X198.173 Y-23.538 Z-11.556 A99.3165 
N534 X198.173 Y-24.290 Z-10.854 A96.0219 
N535 X198.173 Y-24.998 Z-10.122 A92.7308 
N536 X198.173 Y-25.666 Z-9.361 A89.4248 
N537 X198.173 Y-26.295 Z-8.574 A86.0854 
N538 X198.173 Y-26.887 Z-7.760 A82.6947 
N539 X198.173 Y-27.445 Z-6.919 A79.2343 
N540 X198.173 Y-27.968 Z-6.050 A75.6857 
N541 X198.173 Y-28.457 Z-5.149 A72.0298 
N542 X198.173 Y-28.911 Z-4.213 A68.2466 
N543 X198.173 Y-29.326 Z-3.235 A64.3155 
N544 X198.173 Y-29.698 Z-2.211 A60.2157 
N545 X198.173 Y-30.020 Z-1.132 A55.9261 
N546 X198.173 Y-30.278 Z0.007 A51.4293 
N547 X198.173 Y-30.459 Z1.212 A46.7166 
N548 X198.173 Y-30.539 Z2.483 A41.7955 
N549 X198.173 Y-30.493 Z3.813 A36.6992 
N550 X198.173 Y-30.290 Z5.184 A31.4996 
N551 X198.173 Y-29.902 Z6.566 A26.3041 
N552 X198.173 Y-29.306 Z7.917 A21.2474 
N553 X198.173 Y-28.491 Z9.193 A16.4700 
N554 X198.173 Y-27.458 Z10.346 A12.1185 
N555 X198.173 Y-26.220 Z11.343 A8.3017 
N556 X198.173 Y-24.798 Z12.155 A5.1133 
N557 X198.173 Y-23.217 Z12.779 A2.5813 
N558 X198.173 Y-21.502 Z13.218 A0.7124 
N559 X198.173 Y-19.677 Z13.490 A359.4824 
N560 X198.173 Y-17.765 Z13.630 A358.7708 
N561 X198.173 Y-15.786 Z13.685 A358.4106 
N562 X198.173 Y-13.762 Z13.693 A358.2462 
N563 X198.173 Y-11.714 Z13.684 A358.1414 
N564 X198.173 Y-9.666 Z13.686 A357.9592 
N565 X198.173 Y-7.642 Z13.719 A357.5687 
N566 X198.173 Y-5.661 Z13.800 A356.8347 
N567 X198.173 Y-3.740 Z13.945 A355.6127 
N568 X198.173 Y-1.889 Z14.162 A353.7857 
N569 X198.173 Y-0.110 Z14.443 A351.3203 
N570 X198.173 Y1.598 Z14.772 A348.2375 
N571 X198.173 Y3.242 Z15.126 A344.6114 
N572 X198.173 Y4.824 Z15.474 A340.5815 
N573 X198.173 Y6.350 Z15.795 A336.2622 
N574 X198.173 Y7.824 Z16.072 A331.7467 
N575 X198.173 Y9.248 Z16.297 A327.1079 
N576 X198.173 Y10.621 Z16.453 A322.4478 
N577 X198.173 Y11.940 Z16.535 A317.8453 
N578 X198.173 Y13.205 Z16.540 A313.3341 
N579 X198.173 Y14.416 Z16.470 A308.9303 
N580 X198.173 Y15.576 Z16.329 A304.6406 
N581 X198.173 Y16.685 Z16.118 A300.4637 
N582 X198.173 Y17.746 Z15.841 A296.3904 
N583 X198.173 Y18.760 Z15.502 A292.4083 
N584 X198.173 Y19.728 Z15.102 A288.5058 
N585 X198.173 Y20.652 Z14.644 A284.6719 
N586 X198.173 Y21.530 Z14.130 A280.8938 
N587 X198.173 Y22.363 Z13.562 A277.1628 
N588 X198.173 Y23.149 Z12.943 A273.4783 
N589 X198.173 Y23.884 Z12.273 A269.8437 
N590 X198.173 Y24.565 Z11.557 A266.2619 
N591 X198.173 Y25.192 Z10.796 A262.7229 
N592 X198.173 Y25.767 Z9.993 A259.1987 
N593 X198.173 Y26.293 Z9.147 A255.6549 
N594 X198.173 Y26.773 Z8.256 A252.0593 
N595 X198.173 Y27.206 Z7.319 A248.3816 
N596 X198.173 Y27.590 Z6.332 A244.5946 
N597 X198.173 Y27.920 Z5.292 A240.6772 
N598 X198.173 Y28.188 Z4.195 A236.6159 
N599 X198.173 Y28.382 Z3.041 A232.4105 
N600 X198.173 Y28.487 Z1.832 A228.0743 
N601 X198.173 Y28.484 Z0.575 A223.6400 
N602 X198.173 Y28.349 Z-0.711 A219.2031 
N603 X198.173 Y28.060 Z-1.997 A214.8879 
N604 X198.173 Y27.612 Z-3.270 A210.7008 
N605 X198.173 Y27.000 Z-4.507 A206.7102 
N606 X198.173 Y26.219 Z-5.677 A203.0235 
N607 X198.173 Y25.273 Z-6.756 A199.7206 
N608 X198.173 Y24.175 Z-7.729 A196.8451 
N609 X198.173 Y22.941 Z-8.598 A194.3575 
N610 X198.173 Y21.593 Z-9.393 A192.0829 
N611 X198.173 Y20.148 Z-10.136 A189.8735 
N612 X198.173 Y18.615 Z-10.820 A187.7392 
N613 X198.173 Y17.004 Z-11.433 A185.7138 
N614 X198.173 Y15.331 Z-11.977 A183.7836 
N615 X198.173 Y13.612 Z-12.455 A181.9118 
N616 X198.173 Y11.862 Z-12.877 A180.0450 
N617 X198.173 Y10.095 Z-13.251 A178.1242 
N618 X198.173 Y8.324 Z-13.586 A176.0947 
N619 X198.173 Y6.560 Z-13.887 A173.9087 
N620 X198.173 Y4.813 Z-14.158 A171.5308 
N621 X198.173 Y3.089 Z-14.400 A168.9406 
N622 X198.173 Y1.394 Z-14.612 A166.1317 
N623 X198.173 Y-0.268 Z-14.790 A163.1123 
N624 X198.173 Y-1.893 Z-14.929 A159.9011 
N625 X198.173 Y-3.479 Z-15.026 A156.5257 
N626 X198.173 Y-5.024 Z-15.076 A153.0195 
N627 X198.173 Y-6.524 Z-15.073 A149.4186 
N628 X198.173 Y-7.977 Z-15.016 A145.7592 
N629 X198.173 Y-9.381 Z-14.901 A142.0746 
N630 X198.173 Y-10.733 Z-14.729 A138.3940 
N631 X198.173 Y-12.032 Z-14.500 A134.7402 
N632 X198.173 Y-13.275 Z-14.217 A131.1280 
N633 X198.173 Y-14.464 Z-13.883 A127.5612 
N634 X198.173 Y-15.599 Z-13.504 A124.0370 
N635 X198.173 Y-16.683 Z-13.083 A120.5496 
N636 X198.173 Y-17.717 Z-12.624 A117.0921 
N637 X198.173 Y-18.704 Z-12.130 A113.6575 
N638 X198.173 Y-19.644 Z-11.606 A110.2369 
N639 X198.173 Y-20.542 Z-11.053 A106.8200 
N640 X198.173 Y-21.399 Z-10.474 A103.3947 
N641 X198.173 Y-22.218 Z-9.870 A99.9487 
N642 X198.173 Y-23.002 Z-9.243 A96.4689 
N643 X198.173 Y-23.753 Z-8.592 A92.9427 
N644 X198.173 Y-24.472 Z-7.917 A89.3577 
N645 X198.173 Y-25.162 Z-7.215 A85.7019 
N646 X198.173 Y-25.822 Z-6.486 A81.9633 
N647 X198.173 Y-26.453 Z-5.724 A78.1300 
N648 X198.173 Y-27.053 Z-4.927 A74.1896 
N649 X198.173 Y-27.621 Z-4.089 A70.1292 
N650 X198.173 Y-28.151 Z-3.206 A65.9359 
N651 X198.173 Y-28.638 Z-2.270 A61.5969 
N652 X198.173 Y-29.073 Z-1.276 A57.1003 
N653 X198.173 Y-29.444 Z-0.218 A52.4377 
N654 X198.173 Y-29.736 Z0.906 A47.6090 
N655 X198.173 Y-29.929 Z2.096 A42.6264 
N656 X198.173 Y-29.998 Z3.344 A37.5242 
N657 X198.173 Y-29.918 Z4.633 A32.3691 
N658 X198.173 Y-29.663 Z5.937 A27.2522 
N659 X198.173 Y-29.214 Z7.220 A22.2818 
N660 X198.173 Y-28.559 Z8.445 A17.5715 
N661 X198.173 Y-27.699 Z9.571 A13.2317 
N662 X198.173 Y-26.642 Z10.568 A9.3554 
N663 X198.173 Y-25.403 Z11.409 A6.0129 
N664 X198.173 Y-24.002 Z12.085 A3.2366 
N665 X198.173 Y-22.461 Z12.593 A1.0455 
N666 X198.173 Y-20.801 Z12.943 A359.4123 
N667 X198.173 Y-19.045 Z13.157 A358.2750 
N668 X198.173 Y-17.210 Z13.260 A357.5594 
N669 X198.173 Y-15.319 Z13.285 A357.1454 
N670 X198.173 Y-13.390 Z13.269 A356.8777 
N671 X198.173 Y-11.445 Z13.246 A356.6041 
N672 X198.173 Y-9.506 Z13.240 A356.1847 
N673 X198.173 Y-7.593 Z13.272 A355.4762 
N674 X198.173 Y-5.722 Z13.356 A354.3588 
N675 X198.173 Y-3.908 Z13.495 A352.7640 
N676 X198.173 Y-2.160 Z13.684 A350.6576 
N677 X198.173 Y-0.480 Z13.915 A348.0323 
N678 X198.173 Y1.131 Z14.173 A344.9332 
N679 X198.173 Y2.676 Z14.441 A341.4296 
N680 X198.173 Y4.159 Z14.704 A337.5951 
N681 X198.173 Y5.585 Z14.951 A333.4965 
N682 X198.173 Y6.960 Z15.172 A329.1890 
N683 X198.173 Y8.288 Z15.354 A324.7517 
N684 X198.173 Y9.571 Z15.489 A320.2520 
N685 X198.173 Y10.810 Z15.570 A315.7358 
N686 X198.173 Y12.008 Z15.593 A311.2365 
N687 X198.173 Y13.165 Z15.555 A306.7785 
N688 X198.173 Y14.283 Z15.456 A302.3779 
N689 X198.173 Y15.362 Z15.294 A298.0403 
N690 X198.173 Y16.404 Z15.069 A293.7655 
N691 X198.173 Y17.407 Z14.782 A289.5527 
N692 X198.173 Y18.371 Z14.432 A285.3995 
N693 X198.173 Y19.294 Z14.021 A281.3011 
N694 X198.173 Y20.175 Z13.548 A277.2532 
N695 X198.173 Y21.012 Z13.016 A273.2544 
N696 X198.173 Y21.799 Z12.424 A269.3082 
N697 X198.173 Y22.534 Z11.774 A265.4174 
N698 X198.173 Y23.213 Z11.068 A261.5740 
N699 X198.173 Y23.835 Z10.309 A257.7602 
N700 X198.173 Y24.401 Z9.495 A253.9560 
N701 X198.173 Y24.908 Z8.627 A250.1413 
N702 X198.173 Y25.353 Z7.706 A246.2997 
N703 X198.173 Y25.731 Z6.730 A242.4189 
N704 X198.173 Y26.036 Z5.701 A238.4938 
N705 X198.173 Y26.258 Z4.622 A234.5274 
N706 X198.173 Y26.387 Z3.497 A230.5329 
N707 X198.173 Y26.411 Z2.333 A226.5324 
N708 X198.173 Y26.317 Z1.146 A222.5799 
N709 X198.173 Y26.090 Z-0.047 A218.7490 
N710 X198.173 Y25.732 Z-1.237 A215.0303 
N711 X198.173 Y25.238 Z-2.410 A211.4501 
N712 X198.173 Y24.606 Z-3.545 A208.0754 
N713 X198.173 Y23.839 Z-4.628 A204.9416 
N714 X198.173 Y22.943 Z-5.647 A202.0670 
N715 X198.173 Y21.930 Z-6.599 A199.4301 
N716 X198.173 Y20.817 Z-7.502 A196.9118 
N717 X198.173 Y19.617 Z-8.369 A194.3939 
N718 X198.173 Y18.336 Z-9.193 A191.8768 
N719 X198.173 Y16.981 Z-9.964 A189.3859 
N720 X198.173 Y15.559 Z-10.676 A186.9226 
N721 X198.173 Y14.083 Z-11.326 A184.4745 
N722 X198.173 Y12.563 Z-11.916 A182.0154 
N723 X198.173 Y11.010 Z-12.447 A179.5185 
N724 X198.173 Y9.432 Z-12.922 A176.9591 
N725 X198.173 Y7.839 Z-13.340 A174.3176 
N726 X198.173 Y6.239 Z-13.703 A171.5801 
N727 X198.173 Y4.639 Z-14.011 A168.7394 
N728 X198.173 Y3.045 Z-14.262 A165.7961 
N729 X198.173 Y1.465 Z-14.455 A162.7570 
N730 X198.173 Y-0.097 Z-14.588 A159.6345 
N731 X198.173 Y-1.633 Z-14.661 A156.4441 
N732 X198.173 Y-3.140 Z-14.672 A153.2030 
N733 X198.173 Y-4.611 Z-14.622 A149.9288 
N734 X198.173 Y-6.043 Z-14.513 A146.6372 
N735 X198.173 Y-7.430 Z-14.346 A143.3419 
N736 X198.173 Y-8.771 Z-14.124 A140.0533 
N737 X198.173 Y-10.062 Z-13.853 A136.7782 
N738 X198.173 Y-11.302 Z-13.536 A133.5200 
N739 X198.173 Y-12.491 Z-13.178 A130.2779 
N740 X198.173 Y-13.629 Z-12.785 A127.0467 
N741 X198.173 Y-14.719 Z-12.361 A123.8175 
N742 X198.173 Y-15.761 Z-11.912 A120.5800 
N743 X198.173 Y-16.760 Z-11.442 A117.3239 
N744 X198.173 Y-17.717 Z-10.952 A114.0379 
N745 X198.173 Y-18.638 Z-10.445 A110.7114 
N746 X198.173 Y-19.524 Z-9.924 A107.3329 
N747 X198.173 Y-20.379 Z-9.387 A103.8914 
N748 X198.173 Y-21.206 Z-8.835 A100.3765 
N749 X198.173 Y-22.008 Z-8.266 A96.7786 
N750 X198.173 Y-22.787 Z-7.677 A93.0888 
N751 X198.173 Y-23.545 Z-7.065 A89.2992 
N752 X198.173 Y-24.280 Z-6.426 A85.4032 
N753 X198.173 Y-24.994 Z-5.755 A81.3948 
N754 X198.173 Y-25.683 Z-5.047 A77.2680 
N755 X198.173 Y-26.345 Z-4.296 A73.0174 
N756 X198.173 Y-26.974 Z-3.496 A68.6372 
N757 X198.173 Y-27.564 Z-2.641 A64.1218 
N758 X198.173 Y-28.106 Z-1.725 A59.4657 
N759 X198.173 Y-28.588 Z-0.743 A54.6662 
N760 X198.173 Y-28.995 Z0.307 A49.7265 
N761 X198.173 Y-29.309 Z1.426 A44.6604 
N762 X198.173 Y-29.508 Z2.607 A39.4967 
N763 X198.173 Y-29.568 Z3.837 A34.2876 
N764 X198.173 Y-29.464 Z5.091 A29.1171 
N765 X198.173 Y-29.177 Z6.340 A24.0795 
N766 X198.173 Y-28.695 Z7.548 A19.2714 
N767 X198.173 Y-28.014 Z8.681 A14.7875 
N768 X198.173 Y-27.138 Z9.704 A10.7172 
N769 X198.173 Y-26.080 Z10.595 A7.1185 
N770 X198.173 Y-24.856 Z11.333 A4.0440 
N771 X198.173 Y-23.485 Z11.913 A1.5100 
N772 X198.173 Y-21.987 Z12.337 A359.5191 
N773 X198.173 Y-20.382 Z12.612 A358.0567 
N774 X198.173 Y-18.691 Z12.762 A357.0553 
N775 X198.173 Y-16.931 Z12.815 A356.4216 
N776 X198.173 Y-15.123 Z12.800 A356.0451 
N777 X198.173 Y-13.285 Z12.752 A355.7813 
N778 X198.173 Y-11.438 Z12.705 A355.4601 
N779 X198.173 Y-9.603 Z12.686 A354.9370 
N780 X198.173 Y-7.796 Z12.708 A354.0950 
N781 X198.173 Y-6.035 Z12.784 A352.8342 
N782 X198.173 Y-4.331 Z12.915 A351.0888 
N783 X198.173 Y-2.691 Z13.094 A348.8510 
N784 X198.173 Y-1.118 Z13.312 A346.1361 
N785 X198.173 Y0.389 Z13.555 A342.9829 
N786 X198.173 Y1.834 Z13.809 A339.4565 
N787 X198.173 Y3.221 Z14.065 A335.6081 
N788 X198.173 Y4.558 Z14.311 A331.4957 
N789 X198.173 Y5.851 Z14.537 A327.1735 
N790 X198.173 Y7.105 Z14.734 A322.7039 
N791 X198.173 Y8.324 Z14.890 A318.1446 
N792 X198.173 Y9.511 Z14.998 A313.5415 
N793 X198.173 Y10.667 Z15.052 A308.9301 
N794 X198.173 Y11.793 Z15.047 A304.3383 
N795 X198.173 Y12.888 Z14.980 A299.7853 
N796 X198.173 Y13.951 Z14.848 A295.2815 
N797 X198.173 Y14.983 Z14.649 A290.8318 
N798 X198.173 Y15.980 Z14.383 A286.4401 
N799 X198.173 Y16.939 Z14.049 A282.1092 
N800 X198.173 Y17.858 Z13.647 A277.8393 
N801 X198.173 Y18.733 Z13.177 A273.6320 
N802 X198.173 Y19.559 Z12.641 A269.4903 
N803 X198.173 Y20.332 Z12.040 A265.4134 
N804 X198.173 Y21.048 Z11.375 A261.3934 
N805 X198.173 Y21.705 Z10.649 A257.4207 
N806 X198.173 Y22.298 Z9.863 A253.4842 
N807 X198.173 Y22.825 Z9.019 A249.5753 
N808 X198.173 Y23.280 Z8.120 A245.6886 
N809 X198.173 Y23.658 Z7.167 A241.8228 
N810 X198.173 Y23.951 Z6.166 A237.9825 
N811 X198.173 Y24.151 Z5.122 A234.1775 
N812 X198.173 Y24.252 Z4.042 A230.4242 
N813 X198.173 Y24.245 Z2.937 A226.7434 
N814 X198.173 Y24.126 Z1.815 A223.1540 
N815 X198.173 Y23.889 Z0.690 A219.6833 
N816 X198.173 Y23.533 Z-0.425 A216.3595 
N817 X198.173 Y23.062 Z-1.526 A213.1636 
N818 X198.173 Y22.477 Z-2.604 A210.0997 
N819 X198.173 Y21.784 Z-3.649 A207.1754 
N820 X198.173 Y20.988 Z-4.656 A204.3798 
N821 X198.173 Y20.101 Z-5.630 A201.6455 
N822 X198.173 Y19.131 Z-6.579 A198.8923 
N823 X198.173 Y18.083 Z-7.497 A196.1126 
N824 X198.173 Y16.960 Z-8.374 A193.3213 
N825 X198.173 Y15.768 Z-9.202 A190.5265 
N826 X198.173 Y14.514 Z-9.976 A187.7276 
N827 X198.173 Y13.205 Z-10.693 A184.9124 
N828 X198.173 Y11.849 Z-11.351 A182.0695 
N829 X198.173 Y10.453 Z-11.948 A179.1890 
N830 X198.173 Y9.024 Z-12.483 A176.2643 
N831 X198.173 Y7.570 Z-12.952 A173.2914 
N832 X198.173 Y6.096 Z-13.355 A170.2706 
N833 X198.173 Y4.611 Z-13.688 A167.2060 
N834 X198.173 Y3.121 Z-13.952 A164.1049 
N835 X198.173 Y1.634 Z-14.143 A160.9774 
N836 X198.173 Y0.156 Z-14.263 A157.8341 
N837 X198.173 Y-1.305 Z-14.311 A154.6860 
N838 X198.173 Y-2.744 Z-14.289 A151.5427 
N839 X198.173 Y-4.153 Z-14.200 A148.4120 
N840 X198.173 Y-5.527 Z-14.048 A145.2991 
N841 X198.173 Y-6.862 Z-13.837 A142.2067 
N842 X198.173 Y-8.153 Z-13.574 A139.1348 
N843 X198.173 Y-9.399 Z-13.263 A136.0805 
N844 X198.173 Y-10.597 Z-12.913 A133.0390 
N845 X198.173 Y-11.748 Z-12.528 A130.0034 
N846 X198.173 Y-12.850 Z-12.114 A126.9640 
N847 X198.173 Y-13.907 Z-11.679 A123.9085 
N848 X198.173 Y-14.920 Z-11.226 A120.8229 
N849 X198.173 Y-15.893 Z-10.759 A117.6936 
N850 X198.173 Y-16.830 Z-10.282 A114.5071 
N851 X198.173 Y-17.734 Z-9.797 A111.2508 
N852 X198.173 Y-18.610 Z-9.304 A107.9125 
N853 X198.173 Y-19.460 Z-8.803 A104.4811 
N854 X198.173 Y-20.289 Z-8.291 A100.9465 
N855 X198.173 Y-21.099 Z-7.766 A97.3002 
N856 X198.173 Y-21.893 Z-7.225 A93.5351 
N857 X198.173 Y-22.672 Z-6.661 A89.6454 
N858 X198.173 Y-23.436 Z-6.070 A85.6271 
N859 X198.173 Y-24.183 Z-5.445 A81.4766 
N860 X198.173 Y-24.911 Z-4.780 A77.1911 
N861 X198.173 Y-25.615 Z-4.068 A72.7680 
N862 X198.173 Y-26.289 Z-3.301 A68.2043 
N863 X198.173 Y-26.926 Z-2.473 A63.4968 
N864 X198.173 Y-27.514 Z-1.578 A58.6426 
N865 X198.173 Y-28.041 Z-0.611 A53.6412 
N866 X198.173 Y-28.490 Z0.431 A48.4987 
N867 X198.173 Y-28.841 Z1.546 A43.2336 
N868 X198.173 Y-29.070 Z2.726 A37.8820 
N869 X198.173 Y-29.152 Z3.953 A32.5080 
N870 X198.173 Y-29.062 Z5.200 A27.2091 
N871 X198.173 Y-28.784 Z6.431 A22.0885 
N872 X198.173 Y-28.308 Z7.611 A17.2469 
N873 X198.173 Y-27.634 Z8.702 A12.7771 
N874 X198.173 Y-26.771 Z9.674 A8.7637 
N875 X198.173 Y-25.733 Z10.503 A5.2593 
N876 X198.173 Y-24.539 Z11.173 A2.3154 
N877 X198.173 Y-23.210 Z11.679 A359.9475 
N878 X198.173 Y-21.766 Z12.023 A358.1740 
N879 X198.173 Y-20.229 Z12.212 A356.9922 
N880 X198.173 Y-18.617 Z12.277 A356.3090 
N881 X198.173 Y-16.947 Z12.256 A355.9843 
N882 X198.173 Y-15.238 Z12.185 A355.8758 
N883 X198.173 Y-13.508 Z12.097 A355.8409 
N884 X198.173 Y-11.778 Z12.023 A355.7210 
N885 X198.173 Y-10.066 Z11.990 A355.3610 
N886 X198.173 Y-8.389 Z12.021 A354.5987 
N887 X198.173 Y-6.761 Z12.137 A353.2704 
N888 X198.173 Y-5.188 Z12.341 A351.2800 
N889 X198.173 Y-3.672 Z12.613 A348.6708 
N890 X198.173 Y-2.213 Z12.927 A345.5335 
N891 X198.173 Y-0.809 Z13.264 A341.9481 
N892 X198.173 Y0.545 Z13.602 A338.0193 
N893 X198.173 Y1.853 Z13.927 A333.8274 
N894 X198.173 Y3.120 Z14.226 A329.4511 
N895 X198.173 Y4.350 Z14.490 A324.9430 
N896 X198.173 Y5.550 Z14.715 A320.3314 
N897 X198.173 Y6.725 Z14.894 A315.6457 
N898 X198.173 Y7.878 Z15.020 A310.9292 
N899 X198.173 Y9.007 Z15.085 A306.2153 
N900 X198.173 Y10.113 Z15.084 A301.5284 
N901 X198.173 Y11.193 Z15.015 A296.8851 
N902 X198.173 Y12.245 Z14.873 A292.2959 
N903 X198.173 Y13.266 Z14.658 A287.7687 
N904 X198.173 Y14.252 Z14.368 A283.3114 
N905 X198.173 Y15.195 Z14.004 A278.9381 
N906 X198.173 Y16.089 Z13.566 A274.6662 
N907 X198.173 Y16.926 Z13.058 A270.5119 
N908 X198.173 Y17.700 Z12.484 A266.4817 
N909 X198.173 Y18.409 Z11.847 A262.5690 
N910 X198.173 Y19.053 Z11.151 A258.7557 
N911 X198.173 Y19.631 Z10.401 A255.0195 
N912 X198.173 Y20.144 Z9.597 A251.3354 
N913 X198.173 Y20.591 Z8.742 A247.6813 
N914 X198.173 Y20.971 Z7.838 A244.0361 
N915 X198.173 Y21.280 Z6.885 A240.3886 
N916 X198.173 Y21.513 Z5.889 A236.7438 
N917 X198.173 Y21.671 Z4.847 A233.0442 
N918 X198.173 Y21.763 Z3.752 A229.1918 
N919 X198.173 Y21.750 Z2.635 A225.4023 
N920 X198.173 Y21.603 Z1.534 A221.8807 
N921 X198.173 Y21.342 Z0.445 A218.5328 
N922 X198.173 Y20.971 Z-0.622 A215.3603 
N923 X198.173 Y20.491 Z-1.656 A212.3910 
N924 X198.173 Y19.912 Z-2.652 A209.6085 
N925 X198.173 Y19.248 Z-3.621 A206.9189 
N926 X198.173 Y18.515 Z-4.580 A204.1758 
N927 X198.173 Y17.718 Z-5.535 A201.3196 
N928 X198.173 Y16.854 Z-6.475 A198.3690 
N929 X198.173 Y15.923 Z-7.389 A195.3455 
N930 X198.173 Y14.925 Z-8.268 A192.2686 
N931 X198.173 Y13.865 Z-9.107 A189.1343 
N932 X198.173 Y12.744 Z-9.901 A185.9383 
N933 X198.173 Y11.567 Z-10.642 A182.6861 
N934 X198.173 Y10.338 Z-11.324 A179.3916 
N935 X198.173 Y9.061 Z-11.938 A176.0717 
N936 X198.173 Y7.743 Z-12.477 A172.7456 
N937 X198.173 Y6.391 Z-12.936 A169.4319 
N938 X198.173 Y5.012 Z-13.311 A166.1476 
N939 X198.173 Y3.616 Z-13.598 A162.9063 
N940 X198.173 Y2.210 Z-13.797 A159.7181 
N941 X198.173 Y0.804 Z-13.909 A156.5895 
N942 X198.173 Y-0.594 Z-13.937 A153.5241 
N943 X198.173 Y-1.975 Z-13.885 A150.5224 
N944 X198.173 Y-3.334 Z-13.759 A147.5826 
N945 X198.173 Y-4.662 Z-13.565 A144.7001 
N946 X198.173 Y-5.954 Z-13.311 A141.8684 
N947 X198.173 Y-7.207 Z-13.004 A139.0781 
N948 X198.173 Y-8.416 Z-12.653 A136.3168 
N949 X198.173 Y-9.580 Z-12.267 A133.5683 
N950 X198.173 Y-10.698 Z-11.854 A130.8131 
N951 X198.173 Y-11.773 Z-11.423 A128.0295 
N952 X198.173 Y-12.807 Z-10.980 A125.1967 
N953 X198.173 Y-13.801 Z-10.531 A122.2983 
N954 X198.173 Y-14.760 Z-10.079 A119.3205 
N955 X198.173 Y-15.686 Z-9.627 A116.2494 
N956 X198.173 Y-16.585 Z-9.177 A113.0709 
N957 X198.173 Y-17.461 Z-8.728 A109.7716 
N958 X198.173 Y-18.319 Z-8.278 A106.3393 
N959 X198.173 Y-19.164 Z-7.825 A102.7636 
N960 X198.173 Y-19.998 Z-7.364 A99.0373 
N961 X198.173 Y-20.824 Z-6.888 A95.1561 
N962 X198.173 Y-21.643 Z-6.390 A91.1190 
N963 X198.173 Y-22.455 Z-5.864 A86.9275 
N964 X198.173 Y-23.255 Z-5.300 A82.5856 
N965 X198.173 Y-24.041 Z-4.692 A78.0978 
N966 X198.173 Y-24.806 Z-4.031 A73.4688 
N967 X198.173 Y-25.542 Z-3.310 A68.7014 
N968 X198.173 Y-26.240 Z-2.522 A63.7956 
N969 X198.173 Y-26.890 Z-1.660 A58.7496 
N970 X198.173 Y-27.477 Z-0.720 A53.5639 
N971 X198.173 Y-27.984 Z0.300 A48.2462 
N972 X198.173 Y-28.391 Z1.397 A42.8171 
N973 X198.173 Y-28.672 Z2.562 A37.3187 
N974 X198.173 Y-28.801 Z3.775 A31.8281 
N975 X198.173 Y-28.756 Z5.007 A26.4326 
N976 X198.173 Y-28.522 Z6.227 A21.2129 
N977 X198.173 Y-28.091 Z7.398 A16.2583 
N978 X198.173 Y-27.463 Z8.486 A11.6547 
N979 X198.173 Y-26.647 Z9.460 A7.4734 
N980 X198.173 Y-25.657 Z10.287 A3.8134 
N981 X198.173 Y-24.514 Z10.939 A0.7767 
N982 X198.173 Y-23.241 Z11.386 A358.5362 
N983 X198.173 Y-21.866 Z11.625 A357.1437 
N984 X198.173 Y-20.408 Z11.709 A356.4138 
N985 X198.173 Y-18.881 Z11.698 A356.0900 
N986 X198.173 Y-17.302 Z11.638 A355.9817 
N987 X198.173 Y-15.689 Z11.555 A355.9747 
N988 X198.173 Y-14.060 Z11.464 A356.0154 
N989 X198.173 Y-12.440 Z11.383 A356.0175 
N990 X198.173 Y-10.842 Z11.304 
N991 X198.173 Y-9.284 Z11.244 A355.9211 
N992 X198.173 Y-7.788 Z11.258 A355.4162 
N993 X198.173 Y-6.357 Z11.398 A354.1688 
N994 X198.173 Y-4.984 Z11.727 A351.7451 
N995 X198.173 Y-3.647 Z12.231 A348.0928 
N996 X198.173 Y-2.333 Z12.813 A343.6292 
N997 X198.173 Y-1.041 Z13.389 A338.7553 
N998 X198.173 Y0.225 Z13.914 A333.7223 
N999 X198.173 Y1.461 Z14.368 A328.6724 
N1000 X198.173 Y2.661 Z14.742 A323.6852 
N1001 X198.173 Y3.825 Z15.036 A318.8001 
N1002 X198.173 Y4.957 Z15.257 A314.0018 
N1003 X198.173 Y6.060 Z15.407 A309.2808 
N1004 X198.173 Y7.136 Z15.488 A304.6386 
N1005 X198.173 Y8.187 Z15.500 A300.0680 
N1006 X198.173 Y9.214 Z15.442 A295.5584 
N1007 X198.173 Y10.219 Z15.314 A291.0987 
N1008 X198.173 Y11.200 Z15.114 A286.6782 
N1009 X198.173 Y12.156 Z14.842 A282.2908 
N1010 X198.173 Y13.083 Z14.496 A277.9359 
N1011 X198.173 Y13.974 Z14.074 A273.6197 
N1012 X198.173 Y14.822 Z13.576 A269.3492 
N1013 X198.173 Y15.621 Z13.004 A265.1296 
N1014 X198.173 Y16.364 Z12.360 A260.9637 
N1015 X198.173 Y17.042 Z11.646 A256.8615 
N1016 X198.173 Y17.648 Z10.868 A252.8404 
N1017 X198.173 Y18.171 Z10.034 A248.9315 
N1018 X198.173 Y18.600 Z9.153 A245.1697 
N1019 X198.173 Y18.927 Z8.237 A241.5936 
N1020 X198.173 Y19.149 Z7.298 A238.2322 
N1021 X198.173 Y19.271 Z6.343 A235.0567 
N1022 X198.173 Y19.303 Z5.375 A232.0164 
N1023 X198.173 Y19.242 Z4.406 A229.1497 
N1024 X198.173 Y19.095 Z3.439 A226.4272 
N1025 X198.173 Y18.878 Z2.470 A223.7588 
N1026 X198.173 Y18.600 Z1.495 A221.0873 
N1027 X198.173 Y18.270 Z0.510 A218.3435 
N1028 X198.173 Y17.893 Z-0.491 A215.4544 
N1029 X198.173 Y17.470 Z-1.510 A212.3882 
N1030 X198.173 Y16.996 Z-2.540 A209.1520 
N1031 X198.173 Y16.462 Z-3.568 A205.8016 
N1032 X198.173 Y15.863 Z-4.584 A202.3542 
N1033 X198.173 Y15.199 Z-5.589 A198.7880 
N1034 X198.173 Y14.467 Z-6.577 A195.0931 
N1035 X198.173 Y13.664 Z-7.539 A191.2893 
N1036 X198.173 Y12.785 Z-8.462 A187.4110 
N1037 X198.173 Y11.829 Z-9.332 A183.5005 
N1038 X198.173 Y10.797 Z-10.132 A179.6027 
N1039 X198.173 Y9.694 Z-10.850 A175.7618 
N1040 X198.173 Y8.526 Z-11.473 A172.0169 
N1041 X198.173 Y7.303 Z-11.991 A168.4001 
N1042 X198.173 Y6.034 Z-12.400 A164.9337 
N1043 X198.173 Y4.733 Z-12.697 A161.6304 
N1044 X198.173 Y3.409 Z-12.883 A158.4949 
N1045 X198.173 Y2.073 Z-12.963 A155.5252 
N1046 X198.173 Y0.737 Z-12.943 A152.7140 
N1047 X198.173 Y-0.590 Z-12.830 A150.0501 
N1048 X198.173 Y-1.899 Z-12.635 A147.5165 
N1049 X198.173 Y-3.182 Z-12.368 A145.0918 
N1050 X198.173 Y-4.434 Z-12.043 A142.7510 
N1051 X198.173 Y-5.649 Z-11.670 A140.4664 
N1052 X198.173 Y-6.824 Z-11.264 A138.2076 
N1053 X198.173 Y-7.957 Z-10.835 A135.9420 
N1054 X198.173 Y-9.049 Z-10.396 A133.6339 
N1055 X198.173 Y-10.101 Z-9.958 A131.2448 
N1056 X198.173 Y-11.117 Z-9.528 A128.7402 
N1057 X198.173 Y-12.100 Z-9.112 A126.0973 
N1058 X198.173 Y-13.053 Z-8.713 A123.3023 
N1059 X198.173 Y-13.981 Z-8.332 A120.3427 
N1060 X198.173 Y-14.888 Z-7.969 A117.2071 
N1061 X198.173 Y-15.781 Z-7.621 A113.8841 
N1062 X198.173 Y-16.666 Z-7.284 A110.3620 
N1063 X198.173 Y-17.549 Z-6.952 A106.6336 
N1064 X198.173 Y-18.435 Z-6.617 A102.6958 
N1065 X198.173 Y-19.325 Z-6.269 A98.5528 
N1066 X198.173 Y-20.220 Z-5.897 A94.2149 
N1067 X198.173 Y-21.116 Z-5.490 A89.6969 
N1068 X198.173 Y-22.009 Z-5.039 A85.0170 
N1069 X198.173 Y-22.891 Z-4.534 A80.1976 
N1070 X198.173 Y-23.752 Z-3.968 A75.2625 
N1071 X198.173 Y-24.580 Z-3.335 A70.2338 
N1072 X198.173 Y-25.366 Z-2.631 A65.1260 
N1073 X198.173 Y-26.098 Z-1.853 A59.9465 
N1074 X198.173 Y-26.763 Z-1.001 A54.7059 
N1075 X198.173 Y-27.347 Z-0.077 A49.4205 
N1076 X198.173 Y-27.834 Z0.914 A44.1127 
N1077 X198.173 Y-28.206 Z1.962 A38.8140 
N1078 X198.173 Y-28.447 Z3.051 A33.5734 
N1079 X198.173 Y-28.540 Z4.158 A28.4638 
N1080 X198.173 Y-28.475 Z5.260 A23.5356 
N1081 X198.173 Y-28.248 Z6.338 A18.8138 
N1082 X198.173 Y-27.857 Z7.370 A14.3339 
N1083 X198.173 Y-27.304 Z8.332 A10.1434 
N1084 X198.173 Y-26.596 Z9.205 A6.2711 
N1085 X198.173 Y-25.741 Z9.967 A2.7685 
N1086 X198.173 Y-24.753 Z10.599 A359.7000 
N1087 X198.173 Y-23.650 Z11.081 A357.1473 
N1088 X198.173 Y-22.454 Z11.398 A355.1960 
N1089 X198.173 Y-21.189 Z11.559 A353.8566 
N1090 X198.173 Y-19.875 Z11.592 A353.0510 
N1091 X198.173 Y-18.532 Z11.532 A352.6744 
N1092 X198.173 Y-17.178 Z11.416 A352.6105 
N1093 X198.173 Y-15.828 Z11.278 A352.7598 
N1094 X198.173 Y-14.497 Z11.141 A353.0512 
N1095 X198.173 Y-13.191 Z11.035 A353.3600 
N1096 X198.173 Y-11.926 Z11.024 
N1097 X198.173 Y-10.672 Z11.038 
N1098 X198.173 Y-9.424 Z11.066 
N1099 X198.173 Y-8.170 Z11.090 
N1100 X198.173 Y-6.904 Z11.087 
N1101 X198.173 Y-5.705 Z11.286 A352.1085 
N1102 X198.173 Y-4.573 Z11.689 A349.4933 
N1103 X198.173 Y-3.484 Z12.249 A345.6994 
N1104 X198.173 Y-2.417 Z12.916 A340.9578 
N1105 X198.173 Y-1.347 Z13.610 A335.6736 
N1106 X198.173 Y-0.268 Z14.271 A330.1533 
N1107 X198.173 Y0.816 Z14.853 A324.6576 
N1108 X198.173 Y1.891 Z15.330 A319.3432 
N1109 X198.173 Y2.946 Z15.699 A314.2675 
N1110 X198.173 Y3.974 Z15.965 A309.4361 
N1111 X198.173 Y4.975 Z16.140 A304.8051 
N1112 X198.173 Y5.954 Z16.231 A300.3289 
N1113 X198.173 Y6.911 Z16.244 A295.9729 
N1114 X198.173 Y7.849 Z16.183 A291.7077 
N1115 X198.173 Y8.766 Z16.049 A287.5112 
N1116 X198.173 Y9.663 Z15.842 A283.3669 
N1117 X198.173 Y10.536 Z15.563 A279.2647 
N1118 X198.173 Y11.381 Z15.213 A275.1995 
N1119 X198.173 Y12.193 Z14.791 A271.1731 
N1120 X198.173 Y12.965 Z14.299 A267.1924 
N1121 X198.173 Y13.690 Z13.739 A263.2610 
N1122 X198.173 Y14.363 Z13.113 A259.3802 
N1123 X198.173 Y14.978 Z12.427 A255.5506 
N1124 X198.173 Y15.531 Z11.683 A251.7804 
N1125 X198.173 Y16.012 Z10.889 A248.0879 
N1126 X198.173 Y16.415 Z10.052 A244.4923 
N1127 X198.173 Y16.737 Z9.180 A241.0052 
N1128 X198.173 Y16.958 Z8.294 A237.7492 
N1129 X198.173 Y17.060 Z7.417 A234.8530 
N1130 X198.173 Y17.096 Z6.525 A232.0210 
N1131 X198.173 Y17.093 Z5.602 A229.0627 
N1132 X198.173 Y17.024 Z4.671 A226.1489 
N1133 X198.173 Y16.890 Z3.737 A223.2749 
N1134 X198.173 Y16.702 Z2.796 A220.3644 
N1135 X198.173 Y16.467 Z1.842 A217.3599 
N1136 X198.173 Y16.186 Z0.871 A214.2098 
N1137 X198.173 Y15.858 Z-0.117 A210.8913 
N1138 X198.173 Y15.477 Z-1.118 A207.4052 
N1139 X198.173 Y15.036 Z-2.123 A203.7830 
N1140 X198.173 Y14.527 Z-3.125 A200.0361 
N1141 X198.173 Y13.947 Z-4.117 A196.1709 
N1142 X198.173 Y13.289 Z-5.090 A192.2071 
N1143 X198.173 Y12.548 Z-6.031 A188.1822 
N1144 X198.173 Y11.723 Z-6.923 A184.1363 
N1145 X198.173 Y10.813 Z-7.753 A180.1081 
N1146 X198.173 Y9.822 Z-8.506 A176.1324 
N1147 X198.173 Y8.755 Z-9.172 A172.2395 
N1148 X198.173 Y7.619 Z-9.739 A168.4571 
N1149 X198.173 Y6.426 Z-10.199 A164.8124 
N1150 X198.173 Y5.188 Z-10.544 A161.3350 
N1151 X198.173 Y3.918 Z-10.771 A158.0575 
N1152 X198.173 Y2.633 Z-10.876 A155.0133 
N1153 X198.173 Y1.348 Z-10.862 A152.2309 
N1154 X198.173 Y0.079 Z-10.736 A149.7186 
N1155 X198.173 Y-1.164 Z-10.512 A147.4633 
N1156 X198.173 Y-2.374 Z-10.208 A145.4244 
N1157 X198.173 Y-3.546 Z-9.844 A143.5396 
N1158 X198.173 Y-4.680 Z-9.441 A141.7385 
N1159 X198.173 Y-5.777 Z-9.020 A139.9502 
N1160 X198.173 Y-6.837 Z-8.596 A138.1093 
N1161 X198.173 Y-7.863 Z-8.183 A136.1629 
N1162 X198.173 Y-8.856 Z-7.791 A134.0709 
N1163 X198.173 Y-9.818 Z-7.426 A131.8013 
N1164 X198.173 Y-10.752 Z-7.092 A129.3323 
N1165 X198.173 Y-11.665 Z-6.792 A126.6464 
N1166 X198.173 Y-12.560 Z-6.526 A123.7264 
N1167 X198.173 Y-13.447 Z-6.290 A120.5584 
N1168 X198.173 Y-14.333 Z-6.080 A117.1298 
N1169 X198.173 Y-15.225 Z-5.888 A113.4325 
N1170 X198.173 Y-16.132 Z-5.705 A109.4655 
N1171 X198.173 Y-17.057 Z-5.518 A105.2352 
N1172 X198.173 Y-18.000 Z-5.313 A100.7598 
N1173 X198.173 Y-18.960 Z-5.076 A96.0667 
N1174 X198.173 Y-19.929 Z-4.793 A91.1937 
N1175 X198.173 Y-20.895 Z-4.455 A86.1889 
N1176 X198.173 Y-21.844 Z-4.052 A81.1136 
N1177 X198.173 Y-22.760 Z-3.582 A76.0180 
N1178 X198.173 Y-23.633 Z-3.045 A70.9250 
N1179 X198.173 Y-24.456 Z-2.440 A65.8367 
N1180 X198.173 Y-25.225 Z-1.766 A60.7445 
N1181 X198.173 Y-25.933 Z-1.024 A55.6347 
N1182 X198.173 Y-26.573 Z-0.213 A50.4967 
N1183 X198.173 Y-27.135 Z0.664 A45.3263 
N1184 X198.173 Y-27.608 Z1.603 A40.1288 
N1185 X198.173 Y-27.977 Z2.595 A34.9226 
N1186 X198.173 Y-28.229 Z3.627 A29.7500 
N1187 X198.173 Y-28.350 Z4.676 A24.6709 
N1188 X198.173 Y-28.333 Z5.725 A19.7209 
N1189 X198.173 Y-28.172 Z6.753 A14.9329 
N1190 X198.173 Y-27.867 Z7.738 A10.3567 
N1191 X198.173 Y-27.418 Z8.651 A6.0652 
N1192 X198.173 Y-26.834 Z9.468 A2.1208 
N1193 X198.173 Y-26.126 Z10.168 A358.5868 
N1194 X198.173 Y-25.309 Z10.732 A355.5237 
N1195 X198.173 Y-24.400 Z11.151 A352.9720 
N1196 X198.173 Y-23.419 Z11.421 A350.9665 
N1197 X198.173 Y-22.388 Z11.549 A349.5147 
N1198 X198.173 Y-21.327 Z11.555 A348.5802 
N1199 X198.173 Y-20.253 Z11.466 A348.1176 
N1200 X198.173 Y-19.181 Z11.313 A348.0575 
N1201 X198.173 Y-18.120 Z11.128 A348.3118 
N1202 X198.173 Y-17.073 Z10.952 A348.7386 
N1203 X198.173 Y-16.036 Z10.813 A349.2313 
N1204 X198.173 Y-15.019 Z10.801 A349.3458 
N1205 X198.173 Y-13.994 Z10.860 
N1206 X198.173 Y-12.950 Z10.958 
N1207 X198.173 Y-11.886 Z11.084 
N1208 X198.173 Y-10.807 Z11.221 
N1209 X198.173 Y-9.719 Z11.353 
N1210 X198.173 Y-8.628 Z11.462 
N1211 X198.173 Y-7.540 Z11.535 
N1212 X198.173 Y-6.458 Z11.556 
N1213 X198.173 Y-5.430 Z11.691 A348.4728 
N1214 X198.173 Y-4.465 Z11.981 A346.4994 
N1215 X198.173 Y-3.549 Z12.422 A343.4169 
N1216 X198.173 Y-2.657 Z13.017 A339.2283 
N1217 X198.173 Y-1.756 Z13.687 A334.3128 
N1218 X198.173 Y-0.827 Z14.377 A328.9555 
N1219 X198.173 Y0.137 Z15.028 A323.4262 
N1220 X198.173 Y1.123 Z15.590 A317.9860 
N1221 X198.173 Y2.119 Z16.047 A312.7213 
N1222 X198.173 Y3.113 Z16.398 A307.6594 
N1223 X198.173 Y4.094 Z16.645 A302.8162 
N1224 X198.173 Y5.055 Z16.791 A298.1839 
N1225 X198.173 Y5.993 Z16.846 A293.7313 
N1226 X198.173 Y6.907 Z16.814 A289.4317 
N1227 X198.173 Y7.794 Z16.699 A285.2687 
N1228 X198.173 Y8.649 Z16.505 A281.2308 
N1229 X198.173 Y9.469 Z16.236 A277.3057 
N1230 X198.173 Y10.251 Z15.895 A273.4828 
N1231 X198.173 Y10.992 Z15.486 A269.7525 
N1232 X198.173 Y11.688 Z15.013 A266.1082 
N1233 X198.173 Y12.335 Z14.479 A262.5506 
N1234 X198.173 Y12.929 Z13.889 A259.0769 
N1235 X198.173 Y13.467 Z13.247 A255.6816 
N1236 X198.173 Y13.950 Z12.558 A252.3488 
N1237 X198.173 Y14.379 Z11.825 A249.0519 
N1238 X198.173 Y14.755 Z11.051 A245.7731 
N1239 X198.173 Y15.075 Z10.239 A242.5080 
N1240 X198.173 Y15.338 Z9.395 A239.2528 
N1241 X198.173 Y15.540 Z8.524 A236.0145 
N1242 X198.173 Y15.675 Z7.637 A232.8386 
N1243 X198.173 Y15.738 Z6.743 A229.7533 
N1244 X198.173 Y15.736 Z5.845 A226.7300 
N1245 X198.173 Y15.675 Z4.941 A223.7234 
N1246 X198.173 Y15.564 Z4.030 A220.6845 
N1247 X198.173 Y15.407 Z3.105 A217.5535 
N1248 X198.173 Y15.208 Z2.161 A214.2720 
N1249 X198.173 Y14.964 Z1.198 A210.8170 
N1250 X198.173 Y14.667 Z0.218 A207.1992 
N1251 X198.173 Y14.310 Z-0.771 A203.4331 
N1252 X198.173 Y13.886 Z-1.763 A199.5340 
N1253 X198.173 Y13.387 Z-2.751 A195.5103 
N1254 X198.173 Y12.806 Z-3.726 A191.3822 
N1255 X198.173 Y12.138 Z-4.673 A187.1808 
N1256 X198.173 Y11.378 Z-5.576 A182.9492 
N1257 X198.173 Y10.526 Z-6.420 A178.7311 
N1258 X198.173 Y9.584 Z-7.186 A174.5712 
N1259 X198.173 Y8.558 Z-7.860 A170.5121 
N1260 X198.173 Y7.458 Z-8.427 A166.5958 
N1261 X198.173 Y6.297 Z-8.876 A162.8632 
N1262 X198.173 Y5.089 Z-9.199 A159.3539 
N1263 X198.173 Y3.852 Z-9.391 A156.1063 
N1264 X198.173 Y2.603 Z-9.452 A153.1548 
N1265 X198.173 Y1.361 Z-9.386 A150.5192 
N1266 X198.173 Y0.138 Z-9.206 A148.2037 
N1267 X198.173 Y-1.052 Z-8.926 A146.1897 
N1268 X198.173 Y-2.202 Z-8.566 A144.4385 
N1269 X198.173 Y-3.306 Z-8.148 A142.8993 
N1270 X198.173 Y-4.364 Z-7.692 A141.5092 
N1271 X198.173 Y-5.375 Z-7.221 A140.1966 
N1272 X198.173 Y-6.342 Z-6.757 A138.8735 
N1273 X198.173 Y-7.274 Z-6.321 A137.4296 
N1274 X198.173 Y-8.180 Z-5.932 A135.7569 
N1275 X198.173 Y-9.068 Z-5.601 A133.7874 
N1276 X198.173 Y-9.941 Z-5.327 A131.4971 
N1277 X198.173 Y-10.806 Z-5.111 A128.8734 
N1278 X198.173 Y-11.669 Z-4.946 A125.9125 
N1279 X198.173 Y-12.535 Z-4.824 A122.6200 
N1280 X198.173 Y-13.415 Z-4.737 A118.9967 
N1281 X198.173 Y-14.316 Z-4.673 A115.0432 
N1282 X198.173 Y-15.245 Z-4.616 A110.7759 
N1283 X198.173 Y-16.203 Z-4.550 A106.2213 
N1284 X198.173 Y-17.187 Z-4.457 A101.4292 
N1285 X198.173 Y-18.186 Z-4.322 A96.4620 
N1286 X198.173 Y-19.188 Z-4.130 A91.3913 
N1287 X198.173 Y-20.176 Z-3.876 A86.2791 
N1288 X198.173 Y-21.141 Z-3.555 A81.1567 
N1289 X198.173 Y-22.078 Z-3.164 A76.0303 
N1290 X198.173 Y-22.978 Z-2.703 A70.9076 
N1291 X198.173 Y-23.834 Z-2.172 A65.7998 
N1292 X198.173 Y-24.639 Z-1.574 A60.7083 
N1293 X198.173 Y-25.387 Z-0.910 A55.6263 
N1294 X198.173 Y-26.073 Z-0.180 A50.5401 
N1295 X198.173 Y-26.692 Z0.615 A45.4289 
N1296 X198.173 Y-27.239 Z1.474 A40.2641 
N1297 X198.173 Y-27.706 Z2.401 A35.0113 
N1298 X198.173 Y-28.085 Z3.395 A29.6429 
N1299 X198.173 Y-28.358 Z4.447 A24.1748 
N1300 X198.173 Y-28.507 Z5.531 A18.6985 
N1301 X198.173 Y-28.519 Z6.626 A13.2643 
N1302 X198.173 Y-28.391 Z7.713 A7.8894 
N1303 X198.173 Y-28.117 Z8.751 A2.7078 
N1304 X198.173 Y-27.705 Z9.691 A357.8945 
N1305 X198.173 Y-27.174 Z10.482 A353.6537 
N1306 X198.173 Y-26.551 Z11.093 A350.1122 
N1307 X198.173 Y-25.862 Z11.515 A347.3281 
N1308 X198.173 Y-25.132 Z11.747 A345.3294 
N1309 X198.173 Y-24.377 Z11.808 A344.0677 
N1310 X198.173 Y-23.601 Z11.739 A343.3798 
N1311 X198.173 Y-22.806 Z11.592 A343.0605 
N1312 X198.173 Y-21.992 Z11.409 A342.9417 
N1313 X198.173 Y-21.163 Z11.222 A342.9168 
N1314 X198.173 Y-20.324 Z11.050 A342.9383 
N1315 X198.173 Y-19.485 Z10.897 A343.0322 
N1316 X198.173 Y-18.652 Z10.763 A343.2403 
N1317 X198.173 Y-17.830 Z10.655 A343.5571 
N1318 X198.173 Y-17.016 Z10.578 A343.9759 
N1319 X198.173 Y-16.210 Z10.637 A343.9907 
N1320 X198.173 Y-15.384 Z10.752 
N1321 X198.173 Y-14.526 Z10.915 
N1322 X198.173 Y-13.631 Z11.117 
N1323 X198.173 Y-12.702 Z11.344 
N1324 X198.173 Y-11.748 Z11.580 
N1325 X198.173 Y-10.781 Z11.806 
N1326 X198.173 Y-9.811 Z12.007 
N1327 X198.173 Y-8.848 Z12.171 
N1328 X198.173 Y-7.900 Z12.288 
N1329 X198.173 Y-6.972 Z12.354 
N1330 X198.173 Y-6.066 Z12.363 
N1331 X198.173 Y-5.191 Z12.367 A343.7277 
N1332 X198.173 Y-4.365 Z12.503 A342.5299 
N1333 X198.173 Y-3.577 Z12.761 A340.4445 
N1334 X198.173 Y-2.813 Z13.187 A337.2444 
N1335 X198.173 Y-2.042 Z13.759 A333.0339 
N1336 X198.173 Y-1.235 Z14.410 A328.1294 
N1337 X198.173 Y-0.374 Z15.083 A322.7814 
N1338 X198.173 Y0.542 Z15.721 A317.2391 
N1339 X198.173 Y1.499 Z16.269 A311.7503 
N1340 X198.173 Y2.482 Z16.716 A306.3681 
N1341 X198.173 Y3.481 Z17.058 A301.1203 
N1342 X198.173 Y4.478 Z17.291 A296.0375 
N1343 X198.173 Y5.461 Z17.417 A291.1483 
N1344 X198.173 Y6.416 Z17.438 A286.4654 
N1345 X198.173 Y7.335 Z17.362 A281.9849 
N1346 X198.173 Y8.209 Z17.193 A277.7059 
N1347 X198.173 Y9.034 Z16.939 A273.6253 
N1348 X198.173 Y9.801 Z16.607 A269.7403 
N1349 X198.173 Y10.508 Z16.204 A266.0459 
N1350 X198.173 Y11.154 Z15.737 A262.5203 
N1351 X198.173 Y11.739 Z15.212 A259.1361 
N1352 X198.173 Y12.263 Z14.634 A255.8865 
N1353 X198.173 Y12.717 Z14.012 A252.8019 
N1354 X198.173 Y13.096 Z13.355 A249.9053 
N1355 X198.173 Y13.403 Z12.670 A247.1812 
N1356 X198.173 Y13.647 Z11.960 A244.5775 
N1357 X198.173 Y13.845 Z11.225 A242.0055 
N1358 X198.173 Y14.012 Z10.459 A239.3677 
N1359 X198.173 Y14.157 Z9.658 A236.5936 
N1360 X198.173 Y14.275 Z8.827 A233.6939 
N1361 X198.173 Y14.356 Z7.971 A230.7100 
N1362 X198.173 Y14.397 Z7.098 A227.6559 
N1363 X198.173 Y14.398 Z6.208 A224.5223 
N1364 X198.173 Y14.359 Z5.301 A221.2844 
N1365 X198.173 Y14.282 Z4.373 A217.8996 
N1366 X198.173 Y14.168 Z3.420 A214.3262 
N1367 X198.173 Y14.010 Z2.441 A210.5553 
N1368 X198.173 Y13.796 Z1.445 A206.6241 
N1369 X198.173 Y13.517 Z0.438 A202.5532 
N1370 X198.173 Y13.166 Z-0.575 A198.3459 
N1371 X198.173 Y12.733 Z-1.587 A194.0059 
N1372 X198.173 Y12.210 Z-2.588 A189.5578 
N1373 X198.173 Y11.590 Z-3.562 A185.0383 
N1374 X198.173 Y10.866 Z-4.489 A180.4995 
N1375 X198.173 Y10.039 Z-5.348 A176.0019 
N1376 X198.173 Y9.113 Z-6.116 A171.6099 
N1377 X198.173 Y8.099 Z-6.774 A167.3874 
N1378 X198.173 Y7.009 Z-7.305 A163.3923 
N1379 X198.173 Y5.860 Z-7.697 A159.6722 
N1380 X198.173 Y4.672 Z-7.946 A156.2665 
N1381 X198.173 Y3.463 Z-8.051 A153.1983 
N1382 X198.173 Y2.250 Z-8.021 A150.4713 
N1383 X198.173 Y1.048 Z-7.868 A148.0733 
N1384 X198.173 Y-0.127 Z-7.605 A146.0065 
N1385 X198.173 Y-1.261 Z-7.243 A144.2930 
N1386 X198.173 Y-2.341 Z-6.799 A142.9303 
N1387 X198.173 Y-3.360 Z-6.296 A141.8746 
N1388 X198.173 Y-4.319 Z-5.759 A141.0546 
N1389 X198.173 Y-5.221 Z-5.218 A140.3605 
N1390 X198.173 Y-6.078 Z-4.704 A139.6375 
N1391 X198.173 Y-6.902 Z-4.245 A138.7340 
N1392 X198.173 Y-7.700 Z-3.857 A137.5567 
N1393 X198.173 Y-8.473 Z-3.544 A136.0727 
N1394 X198.173 Y-9.224 Z-3.307 A134.2729 
N1395 X198.173 Y-9.957 Z-3.140 A132.1653 
N1396 X198.173 Y-10.672 Z-3.034 A129.7842 
N1397 X198.173 Y-11.374 Z-2.982 A127.1549 
N1398 X198.173 Y-12.078 Z-2.980 A124.2483 
N1399 X198.173 Y-12.815 Z-3.031 A120.9295 
N1400 X198.173 Y-13.665 Z-3.154 A116.8035 
N1401 X198.173 Y-14.780 Z-3.367 A111.1178 
N1402 X198.173 Y-16.236 Z-3.591 A103.6149 
N1403 X198.173 Y-17.794 Z-3.662 A95.6254 
N1404 X198.173 Y-19.173 Z-3.547 A88.5349 
N1405 X198.173 Y-20.364 Z-3.305 A82.3123 
N1406 X198.173 Y-21.415 Z-2.977 A76.6732 
N1407 X198.173 Y-22.349 Z-2.587 A71.4852 
N1408 X198.173 Y-23.187 Z-2.147 A66.6343 
N1409 X198.173 Y-23.945 Z-1.666 A62.0396 
N1410 X198.173 Y-24.634 Z-1.147 A57.6207 
N1411 X198.173 Y-25.266 Z-0.591 A53.3084 
N1412 X198.173 Y-25.847 Z0.007 A49.0381 
N1413 X198.173 Y-26.385 Z0.651 A44.7464 
N1414 X198.173 Y-26.881 Z1.349 A40.3617 
N1415 X198.173 Y-27.338 Z2.115 A35.8006 
N1416 X198.173 Y-27.752 Z2.965 A30.9644 
N1417 X198.173 Y-28.113 Z3.915 A25.7666 
N1418 X198.173 Y-28.412 Z5.003 A19.9956 
N1419 X198.173 Y-28.639 Z6.366 A12.9204 
N1420 X198.173 Y-28.706 Z8.157 A3.7220 
N1421 X198.173 Y-28.428 Z10.205 A353.1038 
N1422 X198.173 Y-27.877 Z11.699 A344.9903 
N1423 X198.173 Y-27.375 Z12.326 A341.1531 
N1424 X198.173 Y-26.966 Z12.449 A339.8758 
N1425 X198.173 Y-26.553 Z12.421 A339.2988 
N1426 X198.173 Y-26.081 Z12.392 A338.6040 
N1427 X198.173 Y-25.546 Z12.363 A337.7629 
N1428 X198.173 Y-24.967 Z12.296 A336.9877 
N1429 X198.173 Y-24.359 Z12.172 A336.4123 
N1430 X198.173 Y-23.731 Z11.994 A336.0552 
N1431 X198.173 Y-23.090 Z11.775 A335.9042 
N1432 X198.173 Y-22.441 Z11.530 A335.9286 
N1433 X198.173 Y-21.779 Z11.285 A336.0421 
N1434 X198.173 Y-21.101 Z11.070 A336.1224 
N1435 X198.173 Y-20.407 Z10.898 A336.1403 
N1436 X198.173 Y-19.707 Z10.761 A336.1701 
N1437 X198.173 Y-19.013 Z10.647 A336.3008 
N1438 X198.173 Y-18.333 Z10.556 A336.5508 
N1439 X198.173 Y-17.662 Z10.492 A336.9112 
N1440 X198.173 Y-16.990 Z10.542 A336.9749 
N1441 X198.173 Y-16.298 Z10.659 
N1442 X198.173 Y-15.572 Z10.828 
N1443 X198.173 Y-14.811 Z11.046 
N1444 X198.173 Y-14.020 Z11.302 
N1445 X198.173 Y-13.211 Z11.582 
N1446 X198.173 Y-12.398 Z11.871 
N1447 X198.173 Y-11.594 Z12.156 
N1448 X198.173 Y-10.806 Z12.427 
N1449 X198.173 Y-10.036 Z12.678 
N1450 X198.173 Y-9.283 Z12.903 
N1451 X198.173 Y-8.544 Z13.098 
N1452 X198.173 Y-7.816 Z13.258 
N1453 X198.173 Y-7.093 Z13.381 
N1454 X198.173 Y-6.366 Z13.460 
N1455 X198.173 Y-5.619 Z13.488 
N1456 X198.173 Y-4.845 Z13.451 
N1457 X198.173 Y-4.053 Z13.560 A335.9030 
N1458 X198.173 Y-3.256 Z13.842 A333.5866 
N1459 X198.173 Y-2.469 Z14.245 A330.2944 
N1460 X198.173 Y-1.682 Z14.784 A326.0320 
N1461 X198.173 Y-0.875 Z15.384 A321.1733 
N1462 X198.173 Y-0.014 Z16.014 A315.8343 
N1463 X198.173 Y0.919 Z16.631 A310.1537 
N1464 X198.173 Y1.928 Z17.183 A304.2888 
N1465 X198.173 Y3.001 Z17.633 A298.3551 
N1466 X198.173 Y4.130 Z17.967 A292.3583 
N1467 X198.173 Y5.277 Z18.166 A286.4364 
N1468 X198.173 Y6.380 Z18.220 A280.8468 
N1469 X198.173 Y7.381 Z18.138 A275.8092 
N1470 X198.173 Y8.243 Z17.944 A271.4449 
N1471 X198.173 Y8.962 Z17.667 A267.7409 
N1472 X198.173 Y9.566 Z17.325 A264.5320 
N1473 X198.173 Y10.095 Z16.930 A261.6017 
N1474 X198.173 Y10.571 Z16.482 A258.8142 
N1475 X198.173 Y11.000 Z15.986 A256.1297 
N1476 X198.173 Y11.379 Z15.445 A253.5448 
N1477 X198.173 Y11.704 Z14.864 A251.0741 
N1478 X198.173 Y11.972 Z14.251 A248.7277 
N1479 X198.173 Y12.187 Z13.609 A246.4786 
N1480 X198.173 Y12.367 Z12.938 A244.2382 
N1481 X198.173 Y12.523 Z12.234 A241.9206 
N1482 X198.173 Y12.613 Z11.528 A239.7895 
N1483 X198.173 Y12.605 Z10.848 A238.0576 
N1484 X198.173 Y12.623 Z10.126 A236.0085 
N1485 X198.173 Y12.727 Z9.314 A233.1972 
N1486 X198.173 Y12.838 Z8.456 A230.0500 
N1487 X198.173 Y12.925 Z7.571 A226.7314 
N1488 X198.173 Y12.993 Z6.650 A223.1682 
N1489 X198.173 Y13.036 Z5.690 A219.3480 
N1490 X198.173 Y13.042 Z4.694 A215.2885 
N1491 X198.173 Y12.998 Z3.664 A211.0110 
N1492 X198.173 Y12.892 Z2.607 A206.5415 
N1493 X198.173 Y12.709 Z1.530 A201.9054 
N1494 X198.173 Y12.437 Z0.443 A197.1388 
N1495 X198.173 Y12.064 Z-0.638 A192.2808 
N1496 X198.173 Y11.580 Z-1.694 A187.3845 
N1497 X198.173 Y10.979 Z-2.704 A182.5127 
N1498 X198.173 Y10.261 Z-3.642 A177.7366 
N1499 X198.173 Y9.432 Z-4.483 A173.1298 
N1500 X198.173 Y8.503 Z-5.205 A168.7548 
N1501 X198.173 Y7.487 Z-5.795 A164.6558 
N1502 X198.173 Y6.403 Z-6.241 A160.8679 
N1503 X198.173 Y5.269 Z-6.540 A157.4204 
N1504 X198.173 Y4.105 Z-6.690 A154.3406 
N1505 X198.173 Y2.930 Z-6.696 A151.6471 
N1506 X198.173 Y1.760 Z-6.569 A149.3334 
N1507 X198.173 Y0.609 Z-6.328 A147.3669 
N1508 X198.173 Y-0.513 Z-5.995 A145.7077 
N1509 X198.173 Y-1.595 Z-5.587 A144.3247 
N1510 X198.173 Y-2.627 Z-5.125 A143.1936 
N1511 X198.173 Y-3.602 Z-4.628 A142.2832 
N1512 X198.173 Y-4.514 Z-4.115 A141.5592 
N1513 X198.173 Y-5.357 Z-3.602 A140.9910 
N1514 X198.173 Y-6.127 Z-3.102 A140.5546 
N1515 X198.173 Y-6.821 Z-2.627 A140.2336 
N1516 X198.173 Y-7.439 Z-2.183 A140.0177 
N1517 X198.173 Y-7.979 Z-1.774 A139.8979 
N1518 X198.173 Y-8.446 Z-1.405 A139.8582 
N1519 X198.173 Y-8.851 Z-1.083 A139.8287 
N1520 X198.173 Y-9.228 Z-0.842 A139.5589 
N1521 X198.173 Y-9.671 Z-0.778 A138.3440 
N1522 X198.173 Y-10.375 Z-1.061 A134.8149 
N1523 X198.173 Y-11.644 Z-1.815 A127.3427 
N1524 X198.173 Y-13.564 Z-2.748 A116.3801 
N1525 X198.173 Y-15.593 Z-3.326 A105.5204 
N1526 X198.173 Y-17.308 Z-3.502 A96.6513 
N1527 X198.173 Y-18.695 Z-3.442 A89.5196 
N1528 X198.173 Y-19.856 Z-3.254 A83.4794 
N1529 X198.173 Y-20.866 Z-2.985 A78.1100 
N1530 X198.173 Y-21.755 Z-2.661 A73.2504 
N1531 X198.173 Y-22.551 Z-2.295 A68.7551 
N1532 X198.173 Y-23.272 Z-1.893 A64.5195 
N1533 X198.173 Y-23.933 Z-1.459 A60.4560 
N1534 X198.173 Y-24.547 Z-0.991 A56.4971 
N1535 X198.173 Y-25.119 Z-0.490 A52.5884 
N1536 X198.173 Y-25.656 Z0.050 A48.6827 
N1537 X198.173 Y-26.160 Z0.631 A44.7350 
N1538 X198.173 Y-26.633 Z1.259 A40.6973 
N1539 X198.173 Y-27.075 Z1.943 A36.5153 
N1540 X198.173 Y-27.485 Z2.695 A32.1197 
N1541 X198.173 Y-27.858 Z3.529 A27.4303 
N1542 X198.173 Y-28.183 Z4.463 A22.3483 
N1543 X198.173 Y-28.445 Z5.522 A16.7475 
N1544 X198.173 Y-28.616 Z6.747 A10.3950 
N1545 X198.173 Y-28.651 Z8.274 A2.5415 
N1546 X198.173 Y-28.425 Z10.077 A353.1868 
N1547 X198.173 Y-27.897 Z11.772 A344.0689 
N1548 X198.173 Y-27.231 Z13.014 A336.8764 
N1549 X198.173 Y-26.638 Z13.698 A332.3879 
N1550 X198.173 Y-26.204 Z13.915 A330.3547 
N1551 X198.173 Y-25.882 Z13.850 A329.8526 
N1552 X198.173 Y-25.586 Z13.667 A329.9612 
N1553 X198.173 Y-25.259 Z13.460 A330.1183 
N1554 X198.173 Y-24.879 Z13.261 A330.1485 
N1555 X198.173 Y-24.449 Z13.066 A330.0749 
N1556 X198.173 Y-23.974 Z12.866 A329.9734 
N1557 X198.173 Y-23.461 Z12.656 A329.8860 
N1558 X198.173 Y-22.911 Z12.444 A329.8041 
N1559 X198.173 Y-22.330 Z12.241 A329.7103 
N1560 X198.173 Y-21.723 Z12.053 A329.6097 
N1561 X198.173 Y-21.100 Z11.883 A329.5240 
N1562 X198.173 Y-20.471 Z11.731 A329.4918 
N1563 X198.173 Y-19.846 Z11.597 A329.5550 
N1564 X198.173 Y-19.231 Z11.478 A329.7423 
N1565 X198.173 Y-18.629 Z11.358 A330.1499 
N1566 X198.173 Y-18.034 Z11.221 A330.8585 
N1567 X198.173 Y-17.434 Z11.066 A331.8834 
N1568 X198.173 Y-16.811 Z10.907 A333.1687 
N1569 X198.173 Y-16.147 Z10.761 A334.6340 
N1570 X198.173 Y-15.437 Z10.665 A336.1066 
N1571 X198.173 Y-14.688 Z10.655 A337.3765 
N1572 X198.173 Y-13.912 Z10.750 A338.3067 
N1573 X198.173 Y-13.127 Z10.948 A338.8292 
N1574 X198.173 Y-12.348 Z11.247 A338.8936 
N1575 X198.173 Y-11.584 Z11.635 A338.5077 
N1576 X198.173 Y-10.836 Z12.094 A337.7146 
N1577 X198.173 Y-10.101 Z12.594 A336.6322 
N1578 X198.173 Y-9.374 Z13.102 A335.3878 
N1579 X198.173 Y-8.651 Z13.579 A334.1478 
N1580 X198.173 Y-7.932 Z13.977 A333.1145 
N1581 X198.173 Y-7.216 Z14.259 A332.4467 
N1582 X198.173 Y-6.494 Z14.437 A332.0675 
N1583 X198.173 Y-5.755 Z14.529 A331.8532 
N1584 X198.173 Y-4.991 Z14.565 A331.5984 
N1585 X198.173 Y-4.196 Z14.620 A330.8894 
N1586 X198.173 Y-3.386 Z14.729 A329.4957 
N1587 X198.173 Y-2.589 Z14.895 A327.4263 
N1588 X198.173 Y-1.817 Z15.143 A324.6278 
N1589 X198.173 Y-1.042 Z15.522 A320.9112 
N1590 X198.173 Y-0.232 Z15.999 A316.4214 
N1591 X198.173 Y0.647 Z16.532 A311.2916 
N1592 X198.173 Y1.615 Z17.070 A305.6672 
N1593 X198.173 Y2.672 Z17.550 A299.7452 
N1594 X198.173 Y3.794 Z17.920 A293.7192 
N1595 X198.173 Y4.952 Z18.159 A287.6954 
N1596 X198.173 Y6.087 Z18.250 A281.9206 
N1597 X198.173 Y7.134 Z18.198 A276.6387 
N1598 X198.173 Y8.045 Z18.024 A272.0293 
N1599 X198.173 Y8.801 Z17.757 A268.1488 
N1600 X198.173 Y9.420 Z17.423 A264.8762 
N1601 X198.173 Y9.940 Z17.035 A262.0050 
N1602 X198.173 Y10.389 Z16.599 A259.3801 
N1603 X198.173 Y10.778 Z16.118 A256.9345 
N1604 X198.173 Y11.113 Z15.597 A254.6333 
N1605 X198.173 Y11.399 Z15.038 A252.4401 
N1606 X198.173 Y11.642 Z14.445 A250.3144 
N1607 X198.173 Y11.852 Z13.820 A248.2011 
N1608 X198.173 Y12.037 Z13.163 A246.0469 
N1609 X198.173 Y12.204 Z12.477 A243.8137 
N1610 X198.173 Y12.354 Z11.766 A241.4854 
N1611 X198.173 Y12.488 Z11.034 A239.0612 
N1612 X198.173 Y21.065 Z5.893 
N1613 G00 X198.173 Y63.951 Z-19.813 
N1614 ; DELTA A > 40.1
N1615 TRAFOOF
N1616 STOPRE
N1617 G0 G53 D0 Z265.000
N1618 G1 G53 A178.8236 F10000
N1619 TRAORI
N1620 G54 D1
N1621 TRANS 
N1622 G00 X208.663 Y48.528 Z-75.436 A178.8236 
N1623 X208.663 Y49.554 Z-25.446 
N1624 G01 X208.663 Y49.074 Z-22.354 F2792 
N1625 X208.663 Y47.662 Z-19.562 
N1626 X208.663 Y45.457 Z-17.343 
N1627 X208.663 Y42.674 Z-15.914 
N1628 X208.663 Y39.585 Z-15.415 
N1629 X208.663 Y34.119 Z-15.412 A178.7410 
N1630 X208.663 Y28.739 Z-15.393 A178.7227 
N1631 X208.663 Y23.526 Z-15.374 A178.7697 
N1632 X208.663 Y18.542 Z-15.368 
N1633 X208.663 Y13.854 Z-15.363 A178.7688 
N1634 X208.663 Y9.511 Z-15.360 A178.7606 
N1635 X208.663 Y5.548 Z-15.357 A178.7519 
N1636 X208.663 Y1.983 Z-15.354 A178.7453 
N1637 X208.663 Y-1.180 Z-15.350 A178.7472 
N1638 X208.663 Y-3.950 Z-15.345 A178.7697 
N1639 X208.663 Y-6.346 Z-15.346 
N1640 X208.663 Y-8.415 Z-15.347 
N1641 X208.663 Y-10.176 Z-15.475 A178.0492 
N1642 X208.663 Y-11.695 Z-15.879 A175.7185 
N1643 X208.663 Y-13.079 Z-16.735 A170.6332 
N1644 X208.663 Y-14.531 Z-18.076 A162.2657 
N1645 X208.663 Y-16.323 Z-19.774 A150.6220 
N1646 X208.663 Y-18.582 Z-21.383 A137.0794 
N1647 X208.663 Y-21.122 Z-22.456 A123.5268 
N1648 X208.663 Y-23.525 Z-22.801 A111.7372 
N1649 X208.663 Y-25.465 Z-22.538 A102.6027 
N1650 X208.663 Y-26.858 Z-21.891 A96.0988 
N1651 X208.663 Y-27.717 Z-21.025 A92.0523 
N1652 X208.663 Y-28.162 Z-20.033 A89.9195 
N1653 X208.663 Y-28.358 Z-18.948 A88.9406 
N1654 X208.663 Y-28.428 Z-17.778 A88.5522 
N1655 X208.663 Y-28.441 Z-16.526 A88.4267 
N1656 X208.663 Y-28.431 Z-15.202 A88.4073 
N1657 X208.663 Y-28.415 Z-13.818 A88.4203 
N1658 X208.663 Y-28.401 Z-12.393 A88.4297 
N1659 X208.663 Y-28.390 Z-10.946 A88.4241 
N1660 X208.663 Y-28.381 Z-9.501 A88.4104 
N1661 X208.663 Y-28.372 Z-8.079 A88.4053 
N1662 X208.663 Y-28.358 Z-6.701 A88.4354 
N1663 X208.663 Y-28.352 Z-5.387 
N1664 X208.663 Y-28.347 Z-4.141 
N1665 X208.663 Y-28.365 Z-2.966 A88.3052 
N1666 X208.663 Y-28.492 Z-1.883 A87.5660 
N1667 X208.663 Y-28.771 Z-0.874 A85.9383 
N1668 X208.663 Y-29.299 Z0.091 A82.8350 
N1669 X208.663 Y-30.231 Z1.110 A77.2790 
N1670 X208.663 Y-31.689 Z2.394 A68.1998 
N1671 X208.663 Y-33.408 Z4.171 A56.1197 
N1672 X208.663 Y-34.978 Z6.551 A41.9721 
N1673 X208.663 Y-35.898 Z9.270 A27.7468 
N1674 X208.663 Y-35.968 Z11.768 A15.6482 
N1675 X208.663 Y-35.365 Z13.597 A7.0343 
N1676 X208.663 Y-34.371 Z14.626 A2.2131 
N1677 X208.663 Y-33.158 Z15.076 A0.1041 
N1678 X208.663 Y-31.761 Z15.240 A359.3365 
N1679 X208.663 Y-30.172 Z15.289 A359.1120 
N1680 X208.663 Y-28.379 Z15.300 A359.0741 
N1681 X208.663 Y-26.379 Z15.301 A359.0887 
N1682 X208.663 Y-24.175 Z15.305 A359.1025 
N1683 X208.663 Y-21.783 Z15.313 
N1684 X208.663 Y-19.227 Z15.322 
N1685 X208.663 Y-16.539 Z15.332 
N1686 X208.663 Y-13.761 Z15.342 
N1687 X208.663 Y-10.940 Z15.352 A359.1011 
N1688 X208.663 Y-8.122 Z15.363 A359.0967 
N1689 X208.663 Y-5.357 Z15.375 A359.0878 
N1690 X208.663 Y-2.689 Z15.386 A359.0781 
N1691 X208.663 Y-0.158 Z15.396 A359.0732 
N1692 X208.663 Y2.206 Z15.403 A359.0882 
N1693 X208.663 Y4.376 Z15.411 A359.1025 
N1694 X208.663 Y6.345 Z15.422 
N1695 X208.663 Y8.116 Z15.435 A359.0839 
N1696 X208.663 Y9.681 Z15.518 A358.6601 
N1697 X208.663 Y11.062 Z15.726 A357.4915 
N1698 X208.663 Y12.299 Z16.202 A354.7384 
N1699 X208.663 Y13.499 Z17.149 A349.1483 
N1700 X208.663 Y14.873 Z18.608 A340.1008 
N1701 X208.663 Y16.652 Z20.329 A328.1693 
N1702 X208.663 Y18.932 Z21.906 A314.4888 
N1703 X208.663 Y21.469 Z22.898 A301.0176 
N1704 X208.663 Y23.826 Z23.155 A289.4715 
N1705 X208.663 Y25.689 Z22.826 A280.6581 
N1706 X208.663 Y26.873 Z22.130 A275.1415 
N1707 X208.663 Y27.556 Z21.249 A271.9712 
N1708 X208.663 Y27.928 Z20.255 A270.2286 
N1709 X208.663 Y28.106 Z19.166 A269.3851 
N1710 X208.663 Y28.170 Z17.988 A269.0771 
N1711 X208.663 Y28.180 Z16.726 A269.0340 
N1712 X208.663 Y28.175 Z15.390 A269.0732 
N1713 X208.663 Y28.176 Z13.993 A269.0951 
N1714 X208.663 Y28.183 Z12.554 
N1715 X208.663 Y28.191 Z11.091 
N1716 X208.663 Y28.201 Z9.630 A269.0902 
N1717 X208.663 Y28.209 Z8.192 A269.0913 
N1718 X208.663 Y28.218 Z6.801 A269.0951 
N1719 X208.663 Y28.227 Z5.472 
N1720 X208.663 Y28.236 Z4.215 
N1721 X208.663 Y28.264 Z3.038 A268.9781 
N1722 X208.663 Y28.393 Z1.953 A268.2987 
N1723 X208.663 Y28.707 Z0.945 A266.5486 
N1724 X208.663 Y29.340 Z-0.026 A262.9311 
N1725 X208.663 Y30.370 Z-1.064 A256.8444 
N1726 X208.663 Y31.780 Z-2.339 A247.9913 
N1727 X208.663 Y33.393 Z-4.046 A236.5714 
N1728 X208.663 Y34.882 Z-6.289 A223.2701 
N1729 X208.663 Y35.859 Z-8.947 A209.2220 
N1730 X208.663 Y35.965 Z-11.287 A197.9607 
N1731 X208.663 Y35.475 Z-13.220 A188.8817 
N1732 X208.663 Y34.555 Z-14.412 A183.3189 
N1733 X208.663 Y33.391 Z-14.997 A180.5884 
N1734 X208.663 Y32.039 Z-15.262 A179.3254 
N1735 X208.663 Y30.501 Z-15.359 A178.8267 
N1736 X208.663 Y28.764 Z-15.377 A178.6935 
N1737 X208.663 Y26.825 Z-15.368 A178.6925 
N1738 X208.663 Y24.686 Z-15.355 A178.7088 
N1739 X208.663 Y22.360 Z-15.345 
N1740 X208.663 Y19.869 Z-15.335 
N1741 X208.663 Y17.243 Z-15.324 
N1742 X208.663 Y14.523 Z-15.314 A178.7073 
N1743 X208.663 Y11.751 Z-15.303 A178.7040 
N1744 X208.663 Y8.974 Z-15.292 A178.7000 
N1745 X208.663 Y6.237 Z-15.281 A178.6966 
N1746 X208.663 Y3.586 Z-15.270 A178.7006 
N1747 X208.663 Y1.059 Z-15.259 A178.7088 
N1748 X208.663 Y-1.313 Z-15.250 
N1749 X208.663 Y-3.509 Z-15.246 A178.6905 
N1750 X208.663 Y-5.510 Z-15.275 A178.4751 
N1751 X208.663 Y-7.314 Z-15.355 A177.9411 
N1752 X208.663 Y-8.927 Z-15.525 A176.8434 
N1753 X208.663 Y-10.371 Z-15.842 A174.8100 
N1754 X208.663 Y-11.698 Z-16.394 A171.2830 
N1755 X208.663 Y-13.005 Z-17.271 A165.6105 
N1756 X208.663 Y-14.458 Z-18.503 A157.2956 
N1757 X208.663 Y-16.188 Z-19.860 A147.0010 
N1758 X208.663 Y-18.219 Z-21.065 A135.6420 
N1759 X208.663 Y-20.410 Z-21.862 A124.3745 
N1760 X208.663 Y-22.508 Z-22.133 A114.2858 
N1761 X208.663 Y-24.297 Z-21.929 A106.0183 
N1762 X208.663 Y-25.669 Z-21.378 A99.8065 
N1763 X208.663 Y-26.618 Z-20.600 A95.5460 
N1764 X208.663 Y-27.206 Z-19.679 A92.9433 
N1765 X208.663 Y-27.552 Z-18.657 A91.4429 
N1766 X208.663 Y-27.765 Z-17.551 A90.5424 
N1767 X208.663 Y-27.909 Z-16.371 A89.9242 
N1768 X208.663 Y-28.018 Z-15.124 A89.4387 
N1769 X208.663 Y-28.103 Z-13.824 A89.0232 
N1770 X208.663 Y-28.172 Z-12.485 A88.6482 
N1771 X208.663 Y-28.230 Z-11.126 A88.2844 
N1772 X208.663 Y-28.283 Z-9.764 A87.8959 
N1773 X208.663 Y-28.341 Z-8.419 A87.4396 
N1774 X208.663 Y-28.408 Z-7.107 A86.8748 
N1775 X208.663 Y-28.491 Z-5.844 A86.1656 
N1776 X208.663 Y-28.594 Z-4.638 A85.2772 
N1777 X208.663 Y-28.730 Z-3.497 A84.1395 
N1778 X208.663 Y-28.926 Z-2.416 A82.5894 
N1779 X208.663 Y-29.239 Z-1.378 A80.2856 
N1780 X208.663 Y-29.761 Z-0.337 A76.6621 
N1781 X208.663 Y-30.581 Z0.800 A71.0527 
N1782 X208.663 Y-31.709 Z2.179 A62.9898 
N1783 X208.663 Y-33.021 Z3.971 A52.3833 
N1784 X208.663 Y-34.165 Z6.204 A40.1890 
N1785 X208.663 Y-34.778 Z8.637 A28.0469 
N1786 X208.663 Y-34.721 Z10.881 A17.5132 
N1787 X208.663 Y-34.076 Z12.487 A10.3126 
N1788 X208.663 Y-33.083 Z13.532 A5.7639 
N1789 X208.663 Y-31.859 Z14.216 A2.8119 
N1790 X208.663 Y-30.439 Z14.646 A0.9465 
N1791 X208.663 Y-28.831 Z14.889 A359.8888 
N1792 X208.663 Y-27.036 Z15.007 A359.3748 
N1793 X208.663 Y-25.056 Z15.055 A359.1713 
N1794 X208.663 Y-22.901 Z15.072 A359.1129 
N1795 X208.663 Y-20.586 Z15.078 A359.1099 
N1796 X208.663 Y-18.137 Z15.082 A359.1218 
N1797 X208.663 Y-15.587 Z15.089 A359.1272 
N1798 X208.663 Y-12.972 Z15.098 
N1799 X208.663 Y-10.335 Z15.109 A359.1216 
N1800 X208.663 Y-7.719 Z15.121 A359.1120 
N1801 X208.663 Y-5.164 Z15.133 A359.1050 
N1802 X208.663 Y-2.710 Z15.143 A359.1119 
N1803 X208.663 Y-0.388 Z15.153 A359.1272 
N1804 X208.663 Y1.780 Z15.166 
N1805 X208.663 Y3.786 Z15.184 A359.0949 
N1806 X208.663 Y5.608 Z15.291 A358.5376 
N1807 X208.663 Y7.257 Z15.528 A357.1671 
N1808 X208.663 Y8.753 Z15.942 A354.6354 
N1809 X208.663 Y10.146 Z16.556 A350.7047 
N1810 X208.663 Y11.521 Z17.419 A344.9783 
N1811 X208.663 Y13.009 Z18.537 A337.1258 
N1812 X208.663 Y14.707 Z19.732 A327.6787 
N1813 X208.663 Y16.582 Z20.736 A317.7497 
N1814 X208.663 Y18.514 Z21.385 A308.2223 
N1815 X208.663 Y20.334 Z21.618 A299.8103 
N1816 X208.663 Y21.928 Z21.482 A292.7984 
N1817 X208.663 Y23.250 Z21.058 A287.1942 
N1818 X208.663 Y24.306 Z20.423 A282.8445 
N1819 X208.663 Y25.138 Z19.634 A279.4921 
N1820 X208.663 Y25.794 Z18.728 A276.8870 
N1821 X208.663 Y26.313 Z17.727 A274.8348 
N1822 X208.663 Y26.724 Z16.648 A273.2023 
N1823 X208.663 Y27.046 Z15.503 A271.9064 
N1824 X208.663 Y27.294 Z14.308 A270.8838 
N1825 X208.663 Y27.485 Z13.075 A270.0587 
N1826 X208.663 Y27.638 Z11.821 A269.3453 
N1827 X208.663 Y27.771 Z10.560 A268.6560 
N1828 X208.663 Y27.901 Z9.307 A267.9076 
N1829 X208.663 Y28.042 Z8.075 A267.0085 
N1830 X208.663 Y28.212 Z6.872 A265.8545 
N1831 X208.663 Y28.428 Z5.706 A264.3361 
N1832 X208.663 Y28.702 Z4.575 A262.3522 
N1833 X208.663 Y29.052 Z3.471 A259.7807 
N1834 X208.663 Y29.499 Z2.375 A256.4505 
N1835 X208.663 Y30.057 Z1.251 A252.1944 
N1836 X208.663 Y30.724 Z0.052 A246.8861 
N1837 X208.663 Y31.458 Z-1.269 A240.5463 
N1838 X208.663 Y32.184 Z-2.753 A233.2935 
N1839 X208.663 Y32.813 Z-4.416 A225.2972 
N1840 X208.663 Y33.230 Z-6.230 A216.8866 
N1841 X208.663 Y33.331 Z-8.099 A208.5512 
N1842 X208.663 Y33.058 Z-9.895 A200.7746 
N1843 X208.663 Y32.417 Z-11.506 A193.8947 
N1844 X208.663 Y31.447 Z-12.858 A188.0822 
N1845 X208.663 Y30.199 Z-13.871 A183.6350 
N1846 X208.663 Y28.725 Z-14.476 A180.9252 
N1847 X208.663 Y27.068 Z-14.777 A179.5378 
N1848 X208.663 Y25.243 Z-14.906 A178.8992 
N1849 X208.663 Y23.256 Z-14.947 A178.6427 
N1850 X208.663 Y21.120 Z-14.947 A178.5689 
N1851 X208.663 Y18.851 Z-14.931 A178.5638 
N1852 X208.663 Y16.475 Z-14.912 A178.5698 
N1853 X208.663 Y14.022 Z-14.894 
N1854 X208.663 Y11.528 Z-14.876 A178.5676 
N1855 X208.663 Y9.030 Z-14.858 A178.5688 
N1856 X208.663 Y6.566 Z-14.840 A178.5698 
N1857 X208.663 Y4.171 Z-14.823 
N1858 X208.663 Y1.876 Z-14.812 A178.5401 
N1859 X208.663 Y-0.293 Z-14.824 A178.3783 
N1860 X208.663 Y-2.319 Z-14.883 A177.9257 
N1861 X208.663 Y-4.192 Z-15.025 A176.9409 
N1862 X208.663 Y-5.918 Z-15.291 A175.1181 
N1863 X208.663 Y-7.523 Z-15.734 A172.0803 
N1864 X208.663 Y-9.057 Z-16.381 A167.5295 
N1865 X208.663 Y-10.578 Z-17.160 A161.6903 
N1866 X208.663 Y-12.123 Z-17.960 A155.0133 
N1867 X208.663 Y-13.728 Z-18.720 A147.6872 
N1868 X208.663 Y-15.387 Z-19.355 A140.0653 
N1869 X208.663 Y-17.059 Z-19.787 A132.5644 
N1870 X208.663 Y-18.677 Z-19.972 A125.5394 
N1871 X208.663 Y-20.183 Z-19.911 A119.2026 
N1872 X208.663 Y-21.538 Z-19.627 A113.6570 
N1873 X208.663 Y-22.721 Z-19.154 A108.9181 
N1874 X208.663 Y-23.735 Z-18.529 A104.9222 
N1875 X208.663 Y-24.592 Z-17.781 A101.5745 
N1876 X208.663 Y-25.311 Z-16.936 A98.7691 
N1877 X208.663 Y-25.914 Z-16.012 A96.3943 
N1878 X208.663 Y-26.422 Z-15.026 A94.3488 
N1879 X208.663 Y-26.854 Z-13.989 A92.5386 
N1880 X208.663 Y-27.226 Z-12.915 A90.8760 
N1881 X208.663 Y-27.555 Z-11.815 A89.2821 
N1882 X208.663 Y-27.854 Z-10.698 A87.6883 
N1883 X208.663 Y-28.132 Z-9.574 A86.0337 
N1884 X208.663 Y-28.400 Z-8.452 A84.2627 
N1885 X208.663 Y-28.666 Z-7.337 A82.3266 
N1886 X208.663 Y-28.935 Z-6.233 A80.1834 
N1887 X208.663 Y-29.213 Z-5.141 A77.7854 
N1888 X208.663 Y-29.509 Z-4.057 A75.0749 
N1889 X208.663 Y-29.831 Z-2.970 A71.9794 
N1890 X208.663 Y-30.187 Z-1.862 A68.3917 
N1891 X208.663 Y-30.591 Z-0.705 A64.1647 
N1892 X208.663 Y-31.045 Z0.543 A59.1196 
N1893 X208.663 Y-31.535 Z1.933 A53.0947 
N1894 X208.663 Y-31.999 Z3.503 A46.0870 
N1895 X208.663 Y-32.323 Z5.236 A38.4160 
N1896 X208.663 Y-32.395 Z7.064 A30.4930 
N1897 X208.663 Y-32.130 Z8.866 A22.8641 
N1898 X208.663 Y-31.500 Z10.487 A16.1385 
N1899 X208.663 Y-30.538 Z11.820 A10.6872 
N1900 X208.663 Y-29.306 Z12.835 A6.5584 
N1901 X208.663 Y-27.856 Z13.562 A3.6009 
N1902 X208.663 Y-26.222 Z14.051 A1.5947 
N1903 X208.663 Y-24.424 Z14.358 A0.3183 
N1904 X208.663 Y-22.478 Z14.528 A359.6024 
N1905 X208.663 Y-20.400 Z14.603 A359.2922 
N1906 X208.663 Y-18.209 Z14.628 A359.2206 
N1907 X208.663 Y-15.928 Z14.636 A359.2369 
N1908 X208.663 Y-13.587 Z14.646 A359.2549 
N1909 X208.663 Y-11.218 Z14.662 A359.2539 
N1910 X208.663 Y-8.854 Z14.679 A359.2548 
N1911 X208.663 Y-6.530 Z14.697 A359.2595 
N1912 X208.663 Y-4.275 Z14.718 
N1913 X208.663 Y-2.109 Z14.738 
N1914 X208.663 Y-0.058 Z14.787 A359.0723 
N1915 X208.663 Y1.858 Z14.913 A358.4049 
N1916 X208.663 Y3.639 Z15.161 A356.9346 
N1917 X208.663 Y5.298 Z15.589 A354.2388 
N1918 X208.663 Y6.876 Z16.204 A350.1320 
N1919 X208.663 Y8.423 Z16.957 A344.7316 
N1920 X208.663 Y9.988 Z17.767 A338.3202 
N1921 X208.663 Y11.585 Z18.519 A331.3967 
N1922 X208.663 Y13.204 Z19.138 A324.3350 
N1923 X208.663 Y14.809 Z19.566 A317.4698 
N1924 X208.663 Y16.351 Z19.773 A311.0983 
N1925 X208.663 Y17.787 Z19.763 A305.3736 
N1926 X208.663 Y19.100 Z19.563 A300.3086 
N1927 X208.663 Y20.288 Z19.202 A295.8429 
N1928 X208.663 Y21.358 Z18.709 A291.8916 
N1929 X208.663 Y22.321 Z18.106 A288.3708 
N1930 X208.663 Y23.187 Z17.409 A285.2047 
N1931 X208.663 Y23.967 Z16.633 A282.3264 
N1932 X208.663 Y24.670 Z15.790 A279.6779 
N1933 X208.663 Y25.304 Z14.891 A277.2054 
N1934 X208.663 Y25.878 Z13.946 A274.8598 
N1935 X208.663 Y26.398 Z12.965 A272.5953 
N1936 X208.663 Y26.873 Z11.956 A270.3698 
N1937 X208.663 Y27.308 Z10.928 A268.1435 
N1938 X208.663 Y27.712 Z9.887 A265.8715 
N1939 X208.663 Y28.093 Z8.838 A263.5049 
N1940 X208.663 Y28.458 Z7.784 A260.9896 
N1941 X208.663 Y28.817 Z6.726 A258.2717 
N1942 X208.663 Y29.174 Z5.659 A255.3006 
N1943 X208.663 Y29.536 Z4.577 A252.0245 
N1944 X208.663 Y29.900 Z3.472 A248.4054 
N1945 X208.663 Y30.261 Z2.330 A244.4130 
N1946 X208.663 Y30.610 Z1.138 A240.0340 
N1947 X208.663 Y30.926 Z-0.115 A235.2688 
N1948 X208.663 Y31.183 Z-1.440 A230.1457 
N1949 X208.663 Y31.352 Z-2.843 A224.6758 
N1950 X208.663 Y31.399 Z-4.324 A218.8900 
N1951 X208.663 Y31.275 Z-5.858 A212.9357 
N1952 X208.663 Y30.935 Z-7.401 A206.9912 
N1953 X208.663 Y30.355 Z-8.911 A201.1879 
N1954 X208.663 Y29.519 Z-10.326 A195.7204 
N1955 X208.663 Y28.430 Z-11.588 A190.7722 
N1956 X208.663 Y27.106 Z-12.649 A186.4956 
N1957 X208.663 Y25.573 Z-13.455 A183.1366 
N1958 X208.663 Y23.868 Z-14.005 A180.7382 
N1959 X208.663 Y22.021 Z-14.320 A179.2629 
N1960 X208.663 Y20.054 Z-14.450 A178.5642 
N1961 X208.663 Y17.987 Z-14.471 A178.3490 
N1962 X208.663 Y15.838 Z-14.450 A178.3263 
N1963 X208.663 Y13.631 Z-14.424 A178.3265 
N1964 X208.663 Y11.391 Z-14.404 A178.2926 
N1965 X208.663 Y9.148 Z-14.390 A178.2128 
N1966 X208.663 Y6.929 Z-14.386 A178.0678 
N1967 X208.663 Y4.763 Z-14.396 A177.8080 
N1968 X208.663 Y2.671 Z-14.435 A177.3406 
N1969 X208.663 Y0.670 Z-14.527 A176.5010 
N1970 X208.663 Y-1.230 Z-14.711 A175.0108 
N1971 X208.663 Y-3.035 Z-15.027 A172.5500 
N1972 X208.663 Y-4.765 Z-15.471 A169.0172 
N1973 X208.663 Y-6.438 Z-15.977 A164.6472 
N1974 X208.663 Y-8.070 Z-16.492 A159.6663 
N1975 X208.663 Y-9.675 Z-16.974 A154.2470 
N1976 X208.663 Y-11.255 Z-17.383 A148.5964 
N1977 X208.663 Y-12.801 Z-17.682 A142.9220 
N1978 X208.663 Y-14.296 Z-17.850 A137.3989 
N1979 X208.663 Y-15.724 Z-17.877 A132.1483 
N1980 X208.663 Y-17.074 Z-17.769 A127.2214 
N1981 X208.663 Y-18.339 Z-17.535 A122.6319 
N1982 X208.663 Y-19.517 Z-17.189 A118.3731 
N1983 X208.663 Y-20.608 Z-16.743 A114.4238 
N1984 X208.663 Y-21.616 Z-16.209 A110.7530 
N1985 X208.663 Y-22.544 Z-15.599 A107.3235 
N1986 X208.663 Y-23.399 Z-14.922 A104.0956 
N1987 X208.663 Y-24.186 Z-14.188 A101.0296 
N1988 X208.663 Y-24.911 Z-13.406 A98.0861 
N1989 X208.663 Y-25.579 Z-12.583 A95.2276 
N1990 X208.663 Y-26.197 Z-11.725 A92.4182 
N1991 X208.663 Y-26.769 Z-10.838 A89.6238 
N1992 X208.663 Y-27.301 Z-9.927 A86.8124 
N1993 X208.663 Y-27.796 Z-8.994 A83.9533 
N1994 X208.663 Y-28.259 Z-8.043 A81.0183 
N1995 X208.663 Y-28.693 Z-7.073 A77.9804 
N1996 X208.663 Y-29.100 Z-6.085 A74.8143 
N1997 X208.663 Y-29.481 Z-5.075 A71.4943 
N1998 X208.663 Y-29.837 Z-4.038 A67.9935 
N1999 X208.663 Y-30.166 Z-2.969 A64.2805 
N2000 X208.663 Y-30.465 Z-1.857 A60.3179 
N2001 X208.663 Y-30.728 Z-0.690 A56.0645 
N2002 X208.663 Y-30.943 Z0.543 A51.4784 
N2003 X208.663 Y-31.092 Z1.855 A46.5288 
N2004 X208.663 Y-31.145 Z3.251 A41.2225 
N2005 X208.663 Y-31.061 Z4.720 A35.6294 
N2006 X208.663 Y-30.796 Z6.234 A29.8813 
N2007 X208.663 Y-30.312 Z7.750 A24.1325 
N2008 X208.663 Y-29.583 Z9.208 A18.5862 
N2009 X208.663 Y-28.600 Z10.539 A13.4875 
N2010 X208.663 Y-27.374 Z11.688 A9.0144 
N2011 X208.663 Y-25.933 Z12.607 A5.3574 
N2012 X208.663 Y-24.307 Z13.264 A2.6973 
N2013 X208.663 Y-22.532 Z13.685 A0.9630 
N2014 X208.663 Y-20.634 Z13.929 A359.9419 
N2015 X208.663 Y-18.634 Z14.051 A359.4280 
N2016 X208.663 Y-16.553 Z14.100 A359.2369 
N2017 X208.663 Y-14.412 Z14.114 A359.2095 
N2018 X208.663 Y-12.237 Z14.118 A359.2449 
N2019 X208.663 Y-10.056 Z14.130 
N2020 X208.663 Y-7.888 Z14.142 
N2021 X208.663 Y-5.768 Z14.183 A359.0750 
N2022 X208.663 Y-3.715 Z14.266 A358.6286 
N2023 X208.663 Y-1.748 Z14.417 A357.7127 
N2024 X208.663 Y0.124 Z14.660 A356.1194 
N2025 X208.663 Y1.904 Z15.010 A353.6732 
N2026 X208.663 Y3.606 Z15.468 A350.2583 
N2027 X208.663 Y5.255 Z16.005 A345.9322 
N2028 X208.663 Y6.863 Z16.549 A341.0078 
N2029 X208.663 Y8.435 Z17.042 A335.7655 
N2030 X208.663 Y9.970 Z17.453 A330.3890 
N2031 X208.663 Y11.465 Z17.763 A325.0085 
N2032 X208.663 Y12.905 Z17.952 A319.7851 
N2033 X208.663 Y14.278 Z18.016 A314.8134 
N2034 X208.663 Y15.581 Z17.963 A310.1166 
N2035 X208.663 Y16.811 Z17.802 A305.6885 
N2036 X208.663 Y17.970 Z17.545 A301.5069 
N2037 X208.663 Y19.063 Z17.202 A297.5415 
N2038 X208.663 Y20.093 Z16.781 A293.7588 
N2039 X208.663 Y21.064 Z16.289 A290.1266 
N2040 X208.663 Y21.979 Z15.733 A286.6160 
N2041 X208.663 Y22.841 Z15.118 A283.2003 
N2042 X208.663 Y23.653 Z14.449 A279.8543 
N2043 X208.663 Y24.414 Z13.731 A276.5628 
N2044 X208.663 Y25.124 Z12.967 A273.3229 
N2045 X208.663 Y25.779 Z12.163 A270.1358 
N2046 X208.663 Y26.379 Z11.322 A267.0008 
N2047 X208.663 Y26.925 Z10.450 A263.9052 
N2048 X208.663 Y27.422 Z9.551 A260.8169 
N2049 X208.663 Y27.877 Z8.625 A257.6922 
N2050 X208.663 Y28.294 Z7.671 A254.4874 
N2051 X208.663 Y28.679 Z6.688 A251.1620 
N2052 X208.663 Y29.033 Z5.670 A247.6757 
N2053 X208.663 Y29.355 Z4.612 A243.9949 
N2054 X208.663 Y29.641 Z3.507 A240.0889 
N2055 X208.663 Y29.881 Z2.346 A235.9363 
N2056 X208.663 Y30.062 Z1.125 A231.5264 
N2057 X208.663 Y30.164 Z-0.160 A226.8677 
N2058 X208.663 Y30.163 Z-1.506 A221.9901 
N2059 X208.663 Y30.028 Z-2.900 A216.9572 
N2060 X208.663 Y29.730 Z-4.317 A211.8765 
N2061 X208.663 Y29.241 Z-5.719 A206.9029 
N2062 X208.663 Y28.547 Z-7.069 A202.1444 
N2063 X208.663 Y27.645 Z-8.325 A197.7375 
N2064 X208.663 Y26.538 Z-9.441 A193.8603 
N2065 X208.663 Y25.242 Z-10.382 A190.6515 
N2066 X208.663 Y23.783 Z-11.158 A188.0555 
N2067 X208.663 Y22.188 Z-11.802 A185.8937 
N2068 X208.663 Y20.475 Z-12.335 A184.0720 
N2069 X208.663 Y18.662 Z-12.761 A182.5777 
N2070 X208.663 Y16.770 Z-13.092 A181.3726 
N2071 X208.663 Y14.817 Z-13.345 A180.3931 
N2072 X208.663 Y12.827 Z-13.540 A179.5585 
N2073 X208.663 Y10.820 Z-13.701 A178.7583 
N2074 X208.663 Y8.815 Z-13.850 A177.8638 
N2075 X208.663 Y6.832 Z-14.006 A176.7611 
N2076 X208.663 Y4.885 Z-14.180 A175.3514 
N2077 X208.663 Y2.986 Z-14.380 A173.5492 
N2078 X208.663 Y1.142 Z-14.607 A171.3037 
N2079 X208.663 Y-0.645 Z-14.853 A168.5982 
N2080 X208.663 Y-2.375 Z-15.113 A165.4393 
N2081 X208.663 Y-4.052 Z-15.370 A161.8704 
N2082 X208.663 Y-5.680 Z-15.609 A157.9562 
N2083 X208.663 Y-7.261 Z-15.812 A153.7820 
N2084 X208.663 Y-8.796 Z-15.964 A149.4409 
N2085 X208.663 Y-10.281 Z-16.049 A145.0261 
N2086 X208.663 Y-11.714 Z-16.058 A140.6201 
N2087 X208.663 Y-13.088 Z-15.985 A136.2890 
N2088 X208.663 Y-14.401 Z-15.830 A132.0734 
N2089 X208.663 Y-15.651 Z-15.597 A127.9899 
N2090 X208.663 Y-16.839 Z-15.291 A124.0392 
N2091 X208.663 Y-17.966 Z-14.917 A120.2149 
N2092 X208.663 Y-19.033 Z-14.482 A116.5101 
N2093 X208.663 Y-20.042 Z-13.989 A112.9145 
N2094 X208.663 Y-20.995 Z-13.446 A109.4146 
N2095 X208.663 Y-21.893 Z-12.856 A105.9937 
N2096 X208.663 Y-22.740 Z-12.224 A102.6340 
N2097 X208.663 Y-23.538 Z-11.556 A99.3165 
N2098 X208.663 Y-24.290 Z-10.854 A96.0219 
N2099 X208.663 Y-24.998 Z-10.122 A92.7308 
N2100 X208.663 Y-25.666 Z-9.361 A89.4248 
N2101 X208.663 Y-26.295 Z-8.574 A86.0854 
N2102 X208.663 Y-26.887 Z-7.760 A82.6947 
N2103 X208.663 Y-27.445 Z-6.919 A79.2343 
N2104 X208.663 Y-27.968 Z-6.050 A75.6857 
N2105 X208.663 Y-28.457 Z-5.149 A72.0298 
N2106 X208.663 Y-28.911 Z-4.213 A68.2465 
N2107 X208.663 Y-29.326 Z-3.235 A64.3155 
N2108 X208.663 Y-29.698 Z-2.211 A60.2157 
N2109 X208.663 Y-30.020 Z-1.132 A55.9261 
N2110 X208.663 Y-30.278 Z0.007 A51.4293 
N2111 X208.663 Y-30.459 Z1.212 A46.7166 
N2112 X208.663 Y-30.539 Z2.483 A41.7955 
N2113 X208.663 Y-30.493 Z3.813 A36.6992 
N2114 X208.663 Y-30.290 Z5.184 A31.4996 
N2115 X208.663 Y-29.902 Z6.566 A26.3041 
N2116 X208.663 Y-29.306 Z7.917 A21.2474 
N2117 X208.663 Y-28.491 Z9.193 A16.4700 
N2118 X208.663 Y-27.458 Z10.346 A12.1185 
N2119 X208.663 Y-26.220 Z11.343 A8.3017 
N2120 X208.663 Y-24.798 Z12.155 A5.1133 
N2121 X208.663 Y-23.217 Z12.779 A2.5813 
N2122 X208.663 Y-21.502 Z13.218 A0.7124 
N2123 X208.663 Y-19.677 Z13.490 A359.4824 
N2124 X208.663 Y-17.765 Z13.630 A358.7708 
N2125 X208.663 Y-15.786 Z13.685 A358.4106 
N2126 X208.663 Y-13.762 Z13.693 A358.2462 
N2127 X208.663 Y-11.714 Z13.684 A358.1414 
N2128 X208.663 Y-9.666 Z13.686 A357.9592 
N2129 X208.663 Y-7.642 Z13.719 A357.5687 
N2130 X208.663 Y-5.661 Z13.800 A356.8347 
N2131 X208.663 Y-3.740 Z13.945 A355.6127 
N2132 X208.663 Y-1.889 Z14.162 A353.7857 
N2133 X208.663 Y-0.110 Z14.443 A351.3203 
N2134 X208.663 Y1.598 Z14.772 A348.2375 
N2135 X208.663 Y3.242 Z15.126 A344.6114 
N2136 X208.663 Y4.824 Z15.474 A340.5815 
N2137 X208.663 Y6.350 Z15.795 A336.2622 
N2138 X208.663 Y7.824 Z16.072 A331.7467 
N2139 X208.663 Y9.248 Z16.297 A327.1079 
N2140 X208.663 Y10.621 Z16.453 A322.4478 
N2141 X208.663 Y11.940 Z16.535 A317.8453 
N2142 X208.663 Y13.205 Z16.540 A313.3341 
N2143 X208.663 Y14.416 Z16.470 A308.9302 
N2144 X208.663 Y15.576 Z16.329 A304.6406 
N2145 X208.663 Y16.685 Z16.118 A300.4637 
N2146 X208.663 Y17.746 Z15.841 A296.3904 
N2147 X208.663 Y18.760 Z15.502 A292.4083 
N2148 X208.663 Y19.728 Z15.102 A288.5058 
N2149 X208.663 Y20.652 Z14.644 A284.6719 
N2150 X208.663 Y21.530 Z14.130 A280.8938 
N2151 X208.663 Y22.363 Z13.562 A277.1628 
N2152 X208.663 Y23.149 Z12.943 A273.4783 
N2153 X208.663 Y23.884 Z12.273 A269.8437 
N2154 X208.663 Y24.565 Z11.557 A266.2619 
N2155 X208.663 Y25.192 Z10.796 A262.7229 
N2156 X208.663 Y25.767 Z9.993 A259.1987 
N2157 X208.663 Y26.293 Z9.147 A255.6549 
N2158 X208.663 Y26.773 Z8.256 A252.0593 
N2159 X208.663 Y27.206 Z7.319 A248.3816 
N2160 X208.663 Y27.590 Z6.332 A244.5946 
N2161 X208.663 Y27.920 Z5.292 A240.6772 
N2162 X208.663 Y28.188 Z4.195 A236.6159 
N2163 X208.663 Y28.382 Z3.041 A232.4105 
N2164 X208.663 Y28.487 Z1.832 A228.0743 
N2165 X208.663 Y28.484 Z0.575 A223.6400 
N2166 X208.663 Y28.349 Z-0.711 A219.2031 
N2167 X208.663 Y28.060 Z-1.997 A214.8879 
N2168 X208.663 Y27.612 Z-3.270 A210.7008 
N2169 X208.663 Y27.000 Z-4.507 A206.7102 
N2170 X208.663 Y26.219 Z-5.677 A203.0235 
N2171 X208.663 Y25.273 Z-6.756 A199.7206 
N2172 X208.663 Y24.175 Z-7.729 A196.8451 
N2173 X208.663 Y22.941 Z-8.598 A194.3575 
N2174 X208.663 Y21.593 Z-9.393 A192.0829 
N2175 X208.663 Y20.148 Z-10.136 A189.8735 
N2176 X208.663 Y18.615 Z-10.820 A187.7392 
N2177 X208.663 Y17.004 Z-11.433 A185.7138 
N2178 X208.663 Y15.331 Z-11.977 A183.7836 
N2179 X208.663 Y13.612 Z-12.455 A181.9118 
N2180 X208.663 Y11.862 Z-12.877 A180.0450 
N2181 X208.663 Y10.095 Z-13.251 A178.1242 
N2182 X208.663 Y8.324 Z-13.586 A176.0947 
N2183 X208.663 Y6.560 Z-13.887 A173.9087 
N2184 X208.663 Y4.813 Z-14.158 A171.5308 
N2185 X208.663 Y3.089 Z-14.400 A168.9406 
N2186 X208.663 Y1.394 Z-14.612 A166.1317 
N2187 X208.663 Y-0.268 Z-14.790 A163.1123 
N2188 X208.663 Y-1.893 Z-14.929 A159.9011 
N2189 X208.663 Y-3.479 Z-15.026 A156.5257 
N2190 X208.663 Y-5.024 Z-15.076 A153.0195 
N2191 X208.663 Y-6.524 Z-15.073 A149.4186 
N2192 X208.663 Y-7.977 Z-15.016 A145.7592 
N2193 X208.663 Y-9.381 Z-14.901 A142.0746 
N2194 X208.663 Y-10.733 Z-14.729 A138.3940 
N2195 X208.663 Y-12.032 Z-14.500 A134.7402 
N2196 X208.663 Y-13.275 Z-14.217 A131.1280 
N2197 X208.663 Y-14.464 Z-13.883 A127.5612 
N2198 X208.663 Y-15.599 Z-13.504 A124.0370 
N2199 X208.663 Y-16.683 Z-13.083 A120.5496 
N2200 X208.663 Y-17.717 Z-12.624 A117.0921 
N2201 X208.663 Y-18.704 Z-12.130 A113.6575 
N2202 X208.663 Y-19.644 Z-11.606 A110.2369 
N2203 X208.663 Y-20.542 Z-11.053 A106.8200 
N2204 X208.663 Y-21.399 Z-10.474 A103.3947 
N2205 X208.663 Y-22.218 Z-9.870 A99.9487 
N2206 X208.663 Y-23.002 Z-9.243 A96.4689 
N2207 X208.663 Y-23.753 Z-8.592 A92.9427 
N2208 X208.663 Y-24.472 Z-7.917 A89.3577 
N2209 X208.663 Y-25.162 Z-7.215 A85.7019 
N2210 X208.663 Y-25.822 Z-6.486 A81.9633 
N2211 X208.663 Y-26.453 Z-5.724 A78.1300 
N2212 X208.663 Y-27.053 Z-4.927 A74.1896 
N2213 X208.663 Y-27.621 Z-4.089 A70.1292 
N2214 X208.663 Y-28.151 Z-3.206 A65.9359 
N2215 X208.663 Y-28.638 Z-2.270 A61.5969 
N2216 X208.663 Y-29.073 Z-1.276 A57.1003 
N2217 X208.663 Y-29.444 Z-0.218 A52.4377 
N2218 X208.663 Y-29.736 Z0.906 A47.6090 
N2219 X208.663 Y-29.929 Z2.096 A42.6264 
N2220 X208.663 Y-29.998 Z3.344 A37.5242 
N2221 X208.663 Y-29.918 Z4.633 A32.3691 
N2222 X208.663 Y-29.663 Z5.937 A27.2522 
N2223 X208.663 Y-29.214 Z7.220 A22.2818 
N2224 X208.663 Y-28.559 Z8.445 A17.5715 
N2225 X208.663 Y-27.699 Z9.571 A13.2317 
N2226 X208.663 Y-26.642 Z10.568 A9.3554 
N2227 X208.663 Y-25.403 Z11.409 A6.0129 
N2228 X208.663 Y-24.002 Z12.085 A3.2366 
N2229 X208.663 Y-22.461 Z12.593 A1.0455 
N2230 X208.663 Y-20.801 Z12.943 A359.4123 
N2231 X208.663 Y-19.045 Z13.157 A358.2751 
N2232 X208.663 Y-17.210 Z13.260 A357.5594 
N2233 X208.663 Y-15.319 Z13.285 A357.1454 
N2234 X208.663 Y-13.390 Z13.269 A356.8777 
N2235 X208.663 Y-11.445 Z13.246 A356.6041 
N2236 X208.663 Y-9.506 Z13.240 A356.1847 
N2237 X208.663 Y-7.593 Z13.272 A355.4762 
N2238 X208.663 Y-5.722 Z13.356 A354.3588 
N2239 X208.663 Y-3.908 Z13.495 A352.7640 
N2240 X208.663 Y-2.160 Z13.684 A350.6576 
N2241 X208.663 Y-0.480 Z13.915 A348.0323 
N2242 X208.663 Y1.131 Z14.173 A344.9332 
N2243 X208.663 Y2.676 Z14.441 A341.4296 
N2244 X208.663 Y4.159 Z14.704 A337.5951 
N2245 X208.663 Y5.585 Z14.951 A333.4965 
N2246 X208.663 Y6.960 Z15.172 A329.1890 
N2247 X208.663 Y8.288 Z15.354 A324.7517 
N2248 X208.663 Y9.571 Z15.489 A320.2520 
N2249 X208.663 Y10.810 Z15.570 A315.7358 
N2250 X208.663 Y12.008 Z15.593 A311.2365 
N2251 X208.663 Y13.165 Z15.555 A306.7785 
N2252 X208.663 Y14.283 Z15.456 A302.3779 
N2253 X208.663 Y15.362 Z15.294 A298.0403 
N2254 X208.663 Y16.404 Z15.069 A293.7655 
N2255 X208.663 Y17.407 Z14.782 A289.5527 
N2256 X208.663 Y18.371 Z14.432 A285.3995 
N2257 X208.663 Y19.294 Z14.021 A281.3010 
N2258 X208.663 Y20.175 Z13.548 A277.2532 
N2259 X208.663 Y21.012 Z13.016 A273.2544 
N2260 X208.663 Y21.799 Z12.424 A269.3082 
N2261 X208.663 Y22.534 Z11.774 A265.4174 
N2262 X208.663 Y23.213 Z11.068 A261.5740 
N2263 X208.663 Y23.835 Z10.309 A257.7601 
N2264 X208.663 Y24.401 Z9.495 A253.9560 
N2265 X208.663 Y24.908 Z8.627 A250.1413 
N2266 X208.663 Y25.353 Z7.706 A246.2997 
N2267 X208.663 Y25.731 Z6.730 A242.4189 
N2268 X208.663 Y26.036 Z5.701 A238.4938 
N2269 X208.663 Y26.258 Z4.622 A234.5274 
N2270 X208.663 Y26.387 Z3.497 A230.5329 
N2271 X208.663 Y26.411 Z2.333 A226.5324 
N2272 X208.663 Y26.317 Z1.146 A222.5799 
N2273 X208.663 Y26.090 Z-0.047 A218.7490 
N2274 X208.663 Y25.732 Z-1.237 A215.0303 
N2275 X208.663 Y25.238 Z-2.410 A211.4501 
N2276 X208.663 Y24.606 Z-3.545 A208.0754 
N2277 X208.663 Y23.839 Z-4.628 A204.9416 
N2278 X208.663 Y22.943 Z-5.647 A202.0670 
N2279 X208.663 Y21.930 Z-6.599 A199.4301 
N2280 X208.663 Y20.817 Z-7.502 A196.9118 
N2281 X208.663 Y19.617 Z-8.369 A194.3939 
N2282 X208.663 Y18.336 Z-9.193 A191.8768 
N2283 X208.663 Y16.981 Z-9.964 A189.3859 
N2284 X208.663 Y15.559 Z-10.676 A186.9226 
N2285 X208.663 Y14.083 Z-11.326 A184.4745 
N2286 X208.663 Y12.563 Z-11.916 A182.0154 
N2287 X208.663 Y11.010 Z-12.447 A179.5185 
N2288 X208.663 Y9.432 Z-12.922 A176.9591 
N2289 X208.663 Y7.839 Z-13.340 A174.3176 
N2290 X208.663 Y6.239 Z-13.703 A171.5801 
N2291 X208.663 Y4.639 Z-14.011 A168.7394 
N2292 X208.663 Y3.045 Z-14.262 A165.7961 
N2293 X208.663 Y1.465 Z-14.455 A162.7570 
N2294 X208.663 Y-0.097 Z-14.588 A159.6345 
N2295 X208.663 Y-1.633 Z-14.661 A156.4440 
N2296 X208.663 Y-3.140 Z-14.672 A153.2030 
N2297 X208.663 Y-4.611 Z-14.622 A149.9288 
N2298 X208.663 Y-6.043 Z-14.513 A146.6372 
N2299 X208.663 Y-7.430 Z-14.346 A143.3419 
N2300 X208.663 Y-8.771 Z-14.124 A140.0533 
N2301 X208.663 Y-10.062 Z-13.853 A136.7782 
N2302 X208.663 Y-11.302 Z-13.536 A133.5199 
N2303 X208.663 Y-12.491 Z-13.178 A130.2779 
N2304 X208.663 Y-13.629 Z-12.785 A127.0467 
N2305 X208.663 Y-14.719 Z-12.361 A123.8175 
N2306 X208.663 Y-15.761 Z-11.912 A120.5800 
N2307 X208.663 Y-16.760 Z-11.442 A117.3239 
N2308 X208.663 Y-17.717 Z-10.952 A114.0379 
N2309 X208.663 Y-18.638 Z-10.445 A110.7114 
N2310 X208.663 Y-19.524 Z-9.924 A107.3329 
N2311 X208.663 Y-20.379 Z-9.387 A103.8914 
N2312 X208.663 Y-21.206 Z-8.835 A100.3765 
N2313 X208.663 Y-22.008 Z-8.266 A96.7786 
N2314 X208.663 Y-22.787 Z-7.677 A93.0888 
N2315 X208.663 Y-23.545 Z-7.065 A89.2992 
N2316 X208.663 Y-24.280 Z-6.426 A85.4032 
N2317 X208.663 Y-24.994 Z-5.755 A81.3948 
N2318 X208.663 Y-25.683 Z-5.047 A77.2680 
N2319 X208.663 Y-26.345 Z-4.296 A73.0174 
N2320 X208.663 Y-26.974 Z-3.496 A68.6372 
N2321 X208.663 Y-27.564 Z-2.641 A64.1218 
N2322 X208.663 Y-28.106 Z-1.725 A59.4657 
N2323 X208.663 Y-28.588 Z-0.743 A54.6662 
N2324 X208.663 Y-28.995 Z0.307 A49.7265 
N2325 X208.663 Y-29.309 Z1.426 A44.6604 
N2326 X208.663 Y-29.508 Z2.607 A39.4967 
N2327 X208.663 Y-29.568 Z3.837 A34.2876 
N2328 X208.663 Y-29.464 Z5.091 A29.1171 
N2329 X208.663 Y-29.177 Z6.340 A24.0795 
N2330 X208.663 Y-28.695 Z7.548 A19.2714 
N2331 X208.663 Y-28.014 Z8.681 A14.7875 
N2332 X208.663 Y-27.138 Z9.704 A10.7172 
N2333 X208.663 Y-26.080 Z10.595 A7.1185 
N2334 X208.663 Y-24.856 Z11.333 A4.0440 
N2335 X208.663 Y-23.485 Z11.913 A1.5100 
N2336 X208.663 Y-21.987 Z12.337 A359.5191 
N2337 X208.663 Y-20.382 Z12.612 A358.0567 
N2338 X208.663 Y-18.691 Z12.762 A357.0553 
N2339 X208.663 Y-16.931 Z12.815 A356.4216 
N2340 X208.663 Y-15.123 Z12.800 A356.0451 
N2341 X208.663 Y-13.285 Z12.752 A355.7813 
N2342 X208.663 Y-11.438 Z12.705 A355.4601 
N2343 X208.663 Y-9.603 Z12.686 A354.9370 
N2344 X208.663 Y-7.796 Z12.708 A354.0950 
N2345 X208.663 Y-6.035 Z12.784 A352.8342 
N2346 X208.663 Y-4.331 Z12.915 A351.0888 
N2347 X208.663 Y-2.691 Z13.094 A348.8510 
N2348 X208.663 Y-1.118 Z13.312 A346.1361 
N2349 X208.663 Y0.389 Z13.555 A342.9829 
N2350 X208.663 Y1.834 Z13.809 A339.4565 
N2351 X208.663 Y3.221 Z14.065 A335.6081 
N2352 X208.663 Y4.558 Z14.311 A331.4957 
N2353 X208.663 Y5.851 Z14.537 A327.1735 
N2354 X208.663 Y7.105 Z14.734 A322.7039 
N2355 X208.663 Y8.324 Z14.890 A318.1446 
N2356 X208.663 Y9.511 Z14.998 A313.5415 
N2357 X208.663 Y10.667 Z15.052 A308.9301 
N2358 X208.663 Y11.793 Z15.047 A304.3383 
N2359 X208.663 Y12.888 Z14.980 A299.7853 
N2360 X208.663 Y13.951 Z14.848 A295.2815 
N2361 X208.663 Y14.983 Z14.649 A290.8318 
N2362 X208.663 Y15.980 Z14.383 A286.4401 
N2363 X208.663 Y16.939 Z14.049 A282.1092 
N2364 X208.663 Y17.858 Z13.647 A277.8393 
N2365 X208.663 Y18.733 Z13.177 A273.6320 
N2366 X208.663 Y19.559 Z12.641 A269.4903 
N2367 X208.663 Y20.332 Z12.040 A265.4134 
N2368 X208.663 Y21.048 Z11.375 A261.3934 
N2369 X208.663 Y21.705 Z10.649 A257.4207 
N2370 X208.663 Y22.298 Z9.863 A253.4842 
N2371 X208.663 Y22.825 Z9.019 A249.5753 
N2372 X208.663 Y23.280 Z8.120 A245.6886 
N2373 X208.663 Y23.658 Z7.167 A241.8228 
N2374 X208.663 Y23.951 Z6.166 A237.9825 
N2375 X208.663 Y24.151 Z5.122 A234.1775 
N2376 X208.663 Y24.252 Z4.042 A230.4242 
N2377 X208.663 Y24.245 Z2.937 A226.7434 
N2378 X208.663 Y24.126 Z1.815 A223.1540 
N2379 X208.663 Y23.889 Z0.690 A219.6833 
N2380 X208.663 Y23.533 Z-0.425 A216.3595 
N2381 X208.663 Y23.062 Z-1.526 A213.1636 
N2382 X208.663 Y22.477 Z-2.604 A210.0997 
N2383 X208.663 Y21.784 Z-3.649 A207.1754 
N2384 X208.663 Y20.988 Z-4.656 A204.3798 
N2385 X208.663 Y20.101 Z-5.630 A201.6455 
N2386 X208.663 Y19.131 Z-6.579 A198.8923 
N2387 X208.663 Y18.083 Z-7.497 A196.1126 
N2388 X208.663 Y16.960 Z-8.374 A193.3213 
N2389 X208.663 Y15.768 Z-9.202 A190.5265 
N2390 X208.663 Y14.514 Z-9.976 A187.7276 
N2391 X208.663 Y13.205 Z-10.693 A184.9124 
N2392 X208.663 Y11.849 Z-11.351 A182.0695 
N2393 X208.663 Y10.453 Z-11.948 A179.1890 
N2394 X208.663 Y9.024 Z-12.483 A176.2643 
N2395 X208.663 Y7.570 Z-12.952 A173.2914 
N2396 X208.663 Y6.096 Z-13.355 A170.2706 
N2397 X208.663 Y4.611 Z-13.688 A167.2060 
N2398 X208.663 Y3.121 Z-13.952 A164.1049 
N2399 X208.663 Y1.634 Z-14.143 A160.9774 
N2400 X208.663 Y0.156 Z-14.263 A157.8341 
N2401 X208.663 Y-1.305 Z-14.311 A154.6860 
N2402 X208.663 Y-2.744 Z-14.289 A151.5427 
N2403 X208.663 Y-4.153 Z-14.200 A148.4120 
N2404 X208.663 Y-5.527 Z-14.048 A145.2991 
N2405 X208.663 Y-6.862 Z-13.837 A142.2067 
N2406 X208.663 Y-8.153 Z-13.574 A139.1348 
N2407 X208.663 Y-9.399 Z-13.263 A136.0805 
N2408 X208.663 Y-10.597 Z-12.913 A133.0390 
N2409 X208.663 Y-11.748 Z-12.528 A130.0034 
N2410 X208.663 Y-12.850 Z-12.114 A126.9640 
N2411 X208.663 Y-13.907 Z-11.679 A123.9085 
N2412 X208.663 Y-14.920 Z-11.226 A120.8229 
N2413 X208.663 Y-15.893 Z-10.759 A117.6936 
N2414 X208.663 Y-16.830 Z-10.282 A114.5071 
N2415 X208.663 Y-17.734 Z-9.797 A111.2508 
N2416 X208.663 Y-18.610 Z-9.304 A107.9125 
N2417 X208.663 Y-19.460 Z-8.803 A104.4811 
N2418 X208.663 Y-20.289 Z-8.291 A100.9465 
N2419 X208.663 Y-21.099 Z-7.766 A97.3002 
N2420 X208.663 Y-21.893 Z-7.225 A93.5351 
N2421 X208.663 Y-22.672 Z-6.661 A89.6454 
N2422 X208.663 Y-23.436 Z-6.070 A85.6271 
N2423 X208.663 Y-24.183 Z-5.445 A81.4766 
N2424 X208.663 Y-24.911 Z-4.780 A77.1911 
N2425 X208.663 Y-25.615 Z-4.068 A72.7680 
N2426 X208.663 Y-26.289 Z-3.301 A68.2043 
N2427 X208.663 Y-26.926 Z-2.473 A63.4968 
N2428 X208.663 Y-27.514 Z-1.578 A58.6426 
N2429 X208.663 Y-28.041 Z-0.611 A53.6412 
N2430 X208.663 Y-28.490 Z0.431 A48.4987 
N2431 X208.663 Y-28.841 Z1.546 A43.2336 
N2432 X208.663 Y-29.070 Z2.726 A37.8820 
N2433 X208.663 Y-29.152 Z3.953 A32.5079 
N2434 X208.663 Y-29.062 Z5.200 A27.2091 
N2435 X208.663 Y-28.784 Z6.431 A22.0885 
N2436 X208.663 Y-28.308 Z7.611 A17.2469 
N2437 X208.663 Y-27.634 Z8.702 A12.7771 
N2438 X208.663 Y-26.771 Z9.674 A8.7637 
N2439 X208.663 Y-25.733 Z10.503 A5.2593 
N2440 X208.663 Y-24.539 Z11.173 A2.3154 
N2441 X208.663 Y-23.210 Z11.679 A359.9475 
N2442 X208.663 Y-21.766 Z12.023 A358.1740 
N2443 X208.663 Y-20.229 Z12.212 A356.9922 
N2444 X208.663 Y-18.617 Z12.277 A356.3090 
N2445 X208.663 Y-16.947 Z12.256 A355.9843 
N2446 X208.663 Y-15.238 Z12.185 A355.8758 
N2447 X208.663 Y-13.508 Z12.097 A355.8409 
