N10 ; PROGRAM NAME: 4444411
N11 ; ORDER       : 44444
N12 ; OPER. NAME  : Spiral Rough Rhombic:102
N13 ; OPER. DESCR.: spiral roughing rhombic/nozka zgr
N14 ; OPER. TYPE  : rouRoot
N15 ; GEO. OPTION : 4
N16 ; MACHINE     : SH_HX151_24_SIM840D
N17 ;             : STARRAG_HECKERT_5axis_finish_milling_machine
N18 ; CONTROL     : SINUMERIK 840D
N19 ; created:   2022-11-03 13:34:33.635165
;-------DODATKOWE DANE-------------------
; PROGRAMISTA : Mariusz Malec
; PARTID      : 139T004654P1015_-
;  ap         : 2.5
;  ae         : 24.0
;  lean_angle : 1.0
;  fin_offset : 0.6
;----------------------------------------
N20 ;----------------------------------------
RAPORT("T44444","Spiral Rough Rhombic:102")
N21 TRAFOOF
N22 D0
N23 G90 G94
N24 STOPRE
N25 M9 ; chlodziwo wyl
N26 ; --- Spiral Rough Rhombic:102 - spiral roughing rhombic/nozka zgr ---
N28 ;ToolChange : concat=None ,current_tdmid=None, PP.tdmId=941292
N29 MSG(" TLID=941292 D=40.0 R=6.0 Ang=0.0 Len=90.0 ")
N30 TRAFOOF
N31 D0
N32 G0 G53 Z290 B0
N33 G0 X200
N34 G0 Y150
N35 T="7741292"
N36 G0 X500
RAPORT("T44444","ToolChangeStart 7741292")
N37 M6
RAPORT("T44444","ToolChangeEnd")
N38 ; (Preloading tool)
N39 T="7741294"
N40 G0 X200
N41 STOPRE
N42 S2148 M03
N43 STOPRE
N44 TOL(0.1,1,1)
N45 G0 X146.999 A88.5609
N46 TRAORI
N47 G54 D1
N48 D2 
N49 ; DELTA A > 40.1
N50 TRAFOOF
N51 STOPRE
N52 G0 G53 D0 Z265.000
N53 G1 G53 A88.5609 F10000
N54 TRAORI
N55 G54 D2
N56 TRANS 
N57 G00 X146.999 Y-88.598 Z-38.268 A88.5609 B0.0000 
N58 M346 ; chlodziwo mgla
N59 X146.999 Y-38.614 Z-39.523 
N60 G01 X146.999 Y-35.520 Z-39.058 F2835 
N61 X146.999 Y-32.722 Z-37.659 
N62 X146.999 Y-30.493 Z-35.463 
N63 X146.999 Y-29.051 Z-32.687 
N64 X146.999 Y-28.538 Z-29.600 
N65 X146.999 Y-28.518 Z-26.556 A88.5451 
N66 X146.999 Y-28.497 Z-23.565 A88.5334 
N67 X146.999 Y-28.474 Z-20.677 A88.5300 
N68 X146.999 Y-28.452 Z-17.936 A88.5299 
N69 X146.999 Y-28.431 Z-15.380 
N70 X146.999 Y-28.411 Z-13.034 
N71 X146.999 Y-28.394 Z-10.918 
N72 X146.999 Y-28.379 Z-9.038 
N73 X146.999 Y-28.365 Z-7.393 
N74 X146.999 Y-28.362 Z-5.971 A88.4940 
N75 X146.999 Y-28.518 Z-4.752 A87.7987 
N76 X146.999 Y-29.088 Z-3.688 A85.3136 
N77 X146.999 Y-30.069 Z-2.697 A80.9471 
N78 X146.999 Y-31.345 Z-1.678 A75.0774 
N79 X146.999 Y-32.803 Z-0.532 A68.0353 
N80 X146.999 Y-34.356 Z0.835 A59.9692 
N81 X146.999 Y-35.873 Z2.478 A51.1417 
N82 X146.999 Y-37.178 Z4.364 A42.0507 
N83 X146.999 Y-38.116 Z6.357 A33.3347 
N84 X146.999 Y-38.648 Z8.338 A25.2881 
N85 X146.999 Y-38.789 Z10.217 A18.0106 
N86 X146.999 Y-38.573 Z11.927 A11.5546 
N87 X146.999 Y-38.031 Z13.339 A6.2713 
N88 X146.999 Y-37.218 Z14.375 A2.3743 
N89 X146.999 Y-36.184 Z14.988 A0.0353 
N90 X146.999 Y-34.956 Z15.184 A359.2835 
N91 X146.999 Y-33.531 Z15.208 A359.2119 
N92 X146.999 Y-31.898 Z15.214 A359.2092 
N93 X146.999 Y-30.051 Z15.221 
N94 X146.999 Y-27.994 Z15.229 
N95 X146.999 Y-25.737 Z15.237 
N96 X146.999 Y-23.304 Z15.246 
N97 X146.999 Y-20.722 Z15.255 
N98 X146.999 Y-18.031 Z15.265 
N99 X146.999 Y-15.274 Z15.275 
N100 X146.999 Y-12.497 Z15.285 
N101 X146.999 Y-9.749 Z15.295 
N102 X146.999 Y-7.076 Z15.305 
N103 X146.999 Y-4.521 Z15.314 
N104 X146.999 Y-2.119 Z15.323 
N105 X146.999 Y0.102 Z15.331 
N106 X146.999 Y2.121 Z15.339 
N107 X146.999 Y3.930 Z15.345 
N108 X146.999 Y5.527 Z15.356 A359.1892 
N109 X146.999 Y6.920 Z15.460 A358.7731 
N110 X146.999 Y8.132 Z15.846 A357.1251 
N111 X146.999 Y9.214 Z16.566 A353.9515 
N112 X146.999 Y10.234 Z17.551 A349.4633 B0.0027 
N113 X146.999 Y11.259 Z18.697 A344.0359 B0.0145 
N114 X146.999 Y12.350 Z19.932 A337.8956 B0.0395 
N115 X146.999 Y13.552 Z21.193 A331.2105 B0.0662 
N116 X146.999 Y14.896 Z22.414 A324.1335 B0.0723 
N117 X146.999 Y16.376 Z23.514 A316.8902 B0.0501 
N118 X146.999 Y17.928 Z24.397 A309.8700 B0.0147 
N119 X146.998 Y19.543 Z25.062 A303.0132 B-0.0188 
N120 X146.998 Y21.199 Z25.496 A296.3226 B-0.0431 
N121 X146.998 Y22.814 Z25.667 A290.0436 B-0.0529 
N122 X146.998 Y24.329 Z25.581 A284.2990 B-0.0480 
N123 X146.998 Y25.696 Z25.257 A279.1682 B-0.0351 
N124 X146.998 Y26.838 Z24.719 A274.8685 B-0.0225 
N125 X146.998 Y27.648 Z24.004 A271.8004 B-0.0145 
N126 X146.998 Y28.102 Z23.155 A270.0649 B-0.0119 
N127 X146.998 Y28.301 Z22.198 A269.2982 B-0.0133 
N128 X146.998 Y28.361 Z21.143 A269.0664 B-0.0169 
N129 X146.998 Y28.369 Z19.995 A269.0368 B-0.0214 
N130 X146.998 Y28.370 Z18.762 A269.0366 B-0.0263 
N131 X146.998 Y28.371 Z17.459 B-0.0316 
N132 X146.998 Y28.372 Z16.103 B-0.0370 
N133 X146.998 Y28.372 Z14.714 B-0.0422 
N134 X146.998 Y28.373 Z13.315 A269.0366 B-0.0473 
N135 X146.998 Y28.374 Z11.929 B-0.0521 
N136 X146.998 Y28.375 Z10.578 B-0.0567 
N137 X146.998 Y28.376 Z9.283 A269.0366 B-0.0610 
N138 X146.998 Y28.377 Z8.061 B-0.0651 
N139 X146.998 Y28.378 Z6.926 A269.0355 B-0.0691 
N140 X146.998 Y28.397 Z5.886 A268.9565 B-0.0736 
N141 X146.998 Y28.522 Z4.944 A268.4354 B-0.0818 
N142 X146.998 Y28.865 Z4.091 A266.9695 B-0.1006 
N143 X146.998 Y29.480 Z3.299 A264.2922 B-0.1356 
N144 X146.998 Y30.372 Z2.519 A260.3304 B-0.1874 
N145 X146.998 Y31.488 Z1.689 A255.2301 B-0.2540 
N146 X146.997 Y32.722 Z0.760 A249.3438 B-0.3354 
N147 X146.997 Y34.018 Z-0.317 A242.7926 B-0.4323 
N148 X146.997 Y35.365 Z-1.617 A235.4129 B-0.5293 
N149 X146.997 Y36.610 Z-3.126 A227.6636 B-0.5790 
N150 X146.997 Y37.625 Z-4.773 A220.0032 B-0.5596 
N151 X146.997 Y38.364 Z-6.505 A212.5788 B-0.4933 
N152 X146.997 Y38.820 Z-8.303 A205.3151 B-0.4095 
N153 X146.997 Y38.959 Z-10.090 A198.3998 B-0.3282 
N154 X146.998 Y38.767 Z-11.755 A192.1112 B-0.2565 
N155 X146.998 Y38.257 Z-13.175 A186.8055 B-0.1931 
N156 X146.998 Y37.473 Z-14.246 A182.7854 B-0.1397 
N157 X146.998 Y36.459 Z-14.920 A180.2169 B-0.1053 
N158 X146.998 Y35.247 Z-15.166 A179.2698 B-0.0911 
N159 X146.998 Y33.839 Z-15.195 A179.1728 B-0.0863 
N160 X146.998 Y32.221 Z-15.200 A179.1722 B-0.0833 
N161 X146.998 Y30.387 Z-15.205 A179.1722 B-0.0802 
N162 X146.998 Y28.342 Z-15.212 B-0.0769 
N163 X146.998 Y26.094 Z-15.218 B-0.0732 
N164 X146.998 Y23.665 Z-15.226 A179.1722 B-0.0693 
N165 X146.998 Y21.085 Z-15.233 B-0.0653 
N166 X146.998 Y18.389 Z-15.241 B-0.0611 
N167 X146.998 Y15.622 Z-15.250 A179.1721 B-0.0570 
N168 X146.998 Y12.831 Z-15.258 B-0.0530 
N169 X146.998 Y10.064 Z-15.266 B-0.0490 
N170 X146.998 Y7.368 Z-15.275 A179.1721 B-0.0453 
N171 X146.998 Y4.786 Z-15.282 B-0.0419 
N172 X146.998 Y2.356 Z-15.290 B-0.0387 
N173 X146.998 Y0.106 Z-15.296 B-0.0358 
N174 X146.998 Y-1.942 Z-15.302 B-0.0333 
N175 X146.998 Y-3.779 Z-15.308 B-0.0310 
N176 X146.998 Y-5.400 Z-15.314 A179.1657 B-0.0291 
N177 X146.998 Y-6.813 Z-15.372 A178.9435 B-0.0286 
N178 X146.998 Y-8.036 Z-15.628 A177.8612 B-0.0348 
N179 X146.998 Y-9.109 Z-16.215 A175.3074 B-0.0567 
N180 X146.998 Y-10.105 Z-17.161 A171.0858 B-0.0965 
N181 X146.998 Y-11.102 Z-18.333 A165.6645 B-0.1364 
N182 X146.998 Y-12.164 Z-19.612 A159.4611 B-0.1559 
N183 X146.998 Y-13.335 Z-20.920 A152.7142 B-0.1537 
N184 X146.998 Y-14.644 Z-22.183 A145.6159 B-0.1323 
N185 X146.998 Y-16.133 Z-23.378 A138.0904 B-0.0873 
N186 X146.998 Y-17.757 Z-24.390 A130.5225 B-0.0272 
N187 X146.999 Y-19.390 Z-25.111 A123.4820 B0.0238 
N188 X146.999 Y-21.002 Z-25.561 A116.9280 B0.0559 
N189 X146.999 Y-22.569 Z-25.757 A110.8116 B0.0693 
N190 X146.999 Y-24.044 Z-25.708 A105.2079 B0.0651 
N191 X146.999 Y-25.387 Z-25.431 A100.1636 B0.0490 
N192 X146.999 Y-26.553 Z-24.948 A95.7862 B0.0294 
N193 X146.999 Y-27.457 Z-24.283 A92.3603 B0.0137 
N194 X146.999 Y-28.039 Z-23.475 A90.1163 B0.0048 
N195 X146.999 Y-28.340 Z-22.553 A88.9246 B0.0011 
N196 X146.999 Y-28.448 Z-21.530 A88.4594 B0.0000 
N197 X146.999 Y-28.460 Z-20.414 A88.3629 
N198 X146.999 Y-28.447 Z-19.209 A88.3585 
N199 X146.999 Y-28.433 Z-17.929 
N200 X146.999 Y-28.418 Z-16.589 
N201 X146.999 Y-28.403 Z-15.209 
N202 X146.999 Y-28.387 Z-13.810 
N203 X146.999 Y-28.371 Z-12.417 
N204 X146.999 Y-28.356 Z-11.052 
N205 X146.999 Y-28.341 Z-9.736 
N206 X146.999 Y-28.327 Z-8.488 
N207 X146.999 Y-28.314 Z-7.322 
N208 X146.999 Y-28.305 Z-6.249 A88.3466 
N209 X146.999 Y-28.353 Z-5.274 A88.1009 
N210 X146.999 Y-28.601 Z-4.391 A87.0112 
N211 X146.999 Y-29.141 Z-3.575 A84.6429 
N212 X146.999 Y-29.952 Z-2.786 A81.0277 
N213 X146.999 Y-30.980 Z-1.968 A76.3287 
N214 X146.999 Y-32.155 Z-1.068 A70.7582 
N215 X146.999 Y-33.423 Z-0.033 A64.4267 
N216 X146.999 Y-34.728 Z1.190 A57.4076 
N217 X146.999 Y-35.991 Z2.631 A49.8284 
N218 X146.999 Y-37.109 Z4.282 A41.9245 
N219 X146.999 Y-37.973 Z6.072 A34.0535 
N220 X146.999 Y-38.523 Z7.921 A26.4659 
N221 X146.999 Y-38.733 Z9.737 A19.3634 
N222 X146.999 Y-38.608 Z11.441 A12.8882 
N223 X146.999 Y-38.161 Z12.907 A7.3835 
N224 X146.999 Y-37.436 Z14.027 A3.1750 
N225 X146.999 Y-36.484 Z14.759 A0.3769 
N226 X146.999 Y-35.337 Z15.069 A359.1698 
N227 X146.999 Y-34.001 Z15.120 A358.9639 
N228 X146.999 Y-32.465 Z15.122 A358.9516 
N229 X146.999 Y-30.721 Z15.121 A358.9514 
N230 X146.999 Y-28.770 Z15.119 
N231 X146.999 Y-26.621 Z15.117 
N232 X146.999 Y-24.291 Z15.115 
N233 X146.999 Y-21.809 Z15.113 
N234 X146.999 Y-19.207 Z15.111 
N235 X146.999 Y-16.526 Z15.109 
N236 X146.999 Y-13.812 Z15.107 
N237 X146.999 Y-11.111 Z15.104 
N238 X146.999 Y-8.469 Z15.105 A358.9377 
N239 X146.999 Y-5.926 Z15.134 A358.8017 
N240 X146.999 Y-3.522 Z15.177 A358.5713 
N241 X146.999 Y-1.284 Z15.205 A358.3745 
N242 X146.999 Y0.764 Z15.231 A358.1646 
N243 X146.999 Y2.612 Z15.254 A357.9482 
N244 X146.999 Y4.253 Z15.263 A357.7756 
N245 X146.999 Y5.695 Z15.315 A357.4262 
N246 X146.999 Y6.959 Z15.574 A356.1888 B0.0036 
N247 X146.999 Y8.089 Z16.174 A353.4366 B0.0170 
N248 X146.999 Y9.152 Z17.076 A349.2365 B0.0458 
N249 X146.999 Y10.216 Z18.175 A343.9531 B0.0834 
N250 X146.999 Y11.331 Z19.359 A337.9819 B0.1125 
N251 X146.999 Y12.531 Z20.546 A331.5847 B0.1221 
N252 X146.999 Y13.831 Z21.672 A324.9516 B0.1115 
N253 X146.999 Y15.240 Z22.694 A318.1731 B0.0813 
N254 X146.999 Y16.718 Z23.539 A311.5215 B0.0353 
N255 X146.998 Y18.242 Z24.185 A305.0649 B-0.0150 
N256 X146.998 Y19.828 Z24.641 A298.6443 B-0.0623 
N257 X146.998 Y21.427 Z24.874 A292.4033 B-0.1035 
N258 X146.998 Y22.976 Z24.868 A286.5080 B-0.1378 
N259 X146.998 Y24.412 Z24.624 A281.1142 B-0.1657 
N260 X146.998 Y25.648 Z24.158 A276.4808 B-0.1885 
N261 X146.998 Y26.575 Z23.504 A272.9928 B-0.2069 
N262 X146.998 Y27.144 Z22.709 A270.8433 B-0.2215 
N263 X146.998 Y27.423 Z21.806 A269.7882 B-0.2335 
N264 X146.998 Y27.522 Z20.812 A269.4259 B-0.2439 
N265 X146.998 Y27.543 Z19.733 A269.3673 B-0.2539 
N266 X146.998 Y27.554 Z18.578 A269.3529 B-0.2643 
N267 X146.998 Y27.573 Z17.358 A269.3057 B-0.2751 
N268 X146.998 Y27.598 Z16.091 A269.2273 B-0.2856 
N269 X146.998 Y27.622 Z14.794 A269.1484 B-0.2949 
N270 X146.998 Y27.638 Z13.488 A269.0947 B-0.3026 
N271 X146.997 Y27.656 Z12.196 A269.0245 B-0.3096 
N272 X146.997 Y27.688 Z10.936 A268.8947 B-0.3167 
N273 X146.997 Y27.718 Z9.728 A268.7554 B-0.3239 
N274 X146.997 Y27.735 Z8.589 A268.6641 B-0.3313 
N275 X146.997 Y27.736 Z7.530 A268.6324 B-0.3383 
N276 X146.997 Y27.742 Z6.561 A268.5815 B-0.3451 
N277 X146.997 Y27.831 Z5.682 A268.1863 B-0.3549 
N278 X146.997 Y28.123 Z4.886 A266.9239 B-0.3745 
N279 X146.997 Y28.698 Z4.148 A264.4237 B-0.4111 
N280 X146.997 Y29.588 Z3.414 A260.4970 B-0.4699 
N281 X146.997 Y30.755 Z2.614 A255.2210 B-0.5523 
N282 X146.996 Y32.056 Z1.694 A249.0810 B-0.6528 
N283 X146.996 Y33.376 Z0.630 A242.4469 B-0.7642 
N284 X146.996 Y34.702 Z-0.637 A235.2004 B-0.8725 
N285 X146.995 Y35.930 Z-2.104 A227.6052 B-0.9350 
N286 X146.995 Y36.952 Z-3.722 A220.0091 B-0.9265 
N287 X146.996 Y37.720 Z-5.450 A212.5261 B-0.8655 
N288 X146.996 Y38.214 Z-7.264 A205.1269 B-0.7802 
N289 X146.996 Y38.388 Z-9.074 A198.0558 B-0.6912 
N290 X146.997 Y38.225 Z-10.748 A191.6856 B-0.6103 
N291 X146.997 Y37.746 Z-12.154 A186.3893 B-0.5445 
N292 X146.997 Y37.002 Z-13.202 A182.4219 B-0.4978 
N293 X146.997 Y36.041 Z-13.869 A179.8482 B-0.4704 
N294 X146.997 Y34.892 Z-14.139 A178.7655 B-0.4607 
N295 X146.997 Y33.556 Z-14.180 A178.5647 B-0.4610 
N296 X146.997 Y32.021 Z-14.173 A178.5467 B-0.4640 
N297 X146.997 Y30.279 Z-14.159 A178.5465 B-0.4677 
N298 X146.997 Y28.333 Z-14.143 A178.5465 B-0.4717 
N299 X146.997 Y26.193 Z-14.126 A178.5465 B-0.4762 
N300 X146.997 Y23.879 Z-14.108 A178.5465 B-0.4811 
N301 X146.997 Y21.417 Z-14.088 A178.5466 B-0.4863 
N302 X146.997 Y18.843 Z-14.068 A178.5466 B-0.4917 
N303 X146.997 Y16.198 Z-14.047 A178.5466 B-0.4973 
N304 X146.997 Y13.527 Z-14.026 A178.5466 B-0.5029 
N305 X146.997 Y10.878 Z-14.005 A178.5466 B-0.5084 
N306 X146.997 Y8.294 Z-13.985 A178.5462 B-0.5139 
N307 X146.997 Y5.818 Z-13.965 A178.5454 B-0.5193 
N308 X146.997 Y3.485 Z-13.947 A178.5447 B-0.5244 
N309 X146.997 Y1.324 Z-13.935 A178.5229 B-0.5291 
N310 X146.997 Y-0.647 Z-13.949 A178.3913 B-0.5334 
N311 X146.997 Y-2.417 Z-13.979 A178.1771 B-0.5385 
N312 X146.997 Y-3.982 Z-13.974 A178.1012 B-0.5453 
N313 X146.997 Y-5.349 Z-13.987 A177.9585 B-0.5511 
N314 X146.997 Y-6.537 Z-14.195 A176.9962 B-0.5524 
N315 X146.997 Y-7.592 Z-14.771 A174.4240 B-0.5464 
N316 X146.997 Y-8.598 Z-15.777 A169.8922 B-0.5291 
N317 X146.997 Y-9.653 Z-17.076 A163.8377 B-0.4947 
N318 X146.997 Y-10.819 Z-18.472 A156.9530 B-0.4381 
N319 X146.997 Y-12.111 Z-19.820 A149.7440 B-0.3585 
N320 X146.998 Y-13.554 Z-21.076 A142.2693 B-0.2549 
N321 X146.998 Y-15.166 Z-22.198 A134.5397 B-0.1271 
N322 X146.998 Y-16.829 Z-23.047 A127.1999 B-0.0032 
N323 X146.999 Y-18.480 Z-23.607 A120.3856 B0.0958 
N324 X146.999 Y-20.094 Z-23.900 A114.0411 B0.1698 
N325 X146.999 Y-21.636 Z-23.941 A108.1681 B0.2234 
N326 X146.999 Y-23.067 Z-23.744 A102.8124 B0.2608 
N327 X146.999 Y-24.307 Z-23.323 A98.2110 B0.2841 
N328 X146.999 Y-25.242 Z-22.708 A94.7618 B0.2945 
N329 X146.999 Y-25.817 Z-21.942 A92.6831 B0.2933 
N330 X146.999 Y-26.107 Z-21.062 A91.7032 B0.2838 
N331 X146.999 Y-26.230 Z-20.088 A91.3769 B0.2691 
N332 X146.999 Y-26.286 Z-19.028 A91.3251 B0.2515 
N333 X146.999 Y-26.332 Z-17.893 A91.3241 B0.2324 
N334 X146.999 Y-26.381 Z-16.696 A91.3240 B0.2122 
N335 X146.999 Y-26.431 Z-15.452 A91.3240 B0.1912 
N336 X146.999 Y-26.483 Z-14.181 A91.3240 B0.1693 
N337 X146.999 Y-26.534 Z-12.902 A91.3239 B0.1437 
N338 X146.999 Y-26.586 Z-11.638 A91.3239 B0.1103 
N339 X146.999 Y-26.636 Z-10.406 A91.3239 B0.0718 
N340 X146.999 Y-26.684 Z-9.227 A91.3212 B0.0373 
N341 X146.999 Y-26.736 Z-8.116 A91.2928 B0.0147 
N342 X146.999 Y-26.805 Z-7.085 A91.1769 B0.0042 
N343 X146.999 Y-26.919 Z-6.143 A90.8520 B0.0008 
N344 X146.999 Y-27.135 Z-5.292 A90.0670 B0.0000 
N345 X146.999 Y-27.543 Z-4.525 A88.4249 
N346 X146.999 Y-28.202 Z-3.818 A85.6588 
N347 X146.999 Y-29.110 Z-3.124 A81.7294 
N348 X146.999 Y-30.229 Z-2.384 A76.7426 
N349 X146.999 Y-31.468 Z-1.550 A70.9986 
N350 X146.999 Y-32.750 Z-0.588 A64.7314 
N351 X146.999 Y-34.011 Z0.524 A58.0971 
N352 X146.999 Y-35.197 Z1.797 A51.1972 
N353 X146.999 Y-36.276 Z3.255 A43.9864 
N354 X146.999 Y-37.194 Z4.897 A36.5052 
N355 X146.999 Y-37.874 Z6.679 A28.9439 
N356 X146.999 Y-38.246 Z8.495 A21.6520 
N357 X146.999 Y-38.284 Z10.229 A14.9409 
N358 X146.999 Y-37.997 Z11.757 A9.1473 
N359 X146.999 Y-37.426 Z12.957 A4.6254 
N360 X146.999 Y-36.625 Z13.794 A1.4544 
N361 X146.999 Y-35.632 Z14.263 A359.6465 
N362 X146.999 Y-34.462 Z14.417 A359.0420 
N363 X146.999 Y-33.107 Z14.440 A358.9489 
N364 X146.999 Y-31.558 Z14.440 A358.9412 
N365 X146.999 Y-29.812 Z14.438 A358.9412 
N366 X146.999 Y-27.873 Z14.436 
N367 X146.999 Y-25.754 Z14.434 
N368 X146.999 Y-23.477 Z14.432 
N369 X146.999 Y-21.068 Z14.429 
N370 X146.999 Y-18.564 Z14.427 
N371 X146.999 Y-16.004 Z14.424 
N372 X146.999 Y-13.432 Z14.422 
N373 X146.999 Y-10.888 Z14.419 A358.9398 
N374 X146.999 Y-8.416 Z14.434 A358.8652 
N375 X146.999 Y-6.049 Z14.547 A358.3507 
N376 X146.999 Y-3.818 Z14.707 A357.5344 
N377 X146.999 Y-1.749 Z14.812 A356.8393 
N378 X146.999 Y0.142 Z14.901 A356.1454 
N379 X146.999 Y1.846 Z14.980 A355.4364 B0.0028 
N380 X146.999 Y3.363 Z15.042 A354.7677 B0.0225 
N381 X146.999 Y4.708 Z15.184 A353.7448 B0.0706 
N382 X146.999 Y5.918 Z15.554 A351.7272 B0.1324 
N383 X146.999 Y7.052 Z16.234 A348.2883 B0.1774 
N384 X146.999 Y8.180 Z17.180 A343.5137 B0.1996 
N385 X146.999 Y9.352 Z18.263 A337.8454 B0.2072 
N386 X146.999 Y10.582 Z19.342 A331.8000 B0.2013 
N387 X146.999 Y11.858 Z20.325 A325.7382 B0.1807 
N388 X146.999 Y13.172 Z21.179 A319.7823 B0.1434 
N389 X146.999 Y14.527 Z21.899 A313.9198 B0.0868 
N390 X146.999 Y15.907 Z22.463 A308.2181 B0.0161 
N391 X146.998 Y17.348 Z22.893 A302.4636 B-0.0612 
N392 X146.998 Y18.872 Z23.179 A296.5375 B-0.1417 
N393 X146.998 Y20.433 Z23.278 A290.5977 B-0.2219 
N394 X146.998 Y21.953 Z23.158 A284.9005 B-0.2982 
N395 X146.997 Y23.309 Z22.807 A279.8663 B-0.3663 
N396 X146.997 Y24.372 Z22.251 A275.9385 B-0.4226 
N397 X146.997 Y25.083 Z21.539 A273.3439 B-0.4659 
N398 X146.997 Y25.477 Z20.717 A271.9522 B-0.4978 
N399 X146.997 Y25.647 Z19.811 A271.4326 B-0.5208 
N400 X146.997 Y25.717 Z18.833 A271.3115 B-0.5392 
N401 X146.997 Y25.785 Z17.796 A271.2029 B-0.5569 
N402 X146.997 Y25.887 Z16.710 A270.9471 B-0.5760 
N403 X146.997 Y26.008 Z15.589 A270.5978 B-0.5956 
N404 X146.996 Y26.109 Z14.448 A270.3019 B-0.6127 
N405 X146.996 Y26.186 Z13.306 A270.0884 B-0.6261 
N406 X146.996 Y26.272 Z12.181 A269.8141 B-0.6391 
N407 X146.996 Y26.392 Z11.088 A269.3746 B-0.6542 
N408 X146.996 Y26.511 Z10.044 A268.9016 B-0.6707 
N409 X146.996 Y26.585 Z9.063 A268.5816 B-0.6861 
N410 X146.996 Y26.604 Z8.154 A268.4703 B-0.6986 
N411 X146.996 Y26.612 Z7.324 A268.4081 B-0.7098 
N412 X146.996 Y26.700 Z6.572 A268.0087 B-0.7261 
N413 X146.996 Y26.994 Z5.889 A266.7415 B-0.7586 
N414 X146.996 Y27.585 Z5.249 A264.1922 B-0.8170 
N415 X146.996 Y28.529 Z4.591 A260.0694 B-0.9080 
N416 X146.995 Y29.793 Z3.832 A254.4206 B-1.0289 
N417 X146.995 Y31.179 Z2.925 A247.9299 B-1.1625 
N418 X146.994 Y32.534 Z1.865 A241.1335 B-1.2936 
N419 X146.994 Y33.859 Z0.607 A233.8706 B-1.4093 
N420 X146.994 Y35.057 Z-0.838 A226.3943 B-1.4714 
N421 X146.994 Y36.055 Z-2.433 A218.9025 B-1.4618 
N422 X146.994 Y36.815 Z-4.155 A211.4231 B-1.3984 
N423 X146.994 Y37.304 Z-5.976 A203.9699 B-1.3056 
N424 X146.995 Y37.470 Z-7.779 A196.8939 B-1.2025 
N425 X146.995 Y37.297 Z-9.414 A190.6403 B-1.1033 
N426 X146.995 Y36.819 Z-10.747 A185.5856 B-1.0194 
N427 X146.995 Y36.094 Z-11.714 A181.9029 B-0.9578 
N428 X146.995 Y35.169 Z-12.303 A179.6169 B-0.9210 
N429 X146.996 Y34.067 Z-12.530 A178.6979 B-0.9079 
N430 X146.996 Y32.786 Z-12.568 A178.5066 B-0.9076 
N431 X146.996 Y31.314 Z-12.559 A178.4875 B-0.9108 
N432 X146.996 Y29.646 Z-12.544 A178.4875 B-0.9148 
N433 X146.995 Y27.784 Z-12.527 A178.4875 B-0.9192 
N434 X146.995 Y25.738 Z-12.509 A178.4876 B-0.9241 
N435 X146.995 Y23.529 Z-12.489 A178.4876 B-0.9294 
N436 X146.995 Y21.183 Z-12.468 A178.4877 B-0.9350 
N437 X146.995 Y18.734 Z-12.446 A178.4877 B-0.9409 
N438 X146.995 Y16.222 Z-12.423 A178.4878 B-0.9469 
N439 X146.995 Y13.689 Z-12.401 A178.4878 B-0.9530 
N440 X146.995 Y11.181 Z-12.378 A178.4879 B-0.9590 
N441 X146.995 Y8.740 Z-12.356 A178.4879 B-0.9648 
N442 X146.995 Y6.404 Z-12.335 A178.4879 B-0.9704 
N443 X146.995 Y4.207 Z-12.315 A178.4874 B-0.9756 
N444 X146.995 Y2.174 Z-12.308 A178.4406 B-0.9800 
N445 X146.995 Y0.321 Z-12.355 A178.1614 B-0.9823 
N446 X146.995 Y-1.344 Z-12.447 A177.6571 B-0.9839 
N447 X146.995 Y-2.815 Z-12.471 A177.4055 B-0.9910 
N448 X146.995 Y-4.101 Z-12.479 A177.2227 B-0.9994 
N449 X146.995 Y-5.226 Z-12.706 A176.1265 B-0.9958 
N450 X146.995 Y-6.248 Z-13.368 A173.1398 B-0.9683 
N451 X146.996 Y-7.270 Z-14.516 A167.9282 B-0.9062 
N452 X146.996 Y-8.404 Z-15.961 A161.0940 B-0.8020 
N453 X146.996 Y-9.692 Z-17.443 A153.5644 B-0.6579 
N454 X146.997 Y-11.124 Z-18.802 A145.9024 B-0.4853 
N455 X146.998 Y-12.727 Z-20.024 A138.0115 B-0.2859 
N456 X146.998 Y-14.415 Z-20.986 A130.3956 B-0.0849 
N457 X146.999 Y-16.109 Z-21.648 A123.3053 B0.0861 
N458 X146.999 Y-17.773 Z-22.027 A116.7118 B0.2221 
N459 X147.000 Y-19.357 Z-22.135 A110.6759 B0.3264 
N460 X147.000 Y-20.814 Z-21.992 A105.2629 B0.4030 
N461 X147.000 Y-22.049 Z-21.614 A100.7589 B0.4528 
N462 X147.000 Y-22.943 Z-21.034 A97.5894 B0.4747 
N463 X147.000 Y-23.472 Z-20.301 A95.8552 B0.4724 
N464 X147.000 Y-23.745 Z-19.456 A95.1363 B0.4541 
N465 X147.000 Y-23.891 Z-18.523 A94.9448 B0.4272 
N466 X147.000 Y-24.000 Z-17.516 A94.9262 B0.3960 
N467 X147.000 Y-24.111 Z-16.450 A94.9261 B0.3628 
N468 X147.000 Y-24.226 Z-15.335 A94.9260 B0.3281 
N469 X146.999 Y-24.345 Z-14.190 A94.9259 B0.2925 
N470 X146.999 Y-24.465 Z-13.030 A94.9258 B0.2564 
N471 X146.999 Y-24.585 Z-11.875 A94.9258 B0.2204 
N472 X146.999 Y-24.703 Z-10.743 A94.9243 B0.1846 
N473 X146.999 Y-24.821 Z-9.652 A94.9045 B0.1478 
N474 X146.999 Y-24.949 Z-8.618 A94.8189 B0.1058 
N475 X146.999 Y-25.103 Z-7.654 A94.5843 B0.0606 
N476 X146.999 Y-25.303 Z-6.770 A94.1105 B0.0257 
N477 X146.999 Y-25.570 Z-5.972 A93.3018 B0.0082 
N478 X146.999 Y-25.951 Z-5.259 A91.9402 B0.0020 
N479 X146.999 Y-26.524 Z-4.621 A89.7038 B0.0000 
N480 X146.999 Y-27.321 Z-4.025 A86.4282 
N481 X146.999 Y-28.332 Z-3.424 A82.1383 
N482 X146.999 Y-29.514 Z-2.763 A76.9633 
N483 X146.999 Y-30.781 Z-2.003 A71.1935 
N484 X146.999 Y-32.064 Z-1.119 A65.0438 
N485 X146.999 Y-33.310 Z-0.097 A58.6394 
N486 X146.999 Y-34.467 Z1.064 A52.1113 
N487 X146.999 Y-35.522 Z2.381 A45.3788 
N488 X146.999 Y-36.453 Z3.879 A38.3408 
N489 X146.999 Y-37.208 Z5.556 A31.0120 
N490 X146.999 Y-37.701 Z7.325 A23.7265 
N491 X146.999 Y-37.879 Z9.065 A16.8700 
N492 X146.999 Y-37.736 Z10.642 A10.8166 
N493 X146.999 Y-37.303 Z11.927 A5.9447 
N494 X146.999 Y-36.636 Z12.854 A2.4299 
N495 X146.999 Y-35.778 Z13.431 A0.2204 
N496 X146.999 Y-34.750 Z13.690 A359.2113 
N497 X146.999 Y-33.554 Z13.752 A358.9652 
N498 X146.999 Y-32.178 Z13.758 A358.9333 
N499 X146.999 Y-30.617 Z13.757 A358.9319 
N500 X146.999 Y-28.872 Z13.755 
N501 X146.999 Y-26.953 Z13.752 
N502 X146.999 Y-24.874 Z13.750 
N503 X146.999 Y-22.660 Z13.747 
N504 X146.999 Y-20.340 Z13.744 
N505 X146.999 Y-17.948 Z13.742 
N506 X146.999 Y-15.524 Z13.739 
N507 X146.999 Y-13.107 Z13.736 
N508 X146.999 Y-10.734 Z13.734 A358.9272 
N509 X146.999 Y-8.442 Z13.767 A358.7757 
N510 X146.999 Y-6.257 Z13.964 A357.8837 
N511 X146.999 Y-4.198 Z14.259 A356.4203 
N512 X146.999 Y-2.290 Z14.485 A355.0588 
N513 X146.999 Y-0.544 Z14.670 A353.7438 B0.0017 
N514 X146.999 Y1.037 Z14.834 A352.4212 B0.0189 
N515 X146.999 Y2.456 Z14.992 A351.0560 B0.0774 
N516 X146.999 Y3.740 Z15.246 A349.2442 B0.1586 
N517 X146.999 Y4.939 Z15.712 A346.4512 B0.2163 
N518 X146.999 Y6.119 Z16.434 A342.4154 B0.2493 
N519 X146.999 Y7.333 Z17.340 A337.3257 B0.2639 
N520 X146.999 Y8.601 Z18.294 A331.6676 B0.2592 
N521 X146.999 Y9.895 Z19.163 A325.9711 B0.2358 
N522 X146.999 Y11.175 Z19.875 A320.5838 B0.1961 
N523 X146.999 Y12.429 Z20.432 A315.5322 B0.1402 
N524 X146.999 Y13.678 Z20.864 A310.6670 B0.0662 
N525 X146.998 Y14.961 Z21.198 A305.7691 B-0.0234 
N526 X146.998 Y16.353 Z21.463 A300.4842 B-0.1282 
N527 X146.998 Y17.855 Z21.618 A294.8255 B-0.2453 
N528 X146.997 Y19.391 Z21.601 A289.1025 B-0.3675 
N529 X146.997 Y20.821 Z21.366 A283.8414 B-0.4835 
N530 X146.997 Y21.993 Z20.917 A279.5928 B-0.5825 
N531 X146.996 Y22.825 Z20.298 A276.6470 B-0.6594 
N532 X146.996 Y23.341 Z19.562 A274.9104 B-0.7156 
N533 X146.996 Y23.626 Z18.745 A274.0743 B-0.7556 
N534 X146.996 Y23.797 Z17.869 A273.6814 B-0.7867 
N535 X146.996 Y23.952 Z16.950 A273.3465 B-0.8160 
N536 X146.996 Y24.136 Z15.999 A272.8798 B-0.8472 
N537 X146.996 Y24.333 Z15.028 A272.3301 B-0.8786 
N538 X146.996 Y24.510 Z14.049 A271.8253 B-0.9061 
N539 X146.995 Y24.668 Z13.075 A271.3617 B-0.9292 
N540 X146.995 Y24.853 Z12.123 A270.7499 B-0.9542 
N541 X146.995 Y25.084 Z11.204 A269.9005 B-0.9846 
N542 X146.995 Y25.302 Z10.328 A269.0438 B-1.0168 
N543 X146.995 Y25.436 Z9.508 A268.4861 B-1.0439 
N544 X146.995 Y25.473 Z8.753 A268.3011 B-1.0629 
N545 X146.995 Y25.484 Z8.067 A268.2185 B-1.0786 
N546 X146.995 Y25.589 Z7.445 A267.7521 B-1.1031 
N547 X146.995 Y25.917 Z6.876 A266.3434 B-1.1518 
N548 X146.994 Y26.557 Z6.330 A263.6013 B-1.2364 
N549 X146.994 Y27.566 Z5.741 A259.2276 B-1.3633 
N550 X146.994 Y28.911 Z5.017 A253.2516 B-1.5245 
N551 X146.993 Y30.349 Z4.124 A246.5431 B-1.6882 
N552 X146.992 Y31.723 Z3.072 A239.6516 B-1.8339 
N553 X146.992 Y33.056 Z1.809 A232.3131 B-1.9523 
N554 X146.992 Y34.233 Z0.374 A224.8901 B-2.0100 
N555 X146.992 Y35.201 Z-1.203 A217.4923 B-1.9966 
N556 X146.992 Y35.938 Z-2.910 A210.0800 B-1.9285 
N557 X146.993 Y36.407 Z-4.712 A202.6952 B-1.8260 
N558 X146.993 Y36.554 Z-6.477 A195.7466 B-1.7074 
N559 X146.993 Y36.373 Z-8.051 A189.6983 B-1.5896 
N560 X146.994 Y35.904 Z-9.314 A184.8871 B-1.4883 
N561 X146.994 Y35.206 Z-10.212 A181.4416 B-1.4132 
N562 X146.994 Y34.321 Z-10.737 A179.3890 B-1.3689 
N563 X146.994 Y33.271 Z-10.928 A178.6045 B-1.3537 
N564 X146.994 Y32.051 Z-10.958 A178.4381 B-1.3531 
N565 X146.994 Y30.649 Z-10.947 A178.4240 B-1.3566 
N566 X146.994 Y29.060 Z-10.931 A178.4240 B-1.3609 
N567 X146.994 Y27.288 Z-10.913 A178.4241 B-1.3657 
N568 X146.994 Y25.344 Z-10.893 A178.4241 B-1.3709 
N569 X146.994 Y23.245 Z-10.872 A178.4242 B-1.3766 
N570 X146.994 Y21.020 Z-10.849 A178.4243 B-1.3826 
N571 X146.994 Y18.700 Z-10.825 A178.4243 B-1.3888 
N572 X146.994 Y16.323 Z-10.801 A178.4244 B-1.3952 
N573 X146.994 Y13.931 Z-10.777 A178.4245 B-1.4017 
N574 X146.994 Y11.565 Z-10.753 A178.4246 B-1.4080 
N575 X146.994 Y9.264 Z-10.729 A178.4246 B-1.4142 
N576 X146.994 Y7.066 Z-10.707 A178.4247 B-1.4202 
N577 X146.994 Y4.999 Z-10.686 A178.4246 B-1.4257 
N578 X146.994 Y3.088 Z-10.679 A178.3696 B-1.4299 
N579 X146.994 Y1.346 Z-10.748 A177.9934 B-1.4290 
N580 X146.994 Y-0.223 Z-10.901 A177.2188 B-1.4233 
N581 X146.994 Y-1.613 Z-10.993 A176.6379 B-1.4246 
N582 X146.994 Y-2.831 Z-11.037 A176.2403 B-1.4309 
N583 X146.994 Y-3.909 Z-11.300 A174.9221 B-1.4192 
N584 X146.994 Y-4.921 Z-12.064 A171.4330 B-1.3617 
N585 X146.994 Y-6.006 Z-13.393 A165.3230 B-1.2347 
N586 X146.995 Y-7.286 Z-15.011 A157.4864 B-1.0312 
N587 X146.996 Y-8.749 Z-16.539 A149.3103 B-0.7775 
N588 X146.997 Y-10.365 Z-17.864 A141.1802 B-0.4980 
N589 X146.998 Y-12.106 Z-18.943 A133.1917 B-0.2113 
N590 X146.999 Y-13.850 Z-19.686 A125.8369 B0.0373 
N591 X146.999 Y-15.567 Z-20.128 A119.0181 B0.2391 
N592 X147.000 Y-17.189 Z-20.277 A112.8617 B0.3952 
N593 X147.000 Y-18.643 Z-20.154 A107.5290 B0.5081 
N594 X147.000 Y-19.810 Z-19.782 A103.4011 B0.5761 
N595 X147.000 Y-20.587 Z-19.203 A100.8556 B0.5986 
N596 X147.000 Y-21.023 Z-18.475 A99.6893 B0.5871 
N597 X147.000 Y-21.271 Z-17.646 A99.3091 B0.5567 
N598 X147.000 Y-21.450 Z-16.744 A99.2461 B0.5179 
N599 X147.000 Y-21.624 Z-15.786 A99.2444 B0.4756 
N600 X147.000 Y-21.804 Z-14.786 A99.2442 B0.4314 
N601 X147.000 Y-21.990 Z-13.758 A99.2441 B0.3859 
N602 X147.000 Y-22.179 Z-12.715 A99.2439 B0.3398 
N603 X146.999 Y-22.367 Z-11.674 A99.2438 B0.2938 
N604 X146.999 Y-22.552 Z-10.652 A99.2433 B0.2486 
N605 X146.999 Y-22.734 Z-9.664 A99.2257 B0.2048 
N606 X146.999 Y-22.928 Z-8.728 A99.1240 B0.1616 
N607 X146.999 Y-23.155 Z-7.857 A98.8297 B0.1174 
N608 X146.999 Y-23.439 Z-7.064 A98.2269 B0.0748 
N609 X146.999 Y-23.794 Z-6.354 A97.2405 B0.0397 
N610 X146.999 Y-24.239 Z-5.725 A95.7869 B0.0164 
N611 X146.999 Y-24.818 Z-5.171 A93.6741 B0.0047 
N612 X146.999 Y-25.580 Z-4.673 A90.6995 B0.0008 
N613 X146.999 Y-26.531 Z-4.192 A86.8305 B0.0000 
N614 X146.999 Y-27.645 Z-3.683 A82.1584 
N615 X146.999 Y-28.877 Z-3.099 A76.8303 
N616 X146.999 Y-30.153 Z-2.412 A71.0985 
N617 X146.999 Y-31.420 Z-1.606 A65.1222 
N618 X146.999 Y-32.640 Z-0.672 A58.9818 
N619 X146.999 Y-33.761 Z0.380 A52.8295 
N620 X146.999 Y-34.782 Z1.562 A46.5743 
N621 X146.999 Y-35.704 Z2.910 A40.0354 
N622 X146.999 Y-36.507 Z4.459 A33.0519 
N623 X146.999 Y-37.104 Z6.157 A25.8692 
N624 X146.999 Y-37.417 Z7.881 A18.9270 
N625 X146.999 Y-37.418 Z9.495 A12.6398 
N626 X146.999 Y-37.127 Z10.856 A7.4296 
N627 X146.999 Y-36.594 Z11.880 A3.5341 
N628 X146.999 Y-35.868 Z12.554 A0.9595 
N629 X146.999 Y-34.979 Z12.918 A359.5512 
N630 X146.999 Y-33.933 Z13.049 A359.0367 
N631 X146.999 Y-32.722 Z13.074 A358.9329 
N632 X146.999 Y-31.339 Z13.075 A358.9211 
N633 X146.999 Y-29.783 Z13.073 A358.9210 
N634 X146.999 Y-28.057 Z13.071 
N635 X146.999 Y-26.175 Z13.068 
N636 X146.999 Y-24.155 Z13.065 
N637 X146.999 Y-22.021 Z13.062 
N638 X146.999 Y-19.805 Z13.059 
N639 X146.999 Y-17.539 Z13.056 
N640 X146.999 Y-15.261 Z13.053 
N641 X146.999 Y-13.004 Z13.050 
N642 X146.999 Y-10.805 Z13.048 A358.9144 
N643 X146.999 Y-8.691 Z13.088 A358.7351 
N644 X146.999 Y-6.681 Z13.341 A357.6031 
N645 X146.999 Y-4.781 Z13.784 A355.4820 
N646 X146.999 Y-3.007 Z14.192 A353.2490 
N647 X146.999 Y-1.370 Z14.531 A351.0914 B0.0032 
N648 X146.999 Y0.129 Z14.828 A348.9485 B0.0366 
N649 X146.999 Y1.501 Z15.123 A346.6980 B0.1123 
N650 X146.999 Y2.778 Z15.489 A344.0333 B0.1937 
N651 X146.999 Y4.016 Z16.015 A340.5482 B0.2509 
N652 X146.999 Y5.270 Z16.705 A336.1363 B0.2811 
N653 X146.999 Y6.564 Z17.472 A331.0692 B0.2868 
N654 X146.999 Y7.882 Z18.198 A325.8068 B0.2689 
N655 X146.999 Y9.172 Z18.786 A320.8080 B0.2315 
N656 X146.999 Y10.386 Z19.195 A316.3395 B0.1802 
N657 X146.999 Y11.529 Z19.457 A312.3170 B0.1156 
N658 X146.999 Y12.654 Z19.631 A308.4196 B0.0337 
N659 X146.998 Y13.853 Z19.777 A304.1863 B-0.0709 
N660 X146.998 Y15.203 Z19.905 A299.2920 B-0.2032 
N661 X146.997 Y16.667 Z19.948 A293.9408 B-0.3572 
N662 X146.997 Y18.112 Z19.823 A288.6988 B-0.5162 
N663 X146.996 Y19.366 Z19.494 A284.2336 B-0.6599 
N664 X146.996 Y20.320 Z18.986 A280.9469 B-0.7759 
N665 X146.996 Y20.975 Z18.352 A278.8146 B-0.8631 
N666 X146.995 Y21.400 Z17.637 A277.5695 B-0.9270 
N667 X146.995 Y21.700 Z16.873 A276.8020 B-0.9775 
N668 X146.995 Y21.964 Z16.081 A276.1586 B-1.0235 
N669 X146.995 Y22.238 Z15.274 A275.4434 B-1.0706 
N670 X146.995 Y22.517 Z14.460 A274.6664 B-1.1172 
N671 X146.995 Y22.789 Z13.650 A273.8653 B-1.1604 
N672 X146.995 Y23.066 Z12.853 A272.9962 B-1.2020 
N673 X146.994 Y23.383 Z12.080 A271.9005 B-1.2490 
N674 X146.994 Y23.748 Z11.339 A270.5378 B-1.3046 
N675 X146.994 Y24.083 Z10.634 A269.2184 B-1.3604 
N676 X146.994 Y24.287 Z9.975 A268.3776 B-1.4036 
N677 X146.994 Y24.346 Z9.373 A268.1043 B-1.4302 
N678 X146.994 Y24.366 Z8.828 A267.9887 B-1.4514 
N679 X146.994 Y24.499 Z8.334 A267.4032 B-1.4869 
N680 X146.993 Y24.891 Z7.875 A265.7380 B-1.5579 
N681 X146.993 Y25.607 Z7.414 A262.6880 B-1.6750 
N682 X146.992 Y26.690 Z6.883 A258.0183 B-1.8413 
N683 X146.992 Y28.110 Z6.181 A251.7307 B-2.0426 
N684 X146.991 Y29.566 Z5.302 A244.9355 B-2.2292 
N685 X146.991 Y30.941 Z4.259 A238.0249 B-2.3828 
N686 X146.990 Y32.272 Z2.993 A230.6493 B-2.4991 
N687 X146.990 Y33.423 Z1.569 A223.2964 B-2.5495 
N688 X146.990 Y34.363 Z0.008 A215.9905 B-2.5304 
N689 X146.990 Y35.076 Z-1.683 A208.6514 B-2.4554 
N690 X146.991 Y35.522 Z-3.458 A201.3646 B-2.3408 
N691 X146.991 Y35.650 Z-5.172 A194.5958 B-2.2052 
N692 X146.992 Y35.463 Z-6.671 A188.8110 B-2.0697 
N693 X146.992 Y35.011 Z-7.852 A184.2832 B-1.9528 
N694 X146.992 Y34.347 Z-8.679 A181.0933 B-1.8665 
N695 X146.993 Y33.513 Z-9.150 A179.2398 B-1.8162 
N696 X146.993 Y32.522 Z-9.323 A178.5239 B-1.7985 
N697 X146.993 Y31.370 Z-9.350 A178.3640 B-1.7974 
N698 X146.993 Y30.046 Z-9.338 A178.3528 B-1.8011 
N699 X146.993 Y28.545 Z-9.320 A178.3529 B-1.8055 
N700 X146.993 Y26.872 Z-9.301 A178.3530 B-1.8105 
N701 X146.993 Y25.036 Z-9.280 A178.3530 B-1.8160 
N702 X146.993 Y23.056 Z-9.257 A178.3531 B-1.8219 
N703 X146.993 Y20.957 Z-9.233 A178.3532 B-1.8281 
N704 X146.992 Y18.771 Z-9.208 A178.3533 B-1.8347 
N705 X146.992 Y16.533 Z-9.182 A178.3534 B-1.8413 
N706 X146.992 Y14.281 Z-9.156 A178.3535 B-1.8481 
N707 X146.992 Y12.055 Z-9.130 A178.3536 B-1.8549 
N708 X146.992 Y9.892 Z-9.105 A178.3537 B-1.8617 
N709 X146.992 Y7.825 Z-9.081 A178.3538 B-1.8682 
N710 X146.992 Y5.882 Z-9.059 A178.3539 B-1.8743 
N711 X146.992 Y4.084 Z-9.047 A178.3158 B-1.8790 
N712 X146.992 Y2.441 Z-9.122 A177.9146 B-1.8752 
N713 X146.992 Y0.955 Z-9.331 A176.9004 B-1.8588 
N714 X146.992 Y-0.372 Z-9.531 A175.8397 B-1.8453 
N715 X146.992 Y-1.544 Z-9.664 A175.0031 B-1.8406 
N716 X146.993 Y-2.601 Z-10.002 A173.2794 B-1.8120 
N717 X146.993 Y-3.647 Z-10.911 A169.0593 B-1.7079 
N718 X146.994 Y-4.876 Z-12.488 A161.6633 B-1.4794 
N719 X146.995 Y-6.392 Z-14.256 A152.6976 B-1.1358 
N720 X146.996 Y-8.072 Z-15.737 A144.0312 B-0.7565 
N721 X146.997 Y-9.879 Z-16.920 A135.6577 B-0.3742 
N722 X146.998 Y-11.685 Z-17.725 A128.0463 B-0.0426 
N723 X146.999 Y-13.457 Z-18.204 A121.0493 B0.2269 
N724 X147.000 Y-15.091 Z-18.358 A114.9352 B0.4299 
N725 X147.000 Y-16.475 Z-18.211 A110.0042 B0.5660 
N726 X147.001 Y-17.481 Z-17.798 A106.6972 B0.6327 
N727 X147.001 Y-18.079 Z-17.180 A105.0955 B0.6392 
N728 X147.001 Y-18.428 Z-16.435 A104.5531 B0.6116 
N729 X147.000 Y-18.683 Z-15.615 A104.4444 B0.5699 
N730 X147.000 Y-18.924 Z-14.746 A104.4386 B0.5234 
N731 X147.000 Y-19.173 Z-13.844 A104.4384 B0.4750 
N732 X147.000 Y-19.428 Z-12.920 A104.4382 B0.4254 
N733 X147.000 Y-19.686 Z-11.987 A104.4380 B0.3753 
N734 X147.000 Y-19.942 Z-11.058 A104.4379 B0.3254 
N735 X146.999 Y-20.193 Z-10.149 A104.4377 B0.2766 
N736 X146.999 Y-20.439 Z-9.273 A104.4237 B0.2297 
N737 X146.999 Y-20.693 Z-8.447 A104.3198 B0.1863 
N738 X146.999 Y-20.983 Z-7.687 A103.9888 B0.1478 
N739 X146.999 Y-21.343 Z-7.009 A103.2739 B0.1122 
N740 X146.999 Y-21.791 Z-6.417 A102.0765 B0.0758 
N741 X146.999 Y-22.332 Z-5.908 A100.3657 B0.0412 
N742 X146.999 Y-22.983 Z-5.470 A98.0819 B0.0164 
N743 X146.999 Y-23.775 Z-5.088 A95.1028 B0.0044 
N744 X146.999 Y-24.725 Z-4.732 A91.3631 B0.0006 
N745 X146.999 Y-25.814 Z-4.361 A86.9415 B0.0000 
N746 X146.999 Y-27.011 Z-3.937 A81.9572 
N747 X146.999 Y-28.274 Z-3.425 A76.5506 
N748 X146.999 Y-29.543 Z-2.809 A70.9132 
N749 X146.999 Y-30.787 Z-2.078 A65.1308 
N750 X146.999 Y-31.979 Z-1.225 A59.2427 
N751 X146.999 Y-33.068 Z-0.270 A53.4243 
N752 X146.999 Y-34.057 Z0.796 A47.5807 
N753 X146.999 Y-34.965 Z2.012 A41.4821 
N754 X146.999 Y-35.799 Z3.442 A34.8343 
N755 X146.999 Y-36.483 Z5.070 A27.7513 
N756 X146.999 Y-36.914 Z6.778 A20.7238 
N757 X146.999 Y-37.043 Z8.421 A14.2164 
N758 X146.999 Y-36.877 Z9.842 A8.7189 
N759 X146.999 Y-36.461 Z10.935 A4.5319 
N760 X146.999 Y-35.853 Z11.681 A1.6804 
N761 X146.999 Y-35.086 Z12.118 A359.9988 
N762 X146.999 Y-34.170 Z12.321 A359.2090 
N763 X146.999 Y-33.104 Z12.383 A358.9595 
N764 X146.999 Y-31.878 Z12.394 A358.9105 
N765 X146.999 Y-30.488 Z12.392 A358.9069 
N766 X146.999 Y-28.938 Z12.390 
N767 X146.999 Y-27.236 Z12.387 
N768 X146.999 Y-25.397 Z12.384 
N769 X146.999 Y-23.443 Z12.381 
N770 X146.999 Y-21.399 Z12.377 
N771 X146.999 Y-19.296 Z12.374 
N772 X146.999 Y-17.166 Z12.371 
N773 X146.999 Y-15.043 Z12.367 
N774 X146.999 Y-12.958 Z12.364 
N775 X146.999 Y-10.939 Z12.362 A358.9012 
N776 X146.999 Y-9.011 Z12.396 A358.7417 
N777 X146.999 Y-7.184 Z12.666 A357.5549 
N778 X146.999 Y-5.449 Z13.235 A354.9165 
N779 X146.999 Y-3.798 Z13.874 A351.6701 
N780 X146.999 Y-2.241 Z14.454 A348.3590 B0.0016 
N781 X146.999 Y-0.780 Z14.961 A345.0865 B0.0343 
N782 X146.999 Y0.600 Z15.443 A341.6910 B0.1211 
N783 X146.999 Y1.924 Z15.931 A338.0630 B0.1995 
N784 X146.999 Y3.237 Z16.473 A333.9546 B0.2478 
N785 X146.999 Y4.566 Z17.053 A329.3853 B0.2689 
N786 X146.999 Y5.898 Z17.588 A324.6782 B0.2640 
N787 X146.999 Y7.190 Z18.003 A320.1928 B0.2366 
N788 X146.999 Y8.394 Z18.258 A316.2106 B0.1934 
N789 X146.999 Y9.481 Z18.348 A312.8520 B0.1411 
N790 X146.999 Y10.478 Z18.323 A309.9293 B0.0794 
N791 X146.999 Y11.470 Z18.259 A306.9832 B0.0000 
N792 X146.998 Y12.572 Z18.226 A303.4532 B-0.1126 
N793 X146.998 Y13.832 Z18.214 A299.1526 B-0.2637 
N794 X146.997 Y15.173 Z18.140 A294.4739 B-0.4411 
N795 X146.996 Y16.438 Z17.923 A290.1005 B-0.6191 
N796 X146.996 Y17.486 Z17.543 A286.5905 B-0.7741 
N797 X146.996 Y18.277 Z17.034 A284.0816 B-0.8974 
N798 X146.995 Y18.853 Z16.443 A282.4022 B-0.9921 
N799 X146.995 Y19.297 Z15.810 A281.2132 B-1.0687 
N800 X146.995 Y19.688 Z15.162 A280.1927 B-1.1381 
N801 X146.995 Y20.074 Z14.514 A279.1397 B-1.2076 
N802 X146.994 Y20.467 Z13.875 A277.9961 B-1.2778 
N803 X146.994 Y20.885 Z13.253 A276.6862 B-1.3502 
N804 X146.994 Y21.325 Z12.650 A275.2057 B-1.4255 
N805 X146.994 Y21.800 Z12.072 A273.5075 B-1.5079 
N806 X146.993 Y22.304 Z11.517 A271.6032 B-1.5984 
N807 X146.993 Y22.751 Z10.987 A269.8543 B-1.6839 
N808 X146.993 Y23.051 Z10.490 A268.6430 B-1.7502 
N809 X146.993 Y23.210 Z10.037 A267.9726 B-1.7965 
N810 X146.992 Y23.337 Z9.626 A267.4213 B-1.8386 
N811 X146.992 Y23.569 Z9.251 A266.4276 B-1.8985 
N812 X146.992 Y24.031 Z8.890 A264.4663 B-1.9975 
N813 X146.991 Y24.785 Z8.505 A261.2565 B-2.1451 
N814 X146.991 Y25.905 Z8.022 A256.4377 B-2.3468 
N815 X146.990 Y27.377 Z7.333 A249.9231 B-2.5834 
N816 X146.989 Y28.802 Z6.480 A243.2510 B-2.7812 
N817 X146.989 Y30.157 Z5.453 A236.4084 B-2.9359 
N818 X146.989 Y31.479 Z4.189 A229.0400 B-3.0467 
N819 X146.988 Y32.608 Z2.774 A221.7498 B-3.0892 
N820 X146.988 Y33.526 Z1.227 A214.5109 B-3.0634 
N821 X146.989 Y34.220 Z-0.449 A207.2318 B-2.9794 
N822 X146.989 Y34.647 Z-2.194 A200.0513 B-2.8503 
N823 X146.990 Y34.760 Z-3.848 A193.4977 B-2.6971 
N824 X146.990 Y34.576 Z-5.258 A188.0318 B-2.5457 
N825 X146.991 Y34.149 Z-6.346 A183.8425 B-2.4167 
N826 X146.991 Y33.531 Z-7.098 A180.9296 B-2.3219 
N827 X146.991 Y32.756 Z-7.535 A179.2038 B-2.2653 
N828 X146.991 Y31.835 Z-7.713 A178.4634 B-2.2428 
N829 X146.991 Y30.761 Z-7.744 A178.2848 B-2.2404 
N830 X146.991 Y29.525 Z-7.731 A178.2740 B-2.2442 
N831 X146.991 Y28.123 Z-7.713 A178.2741 B-2.2488 
N832 X146.991 Y26.559 Z-7.692 A178.2742 B-2.2541 
N833 X146.991 Y24.842 Z-7.670 A178.2743 B-2.2598 
N834 X146.991 Y22.989 Z-7.646 A178.2744 B-2.2660 
N835 X146.991 Y21.023 Z-7.620 A178.2745 B-2.2725 
N836 X146.991 Y18.975 Z-7.593 A178.2747 B-2.2794 
N837 X146.991 Y16.878 Z-7.566 A178.2745 B-2.2864 
N838 X146.991 Y14.767 Z-7.539 A178.2730 B-2.2935 
N839 X146.991 Y12.678 Z-7.512 A178.2711 B-2.3007 
N840 X146.991 Y10.646 Z-7.486 A178.2709 B-2.3079 
N841 X146.991 Y8.702 Z-7.460 A178.2710 B-2.3148 
N842 X146.991 Y6.871 Z-7.436 A178.2711 B-2.3214 
N843 X146.991 Y5.172 Z-7.417 A178.2591 B-2.3270 
N844 X146.991 Y3.614 Z-7.470 A177.9453 B-2.3232 
N845 X146.991 Y2.193 Z-7.713 A176.8014 B-2.2957 
N846 X146.991 Y0.902 Z-8.064 A175.0970 B-2.2544 
N847 X146.991 Y-0.262 Z-8.371 A173.4653 B-2.2194 
N848 X146.991 Y-1.346 Z-8.866 A170.9567 B-2.1537 
N849 X146.992 Y-2.511 Z-10.031 A165.4406 B-1.9646 
N850 X146.993 Y-4.039 Z-11.929 A156.1724 B-1.5621 
N851 X146.995 Y-5.849 Z-13.661 A146.5105 B-1.0529 
N852 X146.997 Y-7.755 Z-14.942 A137.6822 B-0.5588 
N853 X146.998 Y-9.628 Z-15.772 A129.8985 B-0.1426 
N854 X146.999 Y-11.427 Z-16.235 A122.9389 B0.1865 
N855 X147.000 Y-13.002 Z-16.330 A117.2531 B0.4173 
N856 X147.000 Y-14.203 Z-16.088 A113.3029 B0.5466 
N857 X147.000 Y-14.943 Z-15.566 A111.3760 B0.5812 
N858 X147.000 Y-15.373 Z-14.878 A110.8026 B0.5602 
N859 X147.000 Y-15.706 Z-14.114 A110.6966 B0.5208 
N860 X147.000 Y-16.026 Z-13.314 A110.6903 B0.4766 
N861 X147.000 Y-16.352 Z-12.494 A110.6901 B0.4312 
N862 X147.000 Y-16.683 Z-11.662 A110.6900 B0.3851 
N863 X147.000 Y-17.013 Z-10.830 A110.6898 B0.3390 
N864 X146.999 Y-17.339 Z-10.011 A110.6897 B0.2936 
N865 X146.999 Y-17.656 Z-9.215 A110.6895 B0.2495 
N866 X146.999 Y-17.963 Z-8.455 A110.6722 B0.2076 
N867 X146.999 Y-18.276 Z-7.748 A110.5461 B0.1695 
N868 X146.999 Y-18.629 Z-7.116 A110.1464 B0.1369 
N869 X146.999 Y-19.062 Z-6.576 A109.2804 B0.1086 
N870 X146.999 Y-19.599 Z-6.133 A107.8289 B0.0807 
N871 X146.999 Y-20.242 Z-5.779 A105.7867 B0.0523 
N872 X146.999 Y-20.988 Z-5.494 A103.1758 B0.0281 
N873 X146.999 Y-21.847 Z-5.260 A99.9779 B0.0124 
N874 X146.999 Y-22.833 Z-5.049 A96.1600 B0.0046 
N875 X146.999 Y-23.937 Z-4.826 A91.7686 B0.0015 
N876 X146.999 Y-25.128 Z-4.556 A86.9392 B0.0000 
N877 X146.999 Y-26.374 Z-4.211 A81.7799 
N878 X146.999 Y-27.642 Z-3.770 A76.3955 
N879 X146.999 Y-28.894 Z-3.225 A70.9043 
N880 X146.999 Y-30.114 Z-2.567 A65.3155 
N881 X146.999 Y-31.285 Z-1.792 A59.6521 
N882 X146.999 Y-32.345 Z-0.930 A54.1401 
N883 X146.999 Y-33.303 Z0.025 A48.6881 
N884 X146.999 Y-34.192 Z1.110 A43.0335 
N885 X146.999 Y-35.041 Z2.405 A36.7988 
N886 X146.999 Y-35.799 Z3.937 A29.9139 
N887 X146.999 Y-36.350 Z5.610 A22.8453 
N888 X146.999 Y-36.619 Z7.273 A16.1261 
N889 X146.999 Y-36.590 Z8.762 A10.2810 
N890 X146.999 Y-36.302 Z9.935 A5.7504 
N891 X146.999 Y-35.816 Z10.759 A2.5885 
N892 X146.999 Y-35.173 Z11.276 A0.6030 
N893 X146.999 Y-34.391 Z11.556 A359.5218 
N894 X146.999 Y-33.467 Z11.674 A359.0557 
N895 X146.999 Y-32.397 Z11.708 A358.9153 
N896 X146.999 Y-31.173 Z11.712 A358.8904 
N897 X146.999 Y-29.795 Z11.710 A358.8895 
N898 X146.999 Y-28.270 Z11.707 
N899 X146.999 Y-26.607 Z11.703 
N900 X146.999 Y-24.826 Z11.700 
N901 X146.999 Y-22.949 Z11.696 
N902 X146.999 Y-21.003 Z11.693 
N903 X146.999 Y-19.018 Z11.689 
N904 X146.999 Y-17.025 Z11.685 
N905 X146.999 Y-15.054 Z11.681 
N906 X146.999 Y-13.133 Z11.678 
N907 X146.999 Y-11.286 Z11.674 A358.8872 
N908 X146.999 Y-9.531 Z11.690 A358.8071 
N909 X146.999 Y-7.875 Z11.897 A357.9044 
N910 X146.999 Y-6.302 Z12.494 A355.2301 
N911 X146.999 Y-4.768 Z13.358 A351.1160 
N912 X146.999 Y-3.252 Z14.271 A346.3744 
N913 X146.999 Y-1.751 Z15.126 A341.4345 B0.0122 
N914 X146.999 Y-0.269 Z15.886 A336.4704 B0.0806 
N915 X146.999 Y1.197 Z16.547 A331.5190 B0.1611 
N916 X146.999 Y2.636 Z17.085 A326.7113 B0.2009 
N917 X146.999 Y4.037 Z17.493 A322.1126 B0.2082 
N918 X146.999 Y5.342 Z17.717 A318.0693 B0.1930 
N919 X146.999 Y6.513 Z17.755 A314.7363 B0.1636 
N920 X146.999 Y7.548 Z17.639 A312.0562 B0.1260 
N921 X146.999 Y8.462 Z17.405 A309.9294 B0.0841 
N922 X146.999 Y9.295 Z17.101 A308.1352 B0.0368 
N923 X146.998 Y10.130 Z16.795 A306.2340 B-0.0274 
N924 X146.998 Y11.066 Z16.550 A303.7488 B-0.1257 
N925 X146.998 Y12.119 Z16.355 A300.6023 B-0.2646 
N926 X146.997 Y13.214 Z16.143 A297.1738 B-0.4298 
N927 X146.997 Y14.231 Z15.855 A294.0029 B-0.5960 
N928 X146.996 Y15.089 Z15.474 A291.4320 B-0.7430 
N929 X146.996 Y15.783 Z15.025 A289.4737 B-0.8657 
N930 X146.995 Y16.364 Z14.547 A287.9065 B-0.9712 
N931 X146.995 Y16.899 Z14.071 A286.4447 B-1.0717 
N932 X146.995 Y17.437 Z13.616 A284.8831 B-1.1765 
N933 X146.994 Y18.010 Z13.191 A283.0806 B-1.2912 
N934 X146.994 Y18.657 Z12.800 A280.8793 B-1.4220 
N935 X146.993 Y19.317 Z12.425 A278.5275 B-1.5564 
N936 X146.993 Y19.976 Z12.063 A276.0952 B-1.6923 
N937 X146.992 Y20.649 Z11.711 A273.5223 B-1.8340 
N938 X146.992 Y21.253 Z11.366 A271.1545 B-1.9656 
N939 X146.992 Y21.726 Z11.034 A269.2622 B-2.0754 
N940 X146.991 Y22.094 Z10.724 A267.7599 B-2.1679 
N941 X146.991 Y22.438 Z10.438 A266.3216 B-2.2583 
N942 X146.991 Y22.854 Z10.164 A264.5707 B-2.3640 
N943 X146.990 Y23.430 Z9.882 A262.1314 B-2.5017 
N944 X146.990 Y24.231 Z9.552 A258.7171 B-2.6811 
N945 X146.989 Y25.398 Z9.085 A253.6823 B-2.9173 
N946 X146.988 Y26.886 Z8.382 A247.0431 B-3.1748 
N947 X146.988 Y28.170 Z7.583 A240.9458 B-3.3569 
N948 X146.987 Y29.459 Z6.586 A234.3653 B-3.5001 
N949 X146.987 Y30.728 Z5.346 A227.1952 B-3.5981 
N950 X146.987 Y31.815 Z3.959 A220.0793 B-3.6295 
N951 X146.987 Y32.700 Z2.442 A212.9900 B-3.5951 
N952 X146.987 Y33.369 Z0.801 A205.8559 B-3.5005 
N953 X146.988 Y33.777 Z-0.894 A198.8633 B-3.3563 
N954 X146.988 Y33.885 Z-2.469 A192.5974 B-3.1872 
N955 X146.989 Y33.715 Z-3.774 A187.5158 B-3.0238 
N956 X146.989 Y33.328 Z-4.762 A183.6972 B-2.8869 
N957 X146.989 Y32.772 Z-5.452 A181.0196 B-2.7850 
N958 X146.990 Y32.070 Z-5.886 A179.3064 B-2.7189 
N959 X146.990 Y31.230 Z-6.094 A178.4469 B-2.6870 
N960 X146.990 Y30.248 Z-6.141 A178.2069 B-2.6808 
N961 X146.990 Y29.116 Z-6.130 A178.1845 B-2.6841 
N962 X146.990 Y27.827 Z-6.111 A178.1835 B-2.6890 
N963 X146.990 Y26.386 Z-6.089 A178.1836 B-2.6945 
N964 X146.990 Y24.800 Z-6.066 A178.1838 B-2.7006 
N965 X146.990 Y23.085 Z-6.041 A178.1839 B-2.7072 
N966 X146.990 Y21.262 Z-6.014 A178.1841 B-2.7142 
N967 X146.990 Y19.358 Z-5.986 A178.1841 B-2.7215 
N968 X146.990 Y17.403 Z-5.957 A178.1833 B-2.7290 
N969 X146.990 Y15.430 Z-5.928 A178.1811 B-2.7365 
N970 X146.990 Y13.473 Z-5.900 A178.1782 B-2.7440 
N971 X146.989 Y11.563 Z-5.872 A178.1766 B-2.7515 
N972 X146.989 Y9.727 Z-5.845 A178.1764 B-2.7589 
N973 X146.989 Y7.989 Z-5.819 A178.1766 B-2.7660 
N974 X146.989 Y6.365 Z-5.794 A178.1762 B-2.7726 
N975 X146.989 Y4.864 Z-5.806 A178.0361 B-2.7735 
N976 X146.990 Y3.479 Z-6.027 A176.9993 B-2.7417 
N977 X146.990 Y2.185 Z-6.550 A174.5882 B-2.6604 
N978 X146.990 Y0.960 Z-7.189 A171.4905 B-2.5538 
N979 X146.991 Y-0.260 Z-8.055 A167.2021 B-2.3909 
N980 X146.992 Y-1.759 Z-9.705 A159.1082 B-2.0112 
N981 X146.994 Y-3.728 Z-11.682 A148.4041 B-1.3653 
N982 X146.996 Y-5.775 Z-13.038 A139.0838 B-0.7404 
N983 X146.998 Y-7.711 Z-13.824 A131.3230 B-0.2472 
N984 X146.999 Y-9.458 Z-14.165 A124.9321 B0.1097 
N985 X147.000 Y-10.817 Z-14.076 A120.5288 B0.3178 
N986 X147.000 Y-11.661 Z-13.612 A118.5207 B0.3851 
N987 X147.000 Y-12.142 Z-12.927 A118.1766 B0.3695 
N988 X147.000 Y-12.558 Z-12.190 A118.1608 B0.3391 
N989 X147.000 Y-12.975 Z-11.442 A118.1601 B0.3078 
N990 X146.999 Y-13.394 Z-10.691 A118.1601 B0.2763 
N991 X146.999 Y-13.811 Z-9.944 A118.1600 B0.2450 
N992 X146.999 Y-14.221 Z-9.210 A118.1599 B0.2142 
N993 X146.999 Y-14.618 Z-8.498 A118.1599 B0.1843 
N994 X146.999 Y-14.998 Z-7.817 A118.1588 B0.1558 
N995 X146.999 Y-15.364 Z-7.180 A118.1207 B0.1294 
N996 X146.999 Y-15.740 Z-6.607 A117.9159 B0.1071 
N997 X146.999 Y-16.163 Z-6.124 A117.3504 B0.0900 
N998 X146.999 Y-16.674 Z-5.752 A116.2217 B0.0767 
N999 X146.999 Y-17.293 Z-5.492 A114.4379 B0.0635 
N1000 X146.999 Y-18.018 Z-5.325 A112.0307 B0.0483 
N1001 X146.999 Y-18.842 Z-5.226 A109.0662 B0.0326 
N1002 X146.999 Y-19.763 Z-5.170 A105.5903 B0.0194 
N1003 X146.999 Y-20.784 Z-5.130 A101.6169 B0.0103 
N1004 X146.999 Y-21.905 Z-5.074 A97.1793 B0.0048 
N1005 X146.999 Y-23.099 Z-4.972 A92.3942 B0.0019 
N1006 X146.999 Y-24.336 Z-4.798 A87.3792 B0.0000 
N1007 X146.999 Y-25.594 Z-4.536 A82.2025 
N1008 X146.999 Y-26.856 Z-4.172 A76.9021 
N1009 X146.999 Y-28.103 Z-3.700 A71.5125 
N1010 X146.999 Y-29.341 Z-3.104 A65.9545 
N1011 X146.999 Y-30.535 Z-2.385 A60.3108 
N1012 X146.999 Y-31.602 Z-1.587 A54.9202 
N1013 X146.999 Y-32.558 Z-0.712 A49.6800 
N1014 X146.999 Y-33.445 Z0.278 A44.3086 
N1015 X146.999 Y-34.302 Z1.457 A38.4190 
N1016 X146.999 Y-35.104 Z2.877 A31.8334 
N1017 X146.999 Y-35.745 Z4.474 A24.8962 
N1018 X146.999 Y-36.131 Z6.103 A18.1749 
N1019 X146.999 Y-36.235 Z7.618 A12.1415 
N1020 X146.999 Y-36.079 Z8.873 A7.2396 
N1021 X146.999 Y-35.716 Z9.793 A3.6868 
N1022 X146.999 Y-35.195 Z10.407 A1.3231 
N1023 X146.999 Y-34.538 Z10.779 A359.8796 
N1024 X146.999 Y-33.751 Z10.964 A359.1546 
N1025 X146.999 Y-32.826 Z11.023 A358.9175 
N1026 X146.999 Y-31.759 Z11.031 A358.8746 
N1027 X146.999 Y-30.544 Z11.029 A358.8697 
N1028 X146.999 Y-29.185 Z11.026 A358.8697 
N1029 X146.999 Y-27.688 Z11.023 
N1030 X146.999 Y-26.070 Z11.019 
N1031 X146.999 Y-24.348 Z11.015 
N1032 X146.999 Y-22.548 Z11.011 
N1033 X146.999 Y-20.696 Z11.007 
N1034 X146.999 Y-18.823 Z11.003 
N1035 X146.999 Y-16.958 Z10.999 
N1036 X146.999 Y-15.129 Z10.994 
N1037 X146.999 Y-13.359 Z10.990 
N1038 X146.999 Y-11.670 Z10.987 A358.8696 
N1039 X146.999 Y-10.075 Z10.987 A358.8518 
N1040 X146.999 Y-8.578 Z11.104 A358.3468 
N1041 X146.999 Y-7.163 Z11.606 A356.1482 
N1042 X146.999 Y-5.767 Z12.557 A351.8225 
N1043 X146.999 Y-4.302 Z13.800 A345.8080 
N1044 X146.999 Y-2.683 Z15.194 A338.4855 B0.0015 
N1045 X146.999 Y-0.959 Z16.403 A331.1296 B0.0340 
N1046 X146.999 Y0.818 Z17.353 A324.0677 B0.0987 
N1047 X146.999 Y2.477 Z17.899 A318.1705 B0.1177 
N1048 X146.999 Y3.937 Z18.084 A313.5567 B0.0983 
N1049 X146.999 Y5.097 Z17.923 A310.5493 B0.0691 
N1050 X146.999 Y5.975 Z17.508 A308.9444 B0.0467 
N1051 X146.999 Y6.716 Z16.987 A307.9631 B0.0275 
N1052 X146.999 Y7.391 Z16.428 A307.2363 B0.0078 
N1053 X146.998 Y8.022 Z15.852 A306.6515 B-0.0131 
N1054 X146.998 Y8.643 Z15.290 A306.0337 B-0.0404 
N1055 X146.998 Y9.284 Z14.771 A305.1990 B-0.0822 
N1056 X146.998 Y9.949 Z14.303 A304.1153 B-0.1421 
N1057 X146.998 Y10.610 Z13.869 A302.9035 B-0.2152 
N1058 X146.998 Y11.235 Z13.456 A301.7017 B-0.2937 
N1059 X146.997 Y11.842 Z13.081 A300.4201 B-0.3811 
N1060 X146.997 Y12.462 Z12.762 A298.9180 B-0.4852 
N1061 X146.997 Y13.099 Z12.500 A297.1745 B-0.6071 
N1062 X146.996 Y13.767 Z12.295 A295.1419 B-0.7494 
N1063 X146.995 Y14.498 Z12.153 A292.6943 B-0.9192 
N1064 X146.995 Y15.367 Z12.085 A289.5298 B-1.1333 
N1065 X146.994 Y16.255 Z12.024 A286.1980 B-1.3547 
N1066 X146.993 Y17.131 Z11.953 A282.8483 B-1.5736 
N1067 X146.993 Y18.109 Z11.887 A279.0213 B-1.8183 
N1068 X146.992 Y19.156 Z11.796 A274.8637 B-2.0786 
N1069 X146.991 Y20.147 Z11.657 A270.8896 B-2.3236 
N1070 X146.990 Y21.029 Z11.479 A267.3085 B-2.5423 
N1071 X146.990 Y21.808 Z11.277 A264.1068 B-2.7373 
N1072 X146.989 Y22.494 Z11.062 A261.2445 B-2.9127 
N1073 X146.988 Y23.132 Z10.833 A258.5423 B-3.0797 
N1074 X146.988 Y23.859 Z10.558 A255.4238 B-3.2679 
N1075 X146.987 Y25.274 Z10.005 A249.2821 B-3.5772 
N1076 X146.986 Y26.915 Z9.154 A241.7909 B-3.8571 
N1077 X146.985 Y27.948 Z8.428 A236.6841 B-3.9886 
N1078 X146.985 Y29.055 Z7.491 A230.8157 B-4.0951 
N1079 X146.985 Y30.159 Z6.333 A224.3377 B-4.1620 
N1080 X146.985 Y31.126 Z5.029 A217.7666 B-4.1728 
N1081 X146.985 Y31.921 Z3.609 A211.1884 B-4.1253 
N1082 X146.985 Y32.515 Z2.105 A204.6630 B-4.0226 
N1083 X146.986 Y32.880 Z0.575 A198.3413 B-3.8740 
N1084 X146.986 Y32.992 Z-0.846 A192.6628 B-3.7014 
N1085 X146.987 Y32.869 Z-2.058 A187.9219 B-3.5305 
N1086 X146.987 Y32.553 Z-3.036 A184.1257 B-3.3780 
N1087 X146.988 Y32.077 Z-3.774 A181.2471 B-3.2547 
N1088 X146.988 Y31.461 Z-4.255 A179.3414 B-3.1709 
N1089 X146.988 Y30.716 Z-4.488 A178.3777 B-3.1298 
N1090 X146.988 Y29.841 Z-4.543 A178.1027 B-3.1210 
N1091 X146.988 Y28.827 Z-4.531 A178.0812 B-3.1244 
N1092 X146.988 Y27.668 Z-4.512 A178.0813 B-3.1295 
N1093 X146.988 Y26.364 Z-4.490 A178.0814 B-3.1352 
N1094 X146.988 Y24.923 Z-4.466 A178.0816 B-3.1414 
N1095 X146.988 Y23.357 Z-4.440 A178.0818 B-3.1483 
N1096 X146.988 Y21.685 Z-4.412 A178.0820 B-3.1555 
N1097 X146.988 Y19.929 Z-4.382 A178.0822 B-3.1632 
N1098 X146.988 Y18.117 Z-4.352 A178.0824 B-3.1711 
N1099 X146.988 Y16.278 Z-4.321 A178.0826 B-3.1791 
N1100 X146.988 Y14.440 Z-4.290 A178.0828 B-3.1871 
N1101 X146.988 Y12.633 Z-4.260 A178.0830 B-3.1949 
N1102 X146.988 Y10.880 Z-4.231 A178.0832 B-3.2026 
N1103 X146.988 Y9.201 Z-4.202 A178.0834 B-3.2099 
N1104 X146.988 Y7.612 Z-4.176 A178.0836 B-3.2168 
N1105 X146.988 Y6.120 Z-4.157 A178.0596 B-3.2222 
N1106 X146.988 Y4.720 Z-4.298 A177.3645 B-3.1983 
N1107 X146.988 Y3.368 Z-4.997 A174.2411 B-3.0669 
N1108 X146.989 Y1.937 Z-6.334 A168.0752 B-2.7812 
N1109 X146.991 Y0.239 Z-8.104 A159.3196 B-2.3176 
N1110 X146.993 Y-1.843 Z-9.949 A148.9346 B-1.6201 
N1111 X146.995 Y-3.880 Z-11.062 A140.5002 B-0.9397 
N1112 X146.997 Y-5.718 Z-11.601 A133.8830 B-0.4410 
N1113 X146.998 Y-7.219 Z-11.653 A129.2319 B-0.1310 
N1114 X146.998 Y-8.178 Z-11.215 A127.3312 B-0.0177 
N1115 X146.998 Y-8.800 Z-10.528 A127.0633 B-0.0031 
N1116 X146.998 Y-9.362 Z-9.812 A127.0609 B-0.0027 
N1117 X146.999 Y-9.913 Z-9.108 B-0.0024 
N1118 X146.999 Y-10.452 Z-8.420 B-0.0021 
N1119 X146.999 Y-10.974 Z-7.754 B-0.0019 
N1120 X146.999 Y-11.474 Z-7.115 B-0.0016 
N1121 X146.999 Y-11.948 Z-6.509 B-0.0014 
N1122 X146.999 Y-12.395 Z-5.946 A127.0424 B-0.0008 
N1123 X146.999 Y-12.840 Z-5.452 A126.8516 B0.0022 
N1124 X146.999 Y-13.331 Z-5.064 A126.2335 B0.0092 
N1125 X146.999 Y-13.889 Z-4.800 A125.0565 B0.0186 
N1126 X146.999 Y-14.521 Z-4.650 A123.3123 B0.0270 
N1127 X146.999 Y-15.223 Z-4.598 A121.0405 B0.0314 
N1128 X146.999 Y-15.998 Z-4.625 A118.2790 B0.0306 
N1129 X146.999 Y-16.849 Z-4.709 A115.0577 B0.0256 
N1130 X146.999 Y-17.780 Z-4.826 A111.4160 B0.0188 
N1131 X146.999 Y-18.791 Z-4.951 A107.3888 B0.0122 
N1132 X146.999 Y-19.880 Z-5.059 A103.0178 B0.0069 
N1133 X146.999 Y-21.029 Z-5.121 A98.3957 B0.0033 
N1134 X146.999 Y-22.211 Z-5.118 A93.6292 B0.0013 
N1135 X146.999 Y-23.407 Z-5.036 A88.7889 B0.0000 
N1136 X146.999 Y-24.607 Z-4.866 A83.8829 
N1137 X146.999 Y-25.819 Z-4.600 A78.8590 
N1138 X146.999 Y-27.066 Z-4.219 A73.5745 
N1139 X146.999 Y-28.403 Z-3.676 A67.7200 
N1140 X146.999 Y-29.727 Z-2.975 A61.6460 
N1141 X146.999 Y-30.890 Z-2.189 A55.9515 
N1142 X146.999 Y-31.911 Z-1.333 A50.5506 
N1143 X146.999 Y-32.841 Z-0.376 A45.1419 
N1144 X146.999 Y-33.724 Z0.745 A39.3667 
N1145 X146.999 Y-34.541 Z2.065 A33.0842 
N1146 X146.999 Y-35.205 Z3.522 A26.6121 
N1147 X146.999 Y-35.641 Z4.990 A20.4493 
N1148 X146.999 Y-35.834 Z6.369 A14.8864 
N1149 X146.999 Y-35.805 Z7.603 A10.0314 
N1150 X146.999 Y-35.581 Z8.652 A5.9605 
N1151 X146.999 Y-35.188 Z9.463 A2.8225 
N1152 X146.999 Y-34.649 Z9.992 A0.7787 
N1153 X146.999 Y-33.979 Z10.265 A359.7244 
N1154 X146.999 Y-33.180 Z10.370 A359.3285 
N1155 X146.999 Y-32.245 Z10.393 A359.2517 
N1156 X146.999 Y-31.167 Z10.398 A359.2490 
N1157 X146.999 Y-29.946 Z10.404 
N1158 X146.999 Y-28.585 Z10.409 
N1159 X146.999 Y-27.094 Z10.416 
N1160 X146.999 Y-25.489 Z10.423 
N1161 X146.999 Y-23.792 Z10.430 
N1162 X146.999 Y-22.026 Z10.438 
N1163 X146.999 Y-20.220 Z10.446 
N1164 X146.999 Y-18.404 Z10.454 
N1165 X146.999 Y-16.605 Z10.462 
N1166 X146.999 Y-14.850 Z10.469 
N1167 X146.999 Y-13.161 Z10.477 
N1168 X146.999 Y-11.554 Z10.484 
N1169 X146.999 Y-10.041 Z10.496 A359.2253 
N1170 X146.999 Y-8.623 Z10.635 A358.6636 
N1171 X146.999 Y-7.280 Z11.187 A356.2977 
N1172 X146.999 Y-5.933 Z12.252 A351.5189 
N1173 X146.999 Y-4.446 Z13.738 A344.4528 
N1174 X146.999 Y-2.657 Z15.496 A335.3285 B0.0019 
N1175 X146.999 Y-0.677 Z16.945 A326.3289 B0.0338 
N1176 X146.999 Y1.305 Z17.910 A318.3624 B0.0780 
N1177 X146.999 Y2.988 Z18.264 A312.5962 B0.0677 
N1178 X146.999 Y4.298 Z18.163 A308.8849 B0.0321 
N1179 X146.999 Y5.159 Z17.672 A307.4237 B0.0093 
N1180 X146.999 Y5.756 Z16.987 A307.2442 B0.0065 
N1181 X146.999 Y6.311 Z16.284 A307.2375 B0.0075 
N1182 X146.999 Y6.857 Z15.592 B0.0086 
N1183 X146.999 Y7.389 Z14.917 B0.0096 
N1184 X146.999 Y7.904 Z14.263 B0.0107 
N1185 X146.999 Y8.397 Z13.637 B0.0117 
N1186 X146.999 Y8.863 Z13.046 A307.2375 B0.0126 
N1187 X146.999 Y9.298 Z12.495 A307.2347 B0.0133 
N1188 X146.999 Y9.731 Z12.013 A307.0641 B0.0038 
N1189 X146.998 Y10.260 Z11.677 A306.1960 B-0.0503 
N1190 X146.998 Y10.884 Z11.477 A304.6405 B-0.1525 
N1191 X146.998 Y11.563 Z11.373 A302.6135 B-0.2910 
N1192 X146.997 Y12.270 Z11.333 A300.2802 B-0.4550 
N1193 X146.996 Y13.089 Z11.386 A297.2897 B-0.6669 
N1194 X146.995 Y14.063 Z11.520 A293.5029 B-0.9335 
N1195 X146.995 Y14.999 Z11.622 A289.8357 B-1.1900 
N1196 X146.994 Y15.963 Z11.712 A286.0187 B-1.4536 
N1197 X146.993 Y17.069 Z11.801 A281.5847 B-1.7540 
N1198 X146.992 Y18.287 Z11.846 A276.6856 B-2.0778 
N1199 X146.991 Y19.515 Z11.810 A271.7367 B-2.3955 
N1200 X146.990 Y20.713 Z11.688 A266.8770 B-2.6971 
N1201 X146.989 Y21.898 Z11.478 A262.0146 B-2.9867 
N1202 X146.988 Y23.080 Z11.175 A257.0808 B-3.2674 
N1203 X146.987 Y24.240 Z10.776 A252.1171 B-3.5394 
N1204 X146.986 Y25.437 Z10.249 A246.8262 B-3.8286 
N1205 X146.985 Y26.807 Z9.489 A240.4741 B-4.0849 
N1206 X146.985 Y27.577 Z8.931 A236.6316 B-4.1807 
N1207 X146.985 Y28.542 Z8.131 A231.5586 B-4.2747 
N1208 X146.984 Y29.590 Z7.083 A225.5544 B-4.3440 
N1209 X146.984 Y30.555 Z5.869 A219.2741 B-4.3651 
N1210 X146.984 Y31.375 Z4.525 A212.9020 B-4.3315 
N1211 X146.985 Y32.006 Z3.102 A206.6146 B-4.2446 
N1212 X146.985 Y32.426 Z1.650 A200.5315 B-4.1114 
N1213 X146.986 Y32.612 Z0.268 A194.9580 B-3.9490 
N1214 X146.986 Y32.573 Z-0.960 A190.1314 B-3.7787 
N1215 X146.987 Y32.340 Z-2.009 A186.0628 B-3.6157 
N1216 X146.987 Y31.937 Z-2.850 A182.8080 B-3.4742 
N1217 X146.987 Y31.385 Z-3.422 A180.5816 B-3.3722 
N1218 X146.988 Y30.700 Z-3.717 A179.4234 B-3.3179 
N1219 X146.988 Y29.886 Z-3.811 A179.0458 B-3.3001 
N1220 X146.988 Y28.934 Z-3.822 A179.0025 B-3.2981 
N1221 X146.988 Y27.840 Z-3.821 A179.0023 B-3.2981 
N1222 X146.988 Y26.603 Z-3.820 B-3.2981 
N1223 X146.988 Y25.226 Z-3.819 B-3.2981 
N1224 X146.988 Y23.722 Z-3.818 B-3.2981 
N1225 X146.988 Y22.105 Z-3.816 B-3.2980 
N1226 X146.988 Y20.400 Z-3.815 B-3.2980 
N1227 X146.988 Y18.632 Z-3.814 B-3.2980 
N1228 X146.988 Y16.829 Z-3.812 B-3.2980 
N1229 X146.988 Y15.024 Z-3.811 B-3.2980 
N1230 X146.988 Y13.247 Z-3.810 B-3.2979 
N1231 X146.988 Y11.524 Z-3.808 A179.0023 B-3.2979 
N1232 X146.988 Y9.881 Z-3.807 B-3.2979 
N1233 X146.988 Y8.337 Z-3.806 B-3.2979 
N1234 X146.988 Y6.905 Z-3.805 A179.0020 B-3.2979 
N1235 X146.988 Y5.591 Z-3.835 A178.8723 B-3.2922 
N1236 X146.988 Y4.389 Z-4.096 A177.7631 B-3.2451 
N1237 X146.988 Y3.258 Z-4.824 A174.5914 B-3.1069 
N1238 X146.989 Y2.117 Z-5.934 A169.5548 B-2.8729 
N1239 X146.990 Y0.880 Z-7.261 A163.1907 B-2.5477 
N1240 X146.992 Y-0.529 Z-8.690 A155.8025 B-2.1165 
N1241 X146.993 Y-2.061 Z-9.934 A148.4652 B-1.5733 
N1242 X146.995 Y-3.645 Z-10.894 A141.6226 B-1.0245 
N1243 X146.858 Y-9.853 Z-18.732 
N1244 G00 X146.173 Y-40.896 Z-57.923 
N1245 ; DELTA A > 40.1
N1246 TRAFOOF
N1247 STOPRE
N1248 G0 G53 D0 Z265.000
N1249 G1 G53 A88.6527 F10000
N1250 TRAORI
N1251 G54 D2
N1252 TRANS 
N1253 X170.424 Y-88.484 Z-28.190 A88.6527 B0.0000 F15000 
N1254 X170.424 Y-38.498 Z-29.366 
N1255 X170.424 Y-28.501 Z-29.601 F2835 
N1256 X170.424 Y-28.486 Z-26.557 A88.6367 
N1257 X170.424 Y-28.469 Z-23.567 A88.6249 
N1258 X170.424 Y-28.451 Z-20.680 A88.6213 
N1259 X170.424 Y-28.433 Z-17.940 A88.6213 
N1260 X170.424 Y-28.416 Z-15.385 
N1261 X170.424 Y-28.401 Z-13.041 
N1262 X170.424 Y-28.387 Z-10.925 
N1263 X170.424 Y-28.374 Z-9.047 
N1264 X170.424 Y-28.363 Z-7.402 
N1265 X170.424 Y-28.362 Z-5.982 A88.5874 
N1266 X170.424 Y-28.515 Z-4.765 A87.9100 
N1267 X170.424 Y-29.078 Z-3.706 A85.4656 
N1268 X170.424 Y-30.047 Z-2.723 A81.1648 
N1269 X170.424 Y-31.301 Z-1.720 A75.4067 
N1270 X170.424 Y-32.731 Z-0.602 A68.5278 
N1271 X170.424 Y-34.254 Z0.720 A60.6713 
N1272 X170.424 Y-35.734 Z2.287 A52.1750 
N1273 X170.424 Y-37.035 Z4.091 A43.3599 
N1274 X170.424 Y-38.014 Z6.028 A34.7674 
N1275 X170.424 Y-38.605 Z7.972 A26.7780 
N1276 X170.424 Y-38.819 Z9.840 A19.4845 
N1277 X170.424 Y-38.682 Z11.572 A12.9186 
N1278 X170.424 Y-38.217 Z13.054 A7.3662 
N1279 X170.424 Y-37.470 Z14.176 A3.1544 
N1280 X170.424 Y-36.492 Z14.894 A0.4212 
N1281 X170.424 Y-35.316 Z15.175 A359.3415 
N1282 X170.424 Y-33.947 Z15.213 A359.2093 
N1283 X170.424 Y-32.372 Z15.219 A359.2087 
N1284 X170.424 Y-30.584 Z15.226 
N1285 X170.424 Y-28.582 Z15.233 
N1286 X170.424 Y-26.378 Z15.241 
N1287 X170.424 Y-23.991 Z15.250 
N1288 X170.424 Y-21.446 Z15.259 
N1289 X170.424 Y-18.782 Z15.269 
N1290 X170.424 Y-16.038 Z15.279 
N1291 X170.424 Y-13.263 Z15.289 
N1292 X170.424 Y-10.504 Z15.299 
N1293 X170.424 Y-7.808 Z15.309 
N1294 X170.424 Y-5.218 Z15.318 
N1295 X170.424 Y-2.774 Z15.327 
N1296 X170.424 Y-0.504 Z15.335 
N1297 X170.424 Y1.570 Z15.343 
N1298 X170.424 Y3.434 Z15.350 
N1299 X170.424 Y5.087 Z15.356 A359.2050 
N1300 X170.424 Y6.531 Z15.414 A358.9856 
N1301 X170.424 Y7.786 Z15.706 A357.7554 
N1302 X170.424 Y8.894 Z16.337 A354.9999 
N1303 X170.424 Y9.920 Z17.256 A350.8562 B0.0009 
N1304 X170.424 Y10.932 Z18.361 A345.6864 B0.0065 
N1305 X170.424 Y11.989 Z19.565 A339.7934 B0.0228 
N1306 X170.424 Y13.138 Z20.808 A333.3435 B0.0478 
N1307 X170.424 Y14.409 Z22.020 A326.5279 B0.0640 
N1308 X170.424 Y15.807 Z23.137 A319.5181 B0.0554 
N1309 X170.424 Y17.297 Z24.078 A312.5916 B0.0271 
N1310 X170.424 Y18.845 Z24.809 A305.8671 B-0.0053 
N1311 X170.424 Y20.448 Z25.329 A299.2682 B-0.0318 
N1312 X170.424 Y22.053 Z25.610 A292.9388 B-0.0469 
N1313 X170.424 Y23.591 Z25.640 A287.0554 B-0.0480 
N1314 X170.424 Y25.014 Z25.430 A281.7014 B-0.0385 
N1315 X170.424 Y26.268 Z24.998 A276.9958 B-0.0262 
N1316 X170.424 Y27.257 Z24.371 A273.2685 B-0.0167 
N1317 X170.424 Y27.893 Z23.587 A270.8498 B-0.0123 
N1318 X170.424 Y28.217 Z22.685 A269.6048 B-0.0128 
N1319 X170.424 Y28.342 Z21.680 A269.1195 B-0.0166 
N1320 X170.424 Y28.370 Z20.580 A269.0108 B-0.0222 
N1321 X170.424 Y28.371 Z19.390 A269.0046 B-0.0288 
N1322 X170.424 Y28.371 Z18.122 B-0.0361 
N1323 X170.424 Y28.372 Z16.791 B-0.0441 
N1324 X170.424 Y28.372 Z15.417 A269.0046 B-0.0526 
N1325 X170.424 Y28.372 Z14.021 B-0.0615 
N1326 X170.424 Y28.372 Z12.627 A269.0046 B-0.0703 
N1327 X170.424 Y28.372 Z11.256 A269.0046 B-0.0787 
N1328 X170.424 Y28.372 Z9.931 A269.0046 B-0.0867 
N1329 X170.424 Y28.372 Z8.671 A269.0046 B-0.0943 
N1330 X170.424 Y28.372 Z7.492 A269.0046 B-0.1016 
N1331 X170.424 Y28.376 Z6.404 A268.9905 B-0.1088 
N1332 X170.424 Y28.428 Z5.414 A268.7711 B-0.1172 
N1333 X170.424 Y28.642 Z4.520 A267.8663 B-0.1305 
N1334 X170.424 Y29.104 Z3.705 A265.8720 B-0.1537 
N1335 X170.423 Y29.841 Z2.932 A262.6352 B-0.1918 
N1336 X170.423 Y30.837 Z2.145 A258.1604 B-0.2487 
N1337 X170.423 Y32.005 Z1.287 A252.7333 B-0.3256 
N1338 X170.423 Y33.248 Z0.318 A246.6667 B-0.4209 
N1339 X170.422 Y34.549 Z-0.821 A239.8990 B-0.5284 
N1340 X170.422 Y35.852 Z-2.181 A232.4494 B-0.6155 
N1341 X170.422 Y36.992 Z-3.708 A224.8983 B-0.6366 
N1342 X170.422 Y37.892 Z-5.345 A217.5092 B-0.5923 
N1343 X170.422 Y38.529 Z-7.062 A210.3014 B-0.5114 
N1344 X170.423 Y38.888 Z-8.836 A203.2363 B-0.4207 
N1345 X170.423 Y38.933 Z-10.573 A196.5694 B-0.3361 
N1346 X170.423 Y38.656 Z-12.167 A190.5729 B-0.2638 
N1347 X170.423 Y38.076 Z-13.490 A185.6282 B-0.2046 
N1348 X170.424 Y37.235 Z-14.461 A181.9736 B-0.1603 
N1349 X170.424 Y36.176 Z-15.020 A179.8330 B-0.1337 
N1350 X170.424 Y34.921 Z-15.183 A179.2068 B-0.1221 
N1351 X170.424 Y33.468 Z-15.197 A179.1685 B-0.1174 
N1352 X170.424 Y31.802 Z-15.202 A179.1683 B-0.1138 
N1353 X170.424 Y29.921 Z-15.208 B-0.1100 
N1354 X170.424 Y27.829 Z-15.214 A179.1683 B-0.1057 
N1355 X170.424 Y25.539 Z-15.220 B-0.1012 
N1356 X170.424 Y23.074 Z-15.228 A179.1683 B-0.0964 
N1357 X170.424 Y20.464 Z-15.235 B-0.0914 
N1358 X170.424 Y17.750 Z-15.243 A179.1683 B-0.0863 
N1359 X170.424 Y14.974 Z-15.252 B-0.0812 
N1360 X170.424 Y12.185 Z-15.260 A179.1683 B-0.0763 
N1361 X170.424 Y9.432 Z-15.268 B-0.0715 
N1362 X170.424 Y6.760 Z-15.276 A179.1683 B-0.0670 
N1363 X170.424 Y4.212 Z-15.283 B-0.0627 
N1364 X170.424 Y1.823 Z-15.290 B-0.0589 
N1365 X170.424 Y-0.379 Z-15.297 A179.1683 B-0.0554 
N1366 X170.424 Y-2.377 Z-15.302 B-0.0523 
N1367 X170.424 Y-4.161 Z-15.308 B-0.0496 
N1368 X170.424 Y-5.731 Z-15.317 A179.1477 B-0.0474 
N1369 X170.424 Y-7.096 Z-15.403 A178.8016 B-0.0473 
N1370 X170.424 Y-8.276 Z-15.718 A177.4613 B-0.0552 
N1371 X170.424 Y-9.319 Z-16.383 A174.5525 B-0.0782 
N1372 X170.424 Y-10.304 Z-17.391 A170.0310 B-0.1133 
N1373 X170.424 Y-11.302 Z-18.586 A164.4565 B-0.1422 
N1374 X170.424 Y-12.371 Z-19.866 A158.1835 B-0.1514 
N1375 X170.424 Y-13.552 Z-21.155 A151.4423 B-0.1430 
N1376 X170.424 Y-14.869 Z-22.391 A144.3750 B-0.1181 
N1377 X170.424 Y-16.357 Z-23.544 A136.9482 B-0.0729 
N1378 X170.424 Y-17.945 Z-24.491 A129.6366 B-0.0185 
N1379 X170.424 Y-19.535 Z-25.160 A122.8423 B0.0253 
N1380 X170.424 Y-21.113 Z-25.578 A116.4572 B0.0523 
N1381 X170.424 Y-22.650 Z-25.753 A110.4732 B0.0616 
N1382 X170.424 Y-24.099 Z-25.691 A104.9742 B0.0540 
N1383 X170.424 Y-25.423 Z-25.406 A100.0101 B0.0366 
N1384 X170.424 Y-26.571 Z-24.918 A95.6987 B0.0190 
N1385 X170.424 Y-27.459 Z-24.252 A92.3342 B0.0072 
N1386 X170.424 Y-28.029 Z-23.442 A90.1440 B0.0019 
N1387 X170.424 Y-28.320 Z-22.519 A88.9903 B0.0000 
N1388 X170.424 Y-28.425 Z-21.496 A88.5439 
N1389 X170.424 Y-28.438 Z-20.378 A88.4521 
N1390 X170.424 Y-28.427 Z-19.173 A88.4480 
N1391 X170.424 Y-28.415 Z-17.892 
N1392 X170.424 Y-28.402 Z-16.552 
N1393 X170.424 Y-28.389 Z-15.173 
N1394 X170.424 Y-28.375 Z-13.776 
N1395 X170.424 Y-28.362 Z-12.385 
N1396 X170.424 Y-28.349 Z-11.022 
N1397 X170.424 Y-28.336 Z-9.708 
N1398 X170.424 Y-28.324 Z-8.463 
N1399 X170.424 Y-28.313 Z-7.301 
N1400 X170.424 Y-28.305 Z-6.232 A88.4355 
N1401 X170.424 Y-28.356 Z-5.260 A88.1842 
N1402 X170.424 Y-28.608 Z-4.381 A87.0834 
N1403 X170.424 Y-29.151 Z-3.570 A84.7110 
N1404 X170.424 Y-29.959 Z-2.787 A81.1139 
N1405 X170.424 Y-30.976 Z-1.978 A76.4700 
N1406 X170.424 Y-32.132 Z-1.095 A70.9939 
N1407 X170.424 Y-33.380 Z-0.083 A64.7861 
N1408 X170.424 Y-34.659 Z1.101 A57.9474 
N1409 X170.424 Y-35.886 Z2.477 A50.6644 
N1410 X170.424 Y-36.995 Z4.057 A43.0110 
N1411 X170.424 Y-37.883 Z5.791 A35.2936 
N1412 X170.424 Y-38.477 Z7.596 A27.8077 
N1413 X170.424 Y-38.748 Z9.393 A20.7262 
N1414 X170.424 Y-38.693 Z11.104 A14.1935 
N1415 X170.424 Y-38.319 Z12.622 A8.4817 
N1416 X170.424 Y-37.658 Z13.817 A3.9942 
N1417 X170.424 Y-36.761 Z14.638 A0.8714 
N1418 X170.424 Y-35.664 Z15.041 A359.3096 
N1419 X170.424 Y-34.380 Z15.125 A358.9714 
N1420 X170.424 Y-32.899 Z15.128 A358.9552 
N1421 X170.424 Y-31.210 Z15.127 A358.9548 
N1422 X170.424 Y-29.314 Z15.126 
N1423 X170.424 Y-27.216 Z15.124 
N1424 X170.424 Y-24.932 Z15.122 
N1425 X170.424 Y-22.487 Z15.120 
N1426 X170.424 Y-19.914 Z15.118 
N1427 X170.424 Y-17.251 Z15.116 
N1428 X170.424 Y-14.543 Z15.114 
N1429 X170.424 Y-11.835 Z15.112 
N1430 X170.424 Y-9.174 Z15.110 A358.9517 
N1431 X170.424 Y-6.603 Z15.126 A358.8762 
N1432 X170.424 Y-4.160 Z15.170 A358.6599 
N1433 X170.424 Y-1.878 Z15.208 A358.4298 
N1434 X170.424 Y0.221 Z15.238 A358.2083 
N1435 X170.424 Y2.121 Z15.265 A357.9741 
N1436 X170.424 Y3.815 Z15.278 A357.7884 
N1437 X170.424 Y5.307 Z15.307 A357.5289 
N1438 X170.424 Y6.614 Z15.489 A356.6244 B0.0011 
N1439 X170.424 Y7.772 Z15.990 A354.3118 B0.0072 
N1440 X170.424 Y8.844 Z16.817 A350.4853 B0.0247 
N1441 X170.424 Y9.901 Z17.873 A345.4597 B0.0553 
N1442 X170.424 Y10.995 Z19.038 A339.6662 B0.0886 
N1443 X170.424 Y12.162 Z20.221 A333.4132 B0.1083 
N1444 X170.424 Y13.418 Z21.352 A326.9277 B0.1066 
N1445 X170.424 Y14.767 Z22.382 A320.3408 B0.0859 
N1446 X170.424 Y16.196 Z23.264 A313.7919 B0.0488 
N1447 X170.424 Y17.671 Z23.959 A307.4324 B0.0032 
N1448 X170.424 Y19.200 Z24.469 A301.1605 B-0.0420 
N1449 X170.424 Y20.766 Z24.780 A294.9839 B-0.0827 
N1450 X170.424 Y22.310 Z24.864 A289.0691 B-0.1176 
N1451 X170.424 Y23.778 Z24.717 A283.5479 B-0.1467 
N1452 X170.423 Y25.098 Z24.344 A278.6162 B-0.1708 
N1453 X170.423 Y26.169 Z23.768 A274.6058 B-0.1908 
N1454 X170.423 Y26.900 Z23.029 A271.8574 B-0.2071 
N1455 X170.423 Y27.306 Z22.169 A270.3284 B-0.2208 
N1456 X170.423 Y27.481 Z21.210 A269.6811 B-0.2327 
N1457 X170.423 Y27.531 Z20.164 A269.5219 B-0.2437 
N1458 X170.423 Y27.544 Z19.036 A269.5089 B-0.2549 
N1459 X170.423 Y27.557 Z17.839 A269.4991 B-0.2666 
N1460 X170.423 Y27.575 Z16.586 A269.4717 B-0.2782 
N1461 X170.423 Y27.598 Z15.295 A269.4204 B-0.2894 
N1462 X170.423 Y27.624 Z13.987 A269.3498 B-0.3000 
N1463 X170.423 Y27.653 Z12.682 A269.2600 B-0.3096 
N1464 X170.423 Y27.690 Z11.403 A269.1255 B-0.3183 
N1465 X170.423 Y27.735 Z10.167 A268.9460 B-0.3267 
N1466 X170.423 Y27.774 Z8.994 A268.7752 B-0.3356 
N1467 X170.423 Y27.791 Z7.897 A268.6853 B-0.3443 
N1468 X170.423 Y27.792 Z6.887 A268.6574 B-0.3523 
N1469 X170.423 Y27.828 Z5.969 A268.4849 B-0.3612 
N1470 X170.423 Y28.011 Z5.139 A267.6947 B-0.3768 
N1471 X170.423 Y28.443 Z4.383 A265.8279 B-0.4068 
N1472 X170.423 Y29.173 Z3.663 A262.6331 B-0.4579 
N1473 X170.422 Y30.207 Z2.913 A258.0262 B-0.5340 
N1474 X170.422 Y31.446 Z2.071 A252.3227 B-0.6324 
N1475 X170.422 Y32.741 Z1.105 A246.0443 B-0.7447 
N1476 X170.421 Y34.038 Z-0.018 A239.2969 B-0.8625 
N1477 X170.421 Y35.310 Z-1.343 A232.0199 B-0.9586 
N1478 X170.421 Y36.428 Z-2.830 A224.6329 B-0.9899 
N1479 X170.421 Y37.331 Z-4.444 A217.2975 B-0.9540 
N1480 X170.421 Y37.989 Z-6.160 A210.0349 B-0.8764 
N1481 X170.421 Y38.377 Z-7.949 A202.8520 B-0.7827 
N1482 X170.422 Y38.447 Z-9.700 A196.0774 B-0.6901 
N1483 X170.422 Y38.191 Z-11.286 A190.0692 B-0.6086 
N1484 X170.422 Y37.639 Z-12.584 A185.1806 B-0.5445 
N1485 X170.422 Y36.838 Z-13.526 A181.6043 B-0.5008 
N1486 X170.422 Y35.830 Z-14.078 A179.4575 B-0.4773 
N1487 X170.423 Y34.639 Z-14.260 A178.7167 B-0.4708 
N1488 X170.423 Y33.257 Z-14.277 A178.6162 B-0.4721 
N1489 X170.422 Y31.674 Z-14.267 A178.6093 B-0.4752 
N1490 X170.422 Y29.885 Z-14.255 A178.6093 B-0.4787 
N1491 X170.422 Y27.893 Z-14.242 A178.6093 B-0.4827 
N1492 X170.422 Y25.712 Z-14.227 A178.6093 B-0.4870 
N1493 X170.422 Y23.362 Z-14.211 A178.6094 B-0.4917 
N1494 X170.422 Y20.872 Z-14.194 A178.6094 B-0.4967 
N1495 X170.422 Y18.281 Z-14.176 A178.6094 B-0.5018 
N1496 X170.422 Y15.630 Z-14.158 A178.6094 B-0.5071 
N1497 X170.422 Y12.964 Z-14.140 A178.6094 B-0.5124 
N1498 X170.422 Y10.330 Z-14.122 A178.6095 B-0.5177 
N1499 X170.422 Y7.772 Z-14.104 A178.6095 B-0.5228 
N1500 X170.422 Y5.330 Z-14.088 A178.6087 B-0.5276 
N1501 X170.422 Y3.038 Z-14.079 A178.5785 B-0.5322 
N1502 X170.422 Y0.921 Z-14.097 A178.4338 B-0.5366 
N1503 X170.422 Y-1.002 Z-14.142 A178.1555 B-0.5418 
N1504 X170.422 Y-2.724 Z-14.169 A177.9245 B-0.5495 
N1505 X170.422 Y-4.241 Z-14.155 A177.8655 B-0.5588 
N1506 X170.422 Y-5.564 Z-14.187 A177.6185 B-0.5656 
N1507 X170.422 Y-6.719 Z-14.469 A176.3199 B-0.5633 
N1508 X170.422 Y-7.758 Z-15.151 A173.2613 B-0.5460 
N1509 X170.422 Y-8.774 Z-16.233 A168.3301 B-0.5109 
N1510 X170.423 Y-9.852 Z-17.545 A162.1161 B-0.4588 
N1511 X170.423 Y-11.040 Z-18.909 A155.2415 B-0.3915 
N1512 X170.423 Y-12.347 Z-20.205 A148.1263 B-0.3101 
N1513 X170.423 Y-13.789 Z-21.390 A140.8380 B-0.2127 
N1514 X170.424 Y-15.365 Z-22.421 A133.4407 B-0.0992 
N1515 X170.424 Y-16.974 Z-23.189 A126.4504 B0.0080 
N1516 X170.424 Y-18.564 Z-23.688 A119.9638 B0.0929 
N1517 X170.425 Y-20.117 Z-23.940 A113.9050 B0.1562 
N1518 X170.425 Y-21.603 Z-23.955 A108.2818 B0.2017 
N1519 X170.425 Y-22.989 Z-23.745 A103.1286 B0.2331 
N1520 X170.425 Y-24.204 Z-23.322 A98.6471 B0.2524 
N1521 X170.425 Y-25.147 Z-22.709 A95.1886 B0.2607 
N1522 X170.425 Y-25.759 Z-21.943 A92.9786 B0.2594 
N1523 X170.425 Y-26.088 Z-21.061 A91.8535 B0.2511 
N1524 X170.425 Y-26.231 Z-20.082 A91.4550 B0.2379 
N1525 X170.425 Y-26.292 Z-19.018 A91.3884 B0.2219 
N1526 X170.425 Y-26.340 Z-17.879 A91.3869 B0.2044 
N1527 X170.425 Y-26.390 Z-16.679 A91.3868 B0.1859 
N1528 X170.425 Y-26.442 Z-15.434 A91.3868 B0.1660 
N1529 X170.425 Y-26.495 Z-14.162 A91.3868 B0.1426 
N1530 X170.424 Y-26.548 Z-12.883 A91.3868 B0.1127 
N1531 X170.424 Y-26.601 Z-11.618 A91.3865 B0.0762 
N1532 X170.424 Y-26.654 Z-10.388 A91.3787 B0.0405 
N1533 X170.424 Y-26.713 Z-9.211 A91.3369 B0.0153 
N1534 X170.424 Y-26.781 Z-8.102 A91.2411 B0.0034 
N1535 X170.424 Y-26.862 Z-7.073 A91.0681 B0.0000 
N1536 X170.424 Y-26.980 Z-6.133 A90.7194 
N1537 X170.424 Y-27.190 Z-5.284 A89.9494 
N1538 X170.424 Y-27.586 Z-4.520 A88.3550 
N1539 X170.424 Y-28.227 Z-3.816 A85.6562 
N1540 X170.424 Y-29.117 Z-3.126 A81.8045 
N1541 X170.424 Y-30.216 Z-2.396 A76.9094 
N1542 X170.424 Y-31.434 Z-1.578 A71.2711 
N1543 X170.424 Y-32.700 Z-0.637 A65.1074 
N1544 X170.424 Y-33.945 Z0.447 A58.5941 
N1545 X170.424 Y-35.097 Z1.666 A51.9482 
N1546 X170.424 Y-36.158 Z3.059 A44.9906 
N1547 X170.424 Y-37.089 Z4.646 A37.6725 
N1548 X170.424 Y-37.803 Z6.382 A30.2238 
N1549 X170.424 Y-38.231 Z8.180 A22.9357 
N1550 X170.424 Y-38.333 Z9.925 A16.1420 
N1551 X170.424 Y-38.111 Z11.495 A10.1690 
N1552 X170.424 Y-37.597 Z12.759 A5.4022 
N1553 X170.424 Y-36.845 Z13.660 A1.9949 
N1554 X170.424 Y-35.896 Z14.200 A359.9236 
N1555 X170.424 Y-34.769 Z14.408 A359.1102 
N1556 X170.424 Y-33.460 Z14.444 A358.9640 
N1557 X170.424 Y-31.959 Z14.447 A358.9503 
N1558 X170.424 Y-30.261 Z14.445 A358.9502 
N1559 X170.424 Y-28.369 Z14.444 
N1560 X170.424 Y-26.293 Z14.442 
N1561 X170.424 Y-24.052 Z14.440 
N1562 X170.424 Y-21.674 Z14.438 
N1563 X170.424 Y-19.191 Z14.436 
N1564 X170.424 Y-16.643 Z14.433 
N1565 X170.424 Y-14.072 Z14.431 
N1566 X170.424 Y-11.520 Z14.429 
N1567 X170.424 Y-9.029 Z14.431 A358.9322 
N1568 X170.424 Y-6.637 Z14.500 A358.6205 
N1569 X170.424 Y-4.372 Z14.664 A357.8368 
N1570 X170.424 Y-2.263 Z14.806 A357.0216 
N1571 X170.424 Y-0.328 Z14.913 A356.2682 
N1572 X170.424 Y1.422 Z15.004 A355.5130 B0.0008 
N1573 X170.424 Y2.984 Z15.068 A354.8311 B0.0103 
N1574 X170.424 Y4.369 Z15.175 A353.9475 B0.0420 
N1575 X170.424 Y5.608 Z15.468 A352.2559 B0.0957 
N1576 X170.425 Y6.754 Z16.060 A349.2194 B0.1464 
N1577 X170.425 Y7.878 Z16.940 A344.7837 B0.1764 
N1578 X170.425 Y9.037 Z17.998 A339.3032 B0.1886 
N1579 X170.425 Y10.254 Z19.085 A333.3223 B0.1868 
N1580 X170.425 Y11.520 Z20.091 A327.2662 B0.1716 
N1581 X170.425 Y12.816 Z20.964 A321.3493 B0.1424 
N1582 X170.424 Y14.143 Z21.698 A315.5800 B0.0970 
N1583 X170.424 Y15.495 Z22.286 A309.9590 B0.0362 
N1584 X170.424 Y16.887 Z22.732 A304.3883 B-0.0329 
N1585 X170.424 Y18.353 Z23.046 A298.6796 B-0.1061 
N1586 X170.423 Y19.872 Z23.193 A292.8981 B-0.1805 
N1587 X170.423 Y21.386 Z23.139 A287.2310 B-0.2534 
N1588 X170.423 Y22.793 Z22.863 A282.0221 B-0.3209 
N1589 X170.423 Y23.967 Z22.372 A277.7093 B-0.3795 
N1590 X170.423 Y24.811 Z21.706 A274.6353 B-0.4266 
N1591 X170.423 Y25.326 Z20.912 A272.8102 B-0.4627 
N1592 X170.422 Y25.579 Z20.023 A271.9958 B-0.4893 
N1593 X170.422 Y25.680 Z19.059 A271.7796 B-0.5094 
N1594 X170.422 Y25.742 Z18.030 A271.7280 B-0.5275 
N1595 X170.422 Y25.821 Z16.948 A271.6127 B-0.5466 
N1596 X170.422 Y25.926 Z15.828 A271.3857 B-0.5665 
N1597 X170.422 Y26.037 Z14.685 A271.1173 B-0.5859 
N1598 X170.422 Y26.144 Z13.534 A270.8449 B-0.6039 
N1599 X170.422 Y26.259 Z12.394 A270.5155 B-0.6207 
N1600 X170.422 Y26.401 Z11.282 A270.0381 B-0.6377 
N1601 X170.422 Y26.565 Z10.215 A269.4286 B-0.6567 
N1602 X170.422 Y26.705 Z9.204 A268.8724 B-0.6765 
N1603 X170.422 Y26.768 Z8.264 A268.5938 B-0.6934 
N1604 X170.422 Y26.778 Z7.403 A268.5261 B-0.7070 
N1605 X170.422 Y26.819 Z6.622 A268.3326 B-0.7218 
N1606 X170.422 Y27.011 Z5.916 A267.5029 B-0.7480 
N1607 X170.421 Y27.460 Z5.268 A265.5734 B-0.7964 
N1608 X170.421 Y28.231 Z4.637 A262.2287 B-0.8753 
N1609 X170.421 Y29.347 Z3.947 A257.3105 B-0.9877 
N1610 X170.420 Y30.682 Z3.130 A251.2239 B-1.1221 
N1611 X170.420 Y32.029 Z2.174 A244.7206 B-1.2583 
N1612 X170.420 Y33.333 Z1.062 A237.9314 B-1.3863 
N1613 X170.419 Y34.576 Z-0.238 A230.7703 B-1.4835 
N1614 X170.419 Y35.657 Z-1.688 A223.5641 B-1.5148 
N1615 X170.419 Y36.539 Z-3.274 A216.3409 B-1.4801 
N1616 X170.419 Y37.196 Z-4.982 A209.0786 B-1.4009 
N1617 X170.420 Y37.584 Z-6.773 A201.8541 B-1.2991 
N1618 X170.420 Y37.652 Z-8.512 A195.0904 B-1.1919 
N1619 X170.420 Y37.395 Z-10.054 A189.2182 B-1.0924 
N1620 X170.421 Y36.855 Z-11.287 A184.5458 B-1.0111 
N1621 X170.421 Y36.082 Z-12.156 A181.2241 B-0.9538 
N1622 X170.421 Y35.117 Z-12.643 A179.3215 B-0.9226 
N1623 X170.421 Y33.978 Z-12.800 A178.6776 B-0.9136 
N1624 X170.421 Y32.658 Z-12.816 A178.5737 B-0.9145 
N1625 X170.421 Y31.145 Z-12.807 A178.5658 B-0.9177 
N1626 X170.421 Y29.435 Z-12.794 A178.5658 B-0.9215 
N1627 X170.421 Y27.534 Z-12.779 A178.5659 B-0.9257 
N1628 X170.421 Y25.454 Z-12.763 A178.5659 B-0.9303 
N1629 X170.421 Y23.215 Z-12.746 A178.5659 B-0.9352 
N1630 X170.421 Y20.846 Z-12.728 A178.5660 B-0.9405 
N1631 X170.421 Y18.383 Z-12.709 A178.5660 B-0.9459 
N1632 X170.421 Y15.866 Z-12.690 A178.5661 B-0.9515 
N1633 X170.421 Y13.338 Z-12.671 A178.5661 B-0.9571 
N1634 X170.421 Y10.842 Z-12.652 A178.5661 B-0.9626 
N1635 X170.421 Y8.422 Z-12.633 A178.5662 B-0.9679 
N1636 X170.421 Y6.113 Z-12.616 A178.5657 B-0.9730 
N1637 X170.421 Y3.948 Z-12.609 A178.5238 B-0.9775 
N1638 X170.421 Y1.949 Z-12.654 A178.2595 B-0.9802 
N1639 X170.421 Y0.129 Z-12.768 A177.6625 B-0.9817 
N1640 X170.421 Y-1.502 Z-12.867 A177.0695 B-0.9868 
N1641 X170.421 Y-2.939 Z-12.871 A176.8432 B-0.9987 
N1642 X170.421 Y-4.195 Z-12.897 A176.5346 B-1.0091 
N1643 X170.421 Y-5.304 Z-13.204 A175.0520 B-0.9988 
N1644 X170.421 Y-6.333 Z-13.969 A171.5573 B-0.9489 
N1645 X170.421 Y-7.388 Z-15.164 A166.0282 B-0.8540 
N1646 X170.422 Y-8.559 Z-16.578 A159.1751 B-0.7237 
N1647 X170.422 Y-9.876 Z-17.994 A151.7628 B-0.5716 
N1648 X170.423 Y-11.320 Z-19.271 A144.2917 B-0.4079 
N1649 X170.423 Y-12.882 Z-20.368 A136.8533 B-0.2341 
N1650 X170.424 Y-14.505 Z-21.223 A129.7000 B-0.0620 
N1651 X170.424 Y-16.118 Z-21.799 A123.0676 B0.0844 
N1652 X170.425 Y-17.691 Z-22.117 A116.9176 B0.1999 
N1653 X170.425 Y-19.184 Z-22.186 A111.3018 B0.2875 
N1654 X170.425 Y-20.566 Z-22.026 A106.2329 B0.3515 
N1655 X170.425 Y-21.776 Z-21.653 A101.8737 B0.3938 
N1656 X170.425 Y-22.724 Z-21.086 A98.5339 B0.4147 
N1657 X170.425 Y-23.362 Z-20.363 A96.3980 B0.4161 
N1658 X170.425 Y-23.726 Z-19.520 A95.3348 B0.4026 
N1659 X170.425 Y-23.908 Z-18.582 A95.0039 B0.3792 
N1660 X170.425 Y-24.024 Z-17.569 A94.9645 B0.3509 
N1661 X170.425 Y-24.136 Z-16.496 A94.9643 B0.3206 
N1662 X170.425 Y-24.253 Z-15.377 A94.9642 B0.2890 
N1663 X170.425 Y-24.373 Z-14.227 A94.9641 B0.2564 
N1664 X170.425 Y-24.494 Z-13.064 A94.9640 B0.2236 
N1665 X170.425 Y-24.615 Z-11.906 A94.9640 B0.1906 
N1666 X170.425 Y-24.735 Z-10.772 A94.9608 B0.1553 
N1667 X170.424 Y-24.861 Z-9.679 A94.9082 B0.1133 
N1668 X170.424 Y-25.016 Z-8.645 A94.7079 B0.0684 
N1669 X170.424 Y-25.202 Z-7.682 A94.3349 B0.0316 
N1670 X170.424 Y-25.415 Z-6.797 A93.7926 B0.0100 
N1671 X170.424 Y-25.674 Z-5.996 A92.9924 B0.0018 
N1672 X170.424 Y-26.034 Z-5.280 A91.7087 B0.0000 
N1673 X170.424 Y-26.571 Z-4.638 A89.6073 
N1674 X170.424 Y-27.330 Z-4.042 A86.4886 
N1675 X170.424 Y-28.304 Z-3.447 A82.3546 
N1676 X170.424 Y-29.452 Z-2.799 A77.3339 
N1677 X170.424 Y-30.690 Z-2.060 A71.7137 
N1678 X170.424 Y-31.953 Z-1.203 A65.6913 
N1679 X170.424 Y-33.189 Z-0.212 A59.3991 
N1680 X170.424 Y-34.316 Z0.892 A53.1208 
N1681 X170.424 Y-35.348 Z2.136 A46.6744 
N1682 X170.424 Y-36.292 Z3.570 A39.8219 
N1683 X170.424 Y-37.081 Z5.186 A32.6495 
N1684 X170.424 Y-37.637 Z6.926 A25.3930 
N1685 X170.424 Y-37.894 Z8.673 A18.4393 
N1686 X170.424 Y-37.832 Z10.296 A12.1716 
N1687 X170.424 Y-37.472 Z11.656 A7.0010 
N1688 X170.424 Y-36.864 Z12.665 A3.1776 
N1689 X170.424 Y-36.059 Z13.318 A0.6871 
N1690 X170.424 Y-35.083 Z13.650 A359.4031 
N1691 X170.424 Y-33.939 Z13.750 A359.0113 
N1692 X170.424 Y-32.618 Z13.764 A358.9515 
N1693 X170.424 Y-31.114 Z13.763 A358.9469 
N1694 X170.424 Y-29.424 Z13.762 
N1695 X170.424 Y-27.557 Z13.760 
N1696 X170.424 Y-25.525 Z13.758 
N1697 X170.424 Y-23.350 Z13.756 
N1698 X170.424 Y-21.059 Z13.754 
N1699 X170.424 Y-18.687 Z13.752 
N1700 X170.424 Y-16.270 Z13.750 
N1701 X170.424 Y-13.849 Z13.747 
N1702 X170.424 Y-11.461 Z13.745 
N1703 X170.424 Y-9.143 Z13.750 A358.9177 
N1704 X170.424 Y-6.926 Z13.863 A358.4183 
N1705 X170.424 Y-4.829 Z14.148 A357.0840 
N1706 X170.424 Y-2.872 Z14.439 A355.5279 
N1707 X170.424 Y-1.074 Z14.666 A354.0732 
N1708 X170.424 Y0.560 Z14.852 A352.6745 B0.0070 
N1709 X170.424 Y2.029 Z15.011 A351.3063 B0.0441 
N1710 X170.424 Y3.353 Z15.219 A349.6782 B0.1185 
N1711 X170.425 Y4.575 Z15.602 A347.2500 B0.1828 
N1712 X170.425 Y5.757 Z16.235 A343.6327 B0.2197 
N1713 X170.425 Y6.960 Z17.085 A338.8625 B0.2384 
N1714 X170.425 Y8.218 Z18.032 A333.3315 B0.2397 
N1715 X170.425 Y9.518 Z18.934 A327.5882 B0.2233 
N1716 X170.425 Y10.816 Z19.694 A322.0704 B0.1912 
N1717 X170.425 Y12.083 Z20.283 A316.9483 B0.1450 
N1718 X170.424 Y13.325 Z20.728 A312.1212 B0.0834 
N1719 X170.424 Y14.574 Z21.060 A307.3975 B0.0070 
N1720 X170.424 Y15.891 Z21.312 A302.4613 B-0.0828 
N1721 X170.423 Y17.315 Z21.476 A297.1493 B-0.1853 
N1722 X170.423 Y18.805 Z21.500 A291.6366 B-0.2962 
N1723 X170.423 Y20.256 Z21.330 A286.3283 B-0.4070 
N1724 X170.422 Y21.521 Z20.947 A281.7623 B-0.5075 
N1725 X170.422 Y22.484 Z20.377 A278.3609 B-0.5900 
N1726 X170.422 Y23.124 Z19.668 A276.1948 B-0.6531 
N1727 X170.422 Y23.496 Z18.863 A275.0669 B-0.6989 
N1728 X170.422 Y23.700 Z17.989 A274.6003 B-0.7328 
N1729 X170.422 Y23.843 Z17.066 A274.3819 B-0.7611 
N1730 X170.421 Y23.992 Z16.108 A274.1350 B-0.7886 
N1731 X170.421 Y24.170 Z15.128 A273.7587 B-0.8174 
N1732 X170.421 Y24.361 Z14.137 A273.3019 B-0.8467 
N1733 X170.421 Y24.560 Z13.149 A272.7797 B-0.8756 
N1734 X170.421 Y24.786 Z12.179 A272.1041 B-0.9052 
N1735 X170.421 Y25.062 Z11.239 A271.1592 B-0.9388 
N1736 X170.421 Y25.368 Z10.339 A270.0180 B-0.9772 
N1737 X170.421 Y25.623 Z9.488 A269.0124 B-1.0153 
N1738 X170.421 Y25.742 Z8.699 A268.5140 B-1.0440 
N1739 X170.421 Y25.763 Z7.980 A268.4003 B-1.0636 
N1740 X170.420 Y25.807 Z7.329 A268.1892 B-1.0844 
N1741 X170.420 Y26.014 Z6.740 A267.3022 B-1.1219 
N1742 X170.420 Y26.489 Z6.194 A265.2728 B-1.1903 
N1743 X170.420 Y27.294 Z5.645 A261.8096 B-1.2982 
N1744 X170.419 Y28.463 Z5.015 A256.7010 B-1.4473 
N1745 X170.419 Y29.866 Z4.228 A250.3585 B-1.6172 
N1746 X170.418 Y31.247 Z3.293 A243.7303 B-1.7745 
N1747 X170.418 Y32.567 Z2.196 A236.8867 B-1.9105 
N1748 X170.417 Y33.812 Z0.908 A229.7252 B-2.0090 
N1749 X170.417 Y34.879 Z-0.519 A222.5966 B-2.0413 
N1750 X170.417 Y35.750 Z-2.081 A215.4560 B-2.0082 
N1751 X170.418 Y36.403 Z-3.771 A208.2413 B-1.9268 
N1752 X170.418 Y36.792 Z-5.544 A201.0524 B-1.8155 
N1753 X170.419 Y36.864 Z-7.255 A194.3629 B-1.6923 
N1754 X170.419 Y36.620 Z-8.751 A188.6351 B-1.5745 
N1755 X170.419 Y36.105 Z-9.935 A184.1186 B-1.4756 
N1756 X170.419 Y35.373 Z-10.756 A180.9634 B-1.4051 
N1757 X170.420 Y34.462 Z-11.201 A179.2162 B-1.3668 
N1758 X170.420 Y33.386 Z-11.342 A178.6304 B-1.3555 
N1759 X170.420 Y32.137 Z-11.358 A178.5283 B-1.3561 
N1760 X170.420 Y30.706 Z-11.347 A178.5205 B-1.3594 
N1761 X170.420 Y29.088 Z-11.334 A178.5206 B-1.3634 
N1762 X170.420 Y27.289 Z-11.318 A178.5206 B-1.3678 
N1763 X170.420 Y25.321 Z-11.302 A178.5207 B-1.3726 
N1764 X170.420 Y23.203 Z-11.284 A178.5207 B-1.3778 
N1765 X170.420 Y20.962 Z-11.265 A178.5208 B-1.3833 
N1766 X170.420 Y18.633 Z-11.245 A178.5209 B-1.3890 
N1767 X170.419 Y16.254 Z-11.225 A178.5209 B-1.3948 
N1768 X170.419 Y13.864 Z-11.204 A178.5210 B-1.4007 
N1769 X170.419 Y11.506 Z-11.184 A178.5211 B-1.4065 
N1770 X170.419 Y9.219 Z-11.165 A178.5212 B-1.4121 
N1771 X170.419 Y7.037 Z-11.146 A178.5212 B-1.4174 
N1772 X170.419 Y4.990 Z-11.137 A178.4881 B-1.4219 
N1773 X170.419 Y3.097 Z-11.190 A178.1868 B-1.4223 
N1774 X170.419 Y1.370 Z-11.358 A177.3574 B-1.4165 
N1775 X170.419 Y-0.185 Z-11.548 A176.3511 B-1.4123 
N1776 X170.419 Y-1.561 Z-11.631 A175.7185 B-1.4192 
N1777 X170.419 Y-2.770 Z-11.698 A175.1449 B-1.4281 
N1778 X170.419 Y-3.853 Z-12.027 A173.4632 B-1.4078 
N1779 X170.420 Y-4.895 Z-12.852 A169.6036 B-1.3197 
N1780 X170.420 Y-6.022 Z-14.154 A163.4579 B-1.1510 
N1781 X170.421 Y-7.332 Z-15.677 A155.8568 B-0.9235 
N1782 X170.422 Y-8.820 Z-17.127 A147.8498 B-0.6723 
N1783 X170.423 Y-10.413 Z-18.331 A140.1249 B-0.4233 
N1784 X170.423 Y-12.070 Z-19.269 A132.7580 B-0.1818 
N1785 X170.424 Y-13.712 Z-19.908 A125.9862 B0.0303 
N1786 X170.425 Y-15.298 Z-20.267 A119.8197 B0.2001 
N1787 X170.425 Y-16.786 Z-20.367 A114.2882 B0.3297 
N1788 X170.425 Y-18.144 Z-20.232 A109.4129 B0.4242 
N1789 X170.426 Y-19.319 Z-19.884 A105.3209 B0.4865 
N1790 X170.426 Y-20.240 Z-19.346 A102.2561 B0.5171 
N1791 X170.426 Y-20.873 Z-18.651 A100.3394 B0.5194 
N1792 X170.426 Y-21.247 Z-17.835 A99.4690 B0.4995 
N1793 X170.426 Y-21.463 Z-16.929 A99.2639 B0.4661 
N1794 X170.425 Y-21.641 Z-15.963 A99.2516 B0.4276 
N1795 X170.425 Y-21.823 Z-14.955 A99.2515 B0.3872 
N1796 X170.425 Y-22.011 Z-13.918 A99.2513 B0.3456 
N1797 X170.425 Y-22.201 Z-12.867 A99.2512 B0.3035 
N1798 X170.425 Y-22.391 Z-11.818 A99.2511 B0.2615 
N1799 X170.425 Y-22.577 Z-10.787 A99.2509 B0.2202 
N1800 X170.425 Y-22.763 Z-9.791 A99.2283 B0.1802 
N1801 X170.425 Y-22.975 Z-8.848 A99.0557 B0.1404 
N1802 X170.424 Y-23.241 Z-7.974 A98.5972 B0.0974 
N1803 X170.424 Y-23.555 Z-7.174 A97.8630 B0.0545 
N1804 X170.424 Y-23.912 Z-6.452 A96.8532 B0.0236 
N1805 X170.424 Y-24.335 Z-5.809 A95.4765 B0.0081 
N1806 X170.424 Y-24.867 Z-5.241 A93.5504 B0.0022 
N1807 X170.424 Y-25.565 Z-4.731 A90.8390 B0.0000 
N1808 X170.424 Y-26.453 Z-4.249 A87.2365 
N1809 X170.424 Y-27.512 Z-3.748 A82.8043 
N1810 X170.424 Y-28.700 Z-3.184 A77.6878 
N1811 X170.424 Y-29.944 Z-2.527 A72.1336 
N1812 X170.424 Y-31.195 Z-1.755 A66.2880 
N1813 X170.424 Y-32.419 Z-0.855 A60.2205 
N1814 X170.424 Y-33.525 Z0.141 A54.2658 
N1815 X170.424 Y-34.527 Z1.247 A48.2955 
N1816 X170.424 Y-35.467 Z2.528 A41.9323 
N1817 X170.424 Y-36.307 Z4.007 A35.1203 
N1818 X170.424 Y-36.973 Z5.663 A27.9852 
N1819 X170.424 Y-37.380 Z7.394 A20.9202 
N1820 X170.424 Y-37.480 Z9.062 A14.3601 
N1821 X170.424 Y-37.276 Z10.515 A8.7715 
N1822 X170.424 Y-36.812 Z11.638 A4.4874 
N1823 X170.424 Y-36.145 Z12.401 A1.5789 
N1824 X170.424 Y-35.310 Z12.839 A359.8951 
N1825 X170.424 Y-34.318 Z13.028 A359.1630 
N1826 X170.424 Y-33.165 Z13.075 A358.9728 
N1827 X170.424 Y-31.842 Z13.081 A358.9442 
N1828 X170.424 Y-30.345 Z13.080 A358.9430 
N1829 X170.424 Y-28.677 Z13.078 
N1830 X170.424 Y-26.848 Z13.076 
N1831 X170.424 Y-24.873 Z13.074 
N1832 X170.424 Y-22.777 Z13.072 
N1833 X170.424 Y-20.588 Z13.070 
N1834 X170.424 Y-18.338 Z13.068 
N1835 X170.424 Y-16.062 Z13.066 
N1836 X170.424 Y-13.798 Z13.063 
N1837 X170.424 Y-11.579 Z13.061 
N1838 X170.424 Y-9.436 Z13.065 A358.9174 
N1839 X170.424 Y-7.394 Z13.190 A358.3705 
N1840 X170.424 Y-5.462 Z13.571 A356.6340 
N1841 X170.424 Y-3.643 Z14.053 A354.2208 
N1842 X170.424 Y-1.954 Z14.469 A351.8290 
N1843 X170.424 Y-0.402 Z14.808 A349.5563 B0.0139 
N1844 X170.424 Y1.019 Z15.109 A347.2973 B0.0656 
N1845 X170.425 Y2.329 Z15.436 A344.8120 B0.1437 
N1846 X170.425 Y3.579 Z15.888 A341.6759 B0.2095 
N1847 X170.425 Y4.826 Z16.505 A337.6378 B0.2471 
N1848 X170.425 Y6.110 Z17.238 A332.8139 B0.2611 
N1849 X170.425 Y7.434 Z17.980 A327.5825 B0.2527 
N1850 X170.425 Y8.758 Z18.621 A322.4111 B0.2242 
N1851 X170.425 Y10.028 Z19.093 A317.6753 B0.1804 
N1852 X170.424 Y11.215 Z19.390 A313.4826 B0.1250 
N1853 X170.424 Y12.348 Z19.562 A309.6176 B0.0561 
N1854 X170.424 Y13.500 Z19.670 A305.6877 B-0.0303 
N1855 X170.424 Y14.763 Z19.756 A301.2600 B-0.1396 
N1856 X170.423 Y16.153 Z19.789 A296.2927 B-0.2723 
N1857 X170.423 Y17.584 Z19.692 A291.1735 B-0.4179 
N1858 X170.422 Y18.901 Z19.410 A286.5264 B-0.5588 
N1859 X170.422 Y19.962 Z18.938 A282.8891 B-0.6792 
N1860 X170.422 Y20.721 Z18.320 A280.4280 B-0.7730 
N1861 X170.421 Y21.214 Z17.601 A278.9982 B-0.8417 
N1862 X170.421 Y21.531 Z16.821 A278.2558 B-0.8922 
N1863 X170.421 Y21.770 Z16.005 A277.8155 B-0.9332 
N1864 X170.421 Y22.003 Z15.172 A277.3850 B-0.9720 
N1865 X170.421 Y22.261 Z14.335 A276.8294 B-1.0127 
N1866 X170.421 Y22.544 Z13.505 A276.1275 B-1.0560 
N1867 X170.420 Y22.862 Z12.691 A275.2334 B-1.1029 
N1868 X170.420 Y23.235 Z11.904 A274.0390 B-1.1559 
N1869 X170.420 Y23.674 Z11.148 A272.4922 B-1.2177 
N1870 X170.420 Y24.127 Z10.426 A270.7881 B-1.2847 
N1871 X170.420 Y24.498 Z9.741 A269.3322 B-1.3466 
N1872 X170.419 Y24.703 Z9.108 A268.4951 B-1.3922 
N1873 X170.419 Y24.779 Z8.533 A268.1566 B-1.4232 
N1874 X170.419 Y24.856 Z8.016 A267.8077 B-1.4547 
N1875 X170.419 Y25.098 Z7.545 A266.7699 B-1.5087 
N1876 X170.419 Y25.621 Z7.098 A264.5478 B-1.6025 
N1877 X170.418 Y26.468 Z6.627 A260.9235 B-1.7424 
N1878 X170.418 Y27.683 Z6.050 A255.6446 B-1.9286 
N1879 X170.417 Y29.127 Z5.291 A249.1428 B-2.1304 
N1880 X170.417 Y30.502 Z4.388 A242.5610 B-2.3017 
N1881 X170.416 Y31.813 Z3.318 A235.7810 B-2.4404 
N1882 X170.416 Y33.046 Z2.056 A228.6939 B-2.5369 
N1883 X170.416 Y34.097 Z0.663 A221.6898 B-2.5690 
N1884 X170.416 Y34.956 Z-0.862 A214.6739 B-2.5372 
N1885 X170.416 Y35.607 Z-2.520 A207.5548 B-2.4534 
N1886 X170.416 Y36.004 Z-4.265 A200.4380 B-2.3324 
N1887 X170.417 Y36.092 Z-5.943 A193.8391 B-2.1931 
N1888 X170.417 Y35.873 Z-7.390 A188.2611 B-2.0572 
N1889 X170.418 Y35.400 Z-8.529 A183.8944 B-1.9415 
N1890 X170.418 Y34.722 Z-9.311 A180.8746 B-1.8582 
N1891 X170.418 Y33.877 Z-9.734 A179.2105 B-1.8124 
N1892 X170.418 Y32.876 Z-9.879 A178.6089 B-1.7973 
N1893 X170.418 Y31.713 Z-9.900 A178.4831 B-1.7968 
N1894 X170.418 Y30.378 Z-9.890 A178.4722 B-1.8001 
N1895 X170.418 Y28.867 Z-9.876 A178.4723 B-1.8042 
N1896 X170.418 Y27.185 Z-9.860 A178.4724 B-1.8087 
N1897 X170.418 Y25.341 Z-9.843 A178.4724 B-1.8137 
N1898 X170.418 Y23.356 Z-9.824 A178.4725 B-1.8191 
N1899 X170.418 Y21.254 Z-9.804 A178.4726 B-1.8248 
N1900 X170.418 Y19.066 Z-9.783 A178.4727 B-1.8308 
N1901 X170.418 Y16.828 Z-9.762 A178.4728 B-1.8368 
N1902 X170.418 Y14.579 Z-9.741 A178.4729 B-1.8429 
N1903 X170.418 Y12.356 Z-9.720 A178.4730 B-1.8490 
N1904 X170.418 Y10.197 Z-9.700 A178.4731 B-1.8548 
N1905 X170.418 Y8.133 Z-9.680 A178.4732 B-1.8604 
N1906 X170.418 Y6.193 Z-9.664 A178.4632 B-1.8654 
N1907 X170.418 Y4.395 Z-9.700 A178.2387 B-1.8654 
N1908 X170.418 Y2.746 Z-9.884 A177.3558 B-1.8522 
N1909 X170.418 Y1.248 Z-10.178 A175.9134 B-1.8306 
N1910 X170.418 Y-0.093 Z-10.405 A174.6341 B-1.8186 
N1911 X170.418 Y-1.282 Z-10.568 A173.5644 B-1.8151 
N1912 X170.418 Y-2.367 Z-10.939 A171.5813 B-1.7808 
N1913 X170.419 Y-3.453 Z-11.821 A167.3315 B-1.6492 
N1914 X170.419 Y-4.698 Z-13.228 A160.4997 B-1.3891 
N1915 X170.421 Y-6.206 Z-14.851 A152.0481 B-1.0407 
N1916 X170.422 Y-7.905 Z-16.287 A143.4688 B-0.6784 
N1917 X170.423 Y-9.638 Z-17.338 A135.6905 B-0.3509 
N1918 X170.424 Y-11.329 Z-18.031 A128.7476 B-0.0674 
N1919 X170.425 Y-12.931 Z-18.408 A122.6085 B0.1584 
N1920 X170.425 Y-14.396 Z-18.504 A117.2975 B0.3264 
N1921 X170.426 Y-15.693 Z-18.357 A112.8210 B0.4442 
N1922 X170.426 Y-16.794 Z-18.004 A109.2069 B0.5185 
N1923 X170.426 Y-17.655 Z-17.469 A106.5928 B0.5528 
N1924 X170.426 Y-18.256 Z-16.783 A105.0574 B0.5519 
N1925 X170.426 Y-18.626 Z-15.978 A104.4959 B0.5237 
N1926 X170.426 Y-18.888 Z-15.100 A104.4178 B0.4824 
N1927 X170.425 Y-19.141 Z-14.184 A104.4168 B0.4378 
N1928 X170.425 Y-19.400 Z-13.244 A104.4166 B0.3920 
N1929 X170.425 Y-19.662 Z-12.295 A104.4165 B0.3458 
N1930 X170.425 Y-19.923 Z-11.350 A104.4163 B0.2998 
N1931 X170.425 Y-20.178 Z-10.423 A104.4162 B0.2547 
N1932 X170.425 Y-20.427 Z-9.527 A104.4097 B0.2111 
N1933 X170.425 Y-20.688 Z-8.681 A104.2999 B0.1700 
N1934 X170.424 Y-21.006 Z-7.907 A103.8716 B0.1310 
N1935 X170.424 Y-21.398 Z-7.214 A103.0356 B0.0927 
N1936 X170.424 Y-21.853 Z-6.600 A101.8164 B0.0575 
N1937 X170.424 Y-22.378 Z-6.065 A100.1860 B0.0299 
N1938 X170.424 Y-22.985 Z-5.599 A98.0923 B0.0123 
N1939 X170.424 Y-23.702 Z-5.193 A95.4343 B0.0037 
N1940 X170.424 Y-24.562 Z-4.823 A92.0763 B0.0007 
N1941 X170.424 Y-25.575 Z-4.455 A87.9929 B0.0000 
N1942 X170.424 Y-26.710 Z-4.048 A83.2914 
N1943 X170.424 Y-27.926 Z-3.569 A78.1228 
N1944 X170.424 Y-29.166 Z-2.995 A72.6763 
N1945 X170.424 Y-30.399 Z-2.312 A67.0349 
N1946 X170.424 Y-31.607 Z-1.504 A61.1971 
N1947 X170.424 Y-32.697 Z-0.611 A55.5363 
N1948 X170.424 Y-33.666 Z0.361 A50.0247 
N1949 X170.424 Y-34.589 Z1.485 A44.1813 
N1950 X170.424 Y-35.457 Z2.808 A37.8245 
N1951 X170.424 Y-36.216 Z4.345 A30.9431 
N1952 X170.424 Y-36.773 Z6.030 A23.8382 
N1953 X170.424 Y-37.047 Z7.729 A16.9960 
N1954 X170.424 Y-37.017 Z9.282 A10.9268 
N1955 X170.424 Y-36.710 Z10.534 A6.1082 
N1956 X170.424 Y-36.186 Z11.424 A2.6989 
N1957 X170.424 Y-35.494 Z11.972 A0.5995 
N1958 X170.424 Y-34.653 Z12.253 A359.5164 
N1959 X170.424 Y-33.663 Z12.365 A359.0787 
N1960 X170.424 Y-32.518 Z12.395 A358.9571 
N1961 X170.424 Y-31.211 Z12.398 A358.9384 
N1962 X170.424 Y-29.740 Z12.397 A358.9381 
N1963 X170.424 Y-28.112 Z12.395 
N1964 X170.424 Y-26.340 Z12.393 
N1965 X170.424 Y-24.440 Z12.391 
N1966 X170.424 Y-22.437 Z12.389 
N1967 X170.424 Y-20.360 Z12.387 
N1968 X170.424 Y-18.240 Z12.384 
N1969 X170.424 Y-16.110 Z12.382 
N1970 X170.424 Y-14.004 Z12.380 
N1971 X170.424 Y-11.950 Z12.378 
N1972 X170.424 Y-9.976 Z12.378 A358.9294 
N1973 X170.424 Y-8.100 Z12.465 A358.5494 
N1974 X170.424 Y-6.328 Z12.849 A356.8431 
N1975 X170.424 Y-4.638 Z13.510 A353.7325 
N1976 X170.424 Y-3.027 Z14.194 A350.1739 
N1977 X170.424 Y-1.504 Z14.795 A346.6354 B0.0082 
N1978 X170.424 Y-0.071 Z15.312 A343.1847 B0.0635 
N1979 X170.425 Y1.292 Z15.801 A339.6183 B0.1456 
N1980 X170.425 Y2.620 Z16.308 A335.7410 B0.2034 
N1981 X170.425 Y3.955 Z16.862 A331.3855 B0.2351 
N1982 X170.425 Y5.304 Z17.408 A326.7275 B0.2428 
N1983 X170.425 Y6.642 Z17.871 A322.0936 B0.2275 
N1984 X170.425 Y7.926 Z18.194 A317.7830 B0.1935 
N1985 X170.425 Y9.111 Z18.351 A314.0270 B0.1468 
N1986 X170.424 Y10.183 Z18.352 A310.8589 B0.0921 
N1987 X170.424 Y11.190 Z18.260 A307.9824 B0.0261 
N1988 X170.424 Y12.237 Z18.153 A304.8729 B-0.0614 
N1989 X170.423 Y13.414 Z18.070 A301.0983 B-0.1821 
N1990 X170.423 Y14.708 Z17.964 A296.7587 B-0.3343 
N1991 X170.422 Y15.997 Z17.753 A292.4026 B-0.4998 
N1992 X170.422 Y17.125 Z17.387 A288.6825 B-0.6539 
N1993 X170.421 Y17.997 Z16.874 A285.9677 B-0.7801 
N1994 X170.421 Y18.615 Z16.258 A284.2477 B-0.8747 
N1995 X170.421 Y19.050 Z15.582 A283.2361 B-0.9444 
N1996 X170.421 Y19.395 Z14.884 A282.5563 B-1.0004 
N1997 X170.421 Y19.727 Z14.188 A281.8898 B-1.0539 
N1998 X170.420 Y20.088 Z13.511 A281.0553 B-1.1119 
N1999 X170.420 Y20.496 Z12.860 A279.9573 B-1.1786 
N2000 X170.420 Y20.971 Z12.242 A278.5090 B-1.2569 
N2001 X170.420 Y21.525 Z11.658 A276.6371 B-1.3488 
N2002 X170.419 Y22.144 Z11.102 A274.3997 B-1.4530 
N2003 X170.419 Y22.755 Z10.566 A272.0858 B-1.5601 
N2004 X170.419 Y23.263 Z10.052 A270.0971 B-1.6565 
N2005 X170.418 Y23.598 Z9.572 A268.7503 B-1.7306 
N2006 X170.418 Y23.800 Z9.136 A267.9080 B-1.7869 
N2007 X170.418 Y23.990 Z8.743 A267.0986 B-1.8428 
N2008 X170.418 Y24.309 Z8.380 A265.7402 B-1.9212 
N2009 X170.417 Y24.864 Z8.022 A263.3821 B-2.0398 
N2010 X170.417 Y25.705 Z7.626 A259.7923 B-2.2051 
N2011 X170.416 Y26.917 Z7.102 A254.5386 B-2.4218 
N2012 X170.415 Y28.374 Z6.377 A248.0060 B-2.6508 
N2013 X170.415 Y29.710 Z5.523 A241.6332 B-2.8295 
N2014 X170.414 Y30.994 Z4.501 A235.0303 B-2.9684 
N2015 X170.414 Y32.223 Z3.273 A228.0282 B-3.0642 
N2016 X170.414 Y33.272 Z1.915 A221.1165 B-3.0977 
N2017 X170.414 Y34.133 Z0.428 A214.2091 B-3.0686 
N2018 X170.414 Y34.794 Z-1.190 A207.1941 B-2.9837 
N2019 X170.415 Y35.213 Z-2.903 A200.1514 B-2.8536 
N2020 X170.415 Y35.335 Z-4.552 A193.6081 B-2.6983 
N2021 X170.416 Y35.159 Z-5.960 A188.1469 B-2.5449 
N2022 X170.416 Y34.741 Z-7.058 A183.9175 B-2.4134 
N2023 X170.416 Y34.132 Z-7.812 A180.9955 B-2.3174 
N2024 X170.417 Y33.367 Z-8.233 A179.3399 B-2.2622 
N2025 X170.417 Y32.456 Z-8.405 A178.6365 B-2.2401 
N2026 X170.417 Y31.393 Z-8.443 A178.4419 B-2.2365 
N2027 X170.417 Y30.169 Z-8.436 A178.4199 B-2.2395 
N2028 X170.417 Y28.780 Z-8.421 B-2.2436 
N2029 X170.417 Y27.228 Z-8.405 A178.4200 B-2.2483 
N2030 X170.417 Y25.523 Z-8.387 A178.4201 B-2.2534 
N2031 X170.417 Y23.682 Z-8.368 A178.4202 B-2.2589 
N2032 X170.417 Y21.727 Z-8.347 A178.4203 B-2.2648 
N2033 X170.417 Y19.687 Z-8.326 A178.4204 B-2.2709 
N2034 X170.417 Y17.594 Z-8.304 A178.4205 B-2.2772 
N2035 X170.417 Y15.485 Z-8.282 A178.4207 B-2.2835 
N2036 X170.417 Y13.394 Z-8.260 A178.4208 B-2.2898 
N2037 X170.417 Y11.356 Z-8.239 A178.4209 B-2.2959 
N2038 X170.417 Y9.401 Z-8.218 A178.4210 B-2.3017 
N2039 X170.416 Y7.555 Z-8.199 A178.4210 B-2.3073 
N2040 X170.416 Y5.836 Z-8.198 A178.3463 B-2.3102 
N2041 X170.417 Y4.253 Z-8.327 A177.7226 B-2.2977 
N2042 X170.417 Y2.797 Z-8.683 A176.0638 B-2.2575 
N2043 X170.417 Y1.463 Z-9.116 A173.9323 B-2.2082 
N2044 X170.417 Y0.252 Z-9.477 A171.9526 B-2.1684 
N2045 X170.417 Y-0.879 Z-9.962 A169.3415 B-2.1039 
N2046 X170.418 Y-2.067 Z-10.948 A164.4244 B-1.9136 
N2047 X170.419 Y-3.514 Z-12.489 A156.6274 B-1.5293 
N2048 X170.421 Y-5.303 Z-14.171 A147.2249 B-1.0310 
N2049 X170.422 Y-7.213 Z-15.453 A138.4238 B-0.5666 
N2050 X170.423 Y-9.005 Z-16.210 A131.1310 B-0.1960 
N2051 X170.424 Y-10.627 Z-16.564 A125.0994 B0.0844 
N2052 X170.425 Y-12.036 Z-16.596 A120.2605 B0.2787 
N2053 X170.425 Y-13.218 Z-16.374 A116.5128 B0.4029 
N2054 X170.426 Y-14.193 Z-15.960 A113.6896 B0.4740 
N2055 X170.426 Y-14.954 Z-15.386 A111.7952 B0.5005 
N2056 X170.426 Y-15.491 Z-14.676 A110.8664 B0.4894 
N2057 X170.426 Y-15.868 Z-13.869 A110.6554 B0.4539 
N2058 X170.425 Y-16.207 Z-13.023 A110.6457 B0.4115 
N2059 X170.425 Y-16.548 Z-12.164 A110.6456 B0.3683 
N2060 X170.425 Y-16.889 Z-11.303 A110.6455 B0.3250 
N2061 X170.425 Y-17.227 Z-10.453 A110.6453 B0.2822 
N2062 X170.425 Y-17.555 Z-9.625 A110.6453 B0.2406 
N2063 X170.425 Y-17.871 Z-8.831 A110.6432 B0.2006 
N2064 X170.425 Y-18.185 Z-8.086 A110.5698 B0.1636 
N2065 X170.424 Y-18.547 Z-7.419 A110.1926 B0.1317 
N2066 X170.424 Y-18.993 Z-6.845 A109.3271 B0.1050 
N2067 X170.424 Y-19.524 Z-6.366 A107.9513 B0.0801 
N2068 X170.424 Y-20.144 Z-5.972 A106.0520 B0.0541 
N2069 X170.424 Y-20.855 Z-5.651 A103.6314 B0.0298 
N2070 X170.424 Y-21.649 Z-5.383 A100.7394 B0.0124 
N2071 X170.424 Y-22.539 Z-5.148 A97.3476 B0.0036 
N2072 X170.424 Y-23.547 Z-4.921 A93.3822 B0.0006 
N2073 X170.424 Y-24.665 Z-4.669 A88.8819 B0.0000 
N2074 X170.424 Y-25.859 Z-4.358 A83.9788 
N2075 X170.424 Y-27.089 Z-3.965 A78.8137 
N2076 X170.424 Y-28.319 Z-3.477 A73.5024 
N2077 X170.424 Y-29.535 Z-2.883 A68.0524 
N2078 X170.424 Y-30.740 Z-2.163 A62.3893 
N2079 X170.424 Y-31.827 Z-1.361 A56.9425 
N2080 X170.424 Y-32.772 Z-0.509 A51.8142 
N2081 X170.424 Y-33.673 Z0.470 A46.4507 
N2082 X170.424 Y-34.552 Z1.636 A40.5689 
N2083 X170.424 Y-35.374 Z3.026 A34.0646 
N2084 X170.424 Y-36.062 Z4.629 A27.0445 
N2085 X170.424 Y-36.511 Z6.330 A19.9938 
N2086 X170.424 Y-36.665 Z7.968 A13.4565 
N2087 X170.424 Y-36.526 Z9.365 A8.0045 
N2088 X170.424 Y-36.150 Z10.398 A4.0219 
N2089 X170.424 Y-35.596 Z11.067 A1.4485 
N2090 X170.424 Y-34.897 Z11.443 A0.0029 
N2091 X170.424 Y-34.062 Z11.623 A359.3082 
N2092 X170.424 Y-33.083 Z11.694 A359.0263 
N2093 X170.424 Y-31.954 Z11.714 A358.9435 
N2094 X170.424 Y-30.670 Z11.715 A358.9324 
N2095 X170.424 Y-29.234 Z11.714 A358.9323 
N2096 X170.424 Y-27.654 Z11.712 
N2097 X170.424 Y-25.943 Z11.710 
N2098 X170.424 Y-24.121 Z11.708 
N2099 X170.424 Y-22.214 Z11.705 
N2100 X170.424 Y-20.249 Z11.703 
N2101 X170.424 Y-18.258 Z11.701 
N2102 X170.424 Y-16.271 Z11.698 
N2103 X170.424 Y-14.318 Z11.696 
N2104 X170.424 Y-12.425 Z11.694 
N2105 X170.424 Y-10.613 Z11.692 A358.9316 
N2106 X170.424 Y-8.900 Z11.729 A358.7696 
N2107 X170.424 Y-7.286 Z12.008 A357.5536 
N2108 X170.424 Y-5.745 Z12.694 A354.4631 
N2109 X170.424 Y-4.224 Z13.647 A349.8919 
N2110 X170.424 Y-2.698 Z14.639 A344.6915 B0.0007 
N2111 X170.424 Y-1.185 Z15.509 A339.5256 B0.0245 
N2112 X170.424 Y0.320 Z16.269 A334.3686 B0.0984 
N2113 X170.425 Y1.805 Z16.896 A329.3470 B0.1595 
N2114 X170.425 Y3.264 Z17.386 A324.5121 B0.1831 
N2115 X170.425 Y4.657 Z17.702 A320.0982 B0.1811 
N2116 X170.425 Y5.930 Z17.816 A316.3677 B0.1620 
N2117 X170.424 Y7.077 Z17.758 A313.2828 B0.1310 
N2118 X170.424 Y8.108 Z17.566 A310.7530 B0.0920 
N2119 X170.424 Y9.029 Z17.263 A308.7164 B0.0484 
N2120 X170.424 Y9.890 Z16.902 A306.9104 B-0.0028 
N2121 X170.424 Y10.786 Z16.554 A304.8506 B-0.0749 
N2122 X170.423 Y11.787 Z16.257 A302.1850 B-0.1816 
N2123 X170.423 Y12.870 Z15.978 A299.0357 B-0.3213 
N2124 X170.422 Y13.927 Z15.650 A295.8938 B-0.4745 
N2125 X170.422 Y14.836 Z15.226 A293.3041 B-0.6146 
N2126 X170.422 Y15.538 Z14.711 A291.5170 B-0.7252 
N2127 X170.421 Y16.069 Z14.145 A290.3707 B-0.8082 
N2128 X170.421 Y16.522 Z13.576 A289.4790 B-0.8786 
N2129 X170.421 Y16.976 Z13.038 A288.4938 B-0.9520 
N2130 X170.421 Y17.479 Z12.550 A287.2041 B-1.0392 
N2131 X170.420 Y18.057 Z12.116 A285.4895 B-1.1468 
N2132 X170.420 Y18.726 Z11.733 A283.2845 B-1.2773 
N2133 X170.419 Y19.483 Z11.387 A280.6048 B-1.4285 
N2134 X170.419 Y20.293 Z11.060 A277.6018 B-1.5928 
N2135 X170.418 Y21.086 Z10.733 A274.5721 B-1.7567 
N2136 X170.418 Y21.792 Z10.404 A271.8112 B-1.9078 
N2137 X170.417 Y22.361 Z10.081 A269.5387 B-2.0372 
N2138 X170.417 Y22.813 Z9.777 A267.6963 B-2.1481 
N2139 X170.417 Y23.224 Z9.494 A265.9834 B-2.2545 
N2140 X170.416 Y23.687 Z9.222 A264.0338 B-2.3728 
N2141 X170.416 Y24.292 Z8.938 A261.4704 B-2.5195 
N2142 X170.415 Y25.099 Z8.606 A258.0207 B-2.7036 
N2143 X170.414 Y26.258 Z8.134 A253.0015 B-2.9404 
N2144 X170.414 Y27.698 Z7.438 A246.5484 B-3.1903 
N2145 X170.413 Y28.934 Z6.661 A240.6596 B-3.3648 
N2146 X170.413 Y30.138 Z5.723 A234.5004 B-3.4974 
N2147 X170.412 Y31.348 Z4.553 A227.6968 B-3.5921 
N2148 X170.412 Y32.404 Z3.237 A220.8822 B-3.6284 
N2149 X170.412 Y33.276 Z1.801 A214.1048 B-3.6036 
N2150 X170.413 Y33.953 Z0.243 A207.2665 B-3.5205 
N2151 X170.413 Y34.406 Z-1.411 A200.3833 B-3.3856 
N2152 X170.414 Y34.583 Z-3.031 A193.8927 B-3.2168 
N2153 X170.414 Y34.474 Z-4.415 A188.4779 B-3.0466 
N2154 X170.415 Y34.132 Z-5.486 A184.3281 B-2.8995 
N2155 X170.415 Y33.611 Z-6.243 A181.3944 B-2.7883 
N2156 X170.415 Y32.942 Z-6.693 A179.6292 B-2.7195 
N2157 X170.415 Y32.136 Z-6.911 A178.7448 B-2.6859 
N2158 X170.415 Y31.190 Z-6.983 A178.4195 B-2.6759 
N2159 X170.415 Y30.095 Z-6.985 A178.3638 B-2.6773 
N2160 X170.415 Y28.846 Z-6.970 A178.3628 B-2.6814 
N2161 X170.415 Y27.442 Z-6.954 A178.3629 B-2.6860 
N2162 X170.415 Y25.892 Z-6.936 A178.3630 B-2.6912 
N2163 X170.415 Y24.209 Z-6.916 A178.3631 B-2.6968 
N2164 X170.415 Y22.412 Z-6.895 A178.3633 B-2.7027 
N2165 X170.415 Y20.528 Z-6.873 A178.3634 B-2.7090 
N2166 X170.415 Y18.585 Z-6.851 A178.3635 B-2.7154 
N2167 X170.415 Y16.616 Z-6.828 A178.3637 B-2.7219 
N2168 X170.415 Y14.653 Z-6.805 A178.3638 B-2.7284 
N2169 X170.415 Y12.728 Z-6.783 A178.3640 B-2.7348 
N2170 X170.415 Y10.870 Z-6.761 A178.3641 B-2.7410 
N2171 X170.415 Y9.103 Z-6.740 A178.3643 B-2.7469 
