N10 ; PROGRAM NAME: 4444440
N11 ; ORDER       : 44444
N12 ; OPER. NAME  : Slot Roughing:116
N13 ; OPER. DESCR.: roughig slot/BH zgr
N14 ; OPER. TYPE  : slotMillRough
N15 ; GEO. OPTION : 1
N16 ; MACHINE     : SH_HX151_24_SIM840D
N17 ;             : STARRAG_HECKERT_5axis_finish_milling_machine
N18 ; CONTROL     : SINUMERIK 840D
N19 ; created:   2022-11-03 13:35:46.447698
;-------DODATKOWE DANE-------------------
; PROGRAMISTA : Mariusz Malec
; PARTID      : 139T004654P1015_-
;  ae         : 8.0
;  ap         : 1.5
;  fin_offset : 0.5
;  lean_angle : 0.0
;----------------------------------------
N20 ;----------------------------------------
RAPORT("T44444","Slot Roughing:116")
N21 TRAFOOF
N22 D0
N23 G90 G94
N24 STOPRE
N25 M9 ; chlodziwo wyl
N26 ; --- Slot Roughing:116 - roughig slot/BH zgr ---
N28 ;ToolChange : concat=None ,current_tdmid=None, PP.tdmId=940689
N29 MSG(" TLID=940689 D=16.0 R=3.1 Ang=0.0 Len=124.0 ")
N30 TRAFOOF
N31 D0
N32 G0 G53 Z290 B0
N33 G0 X200
N34 G0 Y150
N35 T="7740689"
N36 G0 X500
RAPORT("T44444","ToolChangeStart 7740689")
N37 M6
RAPORT("T44444","ToolChangeEnd")
N38 ; (Preloading tool)
N39 T="7740728"
N40 G0 X200
N41 STOPRE
N42 S4376 M03
N43 STOPRE
N44 TOL(0.1,1,1)
N45 G0 X162.340 A308.0000
N46 TRAORI
N47 G54 D1
N48 STOPRE
N49 D1 
N50 ; DELTA A > 40.1
N51 TRAFOOF
N52 STOPRE
N53 G0 G53 D0 Z265.000
N54 G1 G53 A308.0000 F10000
N55 TRAORI
N56 G54 D1
N57 TRANS 
N58 G00 X162.340 Y31.293 Z58.332 A308.0000 B0.0000 
N59 M342 ; chlodziwo woda
N60 X162.340 Y-8.108 Z27.549 
N61 G01 X162.679 Y-1.955 Z19.673 F1312 
N62 X162.763 Y-0.417 Z17.704 F656 
N63 X162.770 Y-0.289 Z17.541 F874 
N64 X162.779 Y-0.125 Z17.331 F1093 
N65 X162.790 Y0.076 Z17.074 F1312 
N66 X162.807 Y0.370 Z16.698 
N67 X162.930 Y3.362 Z12.868 
N68 X162.969 Y6.998 Z8.215 
N69 X162.893 Y10.487 Z3.748 
N70 X162.736 Y13.530 Z-0.146 
N71 X162.522 Y16.259 Z-3.640 
N72 X162.291 Y18.537 Z-6.555 
N73 X162.031 Y20.677 Z-9.295 
N74 X161.811 Y22.262 Z-11.323 
N75 X161.751 Y22.669 Z-11.844 
N76 X161.719 Y22.890 Z-12.126 F1639 
N77 X161.679 Y23.160 Z-12.472 F1967 
N78 X161.636 Y23.455 Z-12.850 F2031 
N79 X161.588 Y23.769 Z-13.252 F2221 
N80 X161.531 Y24.120 Z-13.702 F2537 
N81 X161.457 Y24.528 Z-14.223 F2981 
N82 X161.357 Y25.008 Z-14.838 F3519 
N83 X161.210 Y25.560 Z-15.544 F3962 
N84 X160.988 Y26.161 Z-16.313 F4279 
N85 X160.645 Y26.779 Z-17.104 F4469 
N86 X160.142 Y27.375 Z-17.867 F4532 
N87 X159.449 Y27.925 Z-18.571 
N88 X158.580 Y28.332 Z-19.093 F4468 
N89 X157.703 Y28.149 Z-18.858 F4276 
N90 X157.538 Y27.541 Z-18.080 F3956 
N91 X157.541 Y26.980 Z-17.362 F3507 
N92 X157.581 Y26.496 Z-16.742 F2930 
N93 X157.626 Y26.108 Z-16.246 F2257 
N94 X157.664 Y25.816 Z-15.872 F1681 
N95 X157.694 Y25.600 Z-15.595 F1232 
N96 X157.717 Y25.441 Z-15.392 F912 
N97 X157.734 Y25.321 Z-15.238 F720 
N98 X157.749 Y25.219 Z-15.108 F656 
N99 X157.973 Y23.686 Z-13.146 
N100 X157.991 Y23.559 Z-12.983 F874 
N101 X158.015 Y23.395 Z-12.774 F1093 
N102 X158.045 Y23.195 Z-12.518 F1312 
N103 X158.384 Y20.874 Z-9.546 
N104 X158.651 Y18.740 Z-6.815 
N105 X158.907 Y16.270 Z-3.653 
N106 X159.118 Y13.617 Z-0.258 
N107 X159.285 Y10.433 Z3.817 
N108 X159.361 Y6.791 Z8.479 
N109 X159.314 Y3.129 Z13.167 
N110 X159.152 Y-0.374 Z17.650 
N111 X159.141 Y-0.595 Z17.933 F1639 
N112 X159.129 Y-0.866 Z18.280 F1967 
N113 X159.114 Y-1.185 Z18.687 F2040 
N114 X159.098 Y-1.527 Z19.124 F2259 
N115 X159.083 Y-1.917 Z19.619 F2622 
N116 X159.072 Y-2.380 Z20.201 F3132 
N117 X159.073 Y-2.935 Z20.887 F3641 
N118 X159.107 Y-3.574 Z21.649 F4005 
N119 X159.222 Y-4.290 Z22.437 F4223 
N120 X159.510 Y-5.074 Z23.162 F4296 
N121 X160.083 Y-5.837 Z23.624 
N122 X160.903 Y-6.033 Z23.174 F4223 
N123 X161.173 Y-5.502 Z22.289 F4005 
N124 X161.279 Y-4.925 Z21.484 F3641 
N125 X161.335 Y-4.395 Z20.781 F3131 
N126 X161.369 Y-3.950 Z20.202 F2476 
N127 X161.391 Y-3.610 Z19.763 F1821 
N128 X161.405 Y-3.363 Z19.445 F1311 
N129 X161.415 Y-3.184 Z19.217 F947 
N130 X161.422 Y-3.053 Z19.048 F728 
N131 X161.428 Y-2.944 Z18.909 F656 
N132 X161.512 Y-1.406 Z16.940 
N133 X161.519 Y-1.278 Z16.777 F874 
N134 X161.528 Y-1.114 Z16.567 F1093 
N135 X161.539 Y-0.913 Z16.310 F1312 
N136 X161.557 Y-0.589 Z15.895 
N137 X161.680 Y2.387 Z12.085 
N138 X161.719 Y6.009 Z7.450 
N139 X161.644 Y9.484 Z3.002 
N140 X161.487 Y12.515 Z-0.877 
N141 X161.274 Y15.234 Z-4.358 
N142 X161.044 Y17.506 Z-7.265 
N143 X160.784 Y19.639 Z-9.996 
N144 X160.566 Y21.208 Z-12.005 
N145 X160.500 Y21.657 Z-12.579 
N146 X160.468 Y21.877 Z-12.861 F1639 
N147 X160.428 Y22.147 Z-13.206 F1967 
N148 X160.381 Y22.471 Z-13.621 F2043 
N149 X160.328 Y22.820 Z-14.067 F2271 
N150 X160.265 Y23.217 Z-14.576 F2650 
N151 X160.183 Y23.688 Z-15.179 F3181 
N152 X160.071 Y24.249 Z-15.896 F3712 
N153 X159.910 Y24.880 Z-16.704 F4091 
N154 X159.669 Y25.552 Z-17.564 F4319 
N155 X159.306 Y26.228 Z-18.430 F4395 
N156 X158.820 Y26.833 Z-19.204 
N157 X158.159 Y27.328 Z-19.837 F4333 
N158 X157.537 Y27.051 Z-19.484 F4148 
N159 X157.496 Y26.463 Z-18.731 F3839 
N160 X157.530 Y25.928 Z-18.045 F3406 
N161 X157.580 Y25.468 Z-17.456 F2850 
N162 X157.627 Y25.098 Z-16.983 F2201 
N163 X157.665 Y24.817 Z-16.623 F1644 
N164 X157.695 Y24.608 Z-16.356 F1212 
N165 X157.717 Y24.453 Z-16.157 F903 
N166 X157.734 Y24.334 Z-16.005 F717 
N167 X157.749 Y24.234 Z-15.877 F656 
N168 X157.973 Y22.701 Z-13.915 
N169 X157.991 Y22.574 Z-13.752 F874 
N170 X158.015 Y22.410 Z-13.543 F1093 
N171 X158.045 Y22.210 Z-13.287 F1312 
N172 X158.385 Y19.882 Z-10.306 
N173 X158.651 Y17.750 Z-7.578 
N174 X158.907 Y15.283 Z-4.421 
N175 X159.118 Y12.632 Z-1.027 
N176 X159.285 Y9.448 Z3.048 
N177 X159.361 Y5.807 Z7.708 
N178 X159.314 Y2.146 Z12.394 
N179 X159.152 Y-1.359 Z16.880 
N180 X159.141 Y-1.580 Z17.164 F1639 
N181 X159.129 Y-1.851 Z17.510 F1967 
N182 F1312 
N183 G00 X159.129 Y37.549 Z48.293 
RAPORT("T44444","Slot Roughing:116 End")
N185 ;trailer : concat=None
; points cnt = 122
N186 MSG (" --- GROUPED OF SUBPROGRAM --- ")
N187 FGROUP()
N188 TRAFOOF
N10 ; PROGRAM NAME: 4444440
N11 ; ORDER       : 44444
N12 ; OPER. NAME  : Slot Roughing:117
N13 ; OPER. DESCR.: roughig slot
N14 ; OPER. TYPE  : slotMillRough
N15 ; GEO. OPTION : 1
N16 ; MACHINE     : SH_HX151_24_SIM840D
N17 ;             : STARRAG_HECKERT_5axis_finish_milling_machine
N18 ; CONTROL     : SINUMERIK 840D
N19 ; created:   2022-11-03 13:35:48.880270
;-------DODATKOWE DANE-------------------
; PROGRAMISTA : Mariusz Malec
; PARTID      : 139T004654P1015_-
;  ae         : 8.0
;  ap         : 1.5
;  fin_offset : 0.5
;  lean_angle : 0.0
;----------------------------------------
N20 ;----------------------------------------
RAPORT("T44444","Slot Roughing:117")
N21 TRAFOOF
N22 D0
N23 G0 G90 G94 Z260.0
N24 STOPRE
N25 M9 ; chlodziwo wyl
N26 ; --- Slot Roughing:117 - roughig slot ---
N28 ;ToolChange : concat=None ,current_tdmid=None, PP.tdmId=940689
N29 TRAFOOF
N30 D0
N31 G0 G54 Z270.0
N32 S4376 M03
N33 STOPRE
N34 TOL(0.1,1,1)
N35 G0  A128.0000
N36 TRAORI
N37 G54 D1
N38 STOPRE
N39 ; DELTA A > 40.1
N40 TRAFOOF
N41 STOPRE
N42 G0 G53 D0 Z265.000
N43 G1 G53 A128.0000 F10000
N44 TRAORI
N45 G54 D1
N46 TRANS 
N47 G00 X162.432 Y-33.864 Z-52.371 A128.0000 B0.0000 
N48 M342 ; chlodziwo woda
N49 X162.432 Y5.536 Z-21.588 
N50 G01 X162.699 Y-0.618 Z-13.711 F1312 
N51 X162.765 Y-2.157 Z-11.742 F656 
N52 X162.771 Y-2.284 Z-11.578 F874 
N53 X162.778 Y-2.448 Z-11.368 F1093 
N54 X162.787 Y-2.649 Z-11.112 F1312 
N55 X162.789 Y-2.696 Z-11.051 
N56 X162.927 Y-5.894 Z-6.958 
N57 X162.970 Y-9.514 Z-2.325 
N58 X162.895 Y-13.074 Z2.232 
N59 X162.745 Y-16.021 Z6.004 
N60 X162.526 Y-18.844 Z9.618 
N61 X162.303 Y-21.065 Z12.460 
N62 X162.043 Y-23.213 Z15.209 
N63 X161.863 Y-24.533 Z16.899 
N64 X161.767 Y-25.206 Z17.760 
N65 X161.735 Y-25.427 Z18.042 F1639 
N66 X161.696 Y-25.696 Z18.388 F1967 
N67 X161.653 Y-25.996 Z18.771 F2033 
N68 X161.604 Y-26.315 Z19.179 F2228 
N69 X161.546 Y-26.672 Z19.637 F2553 
N70 X161.471 Y-27.088 Z20.169 F3008 
N71 X161.367 Y-27.581 Z20.799 F3561 
N72 X161.216 Y-28.147 Z21.524 F4016 
N73 X160.986 Y-28.764 Z22.314 F4341 
N74 X160.639 Y-29.401 Z23.129 F4537 
N75 X160.149 Y-30.023 Z23.926 F4602 
N76 X159.506 Y-30.609 Z24.675 
N77 X158.721 Y-31.103 Z25.308 F4536 
N78 X157.746 Y-31.208 Z25.442 F4341 
N79 X157.482 Y-30.605 Z24.671 F4015 
N80 X157.474 Y-30.031 Z23.936 F3558 
N81 X157.513 Y-29.535 Z23.301 F2971 
N82 X157.558 Y-29.139 Z22.794 F2286 
N83 X157.596 Y-28.841 Z22.412 F1699 
N84 X157.627 Y-28.621 Z22.131 F1243 
N85 X157.650 Y-28.460 Z21.926 F916 
N86 X157.668 Y-28.339 Z21.770 F721 
N87 X157.683 Y-28.236 Z21.638 F656 
N88 X157.910 Y-26.703 Z19.676 
N89 X157.929 Y-26.576 Z19.513 F874 
N90 X157.954 Y-26.412 Z19.304 F1093 
N91 X157.983 Y-26.212 Z19.048 F1312 
N92 X158.367 Y-23.628 Z15.740 
N93 X158.635 Y-21.504 Z13.022 
N94 X158.899 Y-18.983 Z9.795 
N95 X159.105 Y-16.432 Z6.530 
N96 X159.281 Y-13.168 Z2.352 
N97 X159.361 Y-9.614 Z-2.196 
N98 X159.319 Y-5.943 Z-6.896 
N99 X159.175 Y-2.644 Z-11.118 
N100 X159.165 Y-2.422 Z-11.402 F1639 
N101 X159.154 Y-2.152 Z-11.748 F1967 
N102 X159.140 Y-1.831 Z-12.159 F2041 
N103 X159.127 Y-1.485 Z-12.600 F2263 
N104 X159.114 Y-1.091 Z-13.100 F2633 
N105 X159.107 Y-0.622 Z-13.690 F3151 
N106 X159.112 Y-0.058 Z-14.386 F3668 
N107 X159.152 Y0.592 Z-15.161 F4038 
N108 X159.269 Y1.317 Z-15.963 F4260 
N109 X159.537 Y2.108 Z-16.719 F4334 
N110 X160.013 Y2.889 Z-17.289 
N111 X160.855 Y3.413 Z-17.229 F4260 
N112 X161.200 Y2.930 Z-16.337 F4040 
N113 X161.312 Y2.348 Z-15.520 F3672 
N114 X161.367 Y1.812 Z-14.807 F3157 
N115 X161.399 Y1.361 Z-14.219 F2495 
N116 X161.418 Y1.017 Z-13.775 F1833 
N117 X161.430 Y0.766 Z-13.453 F1318 
N118 X161.439 Y0.586 Z-13.222 F950 
N119 X161.444 Y0.453 Z-13.052 F729 
N120 X161.449 Y0.344 Z-12.913 F656 
N121 X161.516 Y-1.194 Z-10.943 
N122 X161.521 Y-1.322 Z-10.780 F874 
N123 X161.528 Y-1.486 Z-10.570 F1093 
N124 X161.537 Y-1.687 Z-10.313 F1312 
N125 X161.540 Y-1.739 Z-10.247 
N126 X161.678 Y-4.935 Z-6.155 
N127 X161.720 Y-8.581 Z-1.489 
N128 X161.645 Y-12.088 Z3.001 
N129 X161.495 Y-15.020 Z6.753 
N130 X161.277 Y-17.829 Z10.348 
N131 X161.053 Y-20.053 Z13.195 
N132 X160.794 Y-22.194 Z15.935 
N133 X160.618 Y-23.481 Z17.582 
N134 X160.511 Y-24.222 Z18.531 
N135 X160.480 Y-24.443 Z18.814 F1639 
N136 X160.441 Y-24.713 Z19.159 F1967 
N137 X160.399 Y-25.004 Z19.532 F2029 
N138 X160.353 Y-25.314 Z19.928 F2214 
N139 X160.299 Y-25.659 Z20.371 F2523 
N140 X160.232 Y-26.059 Z20.882 F2955 
N141 X160.145 Y-26.529 Z21.484 F3479 
N142 X160.027 Y-27.070 Z22.176 F3911 
N143 X159.862 Y-27.661 Z22.932 F4220 
N144 X159.626 Y-28.280 Z23.725 F4405 
N145 X159.298 Y-28.902 Z24.521 F4466 
N146 X158.843 Y-29.528 Z25.323 
N147 X158.266 Y-30.085 Z26.035 F4403 
N148 X157.516 Y-30.130 Z26.093 F4214 
N149 X157.432 Y-29.530 Z25.324 F3899 
N150 X157.462 Y-28.980 Z24.621 F3459 
N151 X157.511 Y-28.507 Z24.015 F2892 
N152 X157.559 Y-28.130 Z23.533 F2230 
N153 X157.597 Y-27.845 Z23.168 F1663 
N154 X157.627 Y-27.633 Z22.896 F1222 
N155 X157.650 Y-27.475 Z22.695 F907 
N156 X157.668 Y-27.354 Z22.540 F718 
N157 X157.683 Y-27.251 Z22.408 F656 
N158 X157.910 Y-25.718 Z20.446 
N159 X157.929 Y-25.591 Z20.283 F874 
N160 X157.954 Y-25.427 Z20.074 F1093 
N161 X157.983 Y-25.227 Z19.818 F1312 
N162 X158.370 Y-22.618 Z16.477 
N163 X158.638 Y-20.495 Z13.761 
N164 X158.900 Y-17.987 Z10.551 
N165 X159.106 Y-15.433 Z7.282 
N166 X159.282 Y-12.167 Z3.102 
N167 X159.361 Y-8.576 Z-1.495 
N168 X159.319 Y-4.945 Z-6.142 
N169 X159.175 Y-1.659 Z-10.349 
N170 X159.165 Y-1.437 Z-10.632 F1639 
N171 X159.154 Y-1.167 Z-10.979 F1967 
N172 F1312 
N173 G00 X159.154 Y-40.567 Z-41.762 
RAPORT("T44444","Slot Roughing:117 End")
N175 ;trailer : concat=None
; points cnt = 123
N176 M9 ; chlodziwo wyl.
N177 M9 ; chlodziwo wyl.
N178 MSG (" --- KONIEC PROGRAMU --- ")
N179 TRANS
N180 G54
N181 FGROUP()
N182 TRAFOOF
N183 STOPRE
N184 G0 G53 D0 Z290.0 M9 M5
N185 G0 G53 Y150 A0 B0
N186 M17
