N10 ; PROGRAM NAME: 4444438
N11 ; ORDER       : 44444
N12 ; OPER. NAME  : Side Milling:149
N13 ; OPER. DESCR.: Side Milling/czolo nozki po luku zgr
N14 ; OPER. TYPE  : sideMill
N15 ; GEO. OPTION : 1
N16 ; MACHINE     : SH_HX151_24_SIM840D
N17 ;             : STARRAG_HECKERT_5axis_finish_milling_machine
N18 ; CONTROL     : SINUMERIK 840D
N19 ; created:   2022-11-03 13:38:08.557993
;-------DODATKOWE DANE-------------------
; PROGRAMISTA : Mariusz Malec
; PARTID      : 139T004654P1015_-
;  ap         : 4.4
;  ae         : 1.0
;  lean_angle : 0.0
;  fin_offset : -9.5
;----------------------------------------
N20 ;----------------------------------------
RAPORT("T44444","Side Milling:149")
N21 TRAFOOF
N22 D0
N23 G90 G94
N24 STOPRE
N25 M9 ; chlodziwo wyl
N26 ; --- Side Milling:149 - Side Milling/czolo nozki po luku zgr ---
N28 ;ToolChange : concat=None ,current_tdmid=None, PP.tdmId=957774
N29 MSG(" TLID=957774 D=10.0 R=0.0 Ang=0.0 Len=129.0 ")
N30 TRAFOOF
N31 D0
N32 G0 G53 Z290 B0
N33 G0 X200
N34 G0 Y150
N35 T="7757774"
N36 G0 X500
RAPORT("T44444","ToolChangeStart 7757774")
N37 M6
RAPORT("T44444","ToolChangeEnd")
N38 ; (Preloading tool)
N39 T="7756976"
N40 G0 X200
N41 STOPRE
N42 S2864 M03
N43 STOPRE
N44 TOL(0.1,1,1)
N45 G0 X133.844 A308.0000
N46 TRAORI
N47 G54 D1
N48 ;tol5=0.15
N49 D1 
STOPRE
E_ZDARZ=500001
;ACS_ROUGH_ROOT_FRONT=7757774
STOPRE
;UWAGA : ZMIENIONA TOLERANCJA OSI A i B, ruchy osi A i B beda usuniete : TOL5=0.15
N50 ; DELTA A > 40.1
N51 TRAFOOF
N52 STOPRE
N53 G0 G53 D0 Z265.000
N54 G1 G53 A308.0000 F10000
N55 TRAORI
N56 G54 D1
N57 TRANS 
N58 G00 X133.844 Y34.867 Z53.161 A308.0000 B0.0000 
N59 M342 ; chlodziwo woda
N60 X133.844 Y-4.533 Z22.378 
N61 ;FSE_1
N62 G01 G41 X133.871 Y-3.918 Z21.590 F458
N63 G01 X133.871 Y-3.918 Z21.590 F458 
N64 X133.875 Y-3.826 Z21.472 
N65 X133.879 Y-3.733 Z21.354 
N66 X133.883 Y-3.641 Z21.236 
N67 X133.887 Y-3.549 Z21.117 
N68 X133.890 Y-3.456 Z20.999 
N69 X133.894 Y-3.364 Z20.881 
N70 X133.898 Y-3.272 Z20.763 
N71 X133.902 Y-3.179 Z20.645 
N72 X133.906 Y-3.087 Z20.527 
N73 X133.910 Y-2.995 Z20.409 
N74 X133.914 Y-2.902 Z20.290 
N75 X133.918 Y-2.810 Z20.172 
N76 X133.922 Y-2.718 Z20.054 
N77 X133.926 Y-2.625 Z19.936 
N78 X133.930 Y-2.533 Z19.818 
N79 X133.934 Y-2.441 Z19.700 
N80 X133.938 Y-2.348 Z19.581 
N81 X133.942 Y-2.256 Z19.463 
N82 X133.946 Y-2.164 Z19.345 
N83 X133.950 Y-2.071 Z19.227 
N84 X133.954 Y-1.978 Z19.108 
N85 X133.958 Y-1.885 Z18.988 
N86 X133.962 Y-1.792 Z18.869 
N87 X133.966 Y-1.698 Z18.750 
N88 X133.970 Y-1.605 Z18.630 
N89 X133.974 Y-1.512 Z18.511 
N90 X133.978 Y-1.419 Z18.391 
N91 X133.982 Y-1.325 Z18.272 
N92 X133.986 Y-1.232 Z18.153 
N93 X133.990 Y-1.139 Z18.033 
N94 X133.994 Y-1.046 Z17.914 
N95 X133.998 Y-0.952 Z17.795 
N96 X134.002 Y-0.859 Z17.675 
N97 X134.006 Y-0.766 Z17.556 
N98 X134.010 Y-0.673 Z17.437 
N99 X134.014 Y-0.579 Z17.317 
N100 X134.018 Y-0.486 Z17.198 
N101 X134.022 Y-0.393 Z17.079 
N102 X134.026 Y-0.300 Z16.959 
N103 X134.030 Y-0.206 Z16.840 
N104 X134.034 Y-0.113 Z16.720 
N105 X134.038 Y-0.020 Z16.601 
N106 X134.042 Y0.073 Z16.482 
N107 X134.046 Y0.167 Z16.362 
N108 X134.050 Y0.260 Z16.243 
N109 X134.054 Y0.353 Z16.124 
N110 X134.058 Y0.446 Z16.004 
N111 X134.062 Y0.540 Z15.885 
N112 X134.066 Y0.633 Z15.766 
N113 X134.070 Y0.726 Z15.646 
N114 X134.074 Y0.819 Z15.527 
N115 X134.078 Y0.913 Z15.408 
N116 X134.082 Y1.006 Z15.288 
N117 X134.086 Y1.100 Z15.168 
N118 X134.090 Y1.194 Z15.047 
N119 X134.094 Y1.288 Z14.927 
N120 X134.098 Y1.383 Z14.806 
N121 X134.102 Y1.477 Z14.685 
N122 X134.106 Y1.571 Z14.565 
N123 X134.110 Y1.665 Z14.444 
N124 X134.114 Y1.759 Z14.324 
N125 X134.118 Y1.853 Z14.203 
N126 X134.122 Y1.948 Z14.083 
N127 X134.126 Y2.042 Z13.962 
N128 X134.130 Y2.136 Z13.842 
N129 X134.134 Y2.230 Z13.721 
N130 X134.138 Y2.324 Z13.600 
N131 X134.142 Y2.419 Z13.480 
N132 X134.146 Y2.513 Z13.359 
N133 X134.150 Y2.607 Z13.239 
N134 X134.154 Y2.701 Z13.118 
N135 X134.157 Y2.795 Z12.998 
N136 X134.159 Y2.890 Z12.877 
N137 X134.161 Y2.984 Z12.756 
N138 X134.163 Y3.078 Z12.636 
N139 X134.165 Y3.172 Z12.515 
N140 X134.167 Y3.266 Z12.395 
N141 X134.170 Y3.361 Z12.274 
N142 X134.172 Y3.455 Z12.154 
N143 X134.174 Y3.549 Z12.033 
N144 X134.176 Y3.643 Z11.912 
N145 X134.178 Y3.737 Z11.792 
N146 X134.180 Y3.832 Z11.671 
N147 X134.182 Y3.926 Z11.551 
N148 X134.184 Y4.020 Z11.430 
N149 X134.186 Y4.114 Z11.309 
N150 X134.188 Y4.209 Z11.189 
N151 X134.190 Y4.303 Z11.068 
N152 X134.192 Y4.397 Z10.948 
N153 X134.194 Y4.491 Z10.827 
N154 X134.196 Y4.585 Z10.707 
N155 X134.198 Y4.680 Z10.586 
N156 X134.200 Y4.774 Z10.465 
N157 X134.202 Y4.868 Z10.345 
N158 X134.204 Y4.962 Z10.224 
N159 X134.206 Y5.056 Z10.104 
N160 X134.208 Y5.151 Z9.983 
N161 X134.208 Y5.245 Z9.862 
N162 X134.207 Y5.339 Z9.742 
N163 X134.207 Y5.433 Z9.621 
N164 X134.207 Y5.528 Z9.501 
N165 X134.206 Y5.622 Z9.380 
N166 X134.206 Y5.716 Z9.259 
N167 X134.205 Y5.810 Z9.139 
N168 X134.205 Y5.904 Z9.018 
N169 X134.204 Y5.999 Z8.898 
N170 X134.204 Y6.093 Z8.777 
N171 X134.203 Y6.187 Z8.656 
N172 X134.203 Y6.281 Z8.536 
N173 X134.202 Y6.376 Z8.415 
N174 X134.202 Y6.470 Z8.295 
N175 X134.201 Y6.564 Z8.174 
N176 X134.201 Y6.658 Z8.053 
N177 X134.200 Y6.752 Z7.933 
N178 X134.200 Y6.847 Z7.812 
N179 X134.199 Y6.941 Z7.692 
N180 X134.199 Y7.035 Z7.571 
N181 X134.198 Y7.129 Z7.450 
N182 X134.198 Y7.224 Z7.330 
N183 X134.198 Y7.318 Z7.209 
N184 X134.197 Y7.412 Z7.089 
N185 X134.197 Y7.506 Z6.968 
N186 X134.196 Y7.600 Z6.847 
N187 X134.196 Y7.695 Z6.727 
N188 X134.195 Y7.789 Z6.606 
N189 X134.195 Y7.883 Z6.486 
N190 X134.194 Y7.977 Z6.365 
N191 X134.192 Y8.071 Z6.244 
N192 X134.189 Y8.166 Z6.124 
N193 X134.186 Y8.260 Z6.003 
N194 X134.183 Y8.354 Z5.883 
N195 X134.180 Y8.448 Z5.762 
N196 X134.177 Y8.543 Z5.642 
N197 X134.175 Y8.637 Z5.521 
N198 X134.172 Y8.731 Z5.400 
N199 X134.169 Y8.825 Z5.280 
N200 X134.166 Y8.919 Z5.159 
N201 X134.163 Y9.014 Z5.039 
N202 X134.160 Y9.108 Z4.918 
N203 X134.157 Y9.202 Z4.798 
N204 X134.155 Y9.296 Z4.677 
N205 X134.152 Y9.390 Z4.556 
N206 X134.149 Y9.485 Z4.436 
N207 X134.146 Y9.579 Z4.315 
N208 X134.143 Y9.673 Z4.195 
N209 X134.140 Y9.767 Z4.074 
N210 X134.138 Y9.861 Z3.954 
N211 X134.135 Y9.956 Z3.833 
N212 X134.132 Y10.050 Z3.712 
N213 X134.128 Y10.144 Z3.592 
N214 X134.123 Y10.238 Z3.471 
N215 X134.117 Y10.332 Z3.351 
N216 X134.112 Y10.426 Z3.230 
N217 X134.107 Y10.521 Z3.110 
N218 X134.102 Y10.615 Z2.989 
N219 X134.096 Y10.709 Z2.869 
N220 X134.091 Y10.803 Z2.748 
N221 X134.086 Y10.897 Z2.628 
N222 X134.081 Y10.991 Z2.507 
N223 X134.075 Y11.086 Z2.387 
N224 X134.070 Y11.180 Z2.266 
N225 X134.065 Y11.274 Z2.146 
N226 X134.060 Y11.368 Z2.025 
N227 X134.054 Y11.462 Z1.904 
N228 X134.049 Y11.556 Z1.784 
N229 X134.044 Y11.651 Z1.663 
N230 X134.039 Y11.745 Z1.543 
N231 X134.033 Y11.839 Z1.422 
N232 X134.028 Y11.933 Z1.302 
N233 X134.023 Y12.027 Z1.181 
N234 X134.018 Y12.121 Z1.061 
N235 X134.012 Y12.216 Z0.940 
N236 X134.007 Y12.310 Z0.820 
N237 X134.002 Y12.404 Z0.699 
N238 X133.997 Y12.498 Z0.579 
N239 X133.991 Y12.592 Z0.458 
N240 X133.986 Y12.686 Z0.338 
N241 X133.981 Y12.781 Z0.217 
N242 X133.976 Y12.875 Z0.097 
N243 X133.970 Y12.969 Z-0.024 
N244 X133.963 Y13.063 Z-0.144 
N245 X133.956 Y13.157 Z-0.265 
N246 X133.948 Y13.251 Z-0.385 
N247 X133.940 Y13.345 Z-0.506 
N248 X133.933 Y13.439 Z-0.626 
N249 X133.925 Y13.534 Z-0.747 
N250 X133.917 Y13.628 Z-0.867 
N251 X133.910 Y13.722 Z-0.988 
N252 X133.902 Y13.816 Z-1.108 
N253 X133.894 Y13.910 Z-1.228 
N254 X133.887 Y14.004 Z-1.349 
N255 X133.879 Y14.098 Z-1.469 
N256 X133.871 Y14.192 Z-1.590 
N257 X133.864 Y14.286 Z-1.710 
N258 X133.856 Y14.381 Z-1.831 
N259 X133.848 Y14.475 Z-1.951 
N260 X133.841 Y14.569 Z-2.072 
N261 X133.833 Y14.663 Z-2.192 
N262 X133.825 Y14.757 Z-2.312 
N263 X133.818 Y14.851 Z-2.433 
N264 X133.810 Y14.945 Z-2.553 
N265 X133.802 Y15.039 Z-2.674 
N266 X133.795 Y15.133 Z-2.794 
N267 X133.787 Y15.227 Z-2.914 
N268 X133.779 Y15.320 Z-3.033 
N269 X133.772 Y15.413 Z-3.152 
N270 X133.764 Y15.506 Z-3.271 
N271 X133.757 Y15.599 Z-3.390 
N272 X133.749 Y15.692 Z-3.510 
N273 X133.741 Y15.785 Z-3.629 
N274 X133.734 Y15.879 Z-3.748 
N275 X133.726 Y15.972 Z-3.867 
N276 X133.719 Y16.065 Z-3.987 
N277 X133.711 Y16.158 Z-4.106 
N278 X133.704 Y16.251 Z-4.225 
N279 X133.696 Y16.344 Z-4.344 
N280 X133.688 Y16.438 Z-4.464 
N281 X133.681 Y16.531 Z-4.583 
N282 X133.673 Y16.624 Z-4.702 
N283 X133.666 Y16.717 Z-4.821 
N284 X133.658 Y16.810 Z-4.941 
N285 X133.650 Y16.903 Z-5.060 
N286 X133.643 Y16.997 Z-5.179 
N287 X133.635 Y17.090 Z-5.298 
N288 X133.628 Y17.183 Z-5.418 
N289 X133.620 Y17.276 Z-5.537 
N290 X133.612 Y17.369 Z-5.656 
N291 X133.605 Y17.462 Z-5.775 
N292 X133.597 Y17.556 Z-5.895 
N293 X133.590 Y17.649 Z-6.014 
N294 X133.582 Y17.742 Z-6.133 
N295 X133.574 Y17.835 Z-6.252 
N296 X133.567 Y17.928 Z-6.372 
N297 X133.559 Y18.021 Z-6.491 
N298 X133.552 Y18.115 Z-6.610 
N299 X133.544 Y18.208 Z-6.729 
N300 G40 X133.494 Y18.823 Z-7.516 F458
N301 X133.494 Y18.823 Z-7.516 
N302 G00 X133.494 Y42.463 Z10.953 
N303 X133.844 Y16.612 Z38.898 
N304 X133.844 Y-7.029 Z20.428 
N305 ;FSE_1
N306 G01 G41 X133.871 Y-6.413 Z19.641 F458
N307 G01 X133.871 Y-6.413 Z19.641 F458 
N308 X133.875 Y-6.321 Z19.522 
N309 X133.879 Y-6.229 Z19.404 
N310 X133.883 Y-6.136 Z19.286 
N311 X133.887 Y-6.044 Z19.168 
N312 X133.890 Y-5.952 Z19.050 
N313 X133.894 Y-5.859 Z18.932 
N314 X133.898 Y-5.767 Z18.813 
N315 X133.902 Y-5.675 Z18.695 
N316 X133.906 Y-5.582 Z18.577 
N317 X133.910 Y-5.490 Z18.459 
N318 X133.914 Y-5.398 Z18.341 
N319 X133.918 Y-5.305 Z18.223 
N320 X133.922 Y-5.213 Z18.104 
N321 X133.926 Y-5.121 Z17.986 
N322 X133.930 Y-5.028 Z17.868 
N323 X133.934 Y-4.936 Z17.750 
N324 X133.938 Y-4.844 Z17.632 
N325 X133.942 Y-4.751 Z17.514 
N326 X133.946 Y-4.659 Z17.395 
N327 X133.950 Y-4.567 Z17.277 
N328 X133.954 Y-4.474 Z17.158 
N329 X133.958 Y-4.380 Z17.039 
N330 X133.962 Y-4.287 Z16.919 
N331 X133.966 Y-4.194 Z16.800 
N332 X133.970 Y-4.101 Z16.681 
N333 X133.974 Y-4.007 Z16.561 
N334 X133.978 Y-3.914 Z16.442 
N335 X133.982 Y-3.821 Z16.322 
N336 X133.986 Y-3.728 Z16.203 
N337 X133.990 Y-3.634 Z16.084 
N338 X133.994 Y-3.541 Z15.964 
N339 X133.998 Y-3.448 Z15.845 
N340 X134.002 Y-3.355 Z15.726 
N341 X134.006 Y-3.261 Z15.606 
N342 X134.010 Y-3.168 Z15.487 
N343 X134.014 Y-3.075 Z15.368 
N344 X134.018 Y-2.982 Z15.248 
N345 X134.022 Y-2.888 Z15.129 
N346 X134.026 Y-2.795 Z15.010 
N347 X134.030 Y-2.702 Z14.890 
N348 X134.034 Y-2.609 Z14.771 
N349 X134.038 Y-2.515 Z14.652 
N350 X134.042 Y-2.422 Z14.532 
N351 X134.046 Y-2.329 Z14.413 
N352 X134.050 Y-2.236 Z14.293 
N353 X134.054 Y-2.142 Z14.174 
N354 X134.058 Y-2.049 Z14.055 
N355 X134.062 Y-1.956 Z13.935 
N356 X134.066 Y-1.863 Z13.816 
N357 X134.070 Y-1.769 Z13.697 
N358 X134.074 Y-1.676 Z13.577 
N359 X134.078 Y-1.583 Z13.458 
N360 X134.082 Y-1.490 Z13.339 
N361 X134.086 Y-1.395 Z13.218 
N362 X134.090 Y-1.301 Z13.098 
N363 X134.094 Y-1.207 Z12.977 
N364 X134.098 Y-1.113 Z12.856 
N365 X134.102 Y-1.019 Z12.736 
N366 X134.106 Y-0.924 Z12.615 
N367 X134.110 Y-0.830 Z12.495 
N368 X134.114 Y-0.736 Z12.374 
N369 X134.118 Y-0.642 Z12.254 
N370 X134.122 Y-0.548 Z12.133 
N371 X134.126 Y-0.454 Z12.013 
N372 X134.130 Y-0.359 Z11.892 
N373 X134.134 Y-0.265 Z11.771 
N374 X134.138 Y-0.171 Z11.651 
N375 X134.142 Y-0.077 Z11.530 
N376 X134.146 Y0.017 Z11.410 
N377 X134.150 Y0.112 Z11.289 
N378 X134.154 Y0.206 Z11.169 
N379 X134.157 Y0.300 Z11.048 
N380 X134.159 Y0.394 Z10.927 
N381 X134.161 Y0.488 Z10.807 
N382 X134.163 Y0.583 Z10.686 
N383 X134.165 Y0.677 Z10.566 
N384 X134.167 Y0.771 Z10.445 
N385 X134.170 Y0.865 Z10.325 
N386 X134.172 Y0.959 Z10.204 
N387 X134.174 Y1.054 Z10.083 
N388 X134.176 Y1.148 Z9.963 
N389 X134.178 Y1.242 Z9.842 
N390 X134.180 Y1.336 Z9.722 
N391 X134.182 Y1.431 Z9.601 
N392 X134.184 Y1.525 Z9.480 
N393 X134.186 Y1.619 Z9.360 
N394 X134.188 Y1.713 Z9.239 
N395 X134.190 Y1.807 Z9.119 
N396 X134.192 Y1.902 Z8.998 
N397 X134.194 Y1.996 Z8.877 
N398 X134.196 Y2.090 Z8.757 
N399 X134.198 Y2.184 Z8.636 
N400 X134.200 Y2.278 Z8.516 
N401 X134.202 Y2.373 Z8.395 
N402 X134.204 Y2.467 Z8.275 
N403 X134.206 Y2.561 Z8.154 
N404 X134.208 Y2.655 Z8.033 
N405 X134.208 Y2.750 Z7.913 
N406 X134.207 Y2.844 Z7.792 
N407 X134.207 Y2.938 Z7.672 
N408 X134.207 Y3.032 Z7.551 
N409 X134.206 Y3.126 Z7.430 
N410 X134.206 Y3.221 Z7.310 
N411 X134.205 Y3.315 Z7.189 
N412 X134.205 Y3.409 Z7.069 
N413 X134.204 Y3.503 Z6.948 
N414 X134.204 Y3.598 Z6.827 
N415 X134.203 Y3.692 Z6.707 
N416 X134.203 Y3.786 Z6.586 
N417 X134.202 Y3.880 Z6.466 
N418 X134.202 Y3.974 Z6.345 
N419 X134.201 Y4.069 Z6.224 
N420 X134.201 Y4.163 Z6.104 
N421 X134.200 Y4.257 Z5.983 
N422 X134.200 Y4.351 Z5.863 
N423 X134.199 Y4.445 Z5.742 
N424 X134.199 Y4.540 Z5.621 
N425 X134.198 Y4.634 Z5.501 
N426 X134.198 Y4.728 Z5.380 
N427 X134.198 Y4.822 Z5.260 
N428 X134.197 Y4.917 Z5.139 
N429 X134.197 Y5.011 Z5.018 
N430 X134.196 Y5.105 Z4.898 
N431 X134.196 Y5.199 Z4.777 
N432 X134.195 Y5.293 Z4.657 
N433 X134.195 Y5.388 Z4.536 
N434 X134.194 Y5.482 Z4.415 
N435 X134.192 Y5.576 Z4.295 
N436 X134.189 Y5.670 Z4.174 
N437 X134.186 Y5.765 Z4.054 
N438 X134.183 Y5.859 Z3.933 
N439 X134.180 Y5.953 Z3.813 
N440 X134.177 Y6.047 Z3.692 
N441 X134.175 Y6.141 Z3.571 
N442 X134.172 Y6.236 Z3.451 
N443 X134.169 Y6.330 Z3.330 
N444 X134.166 Y6.424 Z3.210 
N445 X134.163 Y6.518 Z3.089 
N446 X134.160 Y6.612 Z2.969 
N447 X134.157 Y6.707 Z2.848 
N448 X134.155 Y6.801 Z2.727 
N449 X134.152 Y6.895 Z2.607 
N450 X134.149 Y6.989 Z2.486 
N451 X134.146 Y7.083 Z2.366 
N452 X134.143 Y7.178 Z2.245 
N453 X134.140 Y7.272 Z2.125 
N454 X134.138 Y7.366 Z2.004 
N455 X134.135 Y7.460 Z1.883 
N456 X134.132 Y7.554 Z1.763 
N457 X134.128 Y7.649 Z1.642 
N458 X134.123 Y7.743 Z1.522 
N459 X134.117 Y7.837 Z1.401 
N460 X134.112 Y7.931 Z1.281 
N461 X134.107 Y8.025 Z1.160 
N462 X134.102 Y8.119 Z1.040 
N463 X134.096 Y8.214 Z0.919 
N464 X134.091 Y8.308 Z0.799 
N465 X134.086 Y8.402 Z0.678 
N466 X134.081 Y8.496 Z0.557 
N467 X134.075 Y8.590 Z0.437 
N468 X134.070 Y8.684 Z0.316 
N469 X134.065 Y8.779 Z0.196 
N470 X134.060 Y8.873 Z0.075 
N471 X134.054 Y8.967 Z-0.045 
N472 X134.049 Y9.061 Z-0.166 
N473 X134.044 Y9.155 Z-0.286 
N474 X134.039 Y9.249 Z-0.407 
N475 X134.033 Y9.344 Z-0.527 
N476 X134.028 Y9.438 Z-0.648 
N477 X134.023 Y9.532 Z-0.768 
N478 X134.018 Y9.626 Z-0.889 
N479 X134.012 Y9.720 Z-1.009 
N480 X134.007 Y9.814 Z-1.130 
N481 X134.002 Y9.909 Z-1.250 
N482 X133.997 Y10.003 Z-1.371 
N483 X133.991 Y10.097 Z-1.491 
N484 X133.986 Y10.191 Z-1.612 
N485 X133.981 Y10.285 Z-1.733 
N486 X133.976 Y10.379 Z-1.853 
N487 X133.970 Y10.474 Z-1.974 
N488 X133.963 Y10.568 Z-2.094 
N489 X133.956 Y10.662 Z-2.214 
N490 X133.948 Y10.756 Z-2.335 
N491 X133.940 Y10.850 Z-2.455 
N492 X133.933 Y10.944 Z-2.576 
N493 X133.925 Y11.038 Z-2.696 
N494 X133.917 Y11.132 Z-2.817 
N495 X133.910 Y11.226 Z-2.937 
N496 X133.902 Y11.321 Z-3.058 
N497 X133.894 Y11.415 Z-3.178 
N498 X133.887 Y11.509 Z-3.298 
N499 X133.879 Y11.603 Z-3.419 
N500 X133.871 Y11.697 Z-3.539 
N501 X133.864 Y11.791 Z-3.660 
N502 X133.856 Y11.885 Z-3.780 
N503 X133.848 Y11.979 Z-3.901 
N504 X133.841 Y12.073 Z-4.021 
N505 X133.833 Y12.167 Z-4.142 
N506 X133.825 Y12.262 Z-4.262 
N507 X133.818 Y12.356 Z-4.383 
N508 X133.810 Y12.450 Z-4.503 
N509 X133.802 Y12.544 Z-4.623 
N510 X133.795 Y12.638 Z-4.744 
N511 X133.787 Y12.731 Z-4.863 
N512 X133.779 Y12.824 Z-4.982 
N513 X133.772 Y12.917 Z-5.102 
N514 X133.764 Y13.011 Z-5.221 
N515 X133.757 Y13.104 Z-5.340 
N516 X133.749 Y13.197 Z-5.459 
N517 X133.741 Y13.290 Z-5.579 
N518 X133.734 Y13.383 Z-5.698 
N519 X133.726 Y13.476 Z-5.817 
N520 X133.719 Y13.570 Z-5.936 
N521 X133.711 Y13.663 Z-6.056 
N522 X133.704 Y13.756 Z-6.175 
N523 X133.696 Y13.849 Z-6.294 
N524 X133.688 Y13.942 Z-6.413 
N525 X133.681 Y14.035 Z-6.533 
N526 X133.673 Y14.129 Z-6.652 
N527 X133.666 Y14.222 Z-6.771 
N528 X133.658 Y14.315 Z-6.890 
N529 X133.650 Y14.408 Z-7.010 
N530 X133.643 Y14.501 Z-7.129 
N531 X133.635 Y14.594 Z-7.248 
N532 X133.628 Y14.688 Z-7.367 
N533 X133.620 Y14.781 Z-7.486 
N534 X133.612 Y14.874 Z-7.606 
N535 X133.605 Y14.967 Z-7.725 
N536 X133.597 Y15.060 Z-7.844 
N537 X133.590 Y15.153 Z-7.963 
N538 X133.582 Y15.247 Z-8.083 
N539 X133.574 Y15.340 Z-8.202 
N540 X133.567 Y15.433 Z-8.321 
N541 X133.559 Y15.526 Z-8.440 
N542 X133.552 Y15.619 Z-8.560 
N543 X133.544 Y15.712 Z-8.679 
N544 G40 X133.494 Y16.327 Z-9.466 F458
N545 X133.494 Y16.327 Z-9.466 
N546 G00 X133.494 Y39.968 Z9.004 
N547 X133.844 Y14.116 Z36.949 
N548 X133.844 Y-9.524 Z18.479 
N549 ;FSE_1
N550 G01 G41 X133.871 Y-8.909 Z17.691 F458
N551 G01 X133.871 Y-8.909 Z17.691 F458 
N552 X133.875 Y-8.816 Z17.573 
N553 X133.879 Y-8.724 Z17.455 
N554 X133.883 Y-8.632 Z17.336 
N555 X133.887 Y-8.539 Z17.218 
N556 X133.890 Y-8.447 Z17.100 
N557 X133.894 Y-8.355 Z16.982 
N558 X133.898 Y-8.262 Z16.864 
N559 X133.902 Y-8.170 Z16.746 
N560 X133.906 Y-8.078 Z16.627 
N561 X133.910 Y-7.985 Z16.509 
N562 X133.914 Y-7.893 Z16.391 
N563 X133.918 Y-7.801 Z16.273 
N564 X133.922 Y-7.708 Z16.155 
N565 X133.926 Y-7.616 Z16.037 
N566 X133.930 Y-7.524 Z15.919 
N567 X133.934 Y-7.431 Z15.800 
N568 X133.938 Y-7.339 Z15.682 
N569 X133.942 Y-7.247 Z15.564 
N570 X133.946 Y-7.155 Z15.446 
N571 X133.950 Y-7.062 Z15.328 
N572 X133.954 Y-6.969 Z15.208 
N573 X133.958 Y-6.876 Z15.089 
N574 X133.962 Y-6.782 Z14.970 
N575 X133.966 Y-6.689 Z14.850 
N576 X133.970 Y-6.596 Z14.731 
N577 X133.974 Y-6.503 Z14.612 
N578 X133.978 Y-6.409 Z14.492 
N579 X133.982 Y-6.316 Z14.373 
N580 X133.986 Y-6.223 Z14.254 
N581 X133.990 Y-6.130 Z14.134 
N582 X133.994 Y-6.036 Z14.015 
N583 X133.998 Y-5.943 Z13.895 
N584 X134.002 Y-5.850 Z13.776 
N585 X134.006 Y-5.757 Z13.657 
N586 X134.010 Y-5.663 Z13.537 
N587 X134.014 Y-5.570 Z13.418 
N588 X134.018 Y-5.477 Z13.299 
N589 X134.022 Y-5.384 Z13.179 
N590 X134.026 Y-5.290 Z13.060 
N591 X134.030 Y-5.197 Z12.941 
N592 X134.034 Y-5.104 Z12.821 
N593 X134.038 Y-5.011 Z12.702 
N594 X134.042 Y-4.917 Z12.583 
N595 X134.046 Y-4.824 Z12.463 
N596 X134.050 Y-4.731 Z12.344 
N597 X134.054 Y-4.638 Z12.225 
N598 X134.058 Y-4.544 Z12.105 
N599 X134.062 Y-4.451 Z11.986 
N600 X134.066 Y-4.358 Z11.866 
N601 X134.070 Y-4.265 Z11.747 
N602 X134.074 Y-4.171 Z11.628 
N603 X134.078 Y-4.078 Z11.508 
N604 X134.082 Y-3.985 Z11.389 
N605 X134.086 Y-3.891 Z11.268 
N606 X134.090 Y-3.797 Z11.148 
N607 X134.094 Y-3.702 Z11.027 
N608 X134.098 Y-3.608 Z10.907 
N609 X134.102 Y-3.514 Z10.786 
N610 X134.106 Y-3.420 Z10.666 
N611 X134.110 Y-3.326 Z10.545 
N612 X134.114 Y-3.231 Z10.425 
N613 X134.118 Y-3.137 Z10.304 
N614 X134.122 Y-3.043 Z10.183 
N615 X134.126 Y-2.949 Z10.063 
N616 X134.130 Y-2.855 Z9.942 
N617 X134.134 Y-2.761 Z9.822 
N618 X134.138 Y-2.666 Z9.701 
N619 X134.142 Y-2.572 Z9.581 
N620 X134.146 Y-2.478 Z9.460 
N621 X134.150 Y-2.384 Z9.340 
N622 X134.154 Y-2.290 Z9.219 
N623 X134.157 Y-2.195 Z9.098 
N624 X134.159 Y-2.101 Z8.978 
N625 X134.161 Y-2.007 Z8.857 
N626 X134.163 Y-1.913 Z8.737 
N627 X134.165 Y-1.819 Z8.616 
N628 X134.167 Y-1.724 Z8.496 
N629 X134.170 Y-1.630 Z8.375 
N630 X134.172 Y-1.536 Z8.254 
N631 X134.174 Y-1.442 Z8.134 
N632 X134.176 Y-1.347 Z8.013 
N633 X134.178 Y-1.253 Z7.893 
N634 X134.180 Y-1.159 Z7.772 
N635 X134.182 Y-1.065 Z7.651 
N636 X134.184 Y-0.971 Z7.531 
N637 X134.186 Y-0.876 Z7.410 
N638 X134.188 Y-0.782 Z7.290 
N639 X134.190 Y-0.688 Z7.169 
N640 X134.192 Y-0.594 Z7.048 
N641 X134.194 Y-0.500 Z6.928 
N642 X134.196 Y-0.405 Z6.807 
N643 X134.198 Y-0.311 Z6.687 
N644 X134.200 Y-0.217 Z6.566 
N645 X134.202 Y-0.123 Z6.446 
N646 X134.204 Y-0.028 Z6.325 
N647 X134.206 Y0.066 Z6.204 
N648 X134.208 Y0.160 Z6.084 
N649 X134.208 Y0.254 Z5.963 
N650 X134.207 Y0.348 Z5.843 
N651 X134.207 Y0.443 Z5.722 
N652 X134.207 Y0.537 Z5.601 
N653 X134.206 Y0.631 Z5.481 
N654 X134.206 Y0.725 Z5.360 
N655 X134.205 Y0.819 Z5.240 
N656 X134.205 Y0.914 Z5.119 
N657 X134.204 Y1.008 Z4.998 
N658 X134.204 Y1.102 Z4.878 
N659 X134.203 Y1.196 Z4.757 
N660 X134.203 Y1.291 Z4.637 
N661 X134.202 Y1.385 Z4.516 
N662 X134.202 Y1.479 Z4.395 
N663 X134.201 Y1.573 Z4.275 
N664 X134.201 Y1.667 Z4.154 
N665 X134.200 Y1.762 Z4.034 
N666 X134.200 Y1.856 Z3.913 
N667 X134.199 Y1.950 Z3.792 
N668 X134.199 Y2.044 Z3.672 
N669 X134.198 Y2.139 Z3.551 
N670 X134.198 Y2.233 Z3.431 
N671 X134.198 Y2.327 Z3.310 
N672 X134.197 Y2.421 Z3.189 
N673 X134.197 Y2.515 Z3.069 
N674 X134.196 Y2.610 Z2.948 
N675 X134.196 Y2.704 Z2.828 
N676 X134.195 Y2.798 Z2.707 
N677 X134.195 Y2.892 Z2.586 
N678 X134.194 Y2.987 Z2.466 
N679 X134.192 Y3.081 Z2.345 
N680 X134.189 Y3.175 Z2.225 
N681 X134.186 Y3.269 Z2.104 
N682 X134.183 Y3.363 Z1.984 
N683 X134.180 Y3.458 Z1.863 
N684 X134.177 Y3.552 Z1.742 
N685 X134.175 Y3.646 Z1.622 
N686 X134.172 Y3.740 Z1.501 
N687 X134.169 Y3.834 Z1.381 
N688 X134.166 Y3.929 Z1.260 
N689 X134.163 Y4.023 Z1.140 
N690 X134.160 Y4.117 Z1.019 
N691 X134.157 Y4.211 Z0.898 
N692 X134.155 Y4.305 Z0.778 
N693 X134.152 Y4.400 Z0.657 
N694 X134.149 Y4.494 Z0.537 
N695 X134.146 Y4.588 Z0.416 
N696 X134.143 Y4.682 Z0.295 
N697 X134.140 Y4.776 Z0.175 
N698 X134.138 Y4.871 Z0.054 
N699 X134.135 Y4.965 Z-0.066 
N700 X134.132 Y5.059 Z-0.187 
N701 X134.128 Y5.153 Z-0.307 
N702 X134.123 Y5.247 Z-0.428 
N703 X134.117 Y5.342 Z-0.548 
N704 X134.112 Y5.436 Z-0.669 
N705 X134.107 Y5.530 Z-0.789 
N706 X134.102 Y5.624 Z-0.910 
N707 X134.096 Y5.718 Z-1.031 
N708 X134.091 Y5.812 Z-1.151 
N709 X134.086 Y5.907 Z-1.272 
N710 X134.081 Y6.001 Z-1.392 
N711 X134.075 Y6.095 Z-1.513 
N712 X134.070 Y6.189 Z-1.633 
N713 X134.065 Y6.283 Z-1.754 
N714 X134.060 Y6.377 Z-1.874 
N715 X134.054 Y6.472 Z-1.995 
N716 X134.049 Y6.566 Z-2.115 
N717 X134.044 Y6.660 Z-2.236 
N718 X134.039 Y6.754 Z-2.356 
N719 X134.033 Y6.848 Z-2.477 
N720 X134.028 Y6.942 Z-2.597 
N721 X134.023 Y7.037 Z-2.718 
N722 X134.018 Y7.131 Z-2.838 
N723 X134.012 Y7.225 Z-2.959 
N724 X134.007 Y7.319 Z-3.079 
N725 X134.002 Y7.413 Z-3.200 
N726 X133.997 Y7.507 Z-3.321 
N727 X133.991 Y7.602 Z-3.441 
N728 X133.986 Y7.696 Z-3.562 
N729 X133.981 Y7.790 Z-3.682 
N730 X133.976 Y7.884 Z-3.803 
N731 X133.970 Y7.978 Z-3.923 
N732 X133.963 Y8.072 Z-4.044 
N733 X133.956 Y8.166 Z-4.164 
N734 X133.948 Y8.261 Z-4.285 
N735 X133.940 Y8.355 Z-4.405 
N736 X133.933 Y8.449 Z-4.525 
N737 X133.925 Y8.543 Z-4.646 
N738 X133.917 Y8.637 Z-4.766 
N739 X133.910 Y8.731 Z-4.887 
N740 X133.902 Y8.825 Z-5.007 
N741 X133.894 Y8.919 Z-5.128 
N742 X133.887 Y9.013 Z-5.248 
N743 X133.879 Y9.107 Z-5.369 
N744 X133.871 Y9.202 Z-5.489 
N745 X133.864 Y9.296 Z-5.609 
N746 X133.856 Y9.390 Z-5.730 
N747 X133.848 Y9.484 Z-5.850 
N748 X133.841 Y9.578 Z-5.971 
N749 X133.833 Y9.672 Z-6.091 
N750 X133.825 Y9.766 Z-6.212 
N751 X133.818 Y9.860 Z-6.332 
N752 X133.810 Y9.954 Z-6.453 
N753 X133.802 Y10.049 Z-6.573 
N754 X133.795 Y10.143 Z-6.693 
N755 X133.787 Y10.236 Z-6.813 
N756 X133.779 Y10.329 Z-6.932 
N757 X133.772 Y10.422 Z-7.051 
N758 X133.764 Y10.515 Z-7.170 
N759 X133.757 Y10.608 Z-7.290 
N760 X133.749 Y10.702 Z-7.409 
N761 X133.741 Y10.795 Z-7.528 
N762 X133.734 Y10.888 Z-7.647 
N763 X133.726 Y10.981 Z-7.767 
N764 X133.719 Y11.074 Z-7.886 
N765 X133.711 Y11.167 Z-8.005 
N766 X133.704 Y11.261 Z-8.124 
N767 X133.696 Y11.354 Z-8.244 
N768 X133.688 Y11.447 Z-8.363 
N769 X133.681 Y11.540 Z-8.482 
N770 X133.673 Y11.633 Z-8.601 
N771 X133.666 Y11.726 Z-8.721 
N772 X133.658 Y11.820 Z-8.840 
N773 X133.650 Y11.913 Z-8.959 
N774 X133.643 Y12.006 Z-9.078 
N775 X133.635 Y12.099 Z-9.198 
N776 X133.628 Y12.192 Z-9.317 
N777 X133.620 Y12.285 Z-9.436 
N778 X133.612 Y12.379 Z-9.555 
N779 X133.605 Y12.472 Z-9.675 
N780 X133.597 Y12.565 Z-9.794 
N781 X133.590 Y12.658 Z-9.913 
N782 X133.582 Y12.751 Z-10.032 
N783 X133.574 Y12.844 Z-10.152 
N784 X133.567 Y12.938 Z-10.271 
N785 X133.559 Y13.031 Z-10.390 
N786 X133.552 Y13.124 Z-10.509 
N787 X133.544 Y13.217 Z-10.629 
N788 G40 X133.494 Y13.832 Z-11.416 F458
N789 X133.494 Y13.832 Z-11.416 
N790 G00 X133.494 Y53.232 Z19.368 
RAPORT("T44444","Side Milling:149 End")
N792 ;trailer : concat=None
; points cnt = 714
N793 MSG (" --- GROUPED OF SUBPROGRAM --- ")
N794 FGROUP()
N795 TRAFOOF
N10 ; PROGRAM NAME: 4444438
N11 ; ORDER       : 44444
N12 ; OPER. NAME  : Side Milling:150
N13 ; OPER. DESCR.: rough face root outlet FSA
N14 ; OPER. TYPE  : sideMill
N15 ; GEO. OPTION : 1
N16 ; MACHINE     : SH_HX151_24_SIM840D
N17 ;             : STARRAG_HECKERT_5axis_finish_milling_machine
N18 ; CONTROL     : SINUMERIK 840D
N19 ; created:   2022-11-03 13:38:14.125513
;-------DODATKOWE DANE-------------------
; PROGRAMISTA : Mariusz Malec
; PARTID      : 139T004654P1015_-
;  ap         : 4.4
;  ae         : 1.0
;  lean_angle : 0.0
;  fin_offset : -9.5
;----------------------------------------
N20 ;----------------------------------------
RAPORT("T44444","Side Milling:150")
N21 TRAFOOF
N22 D0
N23 G0 G90 G94 Z260.0
N24 STOPRE
N25 M9 ; chlodziwo wyl
N26 ; --- Side Milling:150 - rough face root outlet FSA ---
N28 ;ToolChange : concat=None ,current_tdmid=None, PP.tdmId=957774
N29 TRAFOOF
N30 D0
N31 G0 G54 Z270.0
N32 S2864 M03
N33 STOPRE
N34 TOL(0.1,1,1)
N35 G0  A128.0000
N36 TRAORI
N37 G54 D2
N38 ;tol5=0.15
N39 D2 
STOPRE
E_ZDARZ=500001
;ACS_ROUGH_ROOT_FRONT=7757774
STOPRE
;UWAGA : ZMIENIONA TOLERANCJA OSI A i B, ruchy osi A i B beda usuniete : TOL5=0.15
N40 ; DELTA A > 40.1
N41 TRAFOOF
N42 STOPRE
N43 G0 G53 D0 Z265.000
N44 G1 G53 A128.0000 F10000
N45 TRAORI
N46 G54 D2
N47 TRANS 
N48 G00 X133.935 Y-38.279 Z-46.126 A128.0000 B0.0000 
N49 M342 ; chlodziwo woda
N50 X133.935 Y1.122 Z-15.343 
N51 ;FSA_1
N52 G01 G41 X133.956 Y0.506 Z-14.555 F458
N53 G01 X133.956 Y0.506 Z-14.555 F458 
N54 X133.959 Y0.414 Z-14.437 
N55 X133.962 Y0.322 Z-14.318 
N56 X133.965 Y0.229 Z-14.200 
N57 X133.968 Y0.137 Z-14.082 
N58 X133.971 Y0.045 Z-13.964 
N59 X133.974 Y-0.048 Z-13.846 
N60 X133.977 Y-0.140 Z-13.727 
N61 X133.980 Y-0.232 Z-13.609 
N62 X133.983 Y-0.325 Z-13.491 
N63 X133.986 Y-0.417 Z-13.373 
N64 X133.989 Y-0.509 Z-13.255 
N65 X133.992 Y-0.602 Z-13.137 
N66 X133.995 Y-0.694 Z-13.018 
N67 X133.998 Y-0.786 Z-12.900 
N68 X134.002 Y-0.879 Z-12.782 
N69 X134.005 Y-0.971 Z-12.664 
N70 X134.008 Y-1.063 Z-12.546 
N71 X134.011 Y-1.156 Z-12.428 
N72 X134.014 Y-1.248 Z-12.309 
N73 X134.017 Y-1.340 Z-12.191 
N74 X134.020 Y-1.433 Z-12.072 
N75 X134.023 Y-1.527 Z-11.952 
N76 X134.026 Y-1.620 Z-11.833 
N77 X134.029 Y-1.713 Z-11.714 
N78 X134.032 Y-1.807 Z-11.594 
N79 X134.035 Y-1.900 Z-11.475 
N80 X134.038 Y-1.993 Z-11.356 
N81 X134.042 Y-2.086 Z-11.236 
N82 X134.045 Y-2.180 Z-11.117 
N83 X134.048 Y-2.273 Z-10.997 
N84 X134.051 Y-2.366 Z-10.878 
N85 X134.054 Y-2.459 Z-10.759 
N86 X134.057 Y-2.553 Z-10.639 
N87 X134.060 Y-2.646 Z-10.520 
N88 X134.063 Y-2.739 Z-10.401 
N89 X134.066 Y-2.832 Z-10.281 
N90 X134.069 Y-2.926 Z-10.162 
N91 X134.072 Y-3.019 Z-10.042 
N92 X134.076 Y-3.112 Z-9.923 
N93 X134.079 Y-3.205 Z-9.804 
N94 X134.082 Y-3.299 Z-9.684 
N95 X134.085 Y-3.392 Z-9.565 
N96 X134.088 Y-3.485 Z-9.446 
N97 X134.091 Y-3.579 Z-9.326 
N98 X134.094 Y-3.672 Z-9.207 
N99 X134.097 Y-3.765 Z-9.088 
N100 X134.100 Y-3.858 Z-8.968 
N101 X134.103 Y-3.952 Z-8.849 
N102 X134.107 Y-4.045 Z-8.729 
N103 X134.110 Y-4.138 Z-8.610 
N104 X134.113 Y-4.231 Z-8.491 
N105 X134.116 Y-4.325 Z-8.371 
N106 X134.119 Y-4.418 Z-8.252 
N107 X134.122 Y-4.512 Z-8.131 
N108 X134.125 Y-4.606 Z-8.011 
N109 X134.128 Y-4.700 Z-7.890 
N110 X134.131 Y-4.795 Z-7.770 
N111 X134.135 Y-4.889 Z-7.649 
N112 X134.138 Y-4.983 Z-7.529 
N113 X134.141 Y-5.077 Z-7.408 
N114 X134.144 Y-5.171 Z-7.287 
N115 X134.147 Y-5.266 Z-7.167 
N116 X134.150 Y-5.360 Z-7.046 
N117 X134.153 Y-5.454 Z-6.926 
N118 X134.156 Y-5.548 Z-6.805 
N119 X134.159 Y-5.642 Z-6.685 
N120 X134.163 Y-5.737 Z-6.564 
N121 X134.166 Y-5.831 Z-6.444 
N122 X134.169 Y-5.925 Z-6.323 
N123 X134.172 Y-6.019 Z-6.202 
N124 X134.175 Y-6.113 Z-6.082 
N125 X134.178 Y-6.208 Z-5.961 
N126 X134.181 Y-6.302 Z-5.841 
N127 X134.184 Y-6.396 Z-5.720 
N128 X134.188 Y-6.490 Z-5.600 
N129 X134.189 Y-6.584 Z-5.479 
N130 X134.189 Y-6.679 Z-5.358 
N131 X134.190 Y-6.773 Z-5.238 
N132 X134.191 Y-6.867 Z-5.117 
N133 X134.192 Y-6.961 Z-4.997 
N134 X134.193 Y-7.055 Z-4.876 
N135 X134.194 Y-7.150 Z-4.756 
N136 X134.194 Y-7.244 Z-4.635 
N137 X134.195 Y-7.338 Z-4.514 
N138 X134.196 Y-7.432 Z-4.394 
N139 X134.197 Y-7.526 Z-4.273 
N140 X134.198 Y-7.621 Z-4.153 
N141 X134.199 Y-7.715 Z-4.032 
N142 X134.199 Y-7.809 Z-3.912 
N143 X134.200 Y-7.903 Z-3.791 
N144 X134.201 Y-7.997 Z-3.670 
N145 X134.202 Y-8.092 Z-3.550 
N146 X134.203 Y-8.186 Z-3.429 
N147 X134.204 Y-8.280 Z-3.309 
N148 X134.204 Y-8.374 Z-3.188 
N149 X134.205 Y-8.468 Z-3.067 
N150 X134.206 Y-8.563 Z-2.947 
N151 X134.207 Y-8.657 Z-2.826 
N152 X134.208 Y-8.751 Z-2.706 
N153 X134.209 Y-8.845 Z-2.585 
N154 X134.210 Y-8.940 Z-2.465 
N155 X134.210 Y-9.034 Z-2.344 
N156 X134.211 Y-9.128 Z-2.223 
N157 X134.211 Y-9.222 Z-2.103 
N158 X134.209 Y-9.316 Z-1.982 
N159 X134.208 Y-9.411 Z-1.862 
N160 X134.206 Y-9.505 Z-1.741 
N161 X134.204 Y-9.599 Z-1.620 
N162 X134.203 Y-9.693 Z-1.500 
N163 X134.201 Y-9.787 Z-1.379 
N164 X134.199 Y-9.882 Z-1.259 
N165 X134.198 Y-9.976 Z-1.138 
N166 X134.196 Y-10.070 Z-1.018 
N167 X134.194 Y-10.164 Z-0.897 
N168 X134.193 Y-10.258 Z-0.776 
N169 X134.191 Y-10.353 Z-0.656 
N170 X134.189 Y-10.447 Z-0.535 
N171 X134.188 Y-10.541 Z-0.415 
N172 X134.186 Y-10.635 Z-0.294 
N173 X134.184 Y-10.729 Z-0.174 
N174 X134.183 Y-10.824 Z-0.053 
N175 X134.181 Y-10.918 Z0.068 
N176 X134.179 Y-11.012 Z0.188 
N177 X134.178 Y-11.106 Z0.309 
N178 X134.176 Y-11.200 Z0.429 
N179 X134.175 Y-11.295 Z0.550 
N180 X134.173 Y-11.389 Z0.670 
N181 X134.171 Y-11.483 Z0.791 
N182 X134.170 Y-11.577 Z0.912 
N183 X134.168 Y-11.671 Z1.032 
N184 X134.164 Y-11.766 Z1.153 
N185 X134.161 Y-11.860 Z1.273 
N186 X134.157 Y-11.954 Z1.394 
N187 X134.153 Y-12.048 Z1.514 
N188 X134.149 Y-12.142 Z1.635 
N189 X134.146 Y-12.237 Z1.756 
N190 X134.142 Y-12.331 Z1.876 
N191 X134.138 Y-12.425 Z1.997 
N192 X134.134 Y-12.519 Z2.117 
N193 X134.131 Y-12.613 Z2.238 
N194 X134.127 Y-12.707 Z2.358 
N195 X134.123 Y-12.802 Z2.479 
N196 X134.119 Y-12.896 Z2.599 
N197 X134.115 Y-12.990 Z2.720 
N198 X134.112 Y-13.084 Z2.840 
N199 X134.108 Y-13.178 Z2.961 
N200 X134.104 Y-13.273 Z3.082 
N201 X134.100 Y-13.367 Z3.202 
N202 X134.097 Y-13.461 Z3.323 
N203 X134.093 Y-13.555 Z3.443 
N204 X134.087 Y-13.649 Z3.564 
N205 X134.081 Y-13.743 Z3.684 
N206 X134.075 Y-13.838 Z3.805 
N207 X134.069 Y-13.932 Z3.925 
N208 X134.063 Y-14.026 Z4.046 
N209 X134.057 Y-14.120 Z4.166 
N210 X134.051 Y-14.214 Z4.287 
N211 X134.045 Y-14.308 Z4.407 
N212 X134.039 Y-14.402 Z4.528 
N213 X134.033 Y-14.497 Z4.648 
N214 X134.027 Y-14.591 Z4.769 
N215 X134.021 Y-14.685 Z4.889 
N216 X134.015 Y-14.779 Z5.010 
N217 X134.009 Y-14.873 Z5.130 
N218 X134.003 Y-14.967 Z5.251 
N219 X133.997 Y-15.061 Z5.371 
N220 X133.991 Y-15.155 Z5.492 
N221 X133.985 Y-15.250 Z5.612 
N222 X133.979 Y-15.344 Z5.733 
N223 X133.973 Y-15.438 Z5.853 
N224 X133.967 Y-15.532 Z5.973 
N225 X133.961 Y-15.626 Z6.094 
N226 X133.955 Y-15.720 Z6.214 
N227 X133.949 Y-15.814 Z6.335 
N228 X133.943 Y-15.909 Z6.455 
N229 X133.937 Y-16.003 Z6.576 
N230 X133.931 Y-16.097 Z6.696 
N231 X133.925 Y-16.191 Z6.817 
N232 X133.919 Y-16.285 Z6.937 
N233 X133.913 Y-16.379 Z7.058 
N234 X133.905 Y-16.473 Z7.178 
N235 X133.896 Y-16.567 Z7.299 
N236 X133.888 Y-16.661 Z7.419 
N237 X133.879 Y-16.756 Z7.540 
N238 X133.871 Y-16.850 Z7.660 
N239 X133.863 Y-16.944 Z7.780 
N240 X133.854 Y-17.038 Z7.901 
N241 X133.846 Y-17.132 Z8.021 
N242 X133.837 Y-17.226 Z8.142 
N243 X133.829 Y-17.320 Z8.262 
N244 X133.820 Y-17.414 Z8.382 
N245 X133.812 Y-17.508 Z8.503 
N246 X133.804 Y-17.602 Z8.623 
N247 X133.795 Y-17.696 Z8.744 
N248 X133.787 Y-17.790 Z8.864 
N249 X133.778 Y-17.884 Z8.984 
N250 X133.770 Y-17.978 Z9.105 
N251 X133.762 Y-18.072 Z9.225 
N252 X133.753 Y-18.167 Z9.346 
N253 X133.745 Y-18.261 Z9.466 
N254 X133.736 Y-18.355 Z9.586 
N255 X133.728 Y-18.449 Z9.707 
N256 X133.720 Y-18.543 Z9.827 
N257 X133.711 Y-18.636 Z9.946 
N258 X133.703 Y-18.729 Z10.066 
N259 X133.695 Y-18.822 Z10.185 
N260 X133.686 Y-18.915 Z10.304 
N261 X133.678 Y-19.009 Z10.423 
N262 X133.670 Y-19.102 Z10.542 
N263 X133.661 Y-19.195 Z10.662 
N264 X133.653 Y-19.288 Z10.781 
N265 X133.645 Y-19.381 Z10.900 
N266 X133.636 Y-19.474 Z11.019 
N267 X133.628 Y-19.567 Z11.139 
N268 X133.620 Y-19.661 Z11.258 
N269 X133.611 Y-19.754 Z11.377 
N270 X133.603 Y-19.847 Z11.496 
N271 X133.595 Y-19.940 Z11.615 
N272 X133.586 Y-20.033 Z11.735 
N273 X133.578 Y-20.126 Z11.854 
N274 X133.570 Y-20.219 Z11.973 
N275 X133.561 Y-20.313 Z12.092 
N276 X133.553 Y-20.406 Z12.211 
N277 X133.545 Y-20.499 Z12.331 
N278 X133.536 Y-20.592 Z12.450 
N279 X133.528 Y-20.685 Z12.569 
N280 X133.520 Y-20.778 Z12.688 
N281 X133.511 Y-20.871 Z12.808 
N282 X133.503 Y-20.964 Z12.927 
N283 X133.495 Y-21.058 Z13.046 
N284 X133.487 Y-21.151 Z13.165 
N285 X133.478 Y-21.244 Z13.284 
N286 X133.470 Y-21.337 Z13.404 
N287 X133.462 Y-21.430 Z13.523 
N288 X133.453 Y-21.523 Z13.642 
N289 X133.445 Y-21.616 Z13.761 
N290 G40 X133.390 Y-22.231 Z14.548 F458
N291 X133.390 Y-22.231 Z14.548 
N292 G00 X133.390 Y-45.872 Z-3.922 
N293 X133.935 Y-20.023 Z-31.863 
N294 X133.935 Y3.617 Z-13.393 
N295 ;FSA_1
N296 G01 G41 X133.956 Y3.002 Z-12.605 F458
N297 G01 X133.956 Y3.002 Z-12.605 F458 
N298 X133.959 Y2.909 Z-12.487 
N299 X133.962 Y2.817 Z-12.369 
N300 X133.965 Y2.725 Z-12.251 
N301 X133.968 Y2.632 Z-12.132 
N302 X133.971 Y2.540 Z-12.014 
N303 X133.974 Y2.448 Z-11.896 
N304 X133.977 Y2.355 Z-11.778 
N305 X133.980 Y2.263 Z-11.660 
N306 X133.983 Y2.171 Z-11.542 
N307 X133.986 Y2.078 Z-11.423 
N308 X133.989 Y1.986 Z-11.305 
N309 X133.992 Y1.894 Z-11.187 
N310 X133.995 Y1.801 Z-11.069 
N311 X133.998 Y1.709 Z-10.951 
N312 X134.002 Y1.617 Z-10.832 
N313 X134.005 Y1.524 Z-10.714 
N314 X134.008 Y1.432 Z-10.596 
N315 X134.011 Y1.340 Z-10.478 
N316 X134.014 Y1.247 Z-10.360 
N317 X134.017 Y1.155 Z-10.242 
N318 X134.020 Y1.062 Z-10.122 
N319 X134.023 Y0.969 Z-10.003 
N320 X134.026 Y0.875 Z-9.883 
N321 X134.029 Y0.782 Z-9.764 
N322 X134.032 Y0.689 Z-9.645 
N323 X134.035 Y0.596 Z-9.525 
N324 X134.038 Y0.502 Z-9.406 
N325 X134.042 Y0.409 Z-9.287 
N326 X134.045 Y0.316 Z-9.167 
N327 X134.048 Y0.223 Z-9.048 
N328 X134.051 Y0.129 Z-8.928 
N329 X134.054 Y0.036 Z-8.809 
N330 X134.057 Y-0.057 Z-8.690 
N331 X134.060 Y-0.151 Z-8.570 
N332 X134.063 Y-0.244 Z-8.451 
N333 X134.066 Y-0.337 Z-8.332 
N334 X134.069 Y-0.430 Z-8.212 
N335 X134.072 Y-0.524 Z-8.093 
N336 X134.076 Y-0.617 Z-7.974 
N337 X134.079 Y-0.710 Z-7.854 
N338 X134.082 Y-0.803 Z-7.735 
N339 X134.085 Y-0.897 Z-7.615 
N340 X134.088 Y-0.990 Z-7.496 
N341 X134.091 Y-1.083 Z-7.377 
N342 X134.094 Y-1.176 Z-7.257 
N343 X134.097 Y-1.270 Z-7.138 
N344 X134.100 Y-1.363 Z-7.019 
N345 X134.103 Y-1.456 Z-6.899 
N346 X134.107 Y-1.549 Z-6.780 
N347 X134.110 Y-1.643 Z-6.660 
N348 X134.113 Y-1.736 Z-6.541 
N349 X134.116 Y-1.829 Z-6.422 
N350 X134.119 Y-1.923 Z-6.302 
N351 X134.122 Y-2.017 Z-6.182 
N352 X134.125 Y-2.111 Z-6.061 
N353 X134.128 Y-2.205 Z-5.941 
N354 X134.131 Y-2.299 Z-5.820 
N355 X134.135 Y-2.393 Z-5.700 
N356 X134.138 Y-2.488 Z-5.579 
N357 X134.141 Y-2.582 Z-5.458 
N358 X134.144 Y-2.676 Z-5.338 
N359 X134.147 Y-2.770 Z-5.217 
N360 X134.150 Y-2.864 Z-5.097 
N361 X134.153 Y-2.959 Z-4.976 
N362 X134.156 Y-3.053 Z-4.856 
N363 X134.159 Y-3.147 Z-4.735 
N364 X134.163 Y-3.241 Z-4.615 
N365 X134.166 Y-3.335 Z-4.494 
N366 X134.169 Y-3.430 Z-4.373 
N367 X134.172 Y-3.524 Z-4.253 
N368 X134.175 Y-3.618 Z-4.132 
N369 X134.178 Y-3.712 Z-4.012 
N370 X134.181 Y-3.806 Z-3.891 
N371 X134.184 Y-3.901 Z-3.771 
N372 X134.188 Y-3.995 Z-3.650 
N373 X134.189 Y-4.089 Z-3.529 
N374 X134.189 Y-4.183 Z-3.409 
N375 X134.190 Y-4.277 Z-3.288 
N376 X134.191 Y-4.372 Z-3.168 
N377 X134.192 Y-4.466 Z-3.047 
N378 X134.193 Y-4.560 Z-2.927 
N379 X134.194 Y-4.654 Z-2.806 
N380 X134.194 Y-4.748 Z-2.685 
N381 X134.195 Y-4.843 Z-2.565 
N382 X134.196 Y-4.937 Z-2.444 
N383 X134.197 Y-5.031 Z-2.324 
N384 X134.198 Y-5.125 Z-2.203 
N385 X134.199 Y-5.219 Z-2.082 
N386 X134.199 Y-5.314 Z-1.962 
N387 X134.200 Y-5.408 Z-1.841 
N388 X134.201 Y-5.502 Z-1.721 
N389 X134.202 Y-5.596 Z-1.600 
N390 X134.203 Y-5.690 Z-1.480 
N391 X134.204 Y-5.785 Z-1.359 
N392 X134.204 Y-5.879 Z-1.238 
N393 X134.205 Y-5.973 Z-1.118 
N394 X134.206 Y-6.067 Z-0.997 
N395 X134.207 Y-6.162 Z-0.877 
N396 X134.208 Y-6.256 Z-0.756 
N397 X134.209 Y-6.350 Z-0.636 
N398 X134.210 Y-6.444 Z-0.515 
N399 X134.210 Y-6.538 Z-0.394 
N400 X134.211 Y-6.633 Z-0.274 
N401 X134.211 Y-6.727 Z-0.153 
N402 X134.209 Y-6.821 Z-0.033 
N403 X134.208 Y-6.915 Z0.088 
N404 X134.206 Y-7.009 Z0.209 
N405 X134.204 Y-7.104 Z0.329 
N406 X134.203 Y-7.198 Z0.450 
N407 X134.201 Y-7.292 Z0.570 
N408 X134.199 Y-7.386 Z0.691 
N409 X134.198 Y-7.480 Z0.811 
N410 X134.196 Y-7.575 Z0.932 
N411 X134.194 Y-7.669 Z1.053 
N412 X134.193 Y-7.763 Z1.173 
N413 X134.191 Y-7.857 Z1.294 
N414 X134.189 Y-7.951 Z1.414 
N415 X134.188 Y-8.046 Z1.535 
N416 X134.186 Y-8.140 Z1.655 
N417 X134.184 Y-8.234 Z1.776 
N418 X134.183 Y-8.328 Z1.897 
N419 X134.181 Y-8.422 Z2.017 
N420 X134.179 Y-8.517 Z2.138 
N421 X134.178 Y-8.611 Z2.258 
N422 X134.176 Y-8.705 Z2.379 
N423 X134.175 Y-8.799 Z2.500 
N424 X134.173 Y-8.893 Z2.620 
N425 X134.171 Y-8.988 Z2.741 
N426 X134.170 Y-9.082 Z2.861 
N427 X134.168 Y-9.176 Z2.982 
N428 X134.164 Y-9.270 Z3.102 
N429 X134.161 Y-9.364 Z3.223 
N430 X134.157 Y-9.459 Z3.343 
N431 X134.153 Y-9.553 Z3.464 
N432 X134.149 Y-9.647 Z3.585 
N433 X134.146 Y-9.741 Z3.705 
N434 X134.142 Y-9.835 Z3.826 
N435 X134.138 Y-9.930 Z3.946 
N436 X134.134 Y-10.024 Z4.067 
N437 X134.131 Y-10.118 Z4.187 
N438 X134.127 Y-10.212 Z4.308 
N439 X134.123 Y-10.306 Z4.428 
N440 X134.119 Y-10.400 Z4.549 
N441 X134.115 Y-10.495 Z4.669 
N442 X134.112 Y-10.589 Z4.790 
N443 X134.108 Y-10.683 Z4.911 
N444 X134.104 Y-10.777 Z5.031 
N445 X134.100 Y-10.871 Z5.152 
N446 X134.097 Y-10.966 Z5.272 
N447 X134.093 Y-11.060 Z5.393 
N448 X134.087 Y-11.154 Z5.513 
N449 X134.081 Y-11.248 Z5.634 
N450 X134.075 Y-11.342 Z5.754 
N451 X134.069 Y-11.436 Z5.875 
N452 X134.063 Y-11.530 Z5.995 
N453 X134.057 Y-11.625 Z6.116 
N454 X134.051 Y-11.719 Z6.236 
N455 X134.045 Y-11.813 Z6.357 
N456 X134.039 Y-11.907 Z6.477 
N457 X134.033 Y-12.001 Z6.598 
N458 X134.027 Y-12.095 Z6.718 
N459 X134.021 Y-12.189 Z6.839 
N460 X134.015 Y-12.284 Z6.959 
N461 X134.009 Y-12.378 Z7.080 
N462 X134.003 Y-12.472 Z7.200 
N463 X133.997 Y-12.566 Z7.321 
N464 X133.991 Y-12.660 Z7.441 
N465 X133.985 Y-12.754 Z7.562 
N466 X133.979 Y-12.848 Z7.682 
N467 X133.973 Y-12.943 Z7.803 
N468 X133.967 Y-13.037 Z7.923 
N469 X133.961 Y-13.131 Z8.044 
N470 X133.955 Y-13.225 Z8.164 
N471 X133.949 Y-13.319 Z8.285 
N472 X133.943 Y-13.413 Z8.405 
N473 X133.937 Y-13.507 Z8.526 
N474 X133.931 Y-13.601 Z8.646 
N475 X133.925 Y-13.696 Z8.767 
N476 X133.919 Y-13.790 Z8.887 
N477 X133.913 Y-13.884 Z9.007 
N478 X133.905 Y-13.978 Z9.128 
N479 X133.896 Y-14.072 Z9.248 
N480 X133.888 Y-14.166 Z9.369 
N481 X133.879 Y-14.260 Z9.489 
N482 X133.871 Y-14.354 Z9.610 
N483 X133.863 Y-14.448 Z9.730 
N484 X133.854 Y-14.542 Z9.850 
N485 X133.846 Y-14.636 Z9.971 
N486 X133.837 Y-14.731 Z10.091 
N487 X133.829 Y-14.825 Z10.212 
N488 X133.820 Y-14.919 Z10.332 
N489 X133.812 Y-15.013 Z10.452 
N490 X133.804 Y-15.107 Z10.573 
N491 X133.795 Y-15.201 Z10.693 
N492 X133.787 Y-15.295 Z10.814 
N493 X133.778 Y-15.389 Z10.934 
N494 X133.770 Y-15.483 Z11.054 
N495 X133.762 Y-15.577 Z11.175 
N496 X133.753 Y-15.671 Z11.295 
N497 X133.745 Y-15.765 Z11.416 
N498 X133.736 Y-15.859 Z11.536 
N499 X133.728 Y-15.953 Z11.656 
N500 X133.720 Y-16.047 Z11.777 
N501 X133.711 Y-16.141 Z11.896 
N502 X133.703 Y-16.234 Z12.015 
N503 X133.695 Y-16.327 Z12.134 
N504 X133.686 Y-16.420 Z12.254 
N505 X133.678 Y-16.513 Z12.373 
N506 X133.670 Y-16.606 Z12.492 
N507 X133.661 Y-16.699 Z12.611 
N508 X133.653 Y-16.793 Z12.730 
N509 X133.645 Y-16.886 Z12.850 
N510 X133.636 Y-16.979 Z12.969 
N511 X133.628 Y-17.072 Z13.088 
N512 X133.620 Y-17.165 Z13.207 
N513 X133.611 Y-17.258 Z13.327 
N514 X133.603 Y-17.351 Z13.446 
N515 X133.595 Y-17.445 Z13.565 
N516 X133.586 Y-17.538 Z13.684 
N517 X133.578 Y-17.631 Z13.803 
N518 X133.570 Y-17.724 Z13.923 
N519 X133.561 Y-17.817 Z14.042 
N520 X133.553 Y-17.910 Z14.161 
N521 X133.545 Y-18.003 Z14.280 
N522 X133.536 Y-18.097 Z14.399 
N523 X133.528 Y-18.190 Z14.519 
N524 X133.520 Y-18.283 Z14.638 
N525 X133.511 Y-18.376 Z14.757 
N526 X133.503 Y-18.469 Z14.876 
N527 X133.495 Y-18.562 Z14.996 
N528 X133.487 Y-18.655 Z15.115 
N529 X133.478 Y-18.749 Z15.234 
N530 X133.470 Y-18.842 Z15.353 
N531 X133.462 Y-18.935 Z15.472 
N532 X133.453 Y-19.028 Z15.592 
N533 X133.445 Y-19.121 Z15.711 
N534 G40 X133.390 Y-19.736 Z16.498 F458
N535 X133.390 Y-19.736 Z16.498 
N536 G00 X133.390 Y-43.376 Z-1.972 
N537 X133.935 Y-17.528 Z-29.913 
N538 X133.935 Y6.113 Z-11.443 
N539 ;FSA_1
N540 G01 G41 X133.956 Y5.497 Z-10.656 F458
N541 G01 X133.956 Y5.497 Z-10.656 F458 
N542 X133.959 Y5.405 Z-10.537 
N543 X133.962 Y5.312 Z-10.419 
N544 X133.965 Y5.220 Z-10.301 
N545 X133.968 Y5.128 Z-10.183 
N546 X133.971 Y5.035 Z-10.065 
N547 X133.974 Y4.943 Z-9.946 
N548 X133.977 Y4.851 Z-9.828 
N549 X133.980 Y4.758 Z-9.710 
N550 X133.983 Y4.666 Z-9.592 
N551 X133.986 Y4.574 Z-9.474 
N552 X133.989 Y4.481 Z-9.356 
N553 X133.992 Y4.389 Z-9.237 
N554 X133.995 Y4.297 Z-9.119 
N555 X133.998 Y4.204 Z-9.001 
N556 X134.002 Y4.112 Z-8.883 
N557 X134.005 Y4.020 Z-8.765 
N558 X134.008 Y3.927 Z-8.647 
N559 X134.011 Y3.835 Z-8.528 
N560 X134.014 Y3.743 Z-8.410 
N561 X134.017 Y3.651 Z-8.292 
N562 X134.020 Y3.557 Z-8.173 
N563 X134.023 Y3.464 Z-8.053 
N564 X134.026 Y3.371 Z-7.934 
N565 X134.029 Y3.277 Z-7.815 
N566 X134.032 Y3.184 Z-7.695 
N567 X134.035 Y3.091 Z-7.576 
N568 X134.038 Y2.998 Z-7.456 
N569 X134.042 Y2.904 Z-7.337 
N570 X134.045 Y2.811 Z-7.218 
N571 X134.048 Y2.718 Z-7.098 
N572 X134.051 Y2.625 Z-6.979 
N573 X134.054 Y2.531 Z-6.860 
N574 X134.057 Y2.438 Z-6.740 
N575 X134.060 Y2.345 Z-6.621 
N576 X134.063 Y2.252 Z-6.501 
N577 X134.066 Y2.158 Z-6.382 
N578 X134.069 Y2.065 Z-6.263 
N579 X134.072 Y1.972 Z-6.143 
N580 X134.076 Y1.879 Z-6.024 
N581 X134.079 Y1.785 Z-5.905 
N582 X134.082 Y1.692 Z-5.785 
N583 X134.085 Y1.599 Z-5.666 
N584 X134.088 Y1.505 Z-5.546 
N585 X134.091 Y1.412 Z-5.427 
N586 X134.094 Y1.319 Z-5.308 
N587 X134.097 Y1.226 Z-5.188 
N588 X134.100 Y1.132 Z-5.069 
N589 X134.103 Y1.039 Z-4.950 
N590 X134.107 Y0.946 Z-4.830 
N591 X134.110 Y0.853 Z-4.711 
N592 X134.113 Y0.759 Z-4.591 
N593 X134.116 Y0.666 Z-4.472 
N594 X134.119 Y0.573 Z-4.353 
N595 X134.122 Y0.479 Z-4.232 
N596 X134.125 Y0.384 Z-4.112 
N597 X134.128 Y0.290 Z-3.991 
N598 X134.131 Y0.196 Z-3.871 
N599 X134.135 Y0.102 Z-3.750 
N600 X134.138 Y0.008 Z-3.629 
N601 X134.141 Y-0.086 Z-3.509 
N602 X134.144 Y-0.181 Z-3.388 
N603 X134.147 Y-0.275 Z-3.268 
N604 X134.150 Y-0.369 Z-3.147 
N605 X134.153 Y-0.463 Z-3.027 
N606 X134.156 Y-0.557 Z-2.906 
N607 X134.159 Y-0.652 Z-2.785 
N608 X134.163 Y-0.746 Z-2.665 
N609 X134.166 Y-0.840 Z-2.544 
N610 X134.169 Y-0.934 Z-2.424 
N611 X134.172 Y-1.028 Z-2.303 
N612 X134.175 Y-1.123 Z-2.183 
N613 X134.178 Y-1.217 Z-2.062 
N614 X134.181 Y-1.311 Z-1.942 
N615 X134.184 Y-1.405 Z-1.821 
N616 X134.188 Y-1.499 Z-1.700 
N617 X134.189 Y-1.594 Z-1.580 
N618 X134.189 Y-1.688 Z-1.459 
N619 X134.190 Y-1.782 Z-1.339 
N620 X134.191 Y-1.876 Z-1.218 
N621 X134.192 Y-1.970 Z-1.098 
N622 X134.193 Y-2.065 Z-0.977 
N623 X134.194 Y-2.159 Z-0.856 
N624 X134.194 Y-2.253 Z-0.736 
N625 X134.195 Y-2.347 Z-0.615 
N626 X134.196 Y-2.441 Z-0.495 
N627 X134.197 Y-2.536 Z-0.374 
N628 X134.198 Y-2.630 Z-0.253 
N629 X134.199 Y-2.724 Z-0.133 
N630 X134.199 Y-2.818 Z-0.012 
N631 X134.200 Y-2.912 Z0.108 
N632 X134.201 Y-3.007 Z0.229 
N633 X134.202 Y-3.101 Z0.349 
N634 X134.203 Y-3.195 Z0.470 
N635 X134.204 Y-3.289 Z0.591 
N636 X134.204 Y-3.384 Z0.711 
N637 X134.205 Y-3.478 Z0.832 
N638 X134.206 Y-3.572 Z0.952 
N639 X134.207 Y-3.666 Z1.073 
N640 X134.208 Y-3.760 Z1.194 
N641 X134.209 Y-3.855 Z1.314 
N642 X134.210 Y-3.949 Z1.435 
N643 X134.210 Y-4.043 Z1.555 
N644 X134.211 Y-4.137 Z1.676 
N645 X134.211 Y-4.231 Z1.796 
N646 X134.209 Y-4.326 Z1.917 
N647 X134.208 Y-4.420 Z2.038 
N648 X134.206 Y-4.514 Z2.158 
N649 X134.204 Y-4.608 Z2.279 
N650 X134.203 Y-4.702 Z2.399 
N651 X134.201 Y-4.797 Z2.520 
N652 X134.199 Y-4.891 Z2.640 
N653 X134.198 Y-4.985 Z2.761 
N654 X134.196 Y-5.079 Z2.882 
N655 X134.194 Y-5.173 Z3.002 
N656 X134.193 Y-5.268 Z3.123 
N657 X134.191 Y-5.362 Z3.243 
N658 X134.189 Y-5.456 Z3.364 
N659 X134.188 Y-5.550 Z3.484 
N660 X134.186 Y-5.644 Z3.605 
N661 X134.184 Y-5.739 Z3.726 
N662 X134.183 Y-5.833 Z3.846 
N663 X134.181 Y-5.927 Z3.967 
N664 X134.179 Y-6.021 Z4.087 
N665 X134.178 Y-6.116 Z4.208 
N666 X134.176 Y-6.210 Z4.329 
N667 X134.175 Y-6.304 Z4.449 
N668 X134.173 Y-6.398 Z4.570 
N669 X134.171 Y-6.492 Z4.690 
N670 X134.170 Y-6.587 Z4.811 
N671 X134.168 Y-6.681 Z4.931 
N672 X134.164 Y-6.775 Z5.052 
N673 X134.161 Y-6.869 Z5.173 
N674 X134.157 Y-6.963 Z5.293 
N675 X134.153 Y-7.057 Z5.414 
N676 X134.149 Y-7.152 Z5.534 
N677 X134.146 Y-7.246 Z5.655 
N678 X134.142 Y-7.340 Z5.775 
N679 X134.138 Y-7.434 Z5.896 
N680 X134.134 Y-7.528 Z6.016 
N681 X134.131 Y-7.623 Z6.137 
N682 X134.127 Y-7.717 Z6.257 
N683 X134.123 Y-7.811 Z6.378 
N684 X134.119 Y-7.905 Z6.499 
N685 X134.115 Y-7.999 Z6.619 
N686 X134.112 Y-8.093 Z6.740 
N687 X134.108 Y-8.188 Z6.860 
N688 X134.104 Y-8.282 Z6.981 
N689 X134.100 Y-8.376 Z7.101 
N690 X134.097 Y-8.470 Z7.222 
N691 X134.093 Y-8.564 Z7.342 
N692 X134.087 Y-8.659 Z7.463 
N693 X134.081 Y-8.753 Z7.583 
N694 X134.075 Y-8.847 Z7.704 
N695 X134.069 Y-8.941 Z7.824 
N696 X134.063 Y-9.035 Z7.945 
N697 X134.057 Y-9.129 Z8.065 
N698 X134.051 Y-9.223 Z8.186 
N699 X134.045 Y-9.317 Z8.306 
N700 X134.039 Y-9.412 Z8.427 
N701 X134.033 Y-9.506 Z8.547 
N702 X134.027 Y-9.600 Z8.668 
N703 X134.021 Y-9.694 Z8.788 
N704 X134.015 Y-9.788 Z8.909 
N705 X134.009 Y-9.882 Z9.029 
N706 X134.003 Y-9.976 Z9.150 
N707 X133.997 Y-10.071 Z9.270 
N708 X133.991 Y-10.165 Z9.391 
N709 X133.985 Y-10.259 Z9.511 
N710 X133.979 Y-10.353 Z9.632 
N711 X133.973 Y-10.447 Z9.752 
N712 X133.967 Y-10.541 Z9.873 
N713 X133.961 Y-10.635 Z9.993 
N714 X133.955 Y-10.730 Z10.114 
N715 X133.949 Y-10.824 Z10.234 
N716 X133.943 Y-10.918 Z10.355 
N717 X133.937 Y-11.012 Z10.475 
N718 X133.931 Y-11.106 Z10.596 
N719 X133.925 Y-11.200 Z10.716 
N720 X133.919 Y-11.294 Z10.837 
N721 X133.913 Y-11.389 Z10.957 
N722 X133.905 Y-11.483 Z11.077 
N723 X133.896 Y-11.577 Z11.198 
N724 X133.888 Y-11.671 Z11.318 
N725 X133.879 Y-11.765 Z11.439 
N726 X133.871 Y-11.859 Z11.559 
N727 X133.863 Y-11.953 Z11.680 
N728 X133.854 Y-12.047 Z11.800 
N729 X133.846 Y-12.141 Z11.920 
N730 X133.837 Y-12.235 Z12.041 
N731 X133.829 Y-12.329 Z12.161 
N732 X133.820 Y-12.423 Z12.282 
N733 X133.812 Y-12.517 Z12.402 
N734 X133.804 Y-12.611 Z12.522 
N735 X133.795 Y-12.705 Z12.643 
N736 X133.787 Y-12.800 Z12.763 
N737 X133.778 Y-12.894 Z12.884 
N738 X133.770 Y-12.988 Z13.004 
N739 X133.762 Y-13.082 Z13.124 
N740 X133.753 Y-13.176 Z13.245 
N741 X133.745 Y-13.270 Z13.365 
N742 X133.736 Y-13.364 Z13.486 
N743 X133.728 Y-13.458 Z13.606 
N744 X133.720 Y-13.552 Z13.726 
N745 X133.711 Y-13.645 Z13.846 
N746 X133.703 Y-13.738 Z13.965 
N747 X133.695 Y-13.832 Z14.084 
N748 X133.686 Y-13.925 Z14.203 
N749 X133.678 Y-14.018 Z14.322 
N750 X133.670 Y-14.111 Z14.442 
N751 X133.661 Y-14.204 Z14.561 
N752 X133.653 Y-14.297 Z14.680 
N753 X133.645 Y-14.390 Z14.799 
N754 X133.636 Y-14.483 Z14.918 
N755 X133.628 Y-14.577 Z15.038 
N756 X133.620 Y-14.670 Z15.157 
N757 X133.611 Y-14.763 Z15.276 
N758 X133.603 Y-14.856 Z15.395 
N759 X133.595 Y-14.949 Z15.515 
N760 X133.586 Y-15.042 Z15.634 
N761 X133.578 Y-15.135 Z15.753 
N762 X133.570 Y-15.229 Z15.872 
N763 X133.561 Y-15.322 Z15.991 
N764 X133.553 Y-15.415 Z16.111 
N765 X133.545 Y-15.508 Z16.230 
N766 X133.536 Y-15.601 Z16.349 
N767 X133.528 Y-15.694 Z16.468 
N768 X133.520 Y-15.787 Z16.587 
N769 X133.511 Y-15.881 Z16.707 
N770 X133.503 Y-15.974 Z16.826 
N771 X133.495 Y-16.067 Z16.945 
N772 X133.487 Y-16.160 Z17.064 
N773 X133.478 Y-16.253 Z17.184 
N774 X133.470 Y-16.346 Z17.303 
N775 X133.462 Y-16.439 Z17.422 
N776 X133.453 Y-16.533 Z17.541 
N777 X133.445 Y-16.626 Z17.660 
N778 G40 X133.390 Y-17.240 Z18.447 F458
N779 X133.390 Y-17.240 Z18.447 
N780 G00 X133.390 Y-56.641 Z-12.336 
RAPORT("T44444","Side Milling:150 End")
N782 ;trailer : concat=None
; points cnt = 714
N783 MSG (" --- GROUPED OF SUBPROGRAM --- ")
N784 FGROUP()
N785 TRAFOOF
N10 ; PROGRAM NAME: 4444438
N11 ; ORDER       : 44444
N12 ; OPER. NAME  : Side Milling:151
N13 ; OPER. DESCR.: Semi Finishing shroud Radius Cut KR
N14 ; OPER. TYPE  : sideMill
N15 ; GEO. OPTION : 1
N16 ; MACHINE     : SH_HX151_24_SIM840D
N17 ;             : STARRAG_HECKERT_5axis_finish_milling_machine
N18 ; CONTROL     : SINUMERIK 840D
N19 ; created:   2022-11-03 13:38:17.721312
;-------DODATKOWE DANE-------------------
; PROGRAMISTA : Mariusz Malec
; PARTID      : 139T004654P1015_-
;  ap         : 0.9
;  ae         : 1.0
;  lean_angle : 0.02
;  fin_offset : 0.3
;----------------------------------------
N20 ;----------------------------------------
RAPORT("T44444","Side Milling:151")
N21 TRAFOOF
N22 D0
N23 G0 G90 G94 Z260.0
N24 STOPRE
N25 M9 ; chlodziwo wyl
N26 ; --- Side Milling:151 - Semi Finishing shroud Radius Cut KR ---
N28 ;ToolChange : concat=None ,current_tdmid=None, PP.tdmId=957774
N29 TRAFOOF
N30 D0
N31 G0 G54 Z270.0
N32 S2864 M03
N33 STOPRE
N34 TOL(0.1,1,1)
N35 G0  A179.9837
N36 TRAORI
N37 G54 D3
N38 D3 
STOPRE
E_ZDARZ=400003
;ACS_PREFINISH_SHROUD=7757774
STOPRE
N39 ; DELTA A > 40.1
N40 TRAFOOF
N41 STOPRE
N42 G0 G53 D0 Z265.000
N43 G1 G53 A179.9837 F10000
N44 TRAORI
N45 G54 D3
N46 TRANS 
N47 G00 X240.956 Y41.138 Z-59.052 A179.9837 B-3.5270 
N48 M342 ; chlodziwo woda
N49 X243.313 Y41.199 Z-9.107 
N50 G01 X243.313 Y31.199 Z-9.098 F458 
N51 X243.313 Y30.199 Z-9.098 
N52 X243.313 Y25.199 Z-9.093 
N53 X243.313 Y4.264 Z-9.075 
N54 X243.313 Y-0.736 Z-9.071 
N55 X243.313 Y-10.736 Z-9.062 
N56 G00 X240.956 Y-10.797 Z-59.006 
RAPORT("T44444","Side Milling:151 End")
N58 ;trailer : concat=None
; points cnt = 6
N59 M9 ; chlodziwo wyl.
N60 M9 ; chlodziwo wyl.
N61 MSG (" --- KONIEC PROGRAMU --- ")
N62 TRANS
N63 G54
N64 FGROUP()
N65 TRAFOOF
N66 STOPRE
N67 G0 G53 D0 Z290.0 M9 M5
N68 G0 G53 Y150 A0 B0
N69 M17
