N10 ; PROGRAM NAME: 4444432
N11 ; ORDER       : 44444
N12 ; OPER. NAME  : Spiral Finish Transition:110
N13 ; OPER. DESCR.: Spiral transition - Semi finish transition root/promienie przejsc pwk
N14 ; OPER. TYPE  : finTransRoot
N15 ; GEO. OPTION : 7
N16 ; MACHINE     : SH_HX151_24_SIM840D
N17 ;             : STARRAG_HECKERT_5axis_finish_milling_machine
N18 ; CONTROL     : SINUMERIK 840D
N19 ; created:   2022-11-03 13:35:10.521403
;-------DODATKOWE DANE-------------------
; PROGRAMISTA : Mariusz Malec
; PARTID      : 139T004654P1015_-
;  ae         : 1.5
;  lean_angle : 5.0
;  tilt_angle : 14.5
;  airf_offset: 0.05
;  plat_offset: 0.6
;----------------------------------------
N20 ;----------------------------------------
RAPORT("T44444","Spiral Finish Transition:110")
N21 TRAFOOF
N22 D0
N23 G90 G94
N24 STOPRE
N25 M9 ; chlodziwo wyl
N26 ; --- Spiral Finish Transition:110 - Spiral transition - Semi finish transition root/promienie przejsc pwk ---
N28 ;ToolChange : concat=None ,current_tdmid=None, PP.tdmId=940626
N29 MSG(" TLID=940626 D=8.391 R=5.0 Ang=10.0 Len=155.0 ")
N30 TRAFOOF
N31 D0
N32 G0 G53 Z290 B0
N33 G0 X200
N34 G0 Y150
N35 T="7740626"
N36 G0 X500
RAPORT("T44444","ToolChangeStart 7740626")
N37 M6
RAPORT("T44444","ToolChangeEnd")
N38 ; (Preloading tool)
N39 T="7741294"
N40 G0 X200
N41 STOPRE
N42 S6987 M03
N43 STOPRE
N44 TOL(0.001,1,1)
N45 G0 X201.142 A144.5701
N46 TRAORI
N47 G54 D1
N48 D1 
N49 TRANS  X=R3 A=R25
N50 ; DELTA A > 40.1
N51 TRAFOOF
N52 STOPRE
N53 G0 G53 D0 Z265.000
N54 G1 G53 A144.5701 F10000
N55 TRAORI
N56 G54 D1
N57 TRANS  X=R3 A=R25
N58 G00 X201.142 Y-62.442 Z-33.263 A144.5701 B19.0776 
N59 M342 ; chlodziwo woda
N60 X188.623 Y-33.289 Z5.381 
N61 G01 X188.623 Y-30.856 Z7.349 F1456 
N62 X188.623 Y-27.935 Z8.469 
N63 X188.623 Y-24.810 Z8.631 
N64 X188.623 Y-21.789 Z7.819 
N65 X188.623 Y-19.166 Z6.114 
N66 X188.622 Y-19.088 Z6.040 A146.1736 
N67 X188.621 Y-19.029 Z5.991 A146.7524 
N68 X188.619 Y-18.970 Z5.945 A146.9466 
N69 X188.618 Y-18.902 Z5.892 A147.0259 
N70 X188.616 Y-18.815 Z5.824 A147.0766 
N71 X188.614 Y-18.712 Z5.743 A147.1121 
N72 X188.611 Y-18.578 Z5.637 A147.1441 
N73 X188.608 Y-18.418 Z5.509 A147.1788 
N74 X188.605 Y-18.214 Z5.345 A147.2199 
N75 X188.601 Y-17.983 Z5.159 A147.2672 
N76 X188.598 Y-17.748 Z4.970 A147.3199 
N77 X188.594 Y-17.512 Z4.781 A147.3781 
N78 X188.590 Y-17.276 Z4.592 A147.4426 
N79 X188.586 Y-17.040 Z4.404 A147.5147 
N80 X188.583 Y-16.804 Z4.215 A147.5952 
N81 X188.579 Y-16.567 Z4.027 A147.6850 
N82 X188.575 Y-16.329 Z3.838 A147.7841 
N83 X188.571 Y-16.091 Z3.650 A147.8927 
N84 X188.567 Y-15.852 Z3.462 A148.0104 
N85 X188.563 Y-15.612 Z3.275 A148.1372 
N86 X188.559 Y-15.372 Z3.088 A148.2728 
N87 X188.555 Y-15.131 Z2.901 A148.4174 
N88 X188.552 Y-14.890 Z2.714 A148.5707 
N89 X188.548 Y-14.648 Z2.528 A148.7331 
N90 X188.544 Y-14.405 Z2.342 A148.9045 
N91 X188.539 Y-14.161 Z2.157 A149.0854 
N92 X188.535 Y-13.916 Z1.973 A149.2764 
N93 X188.531 Y-13.671 Z1.789 A149.4783 
N94 X188.527 Y-13.424 Z1.605 A149.6921 
N95 X188.523 Y-13.177 Z1.423 A149.9191 
N96 X188.519 Y-12.928 Z1.240 A150.1605 
N97 X188.514 Y-12.678 Z1.059 A150.4171 
N98 X188.510 Y-12.427 Z0.878 A150.6896 
N99 X188.506 Y-12.175 Z0.698 A150.9785 
N100 X188.501 Y-11.921 Z0.519 A151.2840 
N101 X188.497 Y-11.666 Z0.341 A151.6066 
N102 X188.492 Y-11.409 Z0.165 A151.9465 
N103 X188.488 Y-11.151 Z-0.011 A152.3044 
N104 X188.483 Y-10.891 Z-0.186 A152.6811 
N105 X188.478 Y-10.630 Z-0.359 A153.0774 
N106 X188.474 Y-10.366 Z-0.531 A153.4943 
N107 X188.469 Y-10.101 Z-0.701 A153.9328 
N108 X188.464 Y-9.834 Z-0.870 A154.3941 
N109 X188.459 Y-9.566 Z-1.037 A154.8795 
N110 X188.454 Y-9.294 Z-1.203 A155.3904 
N111 X188.449 Y-9.021 Z-1.366 A155.9281 
N112 X188.443 Y-8.745 Z-1.527 A156.4943 
N113 X188.438 Y-8.467 Z-1.687 A157.0909 
N114 X188.433 Y-8.187 Z-1.844 A157.7200 
N115 X188.427 Y-7.903 Z-1.998 A158.3842 
N116 X188.421 Y-7.617 Z-2.150 A159.0866 
N117 X188.416 Y-7.328 Z-2.299 A159.8303 
N118 X188.410 Y-7.035 Z-2.446 A160.6189 
N119 X188.404 Y-6.739 Z-2.589 A161.4548 
N120 X188.397 Y-6.440 Z-2.728 A162.3388 
N121 X188.391 Y-6.137 Z-2.863 A163.2681 
N122 X188.385 Y-5.833 Z-2.993 A164.2335 
N123 X188.378 Y-5.538 Z-3.113 A165.2173 
N124 X188.372 Y-5.254 Z-3.224 A166.2096 
N125 X188.366 Y-4.980 Z-3.325 A167.2057 
N126 X188.360 Y-4.714 Z-3.418 A168.2035 
N127 X188.354 Y-4.456 Z-3.503 A169.2021 
N128 X188.348 Y-4.206 Z-3.580 A170.2012 
N129 X188.343 Y-3.963 Z-3.651 A171.2004 
N130 X188.337 Y-3.727 Z-3.716 A172.1997 
N131 X188.332 Y-3.498 Z-3.774 A173.1990 
N132 X188.326 Y-3.276 Z-3.827 A174.1984 
N133 X188.321 Y-3.059 Z-3.874 A175.1978 
N134 X188.316 Y-2.847 Z-3.917 A176.1973 
N135 X188.310 Y-2.641 Z-3.955 A177.1967 
N136 X188.305 Y-2.439 Z-3.988 A178.1962 
N137 X188.300 Y-2.242 Z-4.017 A179.1957 
N138 X188.295 Y-2.049 Z-4.042 A180.1953 
N139 X188.290 Y-1.861 Z-4.063 A181.1948 
N140 X188.285 Y-1.676 Z-4.081 A182.1944 
N141 X188.280 Y-1.494 Z-4.095 A183.1940 
N142 X188.276 Y-1.316 Z-4.106 A184.1936 
N143 X188.271 Y-1.141 Z-4.113 A185.1932 
N144 X188.266 Y-0.969 Z-4.118 A186.1929 
N145 X188.261 Y-0.800 Z-4.119 A187.1926 
N146 X188.257 Y-0.634 Z-4.118 A188.1923 
N147 X188.252 Y-0.470 Z-4.114 A189.1920 
N148 X188.247 Y-0.308 Z-4.107 A190.1917 
N149 X188.243 Y-0.149 Z-4.097 A191.1915 
N150 X188.238 Y0.009 Z-4.085 A192.1912 
N151 X188.233 Y0.164 Z-4.070 A193.1910 
N152 X188.229 Y0.317 Z-4.053 A194.1908 
N153 X188.224 Y0.469 Z-4.033 A195.1906 
N154 X188.220 Y0.618 Z-4.011 A196.1905 
N155 X188.215 Y0.767 Z-3.986 A197.1903 
N156 X188.211 Y0.913 Z-3.960 A198.1902 
N157 X188.206 Y1.059 Z-3.930 A199.1901 
N158 X188.202 Y1.203 Z-3.899 A200.1900 
N159 X188.197 Y1.345 Z-3.865 A201.1899 
N160 X188.193 Y1.487 Z-3.828 A202.1899 
N161 X188.188 Y1.627 Z-3.790 A203.1898 
N162 X188.183 Y1.766 Z-3.749 A204.1898 
N163 X188.179 Y1.904 Z-3.706 A205.1897 
N164 X188.174 Y2.041 Z-3.660 A206.1897 
N165 X188.170 Y2.177 Z-3.613 A207.1897 
N166 X188.165 Y2.313 Z-3.562 A208.1897 
N167 X188.160 Y2.447 Z-3.510 A209.1897 
N168 X188.156 Y2.581 Z-3.455 A210.1897 
N169 X188.151 Y2.714 Z-3.397 A211.1897 
N170 X188.146 Y2.846 Z-3.337 A212.1898 
N171 X188.142 Y2.978 Z-3.275 A213.1898 
N172 X188.137 Y3.110 Z-3.210 A214.1898 
N173 X188.132 Y3.240 Z-3.142 A215.1899 
N174 X188.127 Y3.371 Z-3.072 A216.1899 
N175 X188.122 Y3.501 Z-2.999 A217.1900 
N176 X188.117 Y3.630 Z-2.923 A218.1900 
N177 X188.112 Y3.759 Z-2.844 A219.1901 
N178 X188.107 Y3.888 Z-2.762 A220.1902 
N179 X188.102 Y4.017 Z-2.677 A221.1902 
N180 X188.097 Y4.145 Z-2.589 A222.1903 
N181 X188.092 Y4.274 Z-2.498 A223.1904 
N182 X188.087 Y4.402 Z-2.404 A224.1904 
N183 X188.081 Y4.530 Z-2.306 A225.1905 
N184 X188.076 Y4.658 Z-2.205 A226.1905 
N185 X188.070 Y4.786 Z-2.099 A227.1906 
N186 X188.065 Y4.913 Z-1.990 A228.1906 
N187 X188.059 Y5.041 Z-1.878 A229.1907 
N188 X188.054 Y5.169 Z-1.760 A230.1907 
N189 X188.048 Y5.297 Z-1.639 A231.1907 
N190 X188.042 Y5.426 Z-1.513 A232.1907 
N191 X188.036 Y5.554 Z-1.383 A233.1907 
N192 X188.030 Y5.682 Z-1.248 A234.1907 
N193 X188.024 Y5.811 Z-1.107 A235.1907 
N194 X188.017 Y5.939 Z-0.962 A236.1907 
N195 X188.011 Y6.068 Z-0.811 A237.1907 
N196 X188.004 Y6.197 Z-0.655 A238.1906 
N197 X187.998 Y6.326 Z-0.492 A239.1906 
N198 X187.991 Y6.455 Z-0.324 A240.1905 
N199 X187.984 Y6.584 Z-0.149 A241.1904 
N200 X187.977 Y6.713 Z0.032 A242.1904 
N201 X187.969 Y6.842 Z0.220 A243.1902 
N202 X187.962 Y6.970 Z0.414 A244.1901 
N203 X187.955 Y7.097 Z0.615 A245.1900 
N204 X187.947 Y7.223 Z0.821 A246.1898 
N205 X187.940 Y7.346 Z1.032 A247.1897 
N206 X187.932 Y7.467 Z1.246 A248.1895 
N207 X187.925 Y7.585 Z1.465 A249.1893 
N208 X187.917 Y7.700 Z1.686 A250.1891 
N209 X187.909 Y7.812 Z1.912 A251.1888 
N210 X187.902 Y7.921 Z2.143 A252.1886 
N211 X187.894 Y8.028 Z2.378 A253.1883 
N212 X187.887 Y8.131 Z2.618 A254.1880 
N213 X187.879 Y8.231 Z2.861 A255.1877 
N214 X187.872 Y8.327 Z3.105 A256.1873 
N215 X187.864 Y8.417 Z3.347 A257.1870 
N216 X187.857 Y8.500 Z3.583 A258.1866 
N217 X187.851 Y8.576 Z3.812 A259.1862 
N218 X187.844 Y8.645 Z4.032 A260.1858 
N219 X187.839 Y8.708 Z4.245 A261.1853 
N220 X187.833 Y8.764 Z4.449 A262.1849 
N221 X187.828 Y8.815 Z4.644 A263.1844 
N222 X187.823 Y8.860 Z4.831 A264.1839 
N223 X187.818 Y8.899 Z5.007 A265.1834 
N224 X187.814 Y8.933 Z5.172 A266.1828 
N225 X187.810 Y8.963 Z5.328 A267.1823 
N226 X187.806 Y8.988 Z5.477 A268.1817 
N227 X187.803 Y9.010 Z5.620 A269.1811 
N228 X187.799 Y9.029 Z5.757 A270.1805 
N229 X187.796 Y9.045 Z5.886 A271.1799 
N230 X187.793 Y9.057 Z6.007 A272.1793 
N231 X187.791 Y9.067 Z6.119 A273.1789 
N232 X187.788 Y9.074 Z6.223 A274.1787 
N233 X187.786 Y9.080 Z6.320 A275.1793 
N234 X187.784 Y9.084 Z6.411 A276.1815 
N235 X187.782 Y9.086 Z6.496 A277.1871 
N236 X187.780 Y9.086 Z6.577 A278.2005 
N237 X187.779 Y9.086 Z6.652 A279.2310 
N238 X187.777 Y9.085 Z6.725 A280.2990 
N239 X187.776 Y9.082 Z6.800 A281.4481 
N240 X187.774 Y9.078 Z6.877 A282.7117 
N241 X187.773 Y9.073 Z6.959 A284.1187 
N242 X187.771 Y9.066 Z7.046 A285.6980 
N243 X187.770 Y9.056 Z7.138 A287.4817 
N244 X187.768 Y9.044 Z7.236 A289.5061 
N245 X187.767 Y9.027 Z7.342 A291.8149 
N246 X187.766 Y9.005 Z7.456 A294.4679 
N247 X187.765 Y8.974 Z7.585 A297.5682 
N248 X187.763 Y8.931 Z7.730 A301.1512 
N249 X187.762 Y8.876 Z7.881 A305.1149 
N250 X187.761 Y8.808 Z8.035 A309.3697 
N251 X187.761 Y8.726 Z8.189 A313.8222 
N252 X187.760 Y8.631 Z8.337 A318.3782 
N253 X187.760 Y8.524 Z8.478 A322.9515 
N254 X187.759 Y8.407 Z8.608 A327.4667 
N255 X187.759 Y8.283 Z8.727 A331.8587 
N256 X187.759 Y8.154 Z8.832 A336.0686 
N257 X187.759 Y8.024 Z8.923 A340.0379 
N258 X187.759 Y7.894 Z9.000 A343.6980 
N259 X187.759 Y7.773 Z9.062 A346.9509 
N260 X187.759 Y7.664 Z9.110 A349.7979 
N261 X187.759 Y7.560 Z9.150 A352.3375 
N262 X187.760 Y7.460 Z9.182 A354.6181 
N263 X187.760 Y7.366 Z9.208 A356.6685 
N264 X187.760 Y7.277 Z9.229 A358.5113 
N265 X187.761 Y7.191 Z9.245 A0.1685 
N266 X187.761 Y7.110 Z9.258 A1.6625 
N267 X187.761 Y7.032 Z9.268 A3.0152 
N268 X187.762 Y6.958 Z9.275 A4.2482 
N269 X187.762 Y6.885 Z9.281 A5.3836 
N270 X187.762 Y6.815 Z9.284 A6.4476 
N271 X187.763 Y6.742 Z9.286 A7.4765 
N272 X187.764 Y6.666 Z9.287 A8.4895 
N273 X187.764 Y6.586 Z9.286 A9.4952 
N274 X187.765 Y6.502 Z9.283 A10.4977 
N275 X187.766 Y6.412 Z9.278 A11.4986 
N276 X187.768 Y6.316 Z9.272 A12.4989 
N277 X187.769 Y6.214 Z9.262 A13.4989 
N278 X187.771 Y6.103 Z9.250 A14.4988 
N279 X187.773 Y5.983 Z9.235 A15.4986 
N280 X187.776 Y5.855 Z9.216 A16.4984 
N281 X187.779 Y5.718 Z9.194 A17.4980 
N282 X187.782 Y5.573 Z9.167 A18.4974 
N283 X187.785 Y5.419 Z9.135 A19.4962 
N284 X187.789 Y5.252 Z9.098 A20.4937 
N285 X187.794 Y5.066 Z9.053 A21.4884 
N286 X187.800 Y4.857 Z8.997 A22.4768 
N287 X187.806 Y4.620 Z8.930 A23.4513 
N288 X187.814 Y4.350 Z8.848 A24.3952 
N289 X187.823 Y4.046 Z8.749 A25.2720 
N290 X187.833 Y3.745 Z8.644 A26.0314 
N291 X187.842 Y3.448 Z8.537 A26.6604 
N292 X187.851 Y3.155 Z8.428 A27.1675 
N293 X187.861 Y2.866 Z8.316 A27.5683 
N294 X187.870 Y2.580 Z8.204 A27.8795 
N295 X187.880 Y2.297 Z8.090 A28.1149 
N296 X187.889 Y2.016 Z7.976 A28.2845 
N297 X187.898 Y1.736 Z7.861 A28.3940 
N298 X187.908 Y1.458 Z7.746 A28.4461 
N299 X187.917 Y1.181 Z7.632 A28.4412 
N300 X187.927 Y0.906 Z7.517 A28.3785 
N301 X187.936 Y0.633 Z7.404 A28.2565 
N302 X187.946 Y0.360 Z7.291 A28.0732 
N303 X187.955 Y0.089 Z7.180 A27.8265 
N304 X187.965 Y-0.181 Z7.070 A27.5140 
N305 X187.974 Y-0.450 Z6.962 A27.1338 
N306 X187.983 Y-0.719 Z6.856 A26.6849 
N307 X187.993 Y-0.986 Z6.753 A26.1671 
N308 X188.002 Y-1.253 Z6.653 A25.5816 
N309 X188.011 Y-1.519 Z6.555 A24.9305 
N310 X188.021 Y-1.784 Z6.461 A24.2164 
N311 X188.030 Y-2.050 Z6.371 A23.4423 
N312 X188.039 Y-2.315 Z6.284 A22.6117 
N313 X188.048 Y-2.581 Z6.201 A21.7286 
N314 X188.057 Y-2.846 Z6.123 A20.7989 
N315 X188.066 Y-3.111 Z6.049 A19.8333 
N316 X188.075 Y-3.365 Z5.983 A18.8490 
N317 X188.083 Y-3.610 Z5.923 A17.8561 
N318 X188.091 Y-3.847 Z5.869 A16.8595 
N319 X188.098 Y-4.079 Z5.821 A15.8611 
N320 X188.106 Y-4.306 Z5.777 A14.8619 
N321 X188.113 Y-4.530 Z5.738 A13.8624 
N322 X188.120 Y-4.752 Z5.703 A12.8628 
N323 X188.126 Y-4.972 Z5.672 A11.8630 
N324 X188.133 Y-5.191 Z5.645 A10.8633 
N325 X188.140 Y-5.409 Z5.622 A9.8636 
N326 X188.146 Y-5.627 Z5.603 A8.8639 
N327 X188.152 Y-5.845 Z5.587 A7.8641 
N328 X188.159 Y-6.064 Z5.576 A6.8645 
N329 X188.165 Y-6.284 Z5.568 A5.8648 
N330 X188.171 Y-6.506 Z5.564 A4.8652 
N331 X188.177 Y-6.730 Z5.564 A3.8655 
N332 X188.183 Y-6.956 Z5.568 A2.8659 
N333 X188.190 Y-7.185 Z5.576 A1.8664 
N334 X188.196 Y-7.417 Z5.589 A0.8669 
N335 X188.202 Y-7.654 Z5.606 A359.8676 
N336 X188.208 Y-7.895 Z5.628 A358.8686 
N337 X188.214 Y-8.142 Z5.655 A357.8702 
N338 X188.220 Y-8.394 Z5.687 A356.8731 
N339 X188.227 Y-8.653 Z5.725 A355.8789 
N340 X188.233 Y-8.919 Z5.769 A354.8911 
N341 X188.240 Y-9.191 Z5.819 A353.9172 
N342 X188.246 Y-9.464 Z5.874 A352.9677 
N343 X188.252 Y-9.736 Z5.934 A352.0477 
N344 X188.258 Y-10.007 Z5.999 A351.1592 
N345 X188.264 Y-10.279 Z6.068 A350.3030 
N346 X188.270 Y-10.550 Z6.142 A349.4786 
N347 X188.275 Y-10.820 Z6.219 A348.6854 
N348 X188.281 Y-11.091 Z6.301 A347.9222 
N349 X188.286 Y-11.360 Z6.387 A347.1882 
N350 X188.292 Y-11.630 Z6.476 A346.4820 
N351 X188.297 Y-11.898 Z6.569 A345.8023 
N352 X188.302 Y-12.166 Z6.666 A345.1477 
N353 X188.307 Y-12.434 Z6.766 A344.5166 
N354 X188.312 Y-12.701 Z6.869 A343.9073 
N355 X188.317 Y-12.967 Z6.975 A343.3186 
N356 X188.322 Y-13.232 Z7.084 A342.7504 
N357 X188.327 Y-13.497 Z7.196 A342.2049 
N358 X188.331 Y-13.761 Z7.311 A341.6852 
N359 X188.336 Y-14.025 Z7.428 A341.1955 
N360 X188.340 Y-14.288 Z7.549 A340.7386 
N361 X188.345 Y-14.551 Z7.672 A340.3152 
N362 X188.349 Y-14.814 Z7.797 A339.9231 
N363 X188.353 Y-15.076 Z7.924 A339.5583 
N364 X188.357 Y-15.338 Z8.054 A339.2179 
N365 X188.361 Y-15.594 Z8.182 A338.9050 
N366 X188.365 Y-15.806 Z8.289 A338.6331 
N367 X188.367 Y-15.975 Z8.374 A338.4070 
N368 X188.369 Y-16.111 Z8.443 A338.2278 
N369 X188.370 Y-16.224 Z8.500 A338.1029 
N370 X188.371 Y-16.313 Z8.545 A338.0586 
N371 X188.371 Y-16.389 Z8.584 A338.1428 
N372 X188.372 Y-16.453 Z8.617 A338.4312 
N373 X188.372 Y-16.515 Z8.653 A339.2794 
N374 X188.372 Y-16.599 Z8.707 A341.6566 
N375 X188.372 Y-16.812 Z8.842 A350.9940 
N376 X188.372 Y-17.378 Z9.017 A16.0800 
N377 X188.373 Y-17.991 Z8.923 A42.5286 
N378 X188.374 Y-18.469 Z8.599 A67.0826 
N379 X188.375 Y-18.772 Z8.099 A91.9091 
N380 X188.375 Y-18.825 Z7.436 A120.7011 
N381 X188.374 Y-18.676 Z7.020 A139.0821 
N382 X188.373 Y-18.583 Z6.887 A144.5701 
N383 X188.371 Y-18.527 Z6.829 A146.1736 
N384 X188.370 Y-18.476 Z6.786 A146.7524 
N385 X188.369 Y-18.419 Z6.741 A146.9466 
N386 X188.367 Y-18.352 Z6.689 A147.0259 
N387 X188.365 Y-18.266 Z6.622 A147.0766 
N388 X188.363 Y-18.163 Z6.541 A147.1121 
N389 X188.361 Y-18.030 Z6.435 A147.1441 
N390 X188.358 Y-17.871 Z6.308 A147.1788 
N391 X188.355 Y-17.667 Z6.144 A147.2199 
N392 X188.351 Y-17.437 Z5.958 A147.2672 
N393 X188.347 Y-17.202 Z5.770 A147.3199 
N394 X188.343 Y-16.968 Z5.582 A147.3781 
N395 X188.340 Y-16.733 Z5.393 A147.4426 
N396 X188.336 Y-16.498 Z5.206 A147.5147 
N397 X188.332 Y-16.262 Z5.018 A147.5952 
N398 X188.328 Y-16.026 Z4.830 A147.6850 
N399 X188.324 Y-15.790 Z4.643 A147.7841 
N400 X188.321 Y-15.553 Z4.456 A147.8927 
N401 X188.317 Y-15.316 Z4.269 A148.0104 
N402 X188.313 Y-15.079 Z4.083 A148.1372 
N403 X188.309 Y-14.840 Z3.896 A148.2728 
N404 X188.305 Y-14.602 Z3.711 A148.4174 
N405 X188.301 Y-14.362 Z3.526 A148.5707 
N406 X188.297 Y-14.122 Z3.341 A148.7331 
N407 X188.293 Y-13.882 Z3.157 A148.9045 
N408 X188.289 Y-13.640 Z2.974 A149.0854 
N409 X188.285 Y-13.399 Z2.791 A149.2764 
N410 X188.281 Y-13.156 Z2.609 A149.4783 
N411 X188.277 Y-12.912 Z2.427 A149.6921 
N412 X188.273 Y-12.668 Z2.246 A149.9191 
N413 X188.268 Y-12.423 Z2.066 A150.1605 
N414 X188.264 Y-12.177 Z1.887 A150.4171 
N415 X188.260 Y-11.930 Z1.709 A150.6896 
N416 X188.255 Y-11.681 Z1.532 A150.9785 
N417 X188.251 Y-11.432 Z1.355 A151.2840 
N418 X188.247 Y-11.182 Z1.180 A151.6066 
N419 X188.242 Y-10.930 Z1.006 A151.9465 
N420 X188.237 Y-10.677 Z0.833 A152.3044 
N421 X188.233 Y-10.423 Z0.662 A152.6811 
N422 X188.228 Y-10.167 Z0.492 A153.0774 
N423 X188.223 Y-9.910 Z0.323 A153.4943 
N424 X188.218 Y-9.652 Z0.156 A153.9328 
N425 X188.214 Y-9.392 Z-0.009 A154.3941 
N426 X188.209 Y-9.130 Z-0.172 A154.8795 
N427 X188.203 Y-8.867 Z-0.334 A155.3904 
N428 X188.198 Y-8.602 Z-0.493 A155.9281 
N429 X188.193 Y-8.335 Z-0.651 A156.4943 
N430 X188.188 Y-8.066 Z-0.806 A157.0909 
N431 X188.182 Y-7.795 Z-0.959 A157.7200 
N432 X188.177 Y-7.522 Z-1.109 A158.3842 
N433 X188.171 Y-7.246 Z-1.256 A159.0866 
N434 X188.165 Y-6.969 Z-1.400 A159.8303 
N435 X188.159 Y-6.689 Z-1.542 A160.6189 
N436 X188.153 Y-6.406 Z-1.680 A161.4548 
N437 X188.147 Y-6.121 Z-1.814 A162.3388 
N438 X188.141 Y-5.833 Z-1.944 A163.2681 
N439 X188.134 Y-5.544 Z-2.069 A164.2335 
N440 X188.128 Y-5.265 Z-2.185 A165.2173 
N441 X188.122 Y-4.997 Z-2.290 A166.2096 
N442 X188.116 Y-4.739 Z-2.387 A167.2057 
N443 X188.110 Y-4.489 Z-2.476 A168.2035 
N444 X188.104 Y-4.248 Z-2.557 A169.2021 
N445 X188.098 Y-4.014 Z-2.631 A170.2012 
N446 X188.092 Y-3.788 Z-2.699 A171.2004 
N447 X188.087 Y-3.569 Z-2.761 A172.1997 
N448 X188.081 Y-3.357 Z-2.816 A173.1990 
N449 X188.076 Y-3.151 Z-2.867 A174.1984 
N450 X188.071 Y-2.951 Z-2.912 A175.1978 
N451 X188.065 Y-2.756 Z-2.953 A176.1973 
N452 X188.060 Y-2.566 Z-2.989 A177.1967 
N453 X188.055 Y-2.382 Z-3.022 A178.1962 
N454 X188.050 Y-2.201 Z-3.050 A179.1957 
N455 X188.045 Y-2.026 Z-3.074 A180.1953 
N456 X188.040 Y-1.854 Z-3.095 A181.1948 
N457 X188.035 Y-1.686 Z-3.113 A182.1944 
N458 X188.030 Y-1.521 Z-3.127 A183.1940 
N459 X188.025 Y-1.360 Z-3.139 A184.1936 
N460 X188.020 Y-1.202 Z-3.147 A185.1932 
N461 X188.016 Y-1.047 Z-3.153 A186.1929 
N462 X188.011 Y-0.894 Z-3.156 A187.1926 
N463 X188.006 Y-0.745 Z-3.156 A188.1923 
N464 X188.002 Y-0.598 Z-3.154 A189.1920 
N465 X187.997 Y-0.453 Z-3.150 A190.1917 
N466 X187.992 Y-0.310 Z-3.143 A191.1915 
N467 X187.988 Y-0.169 Z-3.133 A192.1912 
N468 X187.983 Y-0.031 Z-3.122 A193.1910 
N469 X187.979 Y0.106 Z-3.108 A194.1908 
N470 X187.974 Y0.241 Z-3.092 A195.1906 
N471 X187.969 Y0.375 Z-3.074 A196.1905 
N472 X187.965 Y0.506 Z-3.054 A197.1903 
N473 X187.960 Y0.637 Z-3.032 A198.1902 
N474 X187.956 Y0.766 Z-3.007 A199.1901 
N475 X187.951 Y0.894 Z-2.981 A200.1900 
N476 X187.947 Y1.021 Z-2.953 A201.1899 
N477 X187.942 Y1.146 Z-2.922 A202.1899 
N478 X187.938 Y1.271 Z-2.890 A203.1898 
N479 X187.933 Y1.394 Z-2.855 A204.1898 
N480 X187.928 Y1.517 Z-2.819 A205.1897 
N481 X187.924 Y1.638 Z-2.780 A206.1897 
N482 X187.919 Y1.759 Z-2.739 A207.1897 
N483 X187.915 Y1.879 Z-2.697 A208.1897 
N484 X187.910 Y1.999 Z-2.652 A209.1897 
N485 X187.905 Y2.118 Z-2.605 A210.1897 
N486 X187.901 Y2.236 Z-2.555 A211.1897 
N487 X187.896 Y2.354 Z-2.504 A212.1898 
N488 X187.891 Y2.471 Z-2.450 A213.1898 
N489 X187.886 Y2.588 Z-2.394 A214.1898 
N490 X187.882 Y2.705 Z-2.336 A215.1899 
N491 X187.877 Y2.821 Z-2.275 A216.1899 
N492 X187.872 Y2.937 Z-2.211 A217.1900 
N493 X187.867 Y3.053 Z-2.145 A218.1900 
N494 X187.862 Y3.169 Z-2.077 A219.1901 
N495 X187.857 Y3.284 Z-2.005 A220.1902 
N496 X187.852 Y3.400 Z-1.931 A221.1902 
N497 X187.847 Y3.515 Z-1.854 A222.1903 
N498 X187.842 Y3.631 Z-1.774 A223.1904 
N499 X187.836 Y3.747 Z-1.691 A224.1904 
N500 X187.831 Y3.862 Z-1.605 A225.1905 
N501 X187.826 Y3.978 Z-1.515 A226.1905 
N502 X187.820 Y4.094 Z-1.422 A227.1906 
N503 X187.815 Y4.210 Z-1.325 A228.1906 
N504 X187.809 Y4.327 Z-1.225 A229.1907 
N505 X187.803 Y4.443 Z-1.120 A230.1907 
N506 X187.797 Y4.560 Z-1.011 A231.1907 
N507 X187.791 Y4.678 Z-0.899 A232.1907 
N508 X187.785 Y4.795 Z-0.781 A233.1907 
N509 X187.779 Y4.913 Z-0.659 A234.1907 
N510 X187.773 Y5.032 Z-0.533 A235.1907 
N511 X187.767 Y5.150 Z-0.401 A236.1907 
N512 X187.760 Y5.269 Z-0.264 A237.1907 
N513 X187.754 Y5.389 Z-0.122 A238.1906 
N514 X187.747 Y5.508 Z0.026 A239.1906 
N515 X187.740 Y5.629 Z0.181 A240.1905 
N516 X187.733 Y5.749 Z0.341 A241.1904 
N517 X187.726 Y5.869 Z0.508 A242.1904 
N518 X187.719 Y5.990 Z0.681 A243.1902 
N519 X187.712 Y6.110 Z0.860 A244.1901 
N520 X187.704 Y6.230 Z1.046 A245.1900 
N521 X187.697 Y6.348 Z1.236 A246.1898 
N522 X187.689 Y6.465 Z1.432 A247.1897 
N523 X187.682 Y6.579 Z1.631 A248.1895 
N524 X187.674 Y6.690 Z1.834 A249.1893 
N525 X187.667 Y6.799 Z2.040 A250.1891 
N526 X187.659 Y6.904 Z2.250 A251.1888 
N527 X187.652 Y7.008 Z2.464 A252.1886 
N528 X187.644 Y7.109 Z2.684 A253.1883 
N529 X187.636 Y7.207 Z2.907 A254.1880 
N530 X187.629 Y7.303 Z3.135 A255.1877 
N531 X187.621 Y7.394 Z3.363 A256.1873 
N532 X187.614 Y7.479 Z3.588 A257.1870 
N533 X187.607 Y7.558 Z3.808 A258.1866 
N534 X187.600 Y7.630 Z4.020 A259.1862 
N535 X187.594 Y7.696 Z4.224 A260.1858 
N536 X187.588 Y7.756 Z4.420 A261.1853 
N537 X187.583 Y7.809 Z4.607 A262.1849 
N538 X187.577 Y7.857 Z4.786 A263.1844 
N539 X187.572 Y7.900 Z4.956 A264.1839 
N540 X187.568 Y7.937 Z5.115 A265.1834 
N541 X187.563 Y7.969 Z5.263 A266.1828 
N542 X187.559 Y7.997 Z5.402 A267.1823 
N543 X187.556 Y8.022 Z5.534 A268.1817 
N544 X187.552 Y8.043 Z5.661 A269.1811 
N545 X187.549 Y8.061 Z5.781 A270.1805 
N546 X187.546 Y8.076 Z5.893 A271.1799 
N547 X187.543 Y8.089 Z5.997 A272.1793 
N548 X187.540 Y8.099 Z6.092 A273.1789 
N549 X187.538 Y8.107 Z6.179 A274.1787 
N550 X187.536 Y8.114 Z6.260 A275.1793 
N551 X187.534 Y8.118 Z6.334 A276.1815 
N552 X187.532 Y8.122 Z6.402 A277.1871 
N553 X187.530 Y8.125 Z6.465 A278.2005 
N554 X187.528 Y8.126 Z6.524 A279.2310 
N555 X187.527 Y8.128 Z6.579 A280.2990 
N556 X187.525 Y8.128 Z6.634 A281.4481 
N557 X187.524 Y8.128 Z6.691 A282.7117 
N558 X187.522 Y8.128 Z6.749 A284.1187 
N559 X187.521 Y8.127 Z6.810 A285.6980 
N560 X187.519 Y8.125 Z6.873 A287.4817 
N561 X187.518 Y8.123 Z6.938 A289.5061 
N562 X187.517 Y8.119 Z7.007 A291.8149 
N563 X187.515 Y8.113 Z7.080 A294.4679 
N564 X187.514 Y8.104 Z7.162 A297.5682 
N565 X187.513 Y8.089 Z7.252 A301.1512 
N566 X187.512 Y8.069 Z7.347 A305.1149 
N567 X187.511 Y8.043 Z7.442 A309.3697 
N568 X187.510 Y8.009 Z7.538 A313.8222 
N569 X187.510 Y7.968 Z7.632 A318.3782 
N570 X187.509 Y7.919 Z7.722 A322.9515 
N571 X187.509 Y7.864 Z7.807 A327.4667 
N572 X187.509 Y7.803 Z7.886 A331.8587 
N573 X187.509 Y7.737 Z7.958 A336.0686 
N574 X187.509 Y7.668 Z8.022 A340.0379 
N575 X187.509 Y7.596 Z8.079 A343.6980 
N576 X187.509 Y7.528 Z8.125 A346.9509 
N577 X187.509 Y7.466 Z8.163 A349.7979 
N578 X187.509 Y7.404 Z8.194 A352.3375 
N579 X187.509 Y7.343 Z8.221 A354.6181 
N580 X187.510 Y7.283 Z8.243 A356.6685 
N581 X187.510 Y7.224 Z8.262 A358.5113 
N582 X187.510 Y7.167 Z8.277 A0.1685 
N583 X187.510 Y7.111 Z8.290 A1.6625 
N584 X187.511 Y7.056 Z8.300 A3.0152 
N585 X187.511 Y7.002 Z8.308 A4.2482 
N586 X187.512 Y6.949 Z8.314 A5.3836 
N587 X187.512 Y6.897 Z8.319 A6.4476 
N588 X187.513 Y6.842 Z8.323 A7.4765 
N589 X187.513 Y6.783 Z8.325 A8.4895 
N590 X187.514 Y6.719 Z8.327 A9.4952 
N591 X187.515 Y6.652 Z8.326 A10.4977 
N592 X187.516 Y6.578 Z8.325 A11.4986 
N593 X187.517 Y6.499 Z8.321 A12.4989 
N594 X187.519 Y6.413 Z8.315 A13.4989 
N595 X187.521 Y6.319 Z8.307 A14.4988 
N596 X187.523 Y6.216 Z8.295 A15.4986 
N597 X187.526 Y6.103 Z8.281 A16.4984 
N598 X187.528 Y5.983 Z8.262 A17.4980 
N599 X187.532 Y5.854 Z8.240 A18.4974 
N600 X187.535 Y5.716 Z8.214 A19.4962 
N601 X187.539 Y5.565 Z8.182 A20.4937 
N602 X187.544 Y5.395 Z8.142 A21.4884 
N603 X187.549 Y5.202 Z8.093 A22.4768 
N604 X187.556 Y4.981 Z8.032 A23.4513 
N605 X187.564 Y4.725 Z7.955 A24.3952 
N606 X187.573 Y4.435 Z7.862 A25.2720 
N607 X187.582 Y4.145 Z7.763 A26.0314 
N608 X187.592 Y3.858 Z7.660 A26.6604 
N609 X187.601 Y3.573 Z7.554 A27.1675 
N610 X187.610 Y3.290 Z7.446 A27.5683 
N611 X187.620 Y3.009 Z7.336 A27.8795 
N612 X187.629 Y2.729 Z7.224 A28.1149 
N613 X187.639 Y2.450 Z7.111 A28.2845 
N614 X187.648 Y2.172 Z6.997 A28.3940 
N615 X187.658 Y1.895 Z6.883 A28.4461 
N616 X187.667 Y1.619 Z6.768 A28.4412 
N617 X187.676 Y1.343 Z6.653 A28.3785 
N618 X187.686 Y1.067 Z6.539 A28.2565 
N619 X187.695 Y0.792 Z6.425 A28.0732 
N620 X187.705 Y0.517 Z6.311 A27.8265 
N621 X187.714 Y0.242 Z6.199 A27.5140 
N622 X187.724 Y-0.033 Z6.089 A27.1338 
N623 X187.733 Y-0.308 Z5.980 A26.6849 
N624 X187.742 Y-0.583 Z5.873 A26.1671 
N625 X187.752 Y-0.859 Z5.768 A25.5816 
N626 X187.761 Y-1.135 Z5.666 A24.9305 
N627 X187.770 Y-1.412 Z5.567 A24.2164 
N628 X187.780 Y-1.690 Z5.472 A23.4423 
N629 X187.789 Y-1.968 Z5.380 A22.6117 
N630 X187.798 Y-2.247 Z5.292 A21.7286 
N631 X187.807 Y-2.528 Z5.209 A20.7989 
N632 X187.816 Y-2.808 Z5.130 A19.8333 
N633 X187.824 Y-3.078 Z5.058 A18.8490 
N634 X187.833 Y-3.339 Z4.994 A17.8561 
N635 X187.840 Y-3.593 Z4.935 A16.8595 
N636 X187.848 Y-3.840 Z4.882 A15.8611 
N637 X187.855 Y-4.084 Z4.835 A14.8619 
N638 X187.862 Y-4.325 Z4.792 A13.8624 
N639 X187.869 Y-4.563 Z4.753 A12.8628 
N640 X187.876 Y-4.799 Z4.719 A11.8630 
N641 X187.883 Y-5.035 Z4.689 A10.8633 
N642 X187.889 Y-5.270 Z4.664 A9.8636 
N643 X187.896 Y-5.505 Z4.642 A8.8639 
N644 X187.902 Y-5.740 Z4.625 A7.8641 
N645 X187.908 Y-5.975 Z4.612 A6.8645 
N646 X187.915 Y-6.212 Z4.602 A5.8648 
N647 X187.921 Y-6.451 Z4.597 A4.8652 
N648 X187.927 Y-6.691 Z4.597 A3.8655 
N649 X187.933 Y-6.934 Z4.600 A2.8659 
N650 X187.939 Y-7.180 Z4.608 A1.8664 
N651 X187.945 Y-7.430 Z4.621 A0.8669 
N652 X187.951 Y-7.683 Z4.638 A359.8676 
N653 X187.958 Y-7.941 Z4.661 A358.8686 
N654 X187.964 Y-8.205 Z4.689 A357.8702 
N655 X187.970 Y-8.474 Z4.722 A356.8731 
N656 X187.976 Y-8.749 Z4.761 A355.8789 
N657 X187.983 Y-9.032 Z4.807 A354.8911 
N658 X187.989 Y-9.321 Z4.860 A353.9172 
N659 X187.995 Y-9.609 Z4.917 A352.9677 
N660 X188.002 Y-9.896 Z4.980 A352.0477 
N661 X188.008 Y-10.183 Z5.047 A351.1592 
N662 X188.014 Y-10.468 Z5.119 A350.3030 
N663 X188.019 Y-10.753 Z5.195 A349.4786 
N664 X188.025 Y-11.037 Z5.276 A348.6854 
N665 X188.031 Y-11.320 Z5.361 A347.9222 
N666 X188.036 Y-11.601 Z5.449 A347.1882 
N667 X188.041 Y-11.882 Z5.542 A346.4820 
N668 X188.047 Y-12.162 Z5.638 A345.8023 
N669 X188.052 Y-12.440 Z5.737 A345.1477 
N670 X188.057 Y-12.718 Z5.840 A344.5166 
N671 X188.062 Y-12.995 Z5.946 A343.9073 
N672 X188.067 Y-13.270 Z6.056 A343.3186 
N673 X188.072 Y-13.545 Z6.168 A342.7504 
N674 X188.076 Y-13.818 Z6.283 A342.2049 
N675 X188.081 Y-14.091 Z6.401 A341.6852 
N676 X188.085 Y-14.362 Z6.521 A341.1955 
N677 X188.090 Y-14.633 Z6.644 A340.7386 
N678 X188.094 Y-14.902 Z6.770 A340.3152 
N679 X188.099 Y-15.171 Z6.897 A339.9231 
N680 X188.103 Y-15.439 Z7.027 A339.5583 
N681 X188.107 Y-15.707 Z7.158 A339.2179 
N682 X188.111 Y-15.968 Z7.289 A338.9050 
N683 X188.114 Y-16.184 Z7.397 A338.6331 
N684 X188.117 Y-16.357 Z7.485 A338.4070 
N685 X188.118 Y-16.495 Z7.555 A338.2278 
N686 X188.120 Y-16.610 Z7.613 A338.1029 
N687 X188.120 Y-16.700 Z7.658 A338.0586 
N688 X188.121 Y-16.774 Z7.696 A338.1428 
N689 X188.121 Y-16.834 Z7.727 A338.4312 
N690 X188.121 Y-16.883 Z7.757 A339.2794 
N691 X188.121 Y-16.929 Z7.797 A341.6566 
N692 X188.121 Y-16.990 Z7.890 A350.9940 
N693 X188.122 Y-17.136 Z8.080 A16.0800 
N694 X188.123 Y-17.357 Z8.192 A42.5286 
N695 X188.124 Y-17.588 Z8.197 A67.0826 
N696 X188.124 Y-17.804 Z8.105 A91.9091 
N697 X188.124 Y-17.979 Z7.907 A120.7011 
N698 X188.123 Y-18.022 Z7.734 A139.0821 
N699 X188.122 Y-18.000 Z7.660 A144.5701 
N700 X188.122 Y-17.967 Z7.616 A146.1736 
N701 X188.121 Y-17.926 Z7.575 A146.7524 
N702 X188.121 Y-17.874 Z7.530 A146.9466 
N703 X188.120 Y-17.810 Z7.477 A147.0259 
N704 X188.119 Y-17.726 Z7.407 A147.0766 
N705 X188.118 Y-17.626 Z7.324 A147.1121 
N706 X188.116 Y-17.495 Z7.216 A147.1441 
N707 X188.114 Y-17.338 Z7.086 A147.1788 
N708 X188.111 Y-17.136 Z6.920 A147.2199 
N709 X188.108 Y-16.908 Z6.732 A147.2672 
N710 X188.106 Y-16.676 Z6.542 A147.3199 
N711 X188.103 Y-16.444 Z6.352 A147.3781 
N712 X188.100 Y-16.212 Z6.162 A147.4426 
N713 X188.097 Y-15.979 Z5.972 A147.5147 
N714 X188.094 Y-15.746 Z5.782 A147.5952 
N715 X188.091 Y-15.513 Z5.593 A147.6850 
N716 X188.088 Y-15.280 Z5.404 A147.7841 
N717 X188.084 Y-15.047 Z5.215 A147.8927 
N718 X188.081 Y-14.813 Z5.027 A148.0104 
N719 X188.078 Y-14.578 Z4.839 A148.1372 
N720 X188.075 Y-14.344 Z4.652 A148.2728 
N721 X188.072 Y-14.108 Z4.465 A148.4174 
N722 X188.069 Y-13.873 Z4.279 A148.5707 
N723 X188.066 Y-13.637 Z4.093 A148.7331 
N724 X188.063 Y-13.400 Z3.908 A148.9045 
N725 X188.059 Y-13.163 Z3.723 A149.0854 
N726 X188.056 Y-12.925 Z3.539 A149.2764 
N727 X188.053 Y-12.687 Z3.356 A149.4783 
N728 X188.049 Y-12.447 Z3.174 A149.6921 
N729 X188.046 Y-12.208 Z2.992 A149.9191 
N730 X188.042 Y-11.967 Z2.812 A150.1605 
N731 X188.039 Y-11.726 Z2.632 A150.4171 
N732 X188.035 Y-11.484 Z2.453 A150.6896 
N733 X188.032 Y-11.241 Z2.275 A150.9785 
N734 X188.028 Y-10.997 Z2.099 A151.2840 
N735 X188.025 Y-10.753 Z1.923 A151.6066 
N736 X188.021 Y-10.507 Z1.749 A151.9465 
N737 X188.017 Y-10.260 Z1.576 A152.3044 
N738 X188.013 Y-10.012 Z1.405 A152.6811 
N739 X188.009 Y-9.763 Z1.235 A153.0774 
N740 X188.005 Y-9.513 Z1.067 A153.4943 
N741 X188.001 Y-9.262 Z0.900 A153.9328 
N742 X187.997 Y-9.009 Z0.735 A154.3941 
N743 X187.993 Y-8.755 Z0.572 A154.8795 
N744 X187.989 Y-8.500 Z0.411 A155.3904 
N745 X187.984 Y-8.243 Z0.253 A155.9281 
N746 X187.980 Y-7.985 Z0.096 A156.4943 
N747 X187.975 Y-7.725 Z-0.058 A157.0909 
N748 X187.971 Y-7.463 Z-0.210 A157.7200 
N749 X187.966 Y-7.200 Z-0.359 A158.3842 
N750 X187.961 Y-6.935 Z-0.505 A159.0866 
N751 X187.956 Y-6.669 Z-0.649 A159.8303 
N752 X187.951 Y-6.400 Z-0.789 A160.6189 
N753 X187.946 Y-6.129 Z-0.926 A161.4548 
N754 X187.940 Y-5.857 Z-1.059 A162.3388 
N755 X187.935 Y-5.582 Z-1.188 A163.2681 
N756 X187.929 Y-5.307 Z-1.312 A164.2335 
N757 X187.923 Y-5.042 Z-1.426 A165.2173 
N758 X187.918 Y-4.788 Z-1.531 A166.2096 
N759 X187.913 Y-4.544 Z-1.627 A167.2057 
N760 X187.908 Y-4.308 Z-1.715 A168.2035 
N761 X187.902 Y-4.081 Z-1.797 A169.2021 
N762 X187.897 Y-3.861 Z-1.871 A170.2012 
N763 X187.893 Y-3.649 Z-1.939 A171.2004 
N764 X187.888 Y-3.443 Z-2.001 A172.1997 
N765 X187.883 Y-3.245 Z-2.058 A173.1990 
N766 X187.878 Y-3.052 Z-2.110 A174.1984 
N767 X187.874 Y-2.866 Z-2.157 A175.1978 
N768 X187.869 Y-2.684 Z-2.199 A176.1973 
N769 X187.865 Y-2.508 Z-2.237 A177.1967 
N770 X187.861 Y-2.337 Z-2.272 A178.1962 
N771 X187.856 Y-2.170 Z-2.302 A179.1957 
N772 X187.852 Y-2.007 Z-2.329 A180.1953 
N773 X187.848 Y-1.849 Z-2.353 A181.1948 
N774 X187.844 Y-1.693 Z-2.374 A182.1944 
N775 X187.840 Y-1.542 Z-2.392 A183.1940 
N776 X187.836 Y-1.393 Z-2.407 A184.1936 
N777 X187.832 Y-1.248 Z-2.419 A185.1932 
N778 X187.828 Y-1.105 Z-2.428 A186.1929 
N779 X187.824 Y-0.965 Z-2.435 A187.1926 
N780 X187.820 Y-0.827 Z-2.440 A188.1923 
N781 X187.816 Y-0.692 Z-2.443 A189.1920 
N782 X187.812 Y-0.559 Z-2.443 A190.1917 
N783 X187.808 Y-0.429 Z-2.441 A191.1915 
N784 X187.804 Y-0.300 Z-2.437 A192.1912 
N785 X187.801 Y-0.173 Z-2.431 A193.1910 
N786 X187.797 Y-0.047 Z-2.422 A194.1908 
N787 X187.793 Y0.077 Z-2.412 A195.1906 
N788 X187.789 Y0.199 Z-2.400 A196.1905 
N789 X187.786 Y0.320 Z-2.386 A197.1903 
N790 X187.782 Y0.440 Z-2.370 A198.1902 
N791 X187.778 Y0.558 Z-2.352 A199.1901 
N792 X187.774 Y0.676 Z-2.333 A200.1900 
N793 X187.771 Y0.792 Z-2.311 A201.1899 
N794 X187.767 Y0.908 Z-2.287 A202.1899 
N795 X187.763 Y1.022 Z-2.262 A203.1898 
N796 X187.759 Y1.136 Z-2.235 A204.1898 
N797 X187.756 Y1.249 Z-2.206 A205.1897 
N798 X187.752 Y1.361 Z-2.175 A206.1897 
N799 X187.748 Y1.473 Z-2.142 A207.1897 
N800 X187.744 Y1.584 Z-2.107 A208.1897 
N801 X187.740 Y1.695 Z-2.070 A209.1897 
N802 X187.736 Y1.805 Z-2.031 A210.1897 
N803 X187.732 Y1.915 Z-1.990 A211.1897 
N804 X187.729 Y2.024 Z-1.946 A212.1898 
N805 X187.725 Y2.134 Z-1.901 A213.1898 
N806 X187.721 Y2.243 Z-1.854 A214.1898 
N807 X187.717 Y2.352 Z-1.804 A215.1899 
N808 X187.713 Y2.461 Z-1.752 A216.1899 
N809 X187.708 Y2.569 Z-1.697 A217.1900 
N810 X187.704 Y2.678 Z-1.640 A218.1900 
N811 X187.700 Y2.787 Z-1.581 A219.1901 
N812 X187.696 Y2.896 Z-1.518 A220.1902 
N813 X187.692 Y3.005 Z-1.453 A221.1902 
N814 X187.687 Y3.114 Z-1.386 A222.1903 
N815 X187.683 Y3.223 Z-1.315 A223.1904 
N816 X187.678 Y3.333 Z-1.241 A224.1904 
N817 X187.674 Y3.443 Z-1.165 A225.1905 
N818 X187.669 Y3.553 Z-1.084 A226.1905 
N819 X187.665 Y3.664 Z-1.001 A227.1906 
N820 X187.660 Y3.775 Z-0.914 A228.1906 
N821 X187.655 Y3.887 Z-0.823 A229.1907 
N822 X187.650 Y3.999 Z-0.728 A230.1907 
N823 X187.645 Y4.111 Z-0.629 A231.1907 
N824 X187.640 Y4.225 Z-0.526 A232.1907 
N825 X187.635 Y4.338 Z-0.419 A233.1907 
N826 X187.629 Y4.452 Z-0.307 A234.1907 
N827 X187.624 Y4.567 Z-0.190 A235.1907 
N828 X187.618 Y4.682 Z-0.068 A236.1907 
N829 X187.613 Y4.798 Z0.059 A237.1907 
N830 X187.607 Y4.914 Z0.191 A238.1906 
N831 X187.601 Y5.031 Z0.329 A239.1906 
N832 X187.595 Y5.149 Z0.474 A240.1905 
N833 X187.589 Y5.267 Z0.624 A241.1904 
N834 X187.583 Y5.385 Z0.781 A242.1904 
N835 X187.576 Y5.504 Z0.944 A243.1902 
N836 X187.570 Y5.622 Z1.113 A244.1901 
N837 X187.563 Y5.740 Z1.289 A245.1900 
N838 X187.556 Y5.857 Z1.470 A246.1898 
N839 X187.549 Y5.972 Z1.655 A247.1897 
N840 X187.543 Y6.085 Z1.845 A248.1895 
N841 X187.536 Y6.196 Z2.037 A249.1893 
N842 X187.529 Y6.304 Z2.234 A250.1891 
N843 X187.522 Y6.409 Z2.434 A251.1888 
N844 X187.516 Y6.512 Z2.639 A252.1886 
N845 X187.509 Y6.613 Z2.849 A253.1883 
N846 X187.502 Y6.712 Z3.063 A254.1880 
N847 X187.495 Y6.807 Z3.280 A255.1877 
N848 X187.489 Y6.899 Z3.499 A256.1873 
N849 X187.482 Y6.985 Z3.715 A257.1870 
N850 X187.476 Y7.065 Z3.925 A258.1866 
N851 X187.470 Y7.138 Z4.128 A259.1862 
N852 X187.465 Y7.205 Z4.323 A260.1858 
N853 X187.459 Y7.266 Z4.510 A261.1853 
N854 X187.455 Y7.321 Z4.688 A262.1849 
N855 X187.450 Y7.371 Z4.858 A263.1844 
N856 X187.446 Y7.415 Z5.019 A264.1839 
N857 X187.442 Y7.455 Z5.169 A265.1834 
N858 X187.439 Y7.489 Z5.309 A266.1828 
N859 X187.435 Y7.519 Z5.439 A267.1823 
N860 X187.432 Y7.546 Z5.563 A268.1817 
N861 X187.430 Y7.570 Z5.681 A269.1811 
N862 X187.427 Y7.591 Z5.792 A270.1805 
N863 X187.425 Y7.609 Z5.897 A271.1799 
N864 X187.423 Y7.625 Z5.992 A272.1793 
N865 X187.421 Y7.638 Z6.079 A273.1789 
N866 X187.419 Y7.650 Z6.159 A274.1787 
N867 X187.418 Y7.659 Z6.231 A275.1793 
N868 X187.417 Y7.668 Z6.298 A276.1815 
N869 X187.416 Y7.675 Z6.359 A277.1871 
N870 X187.415 Y7.682 Z6.414 A278.2005 
N871 X187.414 Y7.687 Z6.465 A279.2310 
N872 X187.413 Y7.693 Z6.512 A280.2990 
N873 X187.412 Y7.698 Z6.559 A281.4481 
N874 X187.412 Y7.703 Z6.607 A282.7117 
N875 X187.411 Y7.708 Z6.656 A284.1187 
N876 X187.410 Y7.712 Z6.706 A285.6980 
N877 X187.410 Y7.717 Z6.756 A287.4817 
N878 X187.409 Y7.721 Z6.809 A289.5061 
N879 X187.408 Y7.726 Z6.863 A291.8149 
N880 X187.408 Y7.730 Z6.919 A294.4679 
N881 X187.408 Y7.733 Z6.981 A297.5682 
N882 X187.407 Y7.733 Z7.051 A301.1512 
N883 X187.407 Y7.730 Z7.122 A305.1149 
N884 X187.407 Y7.724 Z7.195 A309.3697 
N885 X187.407 Y7.713 Z7.269 A313.8222 
N886 X187.407 Y7.696 Z7.342 A318.3782 
N887 X187.407 Y7.673 Z7.414 A322.9515 
N888 X187.408 Y7.645 Z7.483 A327.4667 
N889 X187.408 Y7.610 Z7.549 A331.8587 
N890 X187.409 Y7.571 Z7.611 A336.0686 
N891 X187.410 Y7.528 Z7.667 A340.0379 
N892 X187.411 Y7.480 Z7.718 A343.6980 
N893 X187.412 Y7.433 Z7.762 A346.9509 
N894 X187.413 Y7.389 Z7.798 A349.7979 
N895 X187.413 Y7.344 Z7.829 A352.3375 
N896 X187.414 Y7.298 Z7.857 A354.6181 
N897 X187.416 Y7.252 Z7.881 A356.6685 
N898 X187.417 Y7.205 Z7.902 A358.5113 
N899 X187.418 Y7.158 Z7.920 A0.1685 
N900 X187.419 Y7.111 Z7.936 A1.6625 
N901 X187.420 Y7.065 Z7.949 A3.0152 
N902 X187.421 Y7.018 Z7.960 A4.2482 
N903 X187.422 Y6.972 Z7.970 A5.3836 
N904 X187.424 Y6.926 Z7.978 A6.4476 
N905 X187.425 Y6.876 Z7.986 A7.4765 
N906 X187.426 Y6.823 Z7.992 A8.4895 
N907 X187.428 Y6.765 Z7.997 A9.4952 
N908 X187.430 Y6.703 Z8.000 A10.4977 
N909 X187.432 Y6.635 Z8.003 A11.4986 
N910 X187.434 Y6.561 Z8.003 A12.4989 
N911 X187.436 Y6.479 Z8.001 A13.4989 
N912 X187.439 Y6.390 Z7.997 A14.4988 
N913 X187.442 Y6.291 Z7.990 A15.4986 
N914 X187.445 Y6.184 Z7.980 A16.4984 
N915 X187.449 Y6.067 Z7.966 A17.4980 
N916 X187.453 Y5.943 Z7.948 A18.4974 
N917 X187.457 Y5.809 Z7.926 A19.4962 
N918 X187.462 Y5.662 Z7.899 A20.4937 
N919 X187.467 Y5.496 Z7.864 A21.4884 
N920 X187.473 Y5.306 Z7.819 A22.4768 
N921 X187.481 Y5.089 Z7.762 A23.4513 
N922 X187.489 Y4.836 Z7.690 A24.3952 
N923 X187.499 Y4.549 Z7.602 A25.2720 
N924 X187.510 Y4.261 Z7.507 A26.0314 
N925 X187.520 Y3.976 Z7.408 A26.6604 
N926 X187.530 Y3.692 Z7.306 A27.1675 
N927 X187.540 Y3.409 Z7.201 A27.5683 
N928 X187.550 Y3.128 Z7.095 A27.8795 
N929 X187.560 Y2.848 Z6.986 A28.1149 
N930 X187.571 Y2.568 Z6.876 A28.2845 
N931 X187.581 Y2.289 Z6.765 A28.3940 
N932 X187.591 Y2.011 Z6.654 A28.4461 
N933 X187.601 Y1.733 Z6.542 A28.4412 
N934 X187.612 Y1.455 Z6.430 A28.3785 
N935 X187.622 Y1.178 Z6.318 A28.2565 
N936 X187.632 Y0.901 Z6.206 A28.0732 
N937 X187.642 Y0.623 Z6.095 A27.8265 
N938 X187.653 Y0.346 Z5.985 A27.5140 
N939 X187.663 Y0.068 Z5.876 A27.1338 
N940 X187.673 Y-0.210 Z5.769 A26.6849 
N941 X187.683 Y-0.488 Z5.664 A26.1671 
N942 X187.693 Y-0.767 Z5.562 A25.5816 
N943 X187.703 Y-1.047 Z5.461 A24.9305 
N944 X187.713 Y-1.328 Z5.364 A24.2164 
N945 X187.723 Y-1.609 Z5.271 A23.4423 
N946 X187.733 Y-1.891 Z5.181 A22.6117 
N947 X187.743 Y-2.175 Z5.094 A21.7286 
N948 X187.753 Y-2.459 Z5.012 A20.7989 
N949 X187.763 Y-2.744 Z4.936 A19.8333 
N950 X187.772 Y-3.018 Z4.866 A18.8490 
N951 X187.781 Y-3.283 Z4.803 A17.8561 
N952 X187.790 Y-3.541 Z4.747 A16.8595 
N953 X187.798 Y-3.793 Z4.696 A15.8611 
N954 X187.806 Y-4.041 Z4.650 A14.8619 
N955 X187.814 Y-4.285 Z4.610 A13.8624 
N956 X187.822 Y-4.527 Z4.573 A12.8628 
N957 X187.829 Y-4.767 Z4.542 A11.8630 
N958 X187.837 Y-5.006 Z4.515 A10.8633 
N959 X187.844 Y-5.245 Z4.491 A9.8636 
N960 X187.851 Y-5.483 Z4.473 A8.8639 
N961 X187.859 Y-5.721 Z4.458 A7.8641 
N962 X187.866 Y-5.960 Z4.447 A6.8645 
N963 X187.873 Y-6.200 Z4.441 A5.8648 
N964 X187.880 Y-6.442 Z4.439 A4.8652 
N965 X187.887 Y-6.685 Z4.441 A3.8655 
N966 X187.894 Y-6.931 Z4.447 A2.8659 
N967 X187.900 Y-7.180 Z4.459 A1.8664 
N968 X187.907 Y-7.432 Z4.474 A0.8669 
N969 X187.914 Y-7.688 Z4.495 A359.8676 
N970 X187.921 Y-7.948 Z4.520 A358.8686 
N971 X187.928 Y-8.214 Z4.551 A357.8702 
N972 X187.935 Y-8.485 Z4.588 A356.8731 
N973 X187.942 Y-8.762 Z4.631 A355.8789 
N974 X187.950 Y-9.047 Z4.680 A354.8911 
N975 X187.957 Y-9.338 Z4.736 A353.9172 
N976 X187.964 Y-9.627 Z4.796 A352.9677 
N977 X187.971 Y-9.916 Z4.862 A352.0477 
N978 X187.978 Y-10.204 Z4.933 A351.1592 
N979 X187.984 Y-10.491 Z5.008 A350.3030 
N980 X187.991 Y-10.776 Z5.088 A349.4786 
N981 X187.997 Y-11.061 Z5.172 A348.6854 
N982 X188.004 Y-11.344 Z5.260 A347.9222 
N983 X188.010 Y-11.626 Z5.352 A347.1882 
N984 X188.016 Y-11.908 Z5.447 A346.4820 
N985 X188.022 Y-12.188 Z5.547 A345.8023 
N986 X188.028 Y-12.466 Z5.650 A345.1477 
N987 X188.034 Y-12.744 Z5.756 A344.5166 
N988 X188.040 Y-13.021 Z5.865 A343.9073 
N989 X188.045 Y-13.296 Z5.977 A343.3186 
N990 X188.051 Y-13.570 Z6.093 A342.7504 
N991 X188.056 Y-13.844 Z6.211 A342.2049 
N992 X188.062 Y-14.116 Z6.332 A341.6852 
N993 X188.067 Y-14.387 Z6.455 A341.1955 
N994 X188.072 Y-14.657 Z6.581 A340.7386 
N995 X188.078 Y-14.926 Z6.710 A340.3152 
N996 X188.083 Y-15.194 Z6.840 A339.9231 
N997 X188.088 Y-15.461 Z6.973 A339.5583 
N998 X188.093 Y-15.728 Z7.107 A339.2179 
N999 X188.098 Y-15.988 Z7.241 A338.9050 
N1000 X188.102 Y-16.203 Z7.352 A338.6331 
N1001 X188.105 Y-16.375 Z7.442 A338.4070 
N1002 X188.107 Y-16.512 Z7.515 A338.2278 
N1003 X188.109 Y-16.626 Z7.576 A338.1029 
N1004 X188.111 Y-16.715 Z7.624 A338.0586 
N1005 X188.112 Y-16.787 Z7.665 A338.1428 
N1006 X188.113 Y-16.846 Z7.699 A338.4312 
N1007 X188.114 Y-16.894 Z7.732 A339.2794 
N1008 X188.115 Y-16.937 Z7.774 A341.6566 
N1009 X188.116 Y-16.994 Z7.869 A350.9940 
N1010 X188.117 Y-17.131 Z8.062 A16.0800 
N1011 X188.119 Y-17.347 Z8.180 A42.5286 
N1012 X188.121 Y-17.577 Z8.192 A67.0826 
N1013 X188.122 Y-17.794 Z8.105 A91.9091 
N1014 X188.123 Y-17.974 Z7.910 A120.7011 
N1015 X188.123 Y-18.020 Z7.736 A139.0821 
N1016 X188.122 Y-18.000 Z7.660 A144.5701 
N1017 X188.122 Y-17.966 Z7.615 A146.1940 
N1018 X188.121 Y-17.926 Z7.575 A146.7555 
N1019 X188.121 Y-17.873 Z7.530 A146.9488 
N1020 X188.120 Y-17.809 Z7.476 A147.0275 
N1021 X188.119 Y-17.725 Z7.406 A147.0777 
N1022 X188.118 Y-17.624 Z7.323 A147.1128 
N1023 X188.116 Y-17.492 Z7.214 A147.1447 
N1024 X188.114 Y-17.334 Z7.083 A147.1795 
N1025 X188.111 Y-17.131 Z6.916 A147.2207 
N1026 X188.108 Y-16.902 Z6.728 A147.2683 
N1027 X188.105 Y-16.670 Z6.537 A147.3212 
N1028 X188.102 Y-16.437 Z6.347 A147.3796 
N1029 X188.099 Y-16.205 Z6.156 A147.4445 
N1030 X188.096 Y-15.972 Z5.966 A147.5169 
N1031 X188.093 Y-15.738 Z5.776 A147.5979 
N1032 X188.089 Y-15.505 Z5.586 A147.6881 
N1033 X188.086 Y-15.271 Z5.397 A147.7878 
N1034 X188.083 Y-15.037 Z5.208 A147.8970 
N1035 X188.079 Y-14.803 Z5.019 A148.0154 
N1036 X188.076 Y-14.568 Z4.831 A148.1428 
N1037 X188.072 Y-14.333 Z4.643 A148.2791 
N1038 X188.068 Y-14.097 Z4.456 A148.4243 
N1039 X188.064 Y-13.861 Z4.269 A148.5785 
N1040 X188.060 Y-13.624 Z4.083 A148.7416 
N1041 X188.055 Y-13.387 Z3.898 A148.9139 
N1042 X188.050 Y-13.149 Z3.713 A149.0957 
N1043 X188.046 Y-12.911 Z3.529 A149.2876 
N1044 X188.040 Y-12.672 Z3.345 A149.4905 
N1045 X188.035 Y-12.433 Z3.163 A149.7055 
N1046 X188.029 Y-12.192 Z2.981 A149.9338 
N1047 X188.023 Y-11.951 Z2.800 A150.1765 
N1048 X188.016 Y-11.710 Z2.620 A150.4347 
N1049 X188.009 Y-11.467 Z2.441 A150.7088 
N1050 X188.001 Y-11.224 Z2.263 A150.9994 
N1051 X187.993 Y-10.979 Z2.086 A151.3066 
N1052 X187.985 Y-10.734 Z1.910 A151.6310 
N1053 X187.976 Y-10.488 Z1.736 A151.9728 
N1054 X187.967 Y-10.241 Z1.563 A152.3328 
N1055 X187.958 Y-9.992 Z1.391 A152.7116 
N1056 X187.948 Y-9.743 Z1.221 A153.1101 
N1057 X187.938 Y-9.492 Z1.053 A153.5294 
N1058 X187.928 Y-9.241 Z0.886 A153.9704 
N1059 X187.918 Y-8.987 Z0.721 A154.4345 
N1060 X187.907 Y-8.733 Z0.558 A154.9227 
N1061 X187.897 Y-8.477 Z0.397 A155.4366 
N1062 X187.886 Y-8.220 Z0.238 A155.9776 
N1063 X187.876 Y-7.961 Z0.082 A156.5474 
N1064 X187.865 Y-7.700 Z-0.073 A157.1478 
N1065 X187.854 Y-7.438 Z-0.224 A157.7811 
N1066 X187.844 Y-7.175 Z-0.374 A158.4498 
N1067 X187.833 Y-6.909 Z-0.520 A159.1570 
N1068 X187.823 Y-6.642 Z-0.663 A159.9063 
N1069 X187.812 Y-6.372 Z-0.803 A160.7008 
N1070 X187.801 Y-6.101 Z-0.940 A161.5431 
N1071 X187.791 Y-5.828 Z-1.072 A162.4336 
N1072 X187.780 Y-5.552 Z-1.201 A163.3694 
N1073 X187.770 Y-5.277 Z-1.325 A164.3401 
N1074 X187.760 Y-5.013 Z-1.438 A165.3280 
N1075 X187.750 Y-4.760 Z-1.542 A166.3236 
N1076 X187.741 Y-4.516 Z-1.638 A167.3228 
N1077 X187.732 Y-4.280 Z-1.725 A168.3235 
N1078 X187.723 Y-4.053 Z-1.806 A169.3249 
N1079 X187.715 Y-3.834 Z-1.880 A170.3266 
N1080 X187.706 Y-3.622 Z-1.947 A171.3285 
N1081 X187.698 Y-3.417 Z-2.009 A172.3304 
N1082 X187.691 Y-3.219 Z-2.065 A173.3323 
N1083 X187.683 Y-3.027 Z-2.116 A174.3343 
N1084 X187.676 Y-2.840 Z-2.163 A175.3362 
N1085 X187.669 Y-2.659 Z-2.205 A176.3382 
N1086 X187.662 Y-2.483 Z-2.242 A177.3402 
N1087 X187.655 Y-2.312 Z-2.276 A178.3422 
N1088 X187.648 Y-2.146 Z-2.306 A179.3443 
N1089 X187.641 Y-1.983 Z-2.333 A180.3463 
N1090 X187.635 Y-1.824 Z-2.357 A181.3484 
N1091 X187.628 Y-1.669 Z-2.377 A182.3505 
N1092 X187.622 Y-1.518 Z-2.394 A183.3526 
N1093 X187.616 Y-1.369 Z-2.409 A184.3548 
N1094 X187.610 Y-1.224 Z-2.420 A185.3570 
N1095 X187.604 Y-1.081 Z-2.430 A186.3592 
N1096 X187.598 Y-0.942 Z-2.436 A187.3615 
N1097 X187.592 Y-0.804 Z-2.441 A188.3639 
N1098 X187.586 Y-0.669 Z-2.443 A189.3663 
N1099 X187.580 Y-0.536 Z-2.443 A190.3687 
N1100 X187.574 Y-0.405 Z-2.440 A191.3711 
N1101 X187.569 Y-0.276 Z-2.436 A192.3735 
N1102 X187.563 Y-0.149 Z-2.429 A193.3759 
N1103 X187.558 Y-0.024 Z-2.421 A194.3783 
N1104 X187.552 Y0.100 Z-2.410 A195.3808 
N1105 X187.546 Y0.223 Z-2.398 A196.3832 
N1106 X187.541 Y0.344 Z-2.383 A197.3857 
N1107 X187.535 Y0.463 Z-2.367 A198.3882 
N1108 X187.530 Y0.582 Z-2.348 A199.3907 
N1109 X187.525 Y0.700 Z-2.328 A200.3933 
N1110 X187.519 Y0.816 Z-2.306 A201.3958 
N1111 X187.514 Y0.932 Z-2.282 A202.3984 
N1112 X187.508 Y1.046 Z-2.256 A203.4010 
N1113 X187.503 Y1.160 Z-2.229 A204.4036 
N1114 X187.497 Y1.273 Z-2.199 A205.4063 
N1115 X187.492 Y1.386 Z-2.168 A206.4089 
N1116 X187.486 Y1.498 Z-2.134 A207.4116 
N1117 X187.481 Y1.609 Z-2.098 A208.4143 
N1118 X187.475 Y1.720 Z-2.061 A209.4170 
N1119 X187.470 Y1.830 Z-2.021 A210.4197 
N1120 X187.464 Y1.940 Z-1.980 A211.4224 
N1121 X187.458 Y2.050 Z-1.936 A212.4251 
N1122 X187.453 Y2.160 Z-1.890 A213.4278 
N1123 X187.447 Y2.269 Z-1.842 A214.4305 
N1124 X187.441 Y2.378 Z-1.791 A215.4333 
N1125 X187.436 Y2.487 Z-1.738 A216.4360 
N1126 X187.430 Y2.596 Z-1.683 A217.4387 
N1127 X187.424 Y2.705 Z-1.625 A218.4414 
N1128 X187.418 Y2.815 Z-1.565 A219.4441 
N1129 X187.412 Y2.924 Z-1.502 A220.4468 
N1130 X187.406 Y3.033 Z-1.436 A221.4495 
N1131 X187.400 Y3.143 Z-1.368 A222.4522 
N1132 X187.393 Y3.252 Z-1.296 A223.4549 
N1133 X187.387 Y3.362 Z-1.221 A224.4576 
N1134 X187.381 Y3.473 Z-1.143 A225.4602 
N1135 X187.374 Y3.584 Z-1.062 A226.4629 
N1136 X187.368 Y3.695 Z-0.977 A227.4655 
N1137 X187.361 Y3.806 Z-0.889 A228.4681 
N1138 X187.354 Y3.918 Z-0.797 A229.4706 
N1139 X187.347 Y4.031 Z-0.701 A230.4732 
N1140 X187.340 Y4.144 Z-0.600 A231.4757 
N1141 X187.333 Y4.257 Z-0.496 A232.4782 
N1142 X187.326 Y4.371 Z-0.387 A233.4807 
N1143 X187.319 Y4.486 Z-0.273 A234.4831 
N1144 X187.311 Y4.601 Z-0.155 A235.4853 
N1145 X187.303 Y4.717 Z-0.031 A236.4870 
N1146 X187.295 Y4.833 Z0.098 A237.4882 
N1147 X187.286 Y4.949 Z0.232 A238.4885 
N1148 X187.277 Y5.066 Z0.372 A239.4881 
N1149 X187.268 Y5.184 Z0.517 A240.4874 
N1150 X187.257 Y5.302 Z0.670 A241.4868 
N1151 X187.247 Y5.420 Z0.828 A242.4865 
N1152 X187.235 Y5.539 Z0.993 A243.4863 
N1153 X187.223 Y5.657 Z1.165 A244.4861 
N1154 X187.211 Y5.775 Z1.342 A245.4857 
N1155 X187.198 Y5.891 Z1.524 A246.4853 
N1156 X187.184 Y6.006 Z1.711 A247.4849 
N1157 X187.170 Y6.118 Z1.901 A248.4847 
N1158 X187.156 Y6.228 Z2.095 A249.4846 
N1159 X187.141 Y6.335 Z2.293 A250.4846 
N1160 X187.126 Y6.440 Z2.494 A251.4847 
N1161 X187.110 Y6.543 Z2.701 A252.4846 
N1162 X187.093 Y6.643 Z2.912 A253.4843 
N1163 X187.076 Y6.741 Z3.127 A254.4840 
N1164 X187.058 Y6.835 Z3.345 A255.4835 
N1165 X187.040 Y6.925 Z3.563 A256.4827 
N1166 X187.023 Y7.009 Z3.778 A257.4815 
N1167 X187.005 Y7.087 Z3.986 A258.4800 
N1168 X186.988 Y7.158 Z4.186 A259.4784 
N1169 X186.971 Y7.223 Z4.378 A260.4768 
N1170 X186.954 Y7.283 Z4.562 A261.4754 
N1171 X186.938 Y7.336 Z4.738 A262.4739 
N1172 X186.923 Y7.384 Z4.905 A263.4720 
N1173 X186.908 Y7.427 Z5.063 A264.4699 
N1174 X186.894 Y7.465 Z5.210 A265.4675 
N1175 X186.880 Y7.498 Z5.346 A266.4655 
N1176 X186.868 Y7.527 Z5.475 A267.4645 
N1177 X186.855 Y7.553 Z5.597 A268.4642 
N1178 X186.843 Y7.576 Z5.713 A269.4633 
N1179 X186.832 Y7.596 Z5.823 A270.4602 
N1180 X186.821 Y7.614 Z5.924 A271.4540 
N1181 X186.811 Y7.629 Z6.017 A272.4444 
N1182 X186.802 Y7.641 Z6.100 A273.4328 
N1183 X186.793 Y7.652 Z6.177 A274.4199 
N1184 X186.785 Y7.661 Z6.247 A275.4050 
N1185 X186.778 Y7.670 Z6.311 A276.3882 
N1186 X186.770 Y7.677 Z6.369 A277.3728 
N1187 X186.764 Y7.683 Z6.422 A278.3665 
N1188 X186.757 Y7.688 Z6.472 A279.3836 
N1189 X186.751 Y7.694 Z6.518 A280.4525 
N1190 X186.745 Y7.699 Z6.566 A281.6126 
N1191 X186.738 Y7.703 Z6.614 A282.8932 
N1192 X186.731 Y7.708 Z6.663 A284.3213 
N1193 X186.724 Y7.713 Z6.713 A285.9241 
N1194 X186.717 Y7.717 Z6.764 A287.7301 
N1195 X186.709 Y7.722 Z6.816 A289.7686 
N1196 X186.701 Y7.726 Z6.870 A292.0670 
N1197 X186.693 Y7.729 Z6.926 A294.6511 
N1198 X186.686 Y7.732 Z6.983 A297.5495 
N1199 X186.679 Y7.734 Z7.043 A300.8085 
N1200 X186.672 Y7.732 Z7.110 A304.5300 
N1201 X186.667 Y7.726 Z7.183 A308.6649 
N1202 X186.664 Y7.715 Z7.256 A313.0560 
N1203 X186.664 Y7.699 Z7.330 A317.5766 
N1204 X186.666 Y7.677 Z7.402 A322.1134 
N1205 X186.671 Y7.649 Z7.471 A326.5539 
N1206 X186.678 Y7.617 Z7.535 A330.7557 
N1207 X186.686 Y7.585 Z7.590 A334.5738 
N1208 X186.695 Y7.550 Z7.640 A338.1265 
N1209 X186.705 Y7.512 Z7.686 A341.4560 
N1210 X186.715 Y7.472 Z7.729 A344.5724 
N1211 X186.726 Y7.429 Z7.767 A347.4715 
N1212 X186.736 Y7.385 Z7.802 A350.1491 
N1213 X186.746 Y7.340 Z7.832 A352.6032 
N1214 X186.756 Y7.294 Z7.860 A354.8367 
N1215 X186.765 Y7.248 Z7.883 A356.8581 
N1216 X186.774 Y7.201 Z7.904 A358.6806 
N1217 X186.782 Y7.154 Z7.922 A0.3217 
N1218 X186.790 Y7.107 Z7.937 A1.8018 
N1219 X186.797 Y7.060 Z7.950 A3.1422 
N1220 X186.803 Y7.014 Z7.961 A4.3628 
N1221 X186.810 Y6.967 Z7.971 A5.4836 
N1222 X186.816 Y6.921 Z7.979 A6.5262 
N1223 X186.822 Y6.874 Z7.986 A7.5189 
N1224 X186.828 Y6.823 Z7.992 A8.4914 
N1225 X186.834 Y6.767 Z7.997 A9.4567 
N1226 X186.841 Y6.708 Z8.000 A10.4196 
N1227 X186.848 Y6.643 Z8.003 A11.3826 
N1228 X186.855 Y6.573 Z8.003 A12.3468 
N1229 X186.863 Y6.496 Z8.002 A13.3125 
N1230 X186.871 Y6.411 Z7.998 A14.2814 
N1231 X186.879 Y6.317 Z7.992 A15.2554 
N1232 X186.888 Y6.213 Z7.983 A16.2353 
N1233 X186.898 Y6.101 Z7.970 A17.2196 
N1234 X186.907 Y5.980 Z7.954 A18.2061 
N1235 X186.918 Y5.851 Z7.933 A19.1917 
N1236 X186.928 Y5.711 Z7.908 A20.1742 
N1237 X186.940 Y5.555 Z7.877 A21.1532 
N1238 X186.952 Y5.377 Z7.836 A22.1275 
N1239 X186.966 Y5.174 Z7.785 A23.0929 
N1240 X186.980 Y4.940 Z7.721 A24.0384 
N1241 X186.997 Y4.667 Z7.639 A24.9398 
N1242 X187.013 Y4.378 Z7.546 A25.7460 
N1243 X187.029 Y4.091 Z7.449 A26.4262 
N1244 X187.043 Y3.806 Z7.348 A26.9803 
N1245 X187.057 Y3.523 Z7.244 A27.4218 
N1246 X187.070 Y3.241 Z7.138 A27.7671 
N1247 X187.082 Y2.959 Z7.029 A28.0314 
N1248 X187.094 Y2.679 Z6.920 A28.2264 
N1249 X187.105 Y2.399 Z6.809 A28.3594 
N1250 X187.115 Y2.120 Z6.698 A28.4340 
N1251 X187.125 Y1.842 Z6.586 A28.4515 
N1252 X187.134 Y1.563 Z6.473 A28.4114 
N1253 X187.143 Y1.285 Z6.361 A28.3124 
N1254 X187.151 Y1.007 Z6.249 A28.1527 
N1255 X187.158 Y0.729 Z6.137 A27.9300 
N1256 X187.165 Y0.451 Z6.027 A27.6421 
N1257 X187.172 Y0.173 Z5.917 A27.2869 
N1258 X187.178 Y-0.106 Z5.809 A26.8629 
N1259 X187.184 Y-0.384 Z5.703 A26.3696 
N1260 X187.190 Y-0.664 Z5.599 A25.8077 
N1261 X187.197 Y-0.944 Z5.498 A25.1789 
N1262 X187.203 Y-1.225 Z5.399 A24.4857 
N1263 X187.209 Y-1.507 Z5.304 A23.7313 
N1264 X187.214 Y-1.790 Z5.213 A22.9186 
N1265 X187.220 Y-2.073 Z5.125 A22.0516 
N1266 X187.226 Y-2.358 Z5.041 A21.1353 
N1267 X187.231 Y-2.644 Z4.962 A20.1784 
N1268 X187.237 Y-2.923 Z4.890 A19.1969 
N1269 X187.242 Y-3.192 Z4.824 A18.2045 
N1270 X187.247 Y-3.452 Z4.766 A17.2072 
N1271 X187.251 Y-3.706 Z4.713 A16.2075 
N1272 X187.255 Y-3.956 Z4.666 A15.2069 
N1273 X187.260 Y-4.201 Z4.623 A14.2059 
N1274 X187.264 Y-4.444 Z4.585 A13.2046 
N1275 X187.268 Y-4.686 Z4.552 A12.2033 
N1276 X187.271 Y-4.925 Z4.523 A11.2019 
N1277 X187.275 Y-5.164 Z4.499 A10.2006 
N1278 X187.279 Y-5.403 Z4.478 A9.1992 
N1279 X187.282 Y-5.642 Z4.462 A8.1979 
N1280 X187.285 Y-5.881 Z4.450 A7.1966 
N1281 X187.289 Y-6.121 Z4.443 A6.1953 
N1282 X187.292 Y-6.362 Z4.439 A5.1940 
N1283 X187.295 Y-6.605 Z4.440 A4.1927 
N1284 X187.298 Y-6.851 Z4.445 A3.1915 
N1285 X187.301 Y-7.099 Z4.454 A2.1902 
N1286 X187.304 Y-7.350 Z4.469 A1.1891 
N1287 X187.307 Y-7.605 Z4.488 A0.1881 
N1288 X187.309 Y-7.864 Z4.512 A359.1874 
N1289 X187.312 Y-8.129 Z4.541 A358.1871 
N1290 X187.314 Y-8.398 Z4.576 A357.1877 
N1291 X187.317 Y-8.674 Z4.617 A356.1906 
N1292 X187.319 Y-8.957 Z4.664 A355.1982 
N1293 X187.322 Y-9.247 Z4.718 A354.2167 
N1294 X187.324 Y-9.538 Z4.777 A353.2567 
N1295 X187.326 Y-9.828 Z4.841 A352.3252 
N1296 X187.328 Y-10.117 Z4.911 A351.4249 
N1297 X187.329 Y-10.404 Z4.985 A350.5569 
N1298 X187.331 Y-10.691 Z5.063 A349.7211 
N1299 X187.332 Y-10.976 Z5.146 A348.9169 
N1300 X187.333 Y-11.261 Z5.233 A348.1433 
N1301 X187.334 Y-11.544 Z5.324 A347.3991 
N1302 X187.335 Y-11.826 Z5.419 A346.6834 
N1303 X187.336 Y-12.107 Z5.518 A345.9946 
N1304 X187.336 Y-12.387 Z5.620 A345.3316 
N1305 X187.336 Y-12.666 Z5.725 A344.6925 
N1306 X187.337 Y-12.943 Z5.834 A344.0759 
N1307 X187.337 Y-13.219 Z5.946 A343.4801 
N1308 X187.337 Y-13.495 Z6.060 A342.9049 
N1309 X187.336 Y-13.769 Z6.178 A342.3515 
N1310 X187.336 Y-14.042 Z6.298 A341.8232 
N1311 X187.335 Y-14.314 Z6.422 A341.3238 
N1312 X187.335 Y-14.585 Z6.547 A340.8568 
N1313 X187.334 Y-14.854 Z6.675 A340.4237 
N1314 X187.333 Y-15.123 Z6.806 A340.0228 
N1315 X187.332 Y-15.391 Z6.938 A339.6504 
N1316 X187.330 Y-15.659 Z7.072 A339.3028 
N1317 X187.329 Y-15.922 Z7.207 A338.9808 
N1318 X187.328 Y-16.155 Z7.327 A338.6946 
N1319 X187.326 Y-16.335 Z7.422 A338.4545 
N1320 X187.325 Y-16.486 Z7.501 A338.2589 
N1321 X187.325 Y-16.601 Z7.563 A338.1144 
N1322 X187.324 Y-16.697 Z7.614 A338.0354 
N1323 X187.324 Y-16.771 Z7.655 A338.0583 
N1324 X187.323 Y-16.832 Z7.690 A338.2366 
N1325 X187.322 Y-16.881 Z7.722 A338.8252 
N1326 X187.321 Y-16.922 Z7.757 A340.4939 
N1327 X187.318 Y-16.967 Z7.819 A345.6073 
N1328 X187.312 Y-17.053 Z7.971 A3.1737 
N1329 X187.315 Y-17.244 Z8.140 A30.7288 
N1330 X187.330 Y-17.457 Z8.198 A54.2977 
N1331 X187.350 Y-17.661 Z8.171 A76.1072 
N1332 X187.376 Y-17.842 Z8.070 A98.2328 
N1333 X187.401 Y-17.976 Z7.905 A121.2411 
N1334 X187.416 Y-18.020 Z7.736 A139.0632 
N1335 X187.419 Y-18.000 Z7.660 A144.5701 
N1336 X187.419 Y-17.968 Z7.617 A146.1463 
N1337 X187.419 Y-17.928 Z7.577 A146.7369 
N1338 X187.418 Y-17.877 Z7.533 A146.9379 
N1339 X187.417 Y-17.814 Z7.480 A147.0202 
N1340 X187.416 Y-17.735 Z7.414 A147.0725 
N1341 X187.414 Y-17.638 Z7.334 A147.1084 
N1342 X187.412 Y-17.516 Z7.234 A147.1396 
N1343 X187.409 Y-17.366 Z7.110 A147.1732 
N1344 X187.406 Y-17.173 Z6.951 A147.2129 
N1345 X187.402 Y-16.946 Z6.764 A147.2592 
N1346 X187.398 Y-16.714 Z6.574 A147.3111 
N1347 X187.394 Y-16.482 Z6.383 A147.3684 
N1348 X187.390 Y-16.249 Z6.193 A147.4319 
N1349 X187.385 Y-16.016 Z6.002 A147.5028 
N1350 X187.381 Y-15.783 Z5.812 A147.5821 
N1351 X187.377 Y-15.550 Z5.623 A147.6705 
N1352 X187.372 Y-15.317 Z5.433 A147.7684 
N1353 X187.368 Y-15.083 Z5.244 A147.8756 
N1354 X187.363 Y-14.848 Z5.056 A147.9922 
N1355 X187.359 Y-14.614 Z4.868 A148.1178 
N1356 X187.354 Y-14.379 Z4.680 A148.2523 
N1357 X187.350 Y-14.143 Z4.493 A148.3958 
N1358 X187.345 Y-13.907 Z4.306 A148.5481 
N1359 X187.340 Y-13.671 Z4.120 A148.7094 
N1360 X187.335 Y-13.434 Z3.934 A148.8798 
N1361 X187.330 Y-13.196 Z3.749 A149.0596 
N1362 X187.325 Y-12.958 Z3.565 A149.2494 
N1363 X187.320 Y-12.720 Z3.381 A149.4501 
N1364 X187.314 Y-12.480 Z3.199 A149.6626 
N1365 X187.309 Y-12.240 Z3.017 A149.8881 
N1366 X187.304 Y-11.999 Z2.836 A150.1279 
N1367 X187.298 Y-11.758 Z2.656 A150.3828 
N1368 X187.292 Y-11.516 Z2.476 A150.6537 
N1369 X187.286 Y-11.273 Z2.298 A150.9409 
N1370 X187.281 Y-11.029 Z2.121 A151.2448 
N1371 X187.275 Y-10.784 Z1.945 A151.5656 
N1372 X187.268 Y-10.538 Z1.771 A151.9039 
N1373 X187.262 Y-10.291 Z1.597 A152.2601 
N1374 X187.256 Y-10.043 Z1.426 A152.6350 
N1375 X187.249 Y-9.793 Z1.255 A153.0295 
N1376 X187.242 Y-9.543 Z1.087 A153.4446 
N1377 X187.235 Y-9.291 Z0.919 A153.8812 
N1378 X187.228 Y-9.038 Z0.754 A154.3405 
N1379 X187.221 Y-8.784 Z0.591 A154.8239 
N1380 X187.214 Y-8.529 Z0.429 A155.3325 
N1381 X187.206 Y-8.272 Z0.270 A155.8680 
N1382 X187.199 Y-8.013 Z0.113 A156.4318 
N1383 X187.191 Y-7.753 Z-0.042 A157.0260 
N1384 X187.183 Y-7.491 Z-0.194 A157.6524 
N1385 X187.174 Y-7.228 Z-0.344 A158.3138 
N1386 X187.166 Y-6.963 Z-0.490 A159.0130 
N1387 X187.157 Y-6.696 Z-0.634 A159.7535 
N1388 X187.148 Y-6.427 Z-0.775 A160.5384 
N1389 X187.139 Y-6.156 Z-0.912 A161.3706 
N1390 X187.129 Y-5.884 Z-1.046 A162.2509 
N1391 X187.119 Y-5.609 Z-1.175 A163.1769 
N1392 X187.109 Y-5.333 Z-1.300 A164.1404 
N1393 X187.100 Y-5.067 Z-1.415 A165.1238 
N1394 X187.090 Y-4.812 Z-1.521 A166.1163 
N1395 X187.080 Y-4.566 Z-1.618 A167.1132 
N1396 X187.071 Y-4.329 Z-1.708 A168.1120 
N1397 X187.062 Y-4.101 Z-1.789 A169.1118 
N1398 X187.053 Y-3.880 Z-1.865 A170.1120 
N1399 X187.044 Y-3.667 Z-1.933 A171.1125 
N1400 X187.036 Y-3.461 Z-1.996 A172.1132 
N1401 X187.027 Y-3.262 Z-2.053 A173.1139 
N1402 X187.019 Y-3.068 Z-2.106 A174.1148 
N1403 X187.010 Y-2.881 Z-2.153 A175.1157 
N1404 X187.002 Y-2.699 Z-2.196 A176.1168 
N1405 X186.994 Y-2.522 Z-2.234 A177.1179 
N1406 X186.987 Y-2.350 Z-2.269 A178.1191 
N1407 X186.979 Y-2.183 Z-2.300 A179.1204 
N1408 X186.971 Y-2.019 Z-2.327 A180.1217 
N1409 X186.964 Y-1.860 Z-2.352 A181.1232 
N1410 X186.956 Y-1.704 Z-2.373 A182.1247 
N1411 X186.949 Y-1.552 Z-2.390 A183.1263 
N1412 X186.942 Y-1.403 Z-2.406 A184.1280 
N1413 X186.934 Y-1.257 Z-2.418 A185.1298 
N1414 X186.927 Y-1.114 Z-2.428 A186.1317 
N1415 X186.920 Y-0.973 Z-2.435 A187.1336 
N1416 X186.913 Y-0.835 Z-2.440 A188.1356 
N1417 X186.906 Y-0.700 Z-2.443 A189.1377 
N1418 X186.899 Y-0.566 Z-2.443 A190.1398 
N1419 X186.892 Y-0.435 Z-2.441 A191.1420 
N1420 X186.886 Y-0.306 Z-2.437 A192.1443 
N1421 X186.879 Y-0.178 Z-2.431 A193.1466 
N1422 X186.872 Y-0.052 Z-2.423 A194.1490 
N1423 X186.865 Y0.072 Z-2.413 A195.1515 
N1424 X186.859 Y0.195 Z-2.401 A196.1540 
N1425 X186.852 Y0.316 Z-2.387 A197.1565 
N1426 X186.846 Y0.436 Z-2.371 A198.1591 
N1427 X186.839 Y0.555 Z-2.353 A199.1617 
N1428 X186.832 Y0.673 Z-2.333 A200.1644 
N1429 X186.826 Y0.790 Z-2.311 A201.1671 
N1430 X186.819 Y0.905 Z-2.288 A202.1698 
N1431 X186.813 Y1.020 Z-2.263 A203.1725 
N1432 X186.806 Y1.134 Z-2.235 A204.1753 
N1433 X186.800 Y1.248 Z-2.206 A205.1780 
N1434 X186.793 Y1.360 Z-2.175 A206.1808 
N1435 X186.787 Y1.472 Z-2.142 A207.1835 
N1436 X186.780 Y1.584 Z-2.107 A208.1863 
N1437 X186.774 Y1.695 Z-2.070 A209.1890 
N1438 X186.768 Y1.805 Z-2.031 A210.1917 
N1439 X186.761 Y1.915 Z-1.989 A211.1945 
N1440 X186.755 Y2.025 Z-1.946 A212.1972 
N1441 X186.748 Y2.135 Z-1.901 A213.1998 
N1442 X186.741 Y2.244 Z-1.853 A214.2025 
N1443 X186.735 Y2.353 Z-1.803 A215.2051 
N1444 X186.728 Y2.462 Z-1.751 A216.2077 
N1445 X186.722 Y2.572 Z-1.696 A217.2103 
N1446 X186.715 Y2.681 Z-1.639 A218.2128 
N1447 X186.708 Y2.790 Z-1.579 A219.2153 
N1448 X186.702 Y2.899 Z-1.517 A220.2177 
N1449 X186.695 Y3.008 Z-1.452 A221.2201 
N1450 X186.688 Y3.118 Z-1.384 A222.2225 
N1451 X186.681 Y3.227 Z-1.313 A223.2249 
N1452 X186.674 Y3.337 Z-1.239 A224.2272 
N1453 X186.668 Y3.447 Z-1.162 A225.2295 
N1454 X186.660 Y3.558 Z-1.081 A226.2318 
N1455 X186.653 Y3.669 Z-0.997 A227.2338 
N1456 X186.646 Y3.780 Z-0.910 A228.2357 
N1457 X186.639 Y3.892 Z-0.819 A229.2373 
N1458 X186.632 Y4.004 Z-0.723 A230.2388 
N1459 X186.624 Y4.117 Z-0.624 A231.2401 
N1460 X186.617 Y4.230 Z-0.521 A232.2415 
N1461 X186.610 Y4.344 Z-0.413 A233.2424 
N1462 X186.602 Y4.459 Z-0.301 A234.2421 
N1463 X186.594 Y4.573 Z-0.184 A235.2392 
N1464 X186.585 Y4.688 Z-0.062 A236.2318 
N1465 X186.576 Y4.803 Z0.064 A237.2179 
N1466 X186.567 Y4.916 Z0.194 A238.1957 
N1467 X186.556 Y5.029 Z0.327 A239.1650 
N1468 X186.544 Y5.142 Z0.464 A240.1296 
N1469 X186.531 Y5.255 Z0.609 A241.0946 
N1470 X186.517 Y5.370 Z0.759 A242.0621 
N1471 X186.501 Y5.485 Z0.917 A243.0322 
N1472 X186.484 Y5.600 Z1.081 A244.0034 
N1473 X186.466 Y5.715 Z1.251 A244.9741 
N1474 X186.447 Y5.828 Z1.425 A245.9440 
N1475 X186.426 Y5.940 Z1.603 A246.9138 
N1476 X186.404 Y6.051 Z1.786 A247.8852 
N1477 X186.381 Y6.159 Z1.973 A248.8585 
N1478 X186.357 Y6.266 Z2.163 A249.8336 
N1479 X186.331 Y6.370 Z2.358 A250.8097 
N1480 X186.304 Y6.471 Z2.556 A251.7858 
N1481 X186.276 Y6.571 Z2.758 A252.7611 
N1482 X186.247 Y6.668 Z2.965 A253.7362 
N1483 X186.216 Y6.763 Z3.177 A254.7111 
N1484 X186.183 Y6.854 Z3.390 A255.6849 
N1485 X186.151 Y6.940 Z3.602 A256.6565 
N1486 X186.118 Y7.021 Z3.809 A257.6254 
N1487 X186.085 Y7.095 Z4.009 A258.5919 
N1488 X186.053 Y7.164 Z4.201 A259.5575 
N1489 X186.021 Y7.226 Z4.387 A260.5238 
N1490 X185.989 Y7.284 Z4.566 A261.4911 
N1491 X185.958 Y7.335 Z4.736 A262.4567 
N1492 X185.928 Y7.382 Z4.898 A263.4201 
N1493 X185.899 Y7.424 Z5.050 A264.3809 
N1494 X185.871 Y7.460 Z5.191 A265.3390 
N1495 X185.844 Y7.492 Z5.323 A266.2983 
N1496 X185.818 Y7.521 Z5.448 A267.2636 
N1497 X185.792 Y7.548 Z5.570 A268.2349 
N1498 X185.767 Y7.571 Z5.685 A269.2042 
N1499 X185.744 Y7.591 Z5.794 A270.1612 
N1500 X185.721 Y7.608 Z5.892 A271.0993 
N1501 X185.701 Y7.623 Z5.980 A272.0165 
N1502 X185.682 Y7.635 Z6.059 A272.9181 
N1503 X185.664 Y7.646 Z6.131 A273.8109 
N1504 X185.647 Y7.655 Z6.199 A274.6961 
N1505 X185.631 Y7.663 Z6.259 A275.5674 
N1506 X185.616 Y7.670 Z6.314 A276.4264 
N1507 X185.603 Y7.676 Z6.363 A277.2838 
N1508 X185.589 Y7.682 Z6.409 A278.1619 
N1509 X185.576 Y7.687 Z6.455 A279.0935 
N1510 X185.561 Y7.692 Z6.502 A280.1031 
N1511 X185.547 Y7.697 Z6.549 A281.2122 
N1512 X185.531 Y7.702 Z6.597 A282.4413 
N1513 X185.515 Y7.707 Z6.646 A283.8121 
N1514 X185.497 Y7.711 Z6.695 A285.3489 
N1515 X185.479 Y7.716 Z6.746 A287.0789 
N1516 X185.460 Y7.720 Z6.798 A289.0291 
N1517 X185.441 Y7.724 Z6.851 A291.2239 
N1518 X185.421 Y7.728 Z6.906 A293.6833 
N1519 X185.402 Y7.731 Z6.962 A296.4200 
N1520 X185.385 Y7.732 Z7.020 A299.4384 
N1521 X185.369 Y7.732 Z7.081 A302.7483 
N1522 X185.356 Y7.730 Z7.142 A306.3648 
N1523 X185.347 Y7.723 Z7.210 A310.3465 
N1524 X185.343 Y7.710 Z7.282 A314.6346 
N1525 X185.346 Y7.691 Z7.354 A318.9954 
N1526 X185.356 Y7.670 Z7.420 A323.1940 
N1527 X185.369 Y7.646 Z7.480 A327.1662 
N1528 X185.387 Y7.618 Z7.536 A330.9595 
N1529 X185.409 Y7.586 Z7.589 A334.5845 
N1530 X185.434 Y7.551 Z7.638 A338.0181 
N1531 X185.460 Y7.515 Z7.683 A341.2333 
N1532 X185.487 Y7.477 Z7.724 A344.2112 
N1533 X185.514 Y7.438 Z7.761 A346.9795 
N1534 X185.540 Y7.397 Z7.794 A349.5567 
N1535 X185.567 Y7.354 Z7.824 A351.9626 
N1536 X185.593 Y7.308 Z7.852 A354.2094 
N1537 X185.618 Y7.262 Z7.877 A356.2720 
N1538 X185.642 Y7.215 Z7.898 A358.1464 
N1539 X185.664 Y7.168 Z7.917 A359.8382 
N1540 X185.684 Y7.121 Z7.933 A1.3632 
N1541 X185.704 Y7.074 Z7.946 A2.7425 
N1542 X185.721 Y7.028 Z7.958 A3.9952 
N1543 X185.738 Y6.981 Z7.968 A5.1377 
N1544 X185.754 Y6.935 Z7.976 A6.1852 
N1545 X185.769 Y6.889 Z7.983 A7.1527 
N1546 X185.784 Y6.843 Z7.989 A8.0538 
N1547 X185.798 Y6.797 Z7.994 A8.9016 
N1548 X185.811 Y6.751 Z7.998 A9.7117 
N1549 X185.825 Y6.702 Z8.000 A10.5049 
N1550 X185.839 Y6.649 Z8.002 A11.2931 
N1551 X185.854 Y6.593 Z8.003 A12.0813 
N1552 X185.869 Y6.532 Z8.003 A12.8710 
N1553 X185.884 Y6.467 Z8.001 A13.6667 
N1554 X185.900 Y6.395 Z7.998 A14.4750 
N1555 X185.918 Y6.315 Z7.992 A15.3038 
N1556 X185.937 Y6.225 Z7.984 A16.1570 
N1557 X185.957 Y6.125 Z7.973 A17.0312 
N1558 X185.978 Y6.016 Z7.959 A17.9181 
N1559 X185.999 Y5.901 Z7.942 A18.8056 
N1560 X186.021 Y5.781 Z7.921 A19.6817 
N1561 X186.042 Y5.653 Z7.897 A20.5458 
N1562 X186.065 Y5.512 Z7.867 A21.4022 
N1563 X186.090 Y5.353 Z7.831 A22.2549 
N1564 X186.115 Y5.175 Z7.785 A23.1031 
N1565 X186.143 Y4.973 Z7.730 A23.9413 
N1566 X186.172 Y4.742 Z7.663 A24.7580 
N1567 X186.204 Y4.479 Z7.580 A25.5295 
N1568 X186.235 Y4.193 Z7.484 A26.2203 
N1569 X186.263 Y3.909 Z7.385 A26.8018 
N1570 X186.289 Y3.626 Z7.282 A27.2742 
N1571 X186.313 Y3.344 Z7.177 A27.6491 
N1572 X186.335 Y3.063 Z7.069 A27.9399 
N1573 X186.355 Y2.783 Z6.960 A28.1587 
N1574 X186.373 Y2.503 Z6.850 A28.3137 
N1575 X186.390 Y2.224 Z6.739 A28.4096 
N1576 X186.405 Y1.946 Z6.627 A28.4482 
N1577 X186.419 Y1.668 Z6.515 A28.4297 
N1578 X186.431 Y1.390 Z6.403 A28.3530 
N1579 X186.441 Y1.112 Z6.291 A28.2163 
N1580 X186.451 Y0.834 Z6.179 A28.0175 
N1581 X186.458 Y0.556 Z6.068 A27.7545 
N1582 X186.465 Y0.278 Z5.958 A27.4250 
N1583 X186.471 Y-0.000 Z5.850 A27.0271 
N1584 X186.476 Y-0.279 Z5.743 A26.5602 
N1585 X186.482 Y-0.558 Z5.638 A26.0243 
N1586 X186.487 Y-0.838 Z5.536 A25.4209 
N1587 X186.493 Y-1.118 Z5.436 A24.7522 
N1588 X186.498 Y-1.400 Z5.340 A24.0211 
N1589 X186.503 Y-1.682 Z5.247 A23.2308 
N1590 X186.508 Y-1.965 Z5.158 A22.3846 
N1591 X186.513 Y-2.250 Z5.072 A21.4871 
N1592 X186.517 Y-2.535 Z4.992 A20.5454 
N1593 X186.522 Y-2.818 Z4.916 A19.5721 
N1594 X186.526 Y-3.090 Z4.848 A18.5839 
N1595 X186.530 Y-3.353 Z4.787 A17.5888 
N1596 X186.533 Y-3.609 Z4.733 A16.5905 
N1597 X186.537 Y-3.860 Z4.683 A15.5909 
N1598 X186.540 Y-4.107 Z4.639 A14.5905 
N1599 X186.543 Y-4.351 Z4.599 A13.5899 
N1600 X186.546 Y-4.593 Z4.564 A12.5891 
N1601 X186.549 Y-4.833 Z4.534 A11.5883 
N1602 X186.552 Y-5.072 Z4.508 A10.5875 
N1603 X186.555 Y-5.311 Z4.486 A9.5866 
N1604 X186.557 Y-5.549 Z4.468 A8.5858 
N1605 X186.559 Y-5.788 Z4.455 A7.5850 
N1606 X186.562 Y-6.027 Z4.445 A6.5842 
N1607 X186.564 Y-6.268 Z4.440 A5.5834 
N1608 X186.566 Y-6.510 Z4.439 A4.5826 
N1609 X186.568 Y-6.755 Z4.442 A3.5819 
N1610 X186.570 Y-7.001 Z4.450 A2.5811 
N1611 X186.572 Y-7.251 Z4.463 A1.5805 
N1612 X186.573 Y-7.505 Z4.480 A0.5800 
N1613 X186.575 Y-7.762 Z4.502 A359.5798 
N1614 X186.576 Y-8.024 Z4.529 A358.5799 
N1615 X186.578 Y-8.292 Z4.561 A357.5807 
N1616 X186.579 Y-8.565 Z4.600 A356.5831 
N1617 X186.580 Y-8.845 Z4.644 A355.5891 
N1618 X186.581 Y-9.132 Z4.696 A354.6031 
N1619 X186.582 Y-9.423 Z4.753 A353.6342 
N1620 X186.582 Y-9.713 Z4.815 A352.6915 
N1621 X186.583 Y-10.002 Z4.883 A351.7792 
N1622 X186.583 Y-10.290 Z4.955 A350.8988 
N1623 X186.583 Y-10.577 Z5.032 A350.0506 
N1624 X186.582 Y-10.863 Z5.113 A349.2342 
N1625 X186.582 Y-11.148 Z5.198 A348.4488 
N1626 X186.581 Y-11.431 Z5.288 A347.6933 
N1627 X186.580 Y-11.714 Z5.381 A346.9666 
N1628 X186.579 Y-11.995 Z5.478 A346.2675 
N1629 X186.578 Y-12.275 Z5.579 A345.5946 
N1630 X186.577 Y-12.554 Z5.683 A344.9463 
N1631 X186.575 Y-12.832 Z5.790 A344.3211 
N1632 X186.573 Y-13.109 Z5.901 A343.7174 
N1633 X186.571 Y-13.385 Z6.014 A343.1342 
N1634 X186.569 Y-13.659 Z6.130 A342.5721 
N1635 X186.566 Y-13.932 Z6.250 A342.0336 
N1636 X186.564 Y-14.205 Z6.372 A341.5225 
N1637 X186.561 Y-14.476 Z6.496 A341.0425 
N1638 X186.558 Y-14.746 Z6.624 A340.5959 
N1639 X186.555 Y-15.015 Z6.753 A340.1825 
N1640 X186.551 Y-15.283 Z6.885 A339.7991 
N1641 X186.548 Y-15.551 Z7.018 A339.4419 
N1642 X186.544 Y-15.817 Z7.153 A339.1089 
N1643 X186.540 Y-16.066 Z7.281 A338.8069 
N1644 X186.537 Y-16.271 Z7.388 A338.5473 
N1645 X186.534 Y-16.426 Z7.470 A338.3349 
N1646 X186.532 Y-16.557 Z7.539 A338.1675 
N1647 X186.531 Y-16.653 Z7.590 A338.0560 
N1648 X186.529 Y-16.729 Z7.632 A338.0178 
N1649 X186.528 Y-16.791 Z7.667 A338.0887 
N1650 X186.527 Y-16.844 Z7.697 A338.3234 
N1651 X186.526 Y-16.885 Z7.725 A338.9799 
N1652 X186.523 Y-16.929 Z7.764 A340.8767 
N1653 X186.515 Y-16.980 Z7.843 A348.1008 
N1654 X186.503 Y-17.090 Z8.018 A9.6099 
N1655 X186.513 Y-17.283 Z8.159 A35.3686 
N1656 X186.540 Y-17.466 Z8.198 A55.2181 
N1657 X186.573 Y-17.632 Z8.178 A72.8714 
N1658 X186.609 Y-17.778 Z8.115 A89.7765 
N1659 X186.647 Y-17.899 Z8.016 A106.6433 
N1660 X186.684 Y-17.990 Z7.876 A124.7069 
N1661 X186.708 Y-18.020 Z7.736 A139.0750 
N1662 X186.715 Y-18.000 Z7.660 A144.5701 
N1663 X186.717 Y-17.968 Z7.617 A146.1460 
N1664 X186.717 Y-17.930 Z7.579 A146.7177 
N1665 X186.717 Y-17.884 Z7.539 A146.9207 
N1666 X186.717 Y-17.826 Z7.490 A147.0085 
N1667 X186.716 Y-17.755 Z7.431 A147.0642 
N1668 X186.716 Y-17.668 Z7.359 A147.1011 
N1669 X186.715 Y-17.552 Z7.263 A147.1317 
N1670 X186.714 Y-17.409 Z7.145 A147.1637 
N1671 X186.713 Y-17.231 Z6.999 A147.2010 
N1672 X186.711 Y-17.014 Z6.819 A147.2452 
N1673 X186.710 Y-16.781 Z6.629 A147.2954 
N1674 X186.708 Y-16.549 Z6.438 A147.3510 
N1675 X186.706 Y-16.317 Z6.248 A147.4126 
N1676 X186.704 Y-16.084 Z6.058 A147.4812 
N1677 X186.701 Y-15.851 Z5.868 A147.5579 
N1678 X186.699 Y-15.618 Z5.678 A147.6436 
N1679 X186.697 Y-15.385 Z5.488 A147.7386 
N1680 X186.694 Y-15.151 Z5.299 A147.8432 
N1681 X186.691 Y-14.917 Z5.111 A147.9570 
N1682 X186.689 Y-14.682 Z4.922 A148.0800 
N1683 X186.686 Y-14.447 Z4.735 A148.2119 
N1684 X186.683 Y-14.212 Z4.547 A148.3527 
N1685 X186.679 Y-13.976 Z4.360 A148.5023 
N1686 X186.676 Y-13.740 Z4.174 A148.6610 
N1687 X186.673 Y-13.503 Z3.988 A148.8286 
N1688 X186.669 Y-13.266 Z3.803 A149.0056 
N1689 X186.665 Y-13.028 Z3.619 A149.1924 
N1690 X186.662 Y-12.790 Z3.435 A149.3896 
N1691 X186.658 Y-12.551 Z3.252 A149.5984 
N1692 X186.653 Y-12.311 Z3.070 A149.8199 
N1693 X186.649 Y-12.070 Z2.889 A150.0553 
N1694 X186.645 Y-11.829 Z2.708 A150.3057 
N1695 X186.640 Y-11.587 Z2.529 A150.5717 
N1696 X186.635 Y-11.344 Z2.351 A150.8540 
N1697 X186.630 Y-11.101 Z2.173 A151.1528 
N1698 X186.625 Y-10.856 Z1.997 A151.4685 
N1699 X186.620 Y-10.610 Z1.822 A151.8014 
N1700 X186.614 Y-10.364 Z1.649 A152.1522 
N1701 X186.608 Y-10.116 Z1.476 A152.5214 
N1702 X186.602 Y-9.867 Z1.306 A152.9098 
N1703 X186.596 Y-9.617 Z1.136 A153.3185 
N1704 X186.589 Y-9.366 Z0.969 A153.7485 
N1705 X186.583 Y-9.114 Z0.803 A154.2008 
N1706 X186.576 Y-8.860 Z0.639 A154.6767 
N1707 X186.569 Y-8.605 Z0.477 A155.1774 
N1708 X186.561 Y-8.348 Z0.317 A155.7045 
N1709 X186.554 Y-8.090 Z0.160 A156.2595 
N1710 X186.546 Y-7.831 Z0.004 A156.8442 
N1711 X186.538 Y-7.570 Z-0.149 A157.4604 
N1712 X186.529 Y-7.307 Z-0.299 A158.1108 
N1713 X186.520 Y-7.043 Z-0.447 A158.7980 
N1714 X186.511 Y-6.776 Z-0.591 A159.5254 
N1715 X186.502 Y-6.508 Z-0.733 A160.2963 
N1716 X186.492 Y-6.238 Z-0.871 A161.1138 
N1717 X186.482 Y-5.966 Z-1.006 A161.9793 
N1718 X186.472 Y-5.692 Z-1.137 A162.8919 
N1719 X186.461 Y-5.416 Z-1.263 A163.8451 
N1720 X186.450 Y-5.146 Z-1.381 A164.8233 
N1721 X186.439 Y-4.888 Z-1.490 A165.8128 
N1722 X186.429 Y-4.640 Z-1.589 A166.8076 
N1723 X186.418 Y-4.401 Z-1.681 A167.8049 
N1724 X186.408 Y-4.170 Z-1.765 A168.8033 
N1725 X186.398 Y-3.948 Z-1.842 A169.8024 
N1726 X186.388 Y-3.733 Z-1.913 A170.8018 
N1727 X186.378 Y-3.524 Z-1.977 A171.8014 
N1728 X186.368 Y-3.323 Z-2.036 A172.8012 
N1729 X186.359 Y-3.128 Z-2.090 A173.8012 
N1730 X186.349 Y-2.939 Z-2.139 A174.8013 
N1731 X186.340 Y-2.756 Z-2.183 A175.8015 
N1732 X186.331 Y-2.577 Z-2.223 A176.8019 
N1733 X186.322 Y-2.404 Z-2.259 A177.8024 
N1734 X186.313 Y-2.235 Z-2.291 A178.8031 
N1735 X186.304 Y-2.071 Z-2.319 A179.8039 
N1736 X186.295 Y-1.910 Z-2.344 A180.8049 
N1737 X186.286 Y-1.753 Z-2.366 A181.8060 
N1738 X186.278 Y-1.600 Z-2.385 A182.8072 
N1739 X186.269 Y-1.450 Z-2.401 A183.8086 
N1740 X186.261 Y-1.303 Z-2.414 A184.8101 
N1741 X186.252 Y-1.159 Z-2.425 A185.8118 
N1742 X186.244 Y-1.018 Z-2.433 A186.8136 
N1743 X186.236 Y-0.879 Z-2.439 A187.8155 
N1744 X186.228 Y-0.743 Z-2.442 A188.8176 
N1745 X186.220 Y-0.609 Z-2.443 A189.8197 
N1746 X186.212 Y-0.477 Z-2.442 A190.8220 
N1747 X186.204 Y-0.347 Z-2.439 A191.8244 
N1748 X186.196 Y-0.219 Z-2.433 A192.8268 
N1749 X186.188 Y-0.092 Z-2.426 A193.8294 
N1750 X186.180 Y0.033 Z-2.416 A194.8321 
N1751 X186.172 Y0.156 Z-2.405 A195.8348 
N1752 X186.164 Y0.278 Z-2.391 A196.8376 
N1753 X186.157 Y0.398 Z-2.376 A197.8404 
N1754 X186.149 Y0.517 Z-2.359 A198.8433 
N1755 X186.141 Y0.636 Z-2.340 A199.8462 
N1756 X186.134 Y0.753 Z-2.319 A200.8492 
N1757 X186.126 Y0.869 Z-2.296 A201.8522 
N1758 X186.119 Y0.984 Z-2.271 A202.8552 
N1759 X186.111 Y1.098 Z-2.244 A203.8582 
N1760 X186.104 Y1.212 Z-2.215 A204.8612 
N1761 X186.096 Y1.325 Z-2.185 A205.8642 
N1762 X186.089 Y1.437 Z-2.152 A206.8671 
N1763 X186.081 Y1.549 Z-2.118 A207.8700 
N1764 X186.074 Y1.660 Z-2.082 A208.8729 
N1765 X186.066 Y1.770 Z-2.043 A209.8758 
N1766 X186.059 Y1.881 Z-2.003 A210.8785 
N1767 X186.052 Y1.990 Z-1.960 A211.8813 
N1768 X186.044 Y2.100 Z-1.915 A212.8840 
N1769 X186.037 Y2.210 Z-1.868 A213.8866 
N1770 X186.030 Y2.319 Z-1.819 A214.8891 
N1771 X186.022 Y2.428 Z-1.767 A215.8915 
N1772 X186.015 Y2.537 Z-1.714 A216.8939 
N1773 X186.007 Y2.646 Z-1.657 A217.8962 
N1774 X186.000 Y2.755 Z-1.598 A218.8983 
N1775 X185.993 Y2.864 Z-1.537 A219.9004 
N1776 X185.985 Y2.973 Z-1.472 A220.9025 
N1777 X185.978 Y3.083 Z-1.405 A221.9045 
N1778 X185.970 Y3.192 Z-1.335 A222.9064 
N1779 X185.963 Y3.302 Z-1.263 A223.9084 
N1780 X185.955 Y3.412 Z-1.186 A224.9103 
N1781 X185.948 Y3.523 Z-1.107 A225.9120 
N1782 X185.940 Y3.633 Z-1.024 A226.9135 
N1783 X185.932 Y3.745 Z-0.938 A227.9144 
N1784 X185.924 Y3.856 Z-0.848 A228.9148 
N1785 X185.917 Y3.968 Z-0.755 A229.9146 
N1786 X185.909 Y4.080 Z-0.657 A230.9140 
N1787 X185.902 Y4.193 Z-0.555 A231.9135 
N1788 X185.894 Y4.307 Z-0.449 A232.9124 
N1789 X185.886 Y4.421 Z-0.338 A233.9085 
N1790 X185.878 Y4.535 Z-0.223 A234.8987 
N1791 X185.869 Y4.649 Z-0.104 A235.8787 
N1792 X185.859 Y4.761 Z0.018 A236.8430 
N1793 X185.849 Y4.871 Z0.141 A237.7872 
N1794 X185.838 Y4.978 Z0.266 A238.7097 
N1795 X185.825 Y5.082 Z0.391 A239.6149 
N1796 X185.811 Y5.187 Z0.521 A240.5160 
N1797 X185.795 Y5.293 Z0.658 A241.4209 
N1798 X185.777 Y5.401 Z0.802 A242.3328 
N1799 X185.757 Y5.511 Z0.953 A243.2509 
N1800 X185.736 Y5.620 Z1.110 A244.1706 
N1801 X185.712 Y5.729 Z1.271 A245.0889 
N1802 X185.687 Y5.836 Z1.436 A246.0056 
N1803 X185.660 Y5.941 Z1.604 A246.9226 
N1804 X185.631 Y6.046 Z1.777 A247.8434 
N1805 X185.600 Y6.149 Z1.955 A248.7692 
N1806 X185.567 Y6.251 Z2.136 A249.6997 
N1807 X185.533 Y6.351 Z2.322 A250.6331 
N1808 X185.496 Y6.449 Z2.512 A251.5672 
N1809 X185.458 Y6.544 Z2.704 A252.5003 
N1810 X185.418 Y6.638 Z2.900 A253.4326 
N1811 X185.375 Y6.729 Z3.102 A254.3652 
N1812 X185.331 Y6.818 Z3.305 A255.2968 
N1813 X185.285 Y6.903 Z3.509 A256.2251 
N1814 X185.239 Y6.982 Z3.709 A257.1478 
N1815 X185.193 Y7.056 Z3.901 A258.0648 
N1816 X185.148 Y7.123 Z4.087 A258.9784 
N1817 X185.103 Y7.186 Z4.266 A259.8921 
N1818 X185.057 Y7.244 Z4.440 A260.8087 
N1819 X185.012 Y7.297 Z4.608 A261.7262 
N1820 X184.969 Y7.345 Z4.767 A262.6399 
N1821 X184.926 Y7.388 Z4.920 A263.5496 
N1822 X184.885 Y7.427 Z5.062 A264.4532 
N1823 X184.846 Y7.461 Z5.193 A265.3520 
N1824 X184.808 Y7.491 Z5.316 A266.2539 
N1825 X184.770 Y7.518 Z5.435 A267.1686 
N1826 X184.732 Y7.544 Z5.553 A268.0985 
N1827 X184.695 Y7.567 Z5.666 A269.0287 
N1828 X184.659 Y7.587 Z5.771 A269.9391 
N1829 X184.627 Y7.603 Z5.865 A270.8168 
N1830 X184.598 Y7.617 Z5.948 A271.6582 
N1831 X184.572 Y7.629 Z6.021 A272.4703 
N1832 X184.546 Y7.639 Z6.088 A273.2671 
N1833 X184.522 Y7.648 Z6.150 A274.0567 
N1834 X184.499 Y7.656 Z6.209 A274.8391 
N1835 X184.478 Y7.663 Z6.261 A275.6081 
N1836 X184.458 Y7.669 Z6.308 A276.3734 
N1837 X184.438 Y7.675 Z6.354 A277.1626 
N1838 X184.417 Y7.681 Z6.400 A277.9989 
N1839 X184.396 Y7.686 Z6.446 A278.8984 
N1840 X184.374 Y7.691 Z6.492 A279.8749 
N1841 X184.351 Y7.696 Z6.539 A280.9410 
N1842 X184.326 Y7.700 Z6.587 A282.1049 
N1843 X184.303 Y7.705 Z6.632 A283.3649 
N1844 X184.278 Y7.709 Z6.678 A284.7523 
N1845 X184.251 Y7.714 Z6.725 A286.2949 
N1846 X184.223 Y7.718 Z6.773 A288.0197 
N1847 X184.195 Y7.722 Z6.822 A289.9476 
N1848 X184.166 Y7.726 Z6.872 A292.1013 
N1849 X184.137 Y7.729 Z6.924 A294.5019 
N1850 X184.109 Y7.731 Z6.977 A297.1709 
N1851 X184.083 Y7.733 Z7.032 A300.1405 
N1852 X184.059 Y7.732 Z7.092 A303.4820 
N1853 X184.038 Y7.728 Z7.158 A307.2219 
N1854 X184.026 Y7.720 Z7.227 A311.2968 
N1855 X184.023 Y7.706 Z7.299 A315.5940 
N1856 X184.031 Y7.687 Z7.368 A319.8529 
N1857 X184.048 Y7.666 Z7.431 A323.8879 
N1858 X184.071 Y7.641 Z7.488 A327.6738 
N1859 X184.100 Y7.614 Z7.541 A331.1763 
N1860 X184.131 Y7.587 Z7.587 A334.3648 
N1861 X184.163 Y7.560 Z7.628 A337.2774 
N1862 X184.198 Y7.530 Z7.666 A339.9977 
N1863 X184.234 Y7.499 Z7.701 A342.5387 
N1864 X184.269 Y7.468 Z7.733 A344.8650 
N1865 X184.301 Y7.440 Z7.760 A346.9857 
N1866 X184.334 Y7.409 Z7.786 A349.0177 
N1867 X184.371 Y7.373 Z7.812 A351.0055 
N1868 X184.406 Y7.337 Z7.835 A352.8950 
N1869 X184.440 Y7.300 Z7.857 A354.6656 
N1870 X184.472 Y7.263 Z7.877 A356.3156 
N1871 X184.504 Y7.226 Z7.894 A357.8506 
N1872 X184.533 Y7.188 Z7.910 A359.2847 
N1873 X184.562 Y7.148 Z7.925 A0.6423 
N1874 X184.592 Y7.105 Z7.938 A1.9452 
N1875 X184.621 Y7.061 Z7.950 A3.1668 
N1876 X184.648 Y7.017 Z7.961 A4.3065 
N1877 X184.673 Y6.973 Z7.970 A5.3743 
N1878 X184.699 Y6.927 Z7.978 A6.3804 
N1879 X184.723 Y6.881 Z7.985 A7.3213 
N1880 X184.746 Y6.835 Z7.990 A8.2014 
N1881 X184.768 Y6.789 Z7.994 A9.0261 
N1882 X184.790 Y6.743 Z7.998 A9.8022 
N1883 X184.810 Y6.697 Z8.000 A10.5368 
N1884 X184.830 Y6.650 Z8.002 A11.2370 
N1885 X184.850 Y6.603 Z8.003 A11.9101 
N1886 X184.869 Y6.555 Z8.003 A12.5678 
N1887 X184.889 Y6.503 Z8.002 A13.2205 
N1888 X184.909 Y6.448 Z8.000 A13.8769 
N1889 X184.931 Y6.389 Z7.997 A14.5463 
N1890 X184.954 Y6.322 Z7.993 A15.2386 
N1891 X184.979 Y6.247 Z7.986 A15.9597 
N1892 X185.006 Y6.163 Z7.978 A16.7096 
N1893 X185.034 Y6.071 Z7.966 A17.4803 
N1894 X185.064 Y5.971 Z7.952 A18.2599 
N1895 X185.094 Y5.869 Z7.936 A19.0285 
N1896 X185.122 Y5.766 Z7.918 A19.7761 
N1897 X185.151 Y5.658 Z7.898 A20.5053 
N1898 X185.180 Y5.543 Z7.874 A21.2232 
N1899 X185.211 Y5.416 Z7.845 A21.9366 
N1900 X185.244 Y5.274 Z7.811 A22.6485 
N1901 X185.277 Y5.119 Z7.771 A23.3560 
N1902 X185.313 Y4.946 Z7.723 A24.0569 
N1903 X185.350 Y4.754 Z7.667 A24.7430 
N1904 X185.388 Y4.545 Z7.602 A25.4014 
N1905 X185.427 Y4.313 Z7.526 A26.0217 
N1906 X185.468 Y4.047 Z7.434 A26.5903 
N1907 X185.508 Y3.765 Z7.333 A27.0833 
N1908 X185.544 Y3.484 Z7.229 A27.4893 
N1909 X185.577 Y3.203 Z7.123 A27.8126 
N1910 X185.606 Y2.924 Z7.016 A28.0623 
N1911 X185.633 Y2.644 Z6.906 A28.2465 
N1912 X185.658 Y2.366 Z6.796 A28.3709 
N1913 X185.679 Y2.087 Z6.684 A28.4380 
N1914 X185.698 Y1.809 Z6.572 A28.4485 
N1915 X185.714 Y1.532 Z6.460 A28.4016 
N1916 X185.728 Y1.254 Z6.348 A28.2958 
N1917 X185.740 Y0.976 Z6.236 A28.1292 
N1918 X185.750 Y0.699 Z6.125 A27.8995 
N1919 X185.757 Y0.421 Z6.015 A27.6045 
N1920 X185.763 Y0.143 Z5.905 A27.2420 
N1921 X185.768 Y-0.136 Z5.798 A26.8107 
N1922 X185.773 Y-0.415 Z5.692 A26.3102 
N1923 X185.778 Y-0.694 Z5.588 A25.7413 
N1924 X185.783 Y-0.974 Z5.487 A25.1060 
N1925 X185.787 Y-1.255 Z5.389 A24.4067 
N1926 X185.791 Y-1.537 Z5.294 A23.6465 
N1927 X185.796 Y-1.819 Z5.203 A22.8286 
N1928 X185.800 Y-2.103 Z5.116 A21.9569 
N1929 X185.803 Y-2.388 Z5.033 A21.0367 
N1930 X185.807 Y-2.673 Z4.954 A20.0774 
N1931 X185.810 Y-2.951 Z4.883 A19.0957 
N1932 X185.813 Y-3.218 Z4.818 A18.1038 
N1933 X185.816 Y-3.478 Z4.760 A17.1072 
N1934 X185.819 Y-3.731 Z4.708 A16.1086 
N1935 X185.821 Y-3.980 Z4.661 A15.1089 
N1936 X185.824 Y-4.225 Z4.619 A14.1089 
N1937 X185.826 Y-4.468 Z4.582 A13.1086 
N1938 X185.828 Y-4.708 Z4.549 A12.1082 
N1939 X185.829 Y-4.948 Z4.521 A11.1078 
N1940 X185.831 Y-5.187 Z4.497 A10.1074 
N1941 X185.833 Y-5.425 Z4.477 A9.1069 
N1942 X185.834 Y-5.663 Z4.461 A8.1065 
N1943 X185.836 Y-5.902 Z4.450 A7.1061 
N1944 X185.837 Y-6.142 Z4.442 A6.1057 
N1945 X185.838 Y-6.384 Z4.439 A5.1054 
N1946 X185.839 Y-6.627 Z4.440 A4.1050 
N1947 X185.840 Y-6.872 Z4.446 A3.1046 
N1948 X185.840 Y-7.120 Z4.455 A2.1044 
N1949 X185.841 Y-7.372 Z4.470 A1.1042 
N1950 X185.842 Y-7.627 Z4.489 A0.1044 
N1951 X185.842 Y-7.886 Z4.514 A359.1048 
N1952 X185.842 Y-8.150 Z4.544 A358.1056 
N1953 X185.842 Y-8.420 Z4.579 A357.1073 
N1954 X185.842 Y-8.697 Z4.620 A356.1113 
N1955 X185.841 Y-8.980 Z4.668 A355.1206 
N1956 X185.841 Y-9.270 Z4.722 A354.1412 
N1957 X185.840 Y-9.561 Z4.782 A353.1842 
N1958 X185.839 Y-9.850 Z4.847 A352.2557 
N1959 X185.837 Y-10.138 Z4.916 A351.3585 
N1960 X185.836 Y-10.426 Z4.991 A350.4936 
N1961 X185.834 Y-10.712 Z5.069 A349.6608 
N1962 X185.832 Y-10.997 Z5.153 A348.8595 
N1963 X185.830 Y-11.282 Z5.240 A348.0885 
N1964 X185.827 Y-11.565 Z5.331 A347.3470 
N1965 X185.825 Y-11.846 Z5.426 A346.6337 
N1966 X185.822 Y-12.127 Z5.525 A345.9474 
N1967 X185.819 Y-12.407 Z5.627 A345.2865 
N1968 X185.815 Y-12.685 Z5.733 A344.6496 
N1969 X185.811 Y-12.962 Z5.841 A344.0348 
N1970 X185.808 Y-13.238 Z5.953 A343.4410 
N1971 X185.803 Y-13.513 Z6.068 A342.8676 
N1972 X185.799 Y-13.787 Z6.186 A342.3163 
N1973 X185.794 Y-14.060 Z6.306 A341.7903 
N1974 X185.790 Y-14.331 Z6.430 A341.2934 
N1975 X185.784 Y-14.602 Z6.555 A340.8290 
N1976 X185.779 Y-14.871 Z6.684 A340.3984 
N1977 X185.773 Y-15.140 Z6.814 A339.9997 
N1978 X185.767 Y-15.408 Z6.946 A339.6293 
N1979 X185.761 Y-15.675 Z7.081 A339.2837 
N1980 X185.755 Y-15.941 Z7.217 A338.9643 
N1981 X185.750 Y-16.160 Z7.330 A338.6855 
N1982 X185.745 Y-16.340 Z7.424 A338.4498 
N1983 X185.741 Y-16.481 Z7.498 A338.2588 
N1984 X185.738 Y-16.597 Z7.561 A338.1130 
N1985 X185.736 Y-16.689 Z7.610 A338.0269 
N1986 X185.734 Y-16.764 Z7.651 A338.0291 
N1987 X185.732 Y-16.823 Z7.685 A338.1640 
N1988 X185.730 Y-16.873 Z7.716 A338.6506 
N1989 X185.727 Y-16.916 Z7.750 A340.1091 
N1990 X185.719 Y-16.960 Z7.808 A344.6816 
N1991 X185.701 Y-17.031 Z7.936 A358.8088 
N1992 X185.698 Y-17.196 Z8.111 A24.7221 
N1993 X185.727 Y-17.380 Z8.188 A46.0739 
N1994 X185.763 Y-17.523 Z8.197 A61.1845 
N1995 X185.803 Y-17.648 Z8.173 A74.6273 
N1996 X185.845 Y-17.758 Z8.126 A87.3940 
N1997 X185.886 Y-17.854 Z8.059 A99.9482 
N1998 X185.928 Y-17.935 Z7.973 A112.7667 
N1999 X185.970 Y-17.998 Z7.858 A126.7497 
N2000 X186.000 Y-18.020 Z7.736 A139.0830 
N2001 X186.011 Y-18.000 Z7.660 A144.5701 
N2002 X186.014 Y-17.968 Z7.617 A146.1458 
N2003 X186.015 Y-17.933 Z7.582 A146.6925 
N2004 X186.016 Y-17.888 Z7.543 A146.9045 
N2005 X186.017 Y-17.833 Z7.496 A146.9976 
N2006 X186.017 Y-17.763 Z7.437 A147.0573 
N2007 X186.017 Y-17.679 Z7.368 A147.0965 
N2008 X186.018 Y-17.566 Z7.275 A147.1281 
N2009 X186.018 Y-17.426 Z7.159 A147.1601 
N2010 X186.019 Y-17.253 Z7.017 A147.1969 
N2011 X186.019 Y-17.040 Z6.841 A147.2404 
N2012 X186.020 Y-16.808 Z6.650 A147.2900 
N2013 X186.020 Y-16.575 Z6.460 A147.3451 
N2014 X186.020 Y-16.343 Z6.269 A147.4060 
N2015 X186.020 Y-16.110 Z6.079 A147.4738 
N2016 X186.020 Y-15.877 Z5.889 A147.5496 
N2017 X186.020 Y-15.644 Z5.699 A147.6343 
N2018 X186.019 Y-15.411 Z5.510 A147.7283 
N2019 X186.019 Y-15.177 Z5.321 A147.8318 
N2020 X186.018 Y-14.943 Z5.132 A147.9446 
N2021 X186.017 Y-14.709 Z4.943 A148.0665 
N2022 X186.016 Y-14.474 Z4.756 A148.1974 
N2023 X186.015 Y-14.239 Z4.568 A148.3372 
N2024 X186.013 Y-14.003 Z4.381 A148.4859 
N2025 X186.011 Y-13.767 Z4.195 A148.6436 
N2026 X186.009 Y-13.530 Z4.009 A148.8102 
N2027 X186.007 Y-13.293 Z3.824 A148.9862 
N2028 X186.005 Y-13.055 Z3.640 A149.1719 
N2029 X186.002 Y-12.816 Z3.456 A149.3680 
N2030 X186.000 Y-12.577 Z3.273 A149.5756 
N2031 X185.997 Y-12.338 Z3.091 A149.7957 
N2032 X185.993 Y-12.097 Z2.909 A150.0296 
N2033 X185.990 Y-11.856 Z2.729 A150.2783 
N2034 X185.986 Y-11.614 Z2.549 A150.5426 
N2035 X185.982 Y-11.372 Z2.370 A150.8230 
N2036 X185.978 Y-11.128 Z2.193 A151.1201 
N2037 X185.974 Y-10.883 Z2.017 A151.4339 
N2038 X185.969 Y-10.638 Z1.842 A151.7650 
N2039 X185.965 Y-10.391 Z1.668 A152.1137 
N2040 X185.959 Y-10.144 Z1.495 A152.4809 
N2041 X185.954 Y-9.895 Z1.325 A152.8673 
N2042 X185.948 Y-9.645 Z1.155 A153.2737 
N2043 X185.942 Y-9.394 Z0.988 A153.7014 
N2044 X185.936 Y-9.142 Z0.822 A154.1512 
N2045 X185.929 Y-8.888 Z0.657 A154.6245 
N2046 X185.922 Y-8.634 Z0.495 A155.1226 
N2047 X185.915 Y-8.377 Z0.335 A155.6468 
N2048 X185.907 Y-8.119 Z0.177 A156.1987 
N2049 X185.899 Y-7.860 Z0.021 A156.7801 
N2050 X185.891 Y-7.599 Z-0.132 A157.3930 
N2051 X185.882 Y-7.337 Z-0.282 A158.0396 
N2052 X185.873 Y-7.072 Z-0.430 A158.7227 
N2053 X185.864 Y-6.806 Z-0.575 A159.4456 
N2054 X185.854 Y-6.538 Z-0.717 A160.2116 
N2055 X185.844 Y-6.268 Z-0.856 A161.0236 
N2056 X185.833 Y-5.997 Z-0.991 A161.8834 
N2057 X185.822 Y-5.723 Z-1.122 A162.7900 
N2058 X185.810 Y-5.447 Z-1.249 A163.7378 
N2059 X185.798 Y-5.177 Z-1.368 A164.7122 
N2060 X185.787 Y-4.918 Z-1.478 A165.6990 
N2061 X185.775 Y-4.669 Z-1.578 A166.6918 
N2062 X185.764 Y-4.429 Z-1.671 A167.6875 
N2063 X185.752 Y-4.198 Z-1.755 A168.6846 
N2064 X185.741 Y-3.974 Z-1.833 A169.6825 
N2065 X185.730 Y-3.758 Z-1.904 A170.6808 
N2066 X185.719 Y-3.550 Z-1.970 A171.6794 
N2067 X185.708 Y-3.348 Z-2.029 A172.6783 
N2068 X185.697 Y-3.152 Z-2.083 A173.6775 
N2069 X185.687 Y-2.962 Z-2.133 A174.6768 
N2070 X185.676 Y-2.778 Z-2.177 A175.6764 
N2071 X185.666 Y-2.600 Z-2.218 A176.6761 
N2072 X185.655 Y-2.426 Z-2.254 A177.6762 
N2073 X185.645 Y-2.256 Z-2.287 A178.6764 
N2074 X185.635 Y-2.091 Z-2.316 A179.6768 
N2075 X185.625 Y-1.930 Z-2.341 A180.6775 
N2076 X185.615 Y-1.773 Z-2.364 A181.6784 
N2077 X185.605 Y-1.619 Z-2.383 A182.6795 
N2078 X185.596 Y-1.469 Z-2.399 A183.6809 
N2079 X185.586 Y-1.322 Z-2.413 A184.6824 
N2080 X185.576 Y-1.177 Z-2.424 A185.6841 
N2081 X185.567 Y-1.036 Z-2.432 A186.6861 
N2082 X185.558 Y-0.897 Z-2.438 A187.6882 
N2083 X185.548 Y-0.760 Z-2.442 A188.6906 
N2084 X185.539 Y-0.625 Z-2.443 A189.6931 
N2085 X185.530 Y-0.493 Z-2.442 A190.6957 
N2086 X185.521 Y-0.363 Z-2.439 A191.6986 
N2087 X185.511 Y-0.235 Z-2.434 A192.7015 
N2088 X185.502 Y-0.108 Z-2.427 A193.7046 
N2089 X185.493 Y0.017 Z-2.417 A194.7079 
N2090 X185.485 Y0.141 Z-2.406 A195.7112 
N2091 X185.476 Y0.263 Z-2.393 A196.7146 
N2092 X185.467 Y0.383 Z-2.378 A197.7181 
N2093 X185.458 Y0.503 Z-2.361 A198.7216 
N2094 X185.449 Y0.621 Z-2.342 A199.7252 
N2095 X185.441 Y0.739 Z-2.321 A200.7288 
N2096 X185.432 Y0.855 Z-2.298 A201.7324 
N2097 X185.423 Y0.970 Z-2.274 A202.7360 
N2098 X185.415 Y1.085 Z-2.247 A203.7396 
N2099 X185.406 Y1.199 Z-2.219 A204.7432 
N2100 X185.398 Y1.312 Z-2.189 A205.7467 
N2101 X185.389 Y1.424 Z-2.156 A206.7501 
N2102 X185.381 Y1.536 Z-2.122 A207.7535 
N2103 X185.373 Y1.647 Z-2.086 A208.7568 
N2104 X185.364 Y1.758 Z-2.048 A209.7600 
N2105 X185.356 Y1.868 Z-2.007 A210.7631 
N2106 X185.348 Y1.978 Z-1.965 A211.7661 
N2107 X185.339 Y2.088 Z-1.920 A212.7690 
N2108 X185.331 Y2.197 Z-1.874 A213.7718 
N2109 X185.323 Y2.306 Z-1.825 A214.7744 
N2110 X185.315 Y2.416 Z-1.773 A215.7768 
N2111 X185.307 Y2.525 Z-1.720 A216.7791 
N2112 X185.298 Y2.634 Z-1.664 A217.7813 
N2113 X185.290 Y2.743 Z-1.605 A218.7833 
N2114 X185.282 Y2.852 Z-1.544 A219.7851 
N2115 X185.274 Y2.961 Z-1.480 A220.7868 
N2116 X185.266 Y3.070 Z-1.413 A221.7885 
N2117 X185.258 Y3.180 Z-1.344 A222.7902 
N2118 X185.250 Y3.289 Z-1.271 A223.7919 
N2119 X185.241 Y3.399 Z-1.195 A224.7935 
N2120 X185.233 Y3.510 Z-1.117 A225.7948 
N2121 X185.225 Y3.620 Z-1.034 A226.7956 
N2122 X185.217 Y3.731 Z-0.948 A227.7955 
N2123 X185.209 Y3.843 Z-0.859 A228.7944 
N2124 X185.200 Y3.954 Z-0.766 A229.7921 
N2125 X185.193 Y4.066 Z-0.670 A230.7891 
N2126 X185.185 Y4.179 Z-0.568 A231.7862 
N2127 X185.177 Y4.292 Z-0.463 A232.7822 
N2128 X185.168 Y4.406 Z-0.352 A233.7735 
N2129 X185.160 Y4.520 Z-0.238 A234.7546 
N2130 X185.151 Y4.632 Z-0.121 A235.7182 
N2131 X185.141 Y4.742 Z-0.003 A236.6556 
N2132 X185.130 Y4.847 Z0.115 A237.5604 
N2133 X185.118 Y4.948 Z0.230 A238.4300 
N2134 X185.106 Y5.043 Z0.344 A239.2692 
N2135 X185.091 Y5.137 Z0.459 A240.0947 
N2136 X185.075 Y5.234 Z0.581 A240.9219 
N2137 X185.056 Y5.332 Z0.709 A241.7580 
N2138 X185.035 Y5.433 Z0.845 A242.6053 
N2139 X185.011 Y5.536 Z0.989 A243.4609 
N2140 X184.985 Y5.638 Z1.136 A244.3177 
N2141 X184.957 Y5.738 Z1.286 A245.1723 
N2142 X184.928 Y5.838 Z1.439 A246.0247 
N2143 X184.896 Y5.936 Z1.595 A246.8780 
N2144 X184.861 Y6.033 Z1.756 A247.7371 
N2145 X184.825 Y6.130 Z1.922 A248.6042 
N2146 X184.785 Y6.226 Z2.092 A249.4792 
N2147 X184.743 Y6.322 Z2.267 A250.3600 
N2148 X184.699 Y6.415 Z2.445 A251.2432 
N2149 X184.653 Y6.506 Z2.627 A252.1260 
N2150 X184.604 Y6.595 Z2.810 A253.0074 
N2151 X184.553 Y6.683 Z2.998 A253.8898 
N2152 X184.499 Y6.769 Z3.191 A254.7725 
N2153 X184.442 Y6.851 Z3.384 A255.6531 
N2154 X184.385 Y6.930 Z3.576 A256.5279 
N2155 X184.328 Y7.003 Z3.762 A257.3948 
N2156 X184.271 Y7.070 Z3.941 A258.2546 
N2157 X184.215 Y7.133 Z4.113 A259.1111 
N2158 X184.159 Y7.191 Z4.280 A259.9696 
N2159 X184.102 Y7.245 Z4.444 A260.8331 
N2160 X184.045 Y7.295 Z4.604 A261.6986 
N2161 X183.990 Y7.341 Z4.754 A262.5595 
N2162 X183.936 Y7.382 Z4.898 A263.4156 
N2163 X183.884 Y7.419 Z5.033 A264.2650 
N2164 X183.835 Y7.452 Z5.158 A265.1071 
N2165 X183.787 Y7.481 Z5.274 A265.9509 
N2166 X183.740 Y7.508 Z5.387 A266.8095 
N2167 X183.691 Y7.533 Z5.500 A267.6913 
N2168 X183.641 Y7.557 Z5.614 A268.5884 
N2169 X183.594 Y7.577 Z5.720 A269.4715 
N2170 X183.550 Y7.595 Z5.815 A270.3199 
N2171 X183.512 Y7.609 Z5.898 A271.1243 
N2172 X183.477 Y7.621 Z5.970 A271.8880 
N2173 X183.445 Y7.631 Z6.034 A272.6237 
N2174 X183.415 Y7.640 Z6.094 A273.3471 
N2175 X183.385 Y7.648 Z6.151 A274.0659 
N2176 X183.356 Y7.656 Z6.205 A274.7798 
N2177 X183.329 Y7.662 Z6.253 A275.4816 
N2178 X183.305 Y7.668 Z6.296 A276.1791 
N2179 X183.280 Y7.673 Z6.339 A276.8969 
N2180 X183.254 Y7.678 Z6.381 A277.6533 
N2181 X183.227 Y7.683 Z6.424 A278.4600 
N2182 X183.200 Y7.688 Z6.468 A279.3253 
N2183 X183.171 Y7.693 Z6.511 A280.2552 
N2184 X183.141 Y7.697 Z6.555 A281.2498 
N2185 X183.112 Y7.701 Z6.595 A282.2918 
N2186 X183.084 Y7.705 Z6.634 A283.3919 
N2187 X183.054 Y7.709 Z6.674 A284.5785 
N2188 X183.024 Y7.712 Z6.714 A285.8732 
N2189 X182.992 Y7.716 Z6.754 A287.2973 
N2190 X182.958 Y7.719 Z6.796 A288.8665 
N2191 X182.924 Y7.723 Z6.838 A290.5953 
N2192 X182.890 Y7.726 Z6.882 A292.5005 
N2193 X182.856 Y7.729 Z6.926 A294.6009 
N2194 X182.823 Y7.731 Z6.973 A296.9217 
N2195 X182.792 Y7.733 Z7.020 A299.5047 
N2196 X182.760 Y7.733 Z7.073 A302.4681 
N2197 X182.733 Y7.731 Z7.132 A305.8453 
N2198 X182.711 Y7.725 Z7.198 A309.6653 
N2199 X182.702 Y7.712 Z7.269 A313.8018 
N2200 X182.708 Y7.695 Z7.339 A317.9841 
N2201 X182.725 Y7.676 Z7.401 A321.9342 
N2202 X182.753 Y7.653 Z7.459 A325.6251 
N2203 X182.784 Y7.631 Z7.508 A328.9269 
N2204 X182.821 Y7.608 Z7.552 A331.8961 
N2205 X182.855 Y7.586 Z7.588 A334.5214 
N2206 X182.892 Y7.564 Z7.622 A336.9310 
N2207 X182.931 Y7.540 Z7.654 A339.1840 
N2208 X182.970 Y7.516 Z7.683 A341.2957 
N2209 X183.009 Y7.492 Z7.710 A343.2741 
N2210 X183.048 Y7.467 Z7.735 A345.1594 
N2211 X183.089 Y7.440 Z7.760 A346.9836 
N2212 X183.131 Y7.412 Z7.783 A348.7291 
N2213 X183.170 Y7.385 Z7.804 A350.3839 
N2214 X183.210 Y7.356 Z7.824 A351.9744 
N2215 X183.250 Y7.326 Z7.843 A353.4977 
N2216 X183.289 Y7.295 Z7.860 A354.9450 
N2217 X183.326 Y7.264 Z7.876 A356.3138 
N2218 X183.362 Y7.233 Z7.891 A357.6077 
N2219 X183.397 Y7.201 Z7.905 A358.8333 
N2220 X183.431 Y7.169 Z7.918 A0.0089 
N2221 X183.468 Y7.132 Z7.930 A1.1617 
N2222 X183.503 Y7.094 Z7.941 A2.2601 
N2223 X183.536 Y7.057 Z7.952 A3.2942 
N2224 X183.568 Y7.019 Z7.961 A4.2642 
N2225 X183.598 Y6.982 Z7.968 A5.1715 
N2226 X183.627 Y6.945 Z7.975 A6.0255 
N2227 X183.654 Y6.908 Z7.981 A6.8437 
N2228 X183.684 Y6.866 Z7.987 A7.6527 
N2229 X183.714 Y6.823 Z7.991 A8.4361 
N2230 X183.742 Y6.781 Z7.995 A9.1839 
N2231 X183.769 Y6.738 Z7.998 A9.8958 
N2232 X183.795 Y6.695 Z8.001 A10.5740 
N2233 X183.821 Y6.651 Z8.002 A11.2219 
N2234 X183.846 Y6.607 Z8.003 A11.8426 
N2235 X183.871 Y6.563 Z8.003 A12.4404 
N2236 X183.895 Y6.518 Z8.002 A13.0214 
N2237 X183.919 Y6.472 Z8.001 A13.5947 
N2238 X183.944 Y6.422 Z7.999 A14.1713 
N2239 X183.970 Y6.368 Z7.996 A14.7610 
N2240 X183.998 Y6.308 Z7.992 A15.3721 
N2241 X184.028 Y6.242 Z7.986 A16.0101 
N2242 X184.061 Y6.167 Z7.978 A16.6747 
N2243 X184.095 Y6.086 Z7.968 A17.3593 
N2244 X184.132 Y5.998 Z7.956 A18.0539 
N2245 X184.168 Y5.907 Z7.942 A18.7403 
N2246 X184.202 Y5.817 Z7.927 A19.4032 
N2247 X184.236 Y5.727 Z7.911 A20.0422 
N2248 X184.269 Y5.633 Z7.893 A20.6630 
N2249 X184.303 Y5.534 Z7.872 A21.2730 
N2250 X184.338 Y5.426 Z7.848 A21.8780 
N2251 X184.375 Y5.308 Z7.820 A22.4813 
N2252 X184.413 Y5.181 Z7.787 A23.0807 
N2253 X184.453 Y5.043 Z7.750 A23.6752 
N2254 X184.494 Y4.892 Z7.707 A24.2622 
N2255 X184.536 Y4.729 Z7.659 A24.8331 
N2256 X184.577 Y4.557 Z7.605 A25.3805 
N2257 X184.620 Y4.371 Z7.545 A25.9000 
N2258 X184.663 Y4.167 Z7.476 A26.3880 
N2259 X184.707 Y3.941 Z7.397 A26.8386 
N2260 X184.752 Y3.691 Z7.307 A27.2442 
N2261 X184.798 Y3.414 Z7.204 A27.5971 
N2262 X184.839 Y3.135 Z7.097 A27.8866 
N2263 X184.877 Y2.856 Z6.989 A28.1128 
N2264 X184.910 Y2.578 Z6.880 A28.2791 
N2265 X184.940 Y2.300 Z6.769 A28.3881 
N2266 X184.966 Y2.022 Z6.658 A28.4411 
N2267 X184.989 Y1.744 Z6.546 A28.4378 
N2268 X185.008 Y1.467 Z6.434 A28.3770 
N2269 X185.024 Y1.189 Z6.322 A28.2571 
N2270 X185.037 Y0.912 Z6.210 A28.0758 
N2271 X185.047 Y0.634 Z6.099 A27.8310 
N2272 X185.054 Y0.356 Z5.989 A27.5203 
N2273 X185.060 Y0.078 Z5.880 A27.1418 
N2274 X185.064 Y-0.200 Z5.773 A26.6944 
N2275 X185.068 Y-0.479 Z5.668 A26.1781 
N2276 X185.072 Y-0.759 Z5.565 A25.5937 
N2277 X185.076 Y-1.039 Z5.464 A24.9435 
N2278 X185.080 Y-1.320 Z5.367 A24.2301 
N2279 X185.083 Y-1.602 Z5.273 A23.4565 
N2280 X185.087 Y-1.885 Z5.182 A22.6262 
N2281 X185.090 Y-2.169 Z5.096 A21.7434 
N2282 X185.092 Y-2.454 Z5.014 A20.8141 
N2283 X185.095 Y-2.739 Z4.937 A19.8490 
N2284 X185.097 Y-3.014 Z4.867 A18.8651 
N2285 X185.099 Y-3.279 Z4.804 A17.8725 
N2286 X185.101 Y-3.537 Z4.748 A16.8758 
N2287 X185.103 Y-3.789 Z4.697 A15.8772 
N2288 X185.104 Y-4.037 Z4.651 A14.8777 
N2289 X185.106 Y-4.281 Z4.610 A13.8778 
N2290 X185.107 Y-4.523 Z4.574 A12.8777 
N2291 X185.108 Y-4.764 Z4.542 A11.8775 
N2292 X185.109 Y-5.003 Z4.515 A10.8772 
N2293 X185.109 Y-5.242 Z4.492 A9.8769 
N2294 X185.110 Y-5.480 Z4.473 A8.8766 
N2295 X185.110 Y-5.718 Z4.458 A7.8763 
N2296 X185.111 Y-5.957 Z4.447 A6.8760 
N2297 X185.111 Y-6.198 Z4.441 A5.8757 
N2298 X185.111 Y-6.439 Z4.439 A4.8755 
N2299 X185.111 Y-6.683 Z4.441 A3.8752 
N2300 X185.110 Y-6.929 Z4.447 A2.8750 
N2301 X185.110 Y-7.178 Z4.458 A1.8748 
N2302 X185.109 Y-7.430 Z4.474 A0.8750 
N2303 X185.109 Y-7.686 Z4.495 A359.8755 
N2304 X185.108 Y-7.946 Z4.520 A358.8763 
N2305 X185.107 Y-8.212 Z4.551 A357.8775 
N2306 X185.105 Y-8.483 Z4.588 A356.8799 
N2307 X185.103 Y-8.761 Z4.631 A355.8852 
N2308 X185.102 Y-9.046 Z4.680 A354.8969 
N2309 X185.100 Y-9.337 Z4.735 A353.9224 
N2310 X185.097 Y-9.627 Z4.796 A352.9719 
N2311 X185.095 Y-9.916 Z4.862 A352.0507 
N2312 X185.092 Y-10.204 Z4.933 A351.1611 
N2313 X185.088 Y-10.491 Z5.008 A350.3036 
N2314 X185.085 Y-10.777 Z5.088 A349.4781 
N2315 X185.081 Y-11.062 Z5.172 A348.6837 
N2316 X185.077 Y-11.346 Z5.260 A347.9196 
N2317 X185.073 Y-11.629 Z5.352 A347.1846 
N2318 X185.069 Y-11.910 Z5.448 A346.4775 
N2319 X185.064 Y-12.191 Z5.548 A345.7970 
N2320 X185.059 Y-12.470 Z5.651 A345.1417 
N2321 X185.053 Y-12.748 Z5.757 A344.5099 
N2322 X185.048 Y-13.025 Z5.867 A343.9000 
N2323 X185.042 Y-13.301 Z5.979 A343.3109 
N2324 X185.035 Y-13.575 Z6.095 A342.7426 
N2325 X185.029 Y-13.849 Z6.213 A342.1970 
N2326 X185.022 Y-14.121 Z6.334 A341.6775 
N2327 X185.015 Y-14.393 Z6.458 A341.1880 
N2328 X185.008 Y-14.663 Z6.584 A340.7314 
N2329 X185.000 Y-14.932 Z6.713 A340.3083 
N2330 X184.992 Y-15.201 Z6.844 A339.9165 
N2331 X184.984 Y-15.468 Z6.977 A339.5521 
N2332 X184.975 Y-15.735 Z7.111 A339.2127 
N2333 X184.966 Y-15.994 Z7.244 A338.9017 
N2334 X184.959 Y-16.203 Z7.352 A338.6325 
N2335 X184.953 Y-16.375 Z7.443 A338.4062 
N2336 X184.948 Y-16.507 Z7.512 A338.2242 
N2337 X184.944 Y-16.615 Z7.570 A338.0867 
N2338 X184.941 Y-16.700 Z7.616 A338.0056 
N2339 X184.939 Y-16.766 Z7.652 A338.0025 
N2340 X184.936 Y-16.820 Z7.683 A338.1085 
N2341 X184.934 Y-16.865 Z7.710 A338.4898 
N2342 X184.930 Y-16.908 Z7.743 A339.6537 
N2343 X184.921 Y-16.951 Z7.793 A343.2511 
N2344 X184.901 Y-17.009 Z7.897 A354.1211 
N2345 X184.886 Y-17.145 Z8.072 A17.6910 
N2346 X184.913 Y-17.317 Z8.171 A39.2034 
N2347 X184.951 Y-17.447 Z8.197 A53.2137 
N2348 X184.992 Y-17.561 Z8.193 A65.2854 
N2349 X185.035 Y-17.659 Z8.170 A75.8704 
N2350 X185.077 Y-17.745 Z8.133 A85.8323 
N2351 X185.120 Y-17.824 Z8.084 A95.8261 
N2352 X185.167 Y-17.896 Z8.020 A106.1291 
N2353 X185.213 Y-17.956 Z7.942 A116.7974 
N2354 X185.258 Y-18.003 Z7.843 A128.3489 
N2355 X185.293 Y-18.020 Z7.736 A139.0850 
N2356 X185.308 Y-18.000 Z7.660 A144.5703 
N2357 X185.312 Y-17.967 Z7.615 A146.1915 
N2358 X185.314 Y-17.930 Z7.579 A146.7177 
N2359 X185.315 Y-17.885 Z7.540 A146.9134 
N2360 X185.316 Y-17.829 Z7.492 A147.0012 
N2361 X185.317 Y-17.758 Z7.433 A147.0588 
N2362 X185.319 Y-17.672 Z7.362 A147.0978 
N2363 X185.320 Y-17.558 Z7.268 A147.1300 
N2364 X185.322 Y-17.416 Z7.151 A147.1628 
N2365 X185.325 Y-17.240 Z7.006 A147.2004 
N2366 X185.327 Y-17.024 Z6.828 A147.2445 
N2367 X185.330 Y-16.792 Z6.637 A147.2946 
N2368 X185.333 Y-16.559 Z6.447 A147.3501 
N2369 X185.335 Y-16.327 Z6.256 A147.4116 
N2370 X185.337 Y-16.094 Z6.066 A147.4801 
N2371 X185.339 Y-15.861 Z5.876 A147.5566 
N2372 X185.341 Y-15.628 Z5.686 A147.6419 
N2373 X185.342 Y-15.395 Z5.497 A147.7366 
N2374 X185.343 Y-15.161 Z5.308 A147.8407 
N2375 X185.344 Y-14.927 Z5.119 A147.9542 
N2376 X185.345 Y-14.693 Z4.931 A148.0767 
N2377 X185.346 Y-14.458 Z4.743 A148.2082 
N2378 X185.346 Y-14.223 Z4.555 A148.3486 
N2379 X185.346 Y-13.987 Z4.369 A148.4979 
N2380 X185.346 Y-13.751 Z4.182 A148.6562 
N2381 X185.345 Y-13.514 Z3.997 A148.8235 
N2382 X185.345 Y-13.277 Z3.811 A149.0002 
N2383 X185.344 Y-13.039 Z3.627 A149.1867 
N2384 X185.342 Y-12.800 Z3.443 A149.3837 
N2385 X185.341 Y-12.561 Z3.260 A149.5922 
N2386 X185.339 Y-12.321 Z3.078 A149.8134 
N2387 X185.337 Y-12.081 Z2.897 A150.0484 
N2388 X185.335 Y-11.840 Z2.716 A150.2983 
N2389 X185.332 Y-11.598 Z2.537 A150.5638 
N2390 X185.329 Y-11.355 Z2.358 A150.8454 
N2391 X185.326 Y-11.111 Z2.181 A151.1436 
N2392 X185.322 Y-10.867 Z2.005 A151.4587 
N2393 X185.318 Y-10.621 Z1.830 A151.7910 
N2394 X185.314 Y-10.375 Z1.656 A152.1411 
N2395 X185.310 Y-10.127 Z1.484 A152.5097 
N2396 X185.305 Y-9.878 Z1.313 A152.8976 
N2397 X185.299 Y-9.628 Z1.144 A153.3056 
N2398 X185.294 Y-9.377 Z0.976 A153.7349 
N2399 X185.288 Y-9.125 Z0.810 A154.1865 
N2400 X185.281 Y-8.871 Z0.646 A154.6616 
N2401 X185.274 Y-8.616 Z0.484 A155.1616 
N2402 X185.267 Y-8.360 Z0.324 A155.6879 
N2403 X185.260 Y-8.102 Z0.167 A156.2421 
N2404 X185.252 Y-7.843 Z0.011 A156.8258 
N2405 X185.243 Y-7.582 Z-0.142 A157.4412 
N2406 X185.234 Y-7.319 Z-0.293 A158.0906 
N2407 X185.225 Y-7.054 Z-0.440 A158.7767 
N2408 X185.215 Y-6.788 Z-0.585 A159.5027 
N2409 X185.205 Y-6.520 Z-0.727 A160.2718 
N2410 X185.194 Y-6.250 Z-0.865 A161.0868 
N2411 X185.182 Y-5.978 Z-1.000 A161.9491 
N2412 X185.170 Y-5.704 Z-1.131 A162.8572 
N2413 X185.158 Y-5.428 Z-1.257 A163.8051 
N2414 X185.145 Y-5.160 Z-1.376 A164.7778 
N2415 X185.132 Y-4.902 Z-1.484 A165.7626 
N2416 X185.120 Y-4.654 Z-1.584 A166.7534 
N2417 X185.107 Y-4.415 Z-1.676 A167.7473 
N2418 X185.095 Y-4.184 Z-1.760 A168.7428 
N2419 X185.082 Y-3.962 Z-1.837 A169.7393 
N2420 X185.070 Y-3.746 Z-1.908 A170.7363 
N2421 X185.058 Y-3.538 Z-1.973 A171.7337 
N2422 X185.046 Y-3.337 Z-2.032 A172.7315 
N2423 X185.034 Y-3.142 Z-2.086 A173.7296 
N2424 X185.022 Y-2.953 Z-2.135 A174.7280 
N2425 X185.011 Y-2.769 Z-2.180 A175.7268 
N2426 X184.999 Y-2.591 Z-2.220 A176.7258 
N2427 X184.987 Y-2.417 Z-2.256 A177.7252 
N2428 X184.976 Y-2.248 Z-2.288 A178.7249 
N2429 X184.965 Y-2.084 Z-2.317 A179.7249 
N2430 X184.954 Y-1.923 Z-2.342 A180.7252 
N2431 X184.942 Y-1.766 Z-2.365 A181.7258 
N2432 X184.931 Y-1.612 Z-2.384 A182.7268 
N2433 X184.921 Y-1.462 Z-2.400 A183.7280 
N2434 X184.910 Y-1.315 Z-2.413 A184.7296 
N2435 X184.899 Y-1.171 Z-2.424 A185.7314 
N2436 X184.888 Y-1.029 Z-2.433 A186.7335 
N2437 X184.878 Y-0.890 Z-2.438 A187.7359 
N2438 X184.867 Y-0.753 Z-2.442 A188.7386 
N2439 X184.857 Y-0.619 Z-2.443 A189.7414 
N2440 X184.846 Y-0.487 Z-2.442 A190.7446 
N2441 X184.836 Y-0.357 Z-2.439 A191.7479 
N2442 X184.826 Y-0.228 Z-2.434 A192.7514 
N2443 X184.816 Y-0.102 Z-2.426 A193.7551 
N2444 X184.805 Y0.023 Z-2.417 A194.7590 
N2445 X184.795 Y0.147 Z-2.406 A195.7630 
N2446 X184.785 Y0.269 Z-2.392 A196.7671 
N2447 X184.775 Y0.390 Z-2.377 A197.7713 
N2448 X184.766 Y0.509 Z-2.360 A198.7755 
N2449 X184.756 Y0.628 Z-2.341 A199.7798 
N2450 X184.746 Y0.745 Z-2.320 A200.7841 
N2451 X184.736 Y0.861 Z-2.297 A201.7884 
N2452 X184.727 Y0.977 Z-2.272 A202.7926 
N2453 X184.717 Y1.091 Z-2.246 A203.7969 
N2454 X184.708 Y1.205 Z-2.217 A204.8010 
N2455 X184.698 Y1.318 Z-2.187 A205.8050 
N2456 X184.689 Y1.430 Z-2.154 A206.8090 
N2457 X184.679 Y1.542 Z-2.120 A207.8128 
N2458 X184.670 Y1.653 Z-2.084 A208.8164 
N2459 X184.661 Y1.764 Z-2.045 A209.8199 
N2460 X184.651 Y1.875 Z-2.005 A210.8233 
N2461 X184.642 Y1.985 Z-1.962 A211.8264 
N2462 X184.633 Y2.094 Z-1.918 A212.8294 
N2463 X184.624 Y2.204 Z-1.871 A213.8322 
N2464 X184.615 Y2.313 Z-1.822 A214.8347 
N2465 X184.606 Y2.422 Z-1.770 A215.8370 
N2466 X184.597 Y2.531 Z-1.717 A216.8391 
N2467 X184.588 Y2.640 Z-1.660 A217.8409 
N2468 X184.579 Y2.749 Z-1.602 A218.8424 
N2469 X184.570 Y2.858 Z-1.540 A219.8438 
N2470 X184.561 Y2.967 Z-1.476 A220.8450 
N2471 X184.553 Y3.076 Z-1.409 A221.8462 
N2472 X184.544 Y3.186 Z-1.340 A222.8474 
N2473 X184.535 Y3.296 Z-1.267 A223.8485 
N2474 X184.526 Y3.406 Z-1.191 A224.8495 
N2475 X184.518 Y3.516 Z-1.112 A225.8501 
N2476 X184.509 Y3.627 Z-1.030 A226.8498 
N2477 X184.500 Y3.737 Z-0.944 A227.8481 
N2478 X184.491 Y3.849 Z-0.854 A228.8447 
N2479 X184.483 Y3.960 Z-0.762 A229.8395 
N2480 X184.474 Y4.071 Z-0.665 A230.8331 
N2481 X184.466 Y4.184 Z-0.564 A231.8267 
N2482 X184.458 Y4.297 Z-0.458 A232.8182 
N2483 X184.449 Y4.411 Z-0.348 A233.8018 
N2484 X184.440 Y4.524 Z-0.234 A234.7692 
N2485 X184.431 Y4.634 Z-0.119 A235.7102 
N2486 X184.420 Y4.740 Z-0.005 A236.6138 
N2487 X184.409 Y4.840 Z0.106 A237.4731 
N2488 X184.397 Y4.933 Z0.214 A238.2867 
N2489 X184.385 Y5.021 Z0.317 A239.0608 
N2490 X184.370 Y5.105 Z0.419 A239.8118 
N2491 X184.354 Y5.191 Z0.526 A240.5602 
N2492 X184.335 Y5.279 Z0.640 A241.3167 
N2493 X184.314 Y5.370 Z0.760 A242.0864 
N2494 X184.289 Y5.464 Z0.888 A242.8696 
N2495 X184.262 Y5.559 Z1.023 A243.6607 
N2496 X184.233 Y5.654 Z1.159 A244.4521 
N2497 X184.202 Y5.747 Z1.298 A245.2411 
