N10 ; PROGRAM NAME: 4444437
N11 ; ORDER       : 44444
N12 ; OPER. NAME  : Side Milling:114
N13 ; OPER. DESCR.: Side Milling/BF zgr
N14 ; OPER. TYPE  : sideMill
N15 ; GEO. OPTION : 1
N16 ; MACHINE     : SH_HX151_24_SIM840D
N17 ;             : STARRAG_HECKERT_5axis_finish_milling_machine
N18 ; CONTROL     : SINUMERIK 840D
N19 ; created:   2022-11-03 13:35:41.714167
;-------DODATKOWE DANE-------------------
; PROGRAMISTA : Mariusz Malec
; PARTID      : 139T004654P1015_-
;  ap         : 2.5
;  ae         : 17.0
;  lean_angle : 0.0
;  fin_offset : 0.5
;----------------------------------------
N20 ;----------------------------------------
RAPORT("T44444","Side Milling:114")
N21 TRAFOOF
N22 D0
N23 G90 G94
N24 STOPRE
N25 M9 ; chlodziwo wyl
N26 ; --- Side Milling:114 - Side Milling/BF zgr ---
N28 ;ToolChange : concat=None ,current_tdmid=None, PP.tdmId=941294
N29 MSG(" TLID=941294 D=32.0 R=5.0 Ang=0.0 Len=105.0 ")
N30 TRAFOOF
N31 D0
N32 G0 G53 Z290 B0
N33 G0 X200
N34 G0 Y150
N35 T="7741294"
N36 G0 X500
RAPORT("T44444","ToolChangeStart 7741294")
N37 M6
RAPORT("T44444","ToolChangeEnd")
N38 ; (Preloading tool)
N39 T="7740689"
N40 G0 X200
N41 STOPRE
N42 S2685 M03
N43 STOPRE
N44 TOL(0.1,1,1)
N45 G0 X179.241 A308.0000
N46 TRAORI
N47 G54 D5
N48 D5 
N49 ; DELTA A > 40.1
N50 TRAFOOF
N51 STOPRE
N52 G0 G53 D0 Z265.000
N53 G1 G53 A308.0000 F10000
N54 TRAORI
N55 G54 D5
N56 TRANS 
N57 G00 X179.241 Y77.110 Z2.531 A308.0000 B0.0000 
N58 M346 ; chlodziwo mgla
N59 X179.241 Y37.709 Z-28.252 
N60 G01 X179.885 Y31.566 Z-20.388 F2792 
N61 X179.949 Y30.951 Z-19.602 
N62 X180.010 Y30.373 Z-18.862 
N63 X180.070 Y29.795 Z-18.122 
N64 X180.131 Y29.216 Z-17.382 
N65 X180.191 Y28.638 Z-16.642 
N66 X180.252 Y28.060 Z-15.902 
N67 X180.313 Y27.482 Z-15.161 
N68 X180.373 Y26.903 Z-14.421 
N69 X180.434 Y26.325 Z-13.681 
N70 X180.494 Y25.747 Z-12.941 
N71 X180.555 Y25.169 Z-12.201 
N72 X180.616 Y24.590 Z-11.461 
N73 X180.676 Y24.012 Z-10.721 
N74 X180.737 Y23.434 Z-9.981 
N75 X180.797 Y22.856 Z-9.240 
N76 X180.858 Y22.277 Z-8.500 
N77 X180.919 Y21.699 Z-7.760 
N78 X180.979 Y21.121 Z-7.020 
N79 X181.039 Y20.549 Z-6.288 
N80 X181.099 Y19.977 Z-5.556 
N81 X181.159 Y19.405 Z-4.824 
N82 X181.219 Y18.833 Z-4.092 
N83 X181.270 Y18.261 Z-3.360 
N84 X181.316 Y17.689 Z-2.627 
N85 X181.363 Y17.116 Z-1.894 
N86 X181.409 Y16.544 Z-1.162 
N87 X181.456 Y15.972 Z-0.429 
N88 X181.493 Y15.399 Z0.304 
N89 X181.524 Y14.826 Z1.037 
N90 X181.554 Y14.253 Z1.770 
N91 X181.584 Y13.680 Z2.503 
N92 X181.615 Y13.108 Z3.237 
N93 X181.645 Y12.535 Z3.970 
N94 X181.673 Y11.962 Z4.703 
N95 X181.689 Y11.389 Z5.436 
N96 X181.704 Y10.816 Z6.170 
N97 X181.720 Y10.243 Z6.903 
N98 X181.733 Y9.670 Z7.637 
N99 X181.737 Y9.097 Z8.370 
N100 X181.741 Y8.524 Z9.104 
N101 X181.745 Y7.951 Z9.837 
N102 X181.750 Y7.377 Z10.571 
N103 X181.754 Y6.798 Z11.312 
N104 X181.758 Y6.219 Z12.054 
N105 X181.762 Y5.639 Z12.796 
N106 X181.767 Y5.060 Z13.537 
N107 X181.771 Y4.480 Z14.279 
N108 X181.775 Y3.901 Z15.021 
N109 X181.779 Y3.321 Z15.762 
N110 X181.784 Y2.742 Z16.504 
N111 X181.788 Y2.163 Z17.246 
N112 X181.792 Y1.583 Z17.987 
N113 X181.796 Y1.004 Z18.729 
N114 X181.801 Y0.424 Z19.471 
N115 X181.805 Y-0.155 Z20.212 
N116 X181.809 Y-0.735 Z20.954 
N117 X181.813 Y-1.314 Z21.696 
N118 X181.817 Y-1.894 Z22.437 
N119 X181.822 Y-2.473 Z23.179 
N120 X181.826 Y-2.856 Z24.070 F2919 
N121 X181.830 Y-3.128 Z25.095 F3301 
N122 X181.834 Y-3.349 Z26.311 F3938 
N123 X181.837 Y-3.479 Z27.804 F4830 
N124 X181.826 Y-3.337 Z29.643 F5977 
N125 X181.726 Y-2.216 Z31.570 F7379 
N126 X181.354 Y0.471 Z31.815 F8972 
N127 X180.769 Y3.458 Z30.490 F10374 
N128 X180.022 Y6.491 Z28.388 F11521 
N129 X179.132 Y9.549 Z25.780 F12413 
N130 X178.122 Y12.609 Z22.813 F13050 
N131 X177.018 Y15.640 Z19.596 F13432 
N132 X175.853 Y18.610 Z16.223 F13560 
N133 X174.697 Y21.398 Z12.884 
N134 X173.526 Y24.109 Z9.487 
N135 X172.351 Y26.747 Z6.035 
N136 X171.182 Y29.309 Z2.525 
N137 X169.992 Y31.858 Z-1.169 F13432 
N138 X168.853 Y34.240 Z-4.881 F13050 
N139 X167.796 Y36.372 Z-8.559 F12413 
N140 X166.851 Y38.155 Z-12.148 F11521 
N141 X166.044 Y39.454 Z-15.588 F10374 
N142 X165.404 Y40.014 Z-18.797 F8972 
N143 X165.018 Y39.127 Z-21.343 F7379 
N144 X164.989 Y36.986 Z-21.969 F5977 
N145 X165.063 Y35.168 Z-21.663 F4830 
N146 X165.141 Y33.753 Z-21.178 F3938 
N147 X165.211 Y32.627 Z-20.671 F3301 
N148 X165.273 Y31.700 Z-20.161 F2919 
N149 X165.334 Y30.930 Z-19.575 F2792 
N150 X165.398 Y30.316 Z-18.789 
N151 X165.459 Y29.738 Z-18.049 
N152 X165.519 Y29.159 Z-17.309 
N153 X165.580 Y28.581 Z-16.569 
N154 X165.640 Y28.003 Z-15.829 
N155 X165.701 Y27.425 Z-15.088 
N156 X165.762 Y26.846 Z-14.348 
N157 X165.822 Y26.268 Z-13.608 
N158 X165.883 Y25.690 Z-12.868 
N159 X165.943 Y25.112 Z-12.128 
N160 X166.004 Y24.533 Z-11.388 
N161 X166.065 Y23.955 Z-10.648 
N162 X166.125 Y23.377 Z-9.908 
N163 X166.186 Y22.799 Z-9.167 
N164 X166.246 Y22.220 Z-8.427 
N165 X166.307 Y21.642 Z-7.687 
N166 X166.368 Y21.064 Z-6.947 
N167 X166.428 Y20.486 Z-6.207 
N168 X166.488 Y19.917 Z-5.479 
N169 X166.547 Y19.349 Z-4.752 
N170 X166.607 Y18.780 Z-4.024 
N171 X166.667 Y18.212 Z-3.296 
N172 X166.715 Y17.643 Z-2.568 
N173 X166.761 Y17.074 Z-1.840 
N174 X166.807 Y16.505 Z-1.112 
N175 X166.854 Y15.936 Z-0.383 
N176 X166.900 Y15.367 Z0.345 
N177 X166.931 Y14.798 Z1.074 
N178 X166.961 Y14.228 Z1.802 
N179 X166.991 Y13.659 Z2.531 
N180 X167.021 Y13.089 Z3.260 
N181 X167.051 Y12.520 Z3.989 
N182 X167.081 Y11.951 Z4.717 
N183 X167.100 Y11.381 Z5.446 
N184 X167.115 Y10.812 Z6.175 
N185 X167.131 Y10.242 Z6.905 
N186 X167.146 Y9.672 Z7.634 
N187 X167.150 Y9.103 Z8.363 
N188 X167.154 Y8.533 Z9.092 
N189 X167.158 Y7.963 Z9.821 
N190 X167.162 Y7.394 Z10.550 
N191 X167.166 Y6.814 Z11.292 
N192 X167.171 Y6.235 Z12.034 
N193 X167.175 Y5.655 Z12.775 
N194 X167.179 Y5.076 Z13.517 
N195 X167.183 Y4.496 Z14.258 
N196 X167.188 Y3.917 Z15.000 
N197 X167.192 Y3.338 Z15.742 
N198 X167.196 Y2.758 Z16.483 
N199 X167.200 Y2.179 Z17.225 
N200 X167.205 Y1.599 Z17.967 
N201 X167.209 Y1.020 Z18.708 
N202 X167.213 Y0.440 Z19.450 
N203 X167.217 Y-0.139 Z20.192 
N204 X167.221 Y-0.719 Z20.933 
N205 X167.226 Y-1.298 Z21.675 
N206 X167.230 Y-1.877 Z22.417 
N207 X167.234 Y-2.457 Z23.158 
N208 X167.279 Y-8.613 Z31.038 
N209 G00 X167.279 Y30.787 Z61.821 
RAPORT("T44444","Side Milling:114 End")
N211 ;trailer : concat=None
; points cnt = 149
N212 MSG (" --- GROUPED OF SUBPROGRAM --- ")
N213 FGROUP()
N214 TRAFOOF
N10 ; PROGRAM NAME: 4444437
N11 ; ORDER       : 44444
N12 ; OPER. NAME  : Side Milling:115
N13 ; OPER. DESCR.: BF rough milling FEAB
N14 ; OPER. TYPE  : sideMill
N15 ; GEO. OPTION : 1
N16 ; MACHINE     : SH_HX151_24_SIM840D
N17 ;             : STARRAG_HECKERT_5axis_finish_milling_machine
N18 ; CONTROL     : SINUMERIK 840D
N19 ; created:   2022-11-03 13:35:44.168817
;-------DODATKOWE DANE-------------------
; PROGRAMISTA : Mariusz Malec
; PARTID      : 139T004654P1015_-
;  ap         : 2.5
;  ae         : 17.0
;  lean_angle : 0.0
;  fin_offset : 0.5
;----------------------------------------
N20 ;----------------------------------------
RAPORT("T44444","Side Milling:115")
N21 TRAFOOF
N22 D0
N23 G0 G90 G94 Z260.0
N24 STOPRE
N25 M9 ; chlodziwo wyl
N26 ; --- Side Milling:115 - BF rough milling FEAB ---
N28 ;ToolChange : concat=None ,current_tdmid=None, PP.tdmId=941294
N29 TRAFOOF
N30 D0
N31 G0 G54 Z270.0
N32 S2685 M03
N33 STOPRE
N34 TOL(0.1,1,1)
N35 G0  A128.0000
N36 TRAORI
N37 G54 D6
N38 D6 
N39 ; DELTA A > 40.1
N40 TRAFOOF
N41 STOPRE
N42 G0 G53 D0 Z265.000
N43 G1 G53 A128.0000 F10000
N44 TRAORI
N45 G54 D6
N46 TRANS 
N47 G00 X179.135 Y-80.156 Z4.037 A128.0000 B0.0000 
N48 M346 ; chlodziwo mgla
N49 X179.135 Y-40.755 Z34.820 
N50 G01 X179.800 Y-34.612 Z26.957 F2792 
N51 X179.866 Y-33.998 Z26.171 
N52 X179.929 Y-33.420 Z25.431 
N53 X179.992 Y-32.842 Z24.691 
N54 X180.054 Y-32.264 Z23.951 
N55 X180.117 Y-31.685 Z23.211 
N56 X180.179 Y-31.107 Z22.471 
N57 X180.242 Y-30.529 Z21.731 
N58 X180.305 Y-29.951 Z20.991 
N59 X180.367 Y-29.373 Z20.251 
N60 X180.430 Y-28.795 Z19.511 
N61 X180.492 Y-28.216 Z18.771 
N62 X180.555 Y-27.638 Z18.031 
N63 X180.617 Y-27.060 Z17.291 
N64 X180.680 Y-26.482 Z16.551 
N65 X180.743 Y-25.904 Z15.811 
N66 X180.805 Y-25.326 Z15.071 
N67 X180.868 Y-24.748 Z14.331 
N68 X180.930 Y-24.169 Z13.591 
N69 X180.992 Y-23.598 Z12.859 
N70 X181.054 Y-23.026 Z12.127 
N71 X181.116 Y-22.454 Z11.396 
N72 X181.178 Y-21.883 Z10.664 
N73 X181.231 Y-21.311 Z9.932 
N74 X181.280 Y-20.738 Z9.199 
N75 X181.328 Y-20.166 Z8.467 
N76 X181.376 Y-19.594 Z7.735 
N77 X181.425 Y-19.022 Z7.002 
N78 X181.466 Y-18.449 Z6.270 
N79 X181.498 Y-17.877 Z5.537 
N80 X181.530 Y-17.304 Z4.804 
N81 X181.562 Y-16.732 Z4.071 
N82 X181.594 Y-16.159 Z3.338 
N83 X181.626 Y-15.586 Z2.605 
N84 X181.657 Y-15.014 Z1.872 
N85 X181.675 Y-14.441 Z1.139 
N86 X181.693 Y-13.868 Z0.406 
N87 X181.710 Y-13.295 Z-0.328 
N88 X181.725 Y-12.722 Z-1.061 
N89 X181.732 Y-12.149 Z-1.794 
N90 X181.738 Y-11.576 Z-2.527 
N91 X181.744 Y-11.003 Z-3.261 
N92 X181.750 Y-10.431 Z-3.994 
N93 X181.757 Y-9.851 Z-4.736 
N94 X181.763 Y-9.272 Z-5.477 
N95 X181.769 Y-8.692 Z-6.219 
N96 X181.775 Y-8.113 Z-6.961 
N97 X181.782 Y-7.533 Z-7.702 
N98 X181.788 Y-6.954 Z-8.444 
N99 X181.794 Y-6.374 Z-9.186 
N100 X181.800 Y-5.795 Z-9.927 
N101 X181.807 Y-5.216 Z-10.669 
N102 X181.813 Y-4.636 Z-11.411 
N103 X181.819 Y-4.057 Z-12.152 
N104 X181.825 Y-3.477 Z-12.894 
N105 X181.832 Y-2.898 Z-13.635 
N106 X181.838 Y-2.318 Z-14.377 
N107 X181.844 Y-1.739 Z-15.119 
N108 X181.851 Y-1.160 Z-15.860 
N109 X181.857 Y-0.580 Z-16.602 
N110 X181.863 Y-0.197 Z-17.493 F2919 
N111 X181.869 Y0.075 Z-18.518 F3301 
N112 X181.876 Y0.296 Z-19.734 F3938 
N113 X181.881 Y0.425 Z-21.227 F4830 
N114 X181.873 Y0.284 Z-23.066 F5977 
N115 X181.775 Y-0.836 Z-24.993 F7379 
N116 X181.400 Y-3.523 Z-25.240 F8972 
N117 X180.809 Y-6.509 Z-23.916 F10373 
N118 X180.055 Y-9.541 Z-21.815 F11520 
N119 X179.156 Y-12.598 Z-19.209 F12412 
N120 X178.136 Y-15.656 Z-16.244 F13049 
N121 X177.023 Y-18.685 Z-13.029 F13432 
N122 X175.848 Y-21.653 Z-9.658 F13559 
N123 X174.683 Y-24.439 Z-6.322 
N124 X173.503 Y-27.149 Z-2.927 
N125 X172.318 Y-29.785 Z0.522 
N126 X171.139 Y-32.345 Z4.031 
N127 X169.940 Y-34.893 Z7.722 F13432 
N128 X168.791 Y-37.273 Z11.432 F13049 
N129 X167.726 Y-39.403 Z15.108 F12412 
N130 X166.772 Y-41.185 Z18.695 F11520 
N131 X165.957 Y-42.483 Z22.133 F10373 
N132 X165.311 Y-43.041 Z25.341 F8972 
N133 X164.922 Y-42.154 Z27.886 F7379 
N134 X164.894 Y-40.012 Z28.512 F5977 
N135 X164.971 Y-38.194 Z28.206 F4830 
N136 X165.052 Y-36.779 Z27.721 F3938 
N137 X165.124 Y-35.654 Z27.214 F3301 
N138 X165.189 Y-34.727 Z26.704 F2919 
N139 X165.251 Y-33.957 Z26.119 F2792 
N140 X165.318 Y-33.343 Z25.332 
N141 X165.380 Y-32.765 Z24.592 
N142 X165.443 Y-32.187 Z23.852 
N143 X165.506 Y-31.609 Z23.112 
N144 X165.568 Y-31.030 Z22.372 
N145 X165.631 Y-30.452 Z21.632 
N146 X165.693 Y-29.874 Z20.892 
N147 X165.756 Y-29.296 Z20.152 
N148 X165.818 Y-28.718 Z19.412 
N149 X165.881 Y-28.140 Z18.672 
N150 X165.944 Y-27.561 Z17.932 
N151 X166.006 Y-26.983 Z17.192 
N152 X166.069 Y-26.405 Z16.452 
N153 X166.131 Y-25.827 Z15.712 
N154 X166.194 Y-25.249 Z14.972 
N155 X166.257 Y-24.671 Z14.232 
N156 X166.319 Y-24.092 Z13.492 
N157 X166.382 Y-23.514 Z12.752 
N158 X166.443 Y-22.946 Z12.025 
N159 X166.505 Y-22.378 Z11.297 
N160 X166.566 Y-21.809 Z10.570 
N161 X166.628 Y-21.241 Z9.843 
N162 X166.678 Y-20.672 Z9.115 
N163 X166.727 Y-20.104 Z8.387 
N164 X166.775 Y-19.535 Z7.659 
N165 X166.823 Y-18.966 Z6.931 
N166 X166.871 Y-18.397 Z6.203 
N167 X166.905 Y-17.828 Z5.475 
N168 X166.937 Y-17.259 Z4.746 
N169 X166.969 Y-16.690 Z4.017 
N170 X167.001 Y-16.121 Z3.289 
N171 X167.033 Y-15.551 Z2.560 
N172 X167.064 Y-14.982 Z1.832 
N173 X167.086 Y-14.413 Z1.103 
N174 X167.104 Y-13.843 Z0.374 
N175 X167.121 Y-13.274 Z-0.355 
N176 X167.138 Y-12.705 Z-1.083 
N177 X167.144 Y-12.135 Z-1.812 
N178 X167.150 Y-11.566 Z-2.541 
N179 X167.157 Y-10.996 Z-3.270 
N180 X167.163 Y-10.427 Z-3.999 
N181 X167.169 Y-9.847 Z-4.741 
N182 X167.175 Y-9.268 Z-5.483 
N183 X167.182 Y-8.688 Z-6.224 
N184 X167.188 Y-8.109 Z-6.966 
N185 X167.194 Y-7.529 Z-7.707 
N186 X167.200 Y-6.950 Z-8.449 
N187 X167.207 Y-6.371 Z-9.191 
N188 X167.213 Y-5.791 Z-9.932 
N189 X167.219 Y-5.212 Z-10.674 
N190 X167.225 Y-4.632 Z-11.416 
N191 X167.232 Y-4.053 Z-12.157 
N192 X167.238 Y-3.473 Z-12.899 
N193 X167.244 Y-2.894 Z-13.641 
N194 X167.250 Y-2.314 Z-14.382 
N195 X167.257 Y-1.735 Z-15.124 
N196 X167.263 Y-1.156 Z-15.866 
N197 X167.269 Y-0.576 Z-16.607 
N198 X167.336 Y5.580 Z-24.487 
N199 G00 X167.336 Y-33.820 Z-55.270 
RAPORT("T44444","Side Milling:115 End")
N201 ;trailer : concat=None
; points cnt = 149
N202 M347 ; mgla wyl
N203 M347 ; mgla wyl
N204 MSG (" --- KONIEC PROGRAMU --- ")
N205 TRANS
N206 G54
N207 FGROUP()
N208 TRAFOOF
N209 STOPRE
N210 G0 G53 D0 Z290.0 M9 M5
N211 G0 G53 Y150 A0 B0
N212 M17
