N10 ; PROGRAM NAME: 4444434
N11 ; ORDER       : 44444
N12 ; OPER. NAME  : Spiral Finish Airfoil:148
N13 ; OPER. DESCR.: Spiral Finishing Airfoil/pioro wk
N14 ; OPER. TYPE  : finAirfoil
N15 ; GEO. OPTION : 5
N16 ; MACHINE     : SH_HX151_24_SIM840D
N17 ;             : STARRAG_HECKERT_5axis_finish_milling_machine
N18 ; CONTROL     : SINUMERIK 840D
N19 ; created:   2022-11-03 13:37:54.441977
;-------DODATKOWE DANE-------------------
; PROGRAMISTA : Mariusz Malec
; PARTID      : 139T004654P1015_-
;  ae         : 1.5
;  lean_angle : 20.0
;  airf_offset: 0.05
;----------------------------------------
N20 ;----------------------------------------
RAPORT("T44444","Spiral Finish Airfoil:148")
N21 TRAFOOF
N22 D0
N23 G90 G94
N24 STOPRE
N25 M9 ; chlodziwo wyl
N26 ; --- Spiral Finish Airfoil:148 - Spiral Finishing Airfoil/pioro wk ---
N28 ;ToolChange : concat=None ,current_tdmid=None, PP.tdmId=941084
N29 MSG(" TLID=941084 D=12.0 R=3.0 Ang=0.0 Len=130.0 ")
N30 TRAFOOF
N31 D0
N32 G0 G53 Z290 B0
N33 G0 X200
N34 G0 Y150
N35 T="7741084"
N36 G0 X500
RAPORT("T44444","ToolChangeStart 7741084")
N37 M6
RAPORT("T44444","ToolChangeEnd")
N38 ; (Preloading tool)
N39 T="7757774"
N40 G0 X200
N41 STOPRE
N42 S7427 M03
N43 STOPRE
N44 TOL(0.01,1,1)
N45 G0 X227.802 A157.9672
N46 TRAORI
N47 G54 D1
N48 D1 
N49 TRANS  A=R25
STOPRE
E_ZDARZ=300001
;ACS_FINISH_AIRFOIL=7741084
STOPRE
N50 ; DELTA A > 40.1
N51 TRAFOOF
N52 STOPRE
N53 G0 G53 D0 Z265.000
N54 G1 G53 A157.9672 F10000
N55 TRAORI
N56 G54 D1
N57 TRANS  A=R25
N58 G00 X227.802 Y-54.860 Z-39.748 A157.9672 B-0.4841 
N59 M342 ; chlodziwo woda
N60 X228.125 Y-36.103 Z6.599 
N61 G01 X228.116 Y-33.671 Z8.567 F2079 
N62 X228.089 Y-30.749 Z9.686 
N63 X228.047 Y-27.625 Z9.849 
N64 X227.995 Y-24.604 Z9.038 
N65 X227.936 Y-21.981 Z7.333 
N66 X227.939 Y-21.957 Z7.236 A159.0387 B-0.5078 
N67 X227.940 Y-21.928 Z7.168 A159.7024 B-0.5237 
N68 X227.940 Y-21.895 Z7.122 A160.0214 B-0.5312 
N69 X227.940 Y-21.858 Z7.082 A160.1949 B-0.5363 
N70 X227.939 Y-21.810 Z7.039 A160.3197 B-0.5388 
N71 X227.937 Y-21.749 Z6.987 A160.4036 B-0.5395 
N72 X227.936 Y-21.673 Z6.924 A160.4596 B-0.5404 
N73 X227.933 Y-21.579 Z6.848 A160.5008 B-0.5405 
N74 X227.930 Y-21.462 Z6.753 A160.5368 B-0.5409 
N75 X227.926 Y-21.316 Z6.635 A160.5741 B-0.5415 
N76 X227.921 Y-21.135 Z6.488 A160.6167 B-0.5424 
N77 X227.915 Y-20.908 Z6.302 A160.6674 B-0.5432 
N78 X227.908 Y-20.637 Z6.080 A160.7270 B-0.5448 
N79 X227.901 Y-20.364 Z5.856 A160.7955 B-0.5460 
N80 X227.893 Y-20.091 Z5.632 A160.8734 B-0.5477 
N81 X227.886 Y-19.817 Z5.408 A160.9621 B-0.5497 
N82 X227.879 Y-19.543 Z5.183 A161.0625 B-0.5517 
N83 X227.872 Y-19.269 Z4.958 A161.1753 B-0.5544 
N84 X227.865 Y-18.994 Z4.732 A161.3007 B-0.5569 
N85 X227.857 Y-18.718 Z4.506 A161.4384 B-0.5600 
N86 X227.850 Y-18.442 Z4.280 A161.5885 B-0.5632 
N87 X227.843 Y-18.165 Z4.053 A161.7508 B-0.5667 
N88 X227.835 Y-17.887 Z3.827 A161.9254 B-0.5705 
N89 X227.828 Y-17.609 Z3.600 A162.1125 B-0.5745 
N90 X227.821 Y-17.329 Z3.373 A162.3122 B-0.5788 
N91 X227.813 Y-17.049 Z3.147 A162.5253 B-0.5833 
N92 X227.806 Y-16.768 Z2.920 A162.7527 B-0.5882 
N93 X227.799 Y-16.486 Z2.693 A162.9956 B-0.5933 
N94 X227.791 Y-16.202 Z2.466 A163.2556 B-0.5988 
N95 X227.784 Y-15.918 Z2.239 A163.5345 B-0.6047 
N96 X227.776 Y-15.632 Z2.012 A163.8337 B-0.6110 
N97 X227.769 Y-15.344 Z1.785 A164.1542 B-0.6177 
N98 X227.761 Y-15.055 Z1.558 A164.4969 B-0.6250 
N99 X227.753 Y-14.765 Z1.331 A164.8625 B-0.6327 
N100 X227.746 Y-14.473 Z1.104 A165.2517 B-0.6408 
N101 X227.738 Y-14.179 Z0.877 A165.6654 B-0.6494 
N102 X227.730 Y-13.883 Z0.650 A166.1048 B-0.6585 
N103 X227.722 Y-13.585 Z0.424 A166.5712 B-0.6682 
N104 X227.715 Y-13.284 Z0.198 A167.0662 B-0.6783 
N105 X227.707 Y-12.982 Z-0.028 A167.5914 B-0.6891 
N106 X227.698 Y-12.677 Z-0.253 A168.1489 B-0.7004 
N107 X227.690 Y-12.369 Z-0.478 A168.7408 B-0.7123 
N108 X227.682 Y-12.058 Z-0.702 A169.3695 B-0.7249 
N109 X227.674 Y-11.744 Z-0.926 A170.0376 B-0.7382 
N110 X227.665 Y-11.427 Z-1.149 A170.7483 B-0.7522 
N111 X227.657 Y-11.106 Z-1.371 A171.5052 B-0.7670 
N112 X227.648 Y-10.781 Z-1.593 A172.3127 B-0.7826 
N113 X227.640 Y-10.452 Z-1.814 A173.1755 B-0.7991 
N114 X227.631 Y-10.118 Z-2.035 A174.0991 B-0.8166 
N115 X227.622 Y-9.779 Z-2.255 A175.0881 B-0.8352 
N116 X227.613 Y-9.435 Z-2.474 A176.1465 B-0.8550 
N117 X227.604 Y-9.085 Z-2.691 A177.2766 B-0.8758 
N118 X227.594 Y-8.729 Z-2.907 A178.4791 B-0.8977 
N119 X227.585 Y-8.366 Z-3.119 A179.7530 B-0.9205 
N120 X227.575 Y-7.997 Z-3.329 A181.0954 B-0.9443 
N121 X227.565 Y-7.620 Z-3.533 A182.4990 B-0.9689 
N122 X227.555 Y-7.246 Z-3.728 A183.9471 B-0.9938 
N123 X227.545 Y-6.885 Z-3.910 A185.4196 B-1.0180 
N124 X227.536 Y-6.536 Z-4.079 A186.9053 B-1.0415 
N125 X227.527 Y-6.199 Z-4.235 A188.3982 B-1.0643 
N126 X227.519 Y-5.871 Z-4.381 A189.8952 B-1.0864 
N127 X227.510 Y-5.553 Z-4.515 A191.3943 B-1.1077 
N128 X227.502 Y-5.244 Z-4.640 A192.8947 B-1.1282 
N129 X227.494 Y-4.941 Z-4.756 A194.3958 B-1.1480 
N130 X227.486 Y-4.645 Z-4.863 A195.8974 B-1.1669 
N131 X227.478 Y-4.355 Z-4.961 A197.3992 B-1.1851 
N132 X227.471 Y-4.069 Z-5.052 A198.9013 B-1.2025 
N133 X227.463 Y-3.788 Z-5.135 A200.4035 B-1.2190 
N134 X227.456 Y-3.511 Z-5.211 A201.9059 B-1.2347 
N135 X227.448 Y-3.238 Z-5.280 A203.4083 B-1.2496 
N136 X227.440 Y-2.967 Z-5.343 A204.9109 B-1.2636 
N137 X227.433 Y-2.700 Z-5.398 A206.4136 B-1.2767 
N138 X227.425 Y-2.434 Z-5.447 A207.9163 B-1.2889 
N139 X227.418 Y-2.171 Z-5.490 A209.4192 B-1.3003 
N140 X227.410 Y-1.909 Z-5.526 A210.9221 B-1.3108 
N141 X227.403 Y-1.649 Z-5.556 A212.4252 B-1.3203 
N142 X227.395 Y-1.389 Z-5.579 A213.9283 B-1.3289 
N143 X227.387 Y-1.131 Z-5.596 A215.4314 B-1.3367 
N144 X227.379 Y-0.874 Z-5.607 A216.9347 B-1.3436 
N145 X227.371 Y-0.617 Z-5.611 A218.4380 B-1.3495 
N146 X227.363 Y-0.361 Z-5.608 A219.9414 B-1.3544 
N147 X227.354 Y-0.105 Z-5.599 A221.4448 B-1.3585 
N148 X227.346 Y0.151 Z-5.583 A222.9482 B-1.3616 
N149 X227.337 Y0.407 Z-5.561 A224.4517 B-1.3638 
N150 X227.328 Y0.664 Z-5.531 A225.9553 B-1.3650 
N151 X227.319 Y0.920 Z-5.494 A227.4588 B-1.3653 
N152 X227.310 Y1.177 Z-5.449 A228.9624 B-1.3647 
N153 X227.300 Y1.434 Z-5.397 A230.4660 B-1.3632 
N154 X227.290 Y1.692 Z-5.337 A231.9696 B-1.3607 
N155 X227.280 Y1.951 Z-5.268 A233.4733 B-1.3572 
N156 X227.270 Y2.211 Z-5.191 A234.9769 B-1.3528 
N157 X227.260 Y2.471 Z-5.105 A236.4805 B-1.3476 
N158 X227.249 Y2.733 Z-5.010 A237.9841 B-1.3414 
N159 X227.237 Y2.995 Z-4.905 A239.4877 B-1.3342 
N160 X227.226 Y3.259 Z-4.790 A240.9913 B-1.3261 
N161 X227.214 Y3.523 Z-4.664 A242.4948 B-1.3172 
N162 X227.202 Y3.790 Z-4.527 A243.9983 B-1.3073 
N163 X227.189 Y4.057 Z-4.378 A245.5018 B-1.2965 
N164 X227.176 Y4.325 Z-4.217 A247.0052 B-1.2848 
N165 X227.163 Y4.595 Z-4.043 A248.5085 B-1.2723 
N166 X227.149 Y4.866 Z-3.855 A250.0118 B-1.2588 
N167 X227.135 Y5.138 Z-3.653 A251.5151 B-1.2446 
N168 X227.120 Y5.411 Z-3.435 A253.0183 B-1.2294 
N169 X227.105 Y5.684 Z-3.201 A254.5214 B-1.2134 
N170 X227.089 Y5.959 Z-2.950 A256.0244 B-1.1966 
N171 X227.073 Y6.233 Z-2.683 A257.5273 B-1.1790 
N172 X227.056 Y6.505 Z-2.399 A259.0302 B-1.1605 
N173 X227.039 Y6.774 Z-2.102 A260.5329 B-1.1413 
N174 X227.022 Y7.038 Z-1.794 A262.0355 B-1.1212 
N175 X227.005 Y7.295 Z-1.475 A263.5380 B-1.1007 
N176 X226.988 Y7.546 Z-1.145 A265.0403 B-1.0787 
N177 X226.971 Y7.791 Z-0.802 A266.5423 B-1.0568 
N178 X226.954 Y8.029 Z-0.447 A268.0440 B-1.0335 
N179 X226.937 Y8.258 Z-0.085 A269.5453 B-1.0096 
N180 X226.921 Y8.475 Z0.274 A271.0468 B-0.9858 
N181 X226.905 Y8.677 Z0.621 A272.5485 B-0.9600 
N182 X226.891 Y8.863 Z0.952 A274.0502 B-0.9351 
N183 X226.878 Y9.035 Z1.267 A275.5519 B-0.9081 
N184 X226.865 Y9.193 Z1.565 A277.0535 B-0.8812 
N185 X226.854 Y9.338 Z1.843 A278.5550 B-0.8537 
N186 X226.843 Y9.471 Z2.099 A280.0563 B-0.8254 
N187 X226.834 Y9.594 Z2.339 A281.5576 B-0.7968 
N188 X226.825 Y9.709 Z2.567 A283.0588 B-0.7669 
N189 X226.816 Y9.817 Z2.783 A284.5598 B-0.7374 
N190 X226.809 Y9.917 Z2.981 A286.0608 B-0.7071 
N191 X226.802 Y10.010 Z3.163 A287.5616 B-0.6762 
N192 X226.795 Y10.099 Z3.331 A289.0623 B-0.6449 
N193 X226.789 Y10.183 Z3.488 A290.5630 B-0.6131 
N194 X226.783 Y10.263 Z3.635 A292.0636 B-0.5810 
N195 X226.777 Y10.340 Z3.773 A293.5642 B-0.5481 
N196 X226.772 Y10.414 Z3.905 A295.0649 B-0.5159 
N197 X226.767 Y10.485 Z4.032 A296.5657 B-0.4823 
N198 X226.761 Y10.553 Z4.155 A298.0670 B-0.4481 
N199 X226.756 Y10.620 Z4.274 A299.5692 B-0.4142 
N200 X226.751 Y10.684 Z4.392 A301.0733 B-0.3805 
N201 X226.747 Y10.745 Z4.508 A302.5807 B-0.3461 
N202 X226.742 Y10.805 Z4.623 A304.0945 B-0.3113 
N203 X226.737 Y10.862 Z4.738 A305.6198 B-0.2763 
N204 X226.732 Y10.919 Z4.854 A307.1669 B-0.2410 
N205 X226.727 Y10.974 Z4.973 A308.7539 B-0.2055 
N206 X226.722 Y11.029 Z5.097 A310.4148 B-0.1688 
N207 X226.717 Y11.083 Z5.233 A312.1942 B-0.1260 
N208 X226.711 Y11.138 Z5.377 A314.0787 B-0.0810 
N209 X226.704 Y11.190 Z5.528 A316.0575 B-0.0338 
N210 X226.698 Y11.240 Z5.688 A318.1205 B0.0156 
N211 X226.691 Y11.286 Z5.853 A320.2570 B0.0672 
N212 X226.684 Y11.328 Z6.025 A322.4556 B0.1210 
N213 X226.677 Y11.364 Z6.202 A324.7040 B0.1759 
N214 X226.670 Y11.394 Z6.382 A326.9899 B0.2307 
N215 X226.663 Y11.417 Z6.566 A329.3008 B0.2852 
N216 X226.657 Y11.434 Z6.750 A331.6251 B0.3393 
N217 X226.650 Y11.442 Z6.936 A333.9522 B0.3931 
N218 X226.644 Y11.444 Z7.121 A336.2720 B0.4463 
N219 X226.637 Y11.437 Z7.305 A338.5757 B0.4990 
N220 X226.631 Y11.424 Z7.487 A340.8550 B0.5502 
N221 X226.625 Y11.403 Z7.666 A343.1024 B0.5994 
N222 X226.619 Y11.376 Z7.840 A345.3111 B0.6466 
N223 X226.614 Y11.342 Z8.011 A347.4743 B0.6917 
N224 X226.609 Y11.303 Z8.176 A349.5856 B0.7349 
N225 X226.604 Y11.258 Z8.335 A351.6378 B0.7761 
N226 X226.600 Y11.209 Z8.487 A353.6230 B0.8152 
N227 X226.596 Y11.156 Z8.632 A355.5308 B0.8520 
N228 X226.592 Y11.100 Z8.769 A357.3468 B0.8865 
N229 X226.589 Y11.044 Z8.895 A359.0491 B0.9159 
N230 X226.587 Y10.988 Z9.013 A0.6592 B0.9420 
N231 X226.584 Y10.929 Z9.126 A2.2193 B0.9675 
N232 X226.582 Y10.866 Z9.235 A3.7525 B0.9923 
N233 X226.579 Y10.800 Z9.343 A5.2711 B1.0163 
N234 X226.577 Y10.730 Z9.448 A6.7818 B1.0399 
N235 X226.575 Y10.656 Z9.552 A8.2883 B1.0629 
N236 X226.574 Y10.577 Z9.654 A9.7926 B1.0852 
N237 X226.572 Y10.492 Z9.754 A11.2957 B1.1066 
N238 X226.571 Y10.402 Z9.852 A12.7982 B1.1268 
N239 X226.570 Y10.306 Z9.949 A14.3004 B1.1464 
N240 X226.570 Y10.203 Z10.043 A15.8026 B1.1658 
N241 X226.570 Y10.093 Z10.135 A17.3047 B1.1844 
N242 X226.570 Y9.973 Z10.224 A18.8068 B1.2011 
N243 X226.571 Y9.845 Z10.310 A20.3089 B1.2180 
N244 X226.572 Y9.706 Z10.392 A21.8109 B1.2339 
N245 X226.574 Y9.555 Z10.471 A23.3127 B1.2485 
N246 X226.577 Y9.391 Z10.545 A24.8141 B1.2629 
N247 X226.580 Y9.212 Z10.613 A26.3145 B1.2758 
N248 X226.585 Y9.014 Z10.674 A27.8132 B1.2881 
N249 X226.590 Y8.794 Z10.726 A29.3085 B1.2994 
N250 X226.597 Y8.553 Z10.769 A30.7975 B1.3103 
N251 X226.606 Y8.292 Z10.801 A32.2748 B1.3193 
N252 X226.615 Y8.006 Z10.819 A33.7305 B1.3285 
N253 X226.628 Y7.679 Z10.817 A35.1463 B1.3356 
N254 X226.643 Y7.297 Z10.786 A36.4882 B1.3422 
N255 X226.661 Y6.894 Z10.731 A37.6944 B1.3481 
N256 X226.679 Y6.503 Z10.659 A38.7205 B1.3507 
N257 X226.697 Y6.125 Z10.574 A39.5598 B1.3533 
N258 X226.715 Y5.759 Z10.477 A40.2254 B1.3543 
N259 X226.734 Y5.403 Z10.370 A40.7399 B1.3560 
N260 X226.752 Y5.055 Z10.256 A41.1267 B1.3562 
N261 X226.770 Y4.715 Z10.135 A41.4054 B1.3571 
N262 X226.789 Y4.381 Z10.010 A41.5901 B1.3574 
N263 X226.807 Y4.053 Z9.881 A41.6889 B1.3575 
N264 X226.826 Y3.729 Z9.749 A41.7056 B1.3576 
N265 X226.844 Y3.411 Z9.613 A41.6409 B1.3574 
N266 X226.863 Y3.098 Z9.474 A41.4937 B1.3571 
N267 X226.882 Y2.789 Z9.334 A41.2617 B1.3566 
N268 X226.900 Y2.485 Z9.191 A40.9424 B1.3559 
N269 X226.919 Y2.186 Z9.046 A40.5332 B1.3549 
N270 X226.937 Y1.891 Z8.900 A40.0323 B1.3536 
N271 X226.956 Y1.601 Z8.753 A39.4395 B1.3520 
N272 X226.975 Y1.314 Z8.605 A38.7559 B1.3498 
N273 X226.994 Y1.030 Z8.458 A37.9845 B1.3472 
N274 X227.012 Y0.749 Z8.310 A37.1287 B1.3439 
N275 X227.031 Y0.471 Z8.164 A36.1927 B1.3400 
N276 X227.050 Y0.194 Z8.019 A35.1804 B1.3354 
N277 X227.069 Y-0.081 Z7.875 A34.0961 B1.3299 
N278 X227.088 Y-0.356 Z7.734 A32.9448 B1.3236 
N279 X227.107 Y-0.630 Z7.596 A31.7323 B1.3163 
N280 X227.126 Y-0.904 Z7.461 A30.4660 B1.3080 
N281 X227.145 Y-1.179 Z7.329 A29.1545 B1.2988 
N282 X227.164 Y-1.455 Z7.203 A27.8080 B1.2887 
N283 X227.183 Y-1.733 Z7.082 A26.4375 B1.2779 
N284 X227.202 Y-2.012 Z6.967 A25.0559 B1.2668 
N285 X227.221 Y-2.294 Z6.860 A23.6777 B1.2558 
N286 X227.240 Y-2.577 Z6.760 A22.3191 B1.2456 
N287 X227.258 Y-2.863 Z6.670 A20.9963 B1.2366 
N288 X227.277 Y-3.150 Z6.591 A19.7216 B1.2292 
N289 X227.295 Y-3.439 Z6.521 A18.4984 B1.2232 
N290 X227.314 Y-3.729 Z6.461 A17.3178 B1.2179 
N291 X227.332 Y-4.022 Z6.409 A16.1596 B1.2118 
N292 X227.350 Y-4.317 Z6.365 A15.0001 B1.2036 
N293 X227.367 Y-4.614 Z6.326 A13.8228 B1.1922 
N294 X227.385 Y-4.915 Z6.293 A12.6237 B1.1776 
N295 X227.402 Y-5.218 Z6.266 A11.4081 B1.1601 
N296 X227.419 Y-5.524 Z6.246 A10.1820 B1.1401 
N297 X227.436 Y-5.834 Z6.232 A8.9473 B1.1178 
N298 X227.453 Y-6.146 Z6.224 A7.7043 B1.0933 
N299 X227.469 Y-6.460 Z6.223 A6.4598 B1.0672 
N300 X227.485 Y-6.777 Z6.228 A5.2302 B1.0404 
N301 X227.501 Y-7.096 Z6.243 A4.0386 B1.0140 
N302 X227.516 Y-7.414 Z6.267 A2.9065 B0.9892 
N303 X227.532 Y-7.733 Z6.300 A1.8477 B0.9666 
N304 X227.547 Y-8.051 Z6.344 A0.8663 B0.9463 
N305 X227.561 Y-8.368 Z6.396 A359.9585 B0.9282 
N306 X227.576 Y-8.684 Z6.457 A359.1161 B0.9120 
N307 X227.590 Y-8.999 Z6.526 A358.3290 B0.8972 
N308 X227.604 Y-9.313 Z6.602 A357.5881 B0.8835 
N309 X227.617 Y-9.626 Z6.685 A356.8859 B0.8705 
N310 X227.631 Y-9.939 Z6.773 A356.2185 B0.8579 
N311 X227.644 Y-10.251 Z6.868 A355.5857 B0.8462 
N312 X227.657 Y-10.562 Z6.968 A354.9905 B0.8343 
N313 X227.670 Y-10.873 Z7.075 A354.4368 B0.8241 
N314 X227.682 Y-11.183 Z7.188 A353.9275 B0.8140 
N315 X227.695 Y-11.493 Z7.307 A353.4631 B0.8051 
N316 X227.707 Y-11.802 Z7.431 A353.0422 B0.7974 
N317 X227.718 Y-12.105 Z7.558 A352.6662 B0.7893 
N318 X227.728 Y-12.360 Z7.666 A352.3427 B0.7831 
N319 X227.736 Y-12.561 Z7.750 A352.0736 B0.7780 
N320 X227.742 Y-12.721 Z7.817 A351.8569 B0.7736 
N321 X227.747 Y-12.849 Z7.871 A351.6917 B0.7703 
N322 X227.751 Y-12.954 Z7.917 A351.5827 B0.7676 
N323 X227.754 Y-13.035 Z7.955 A351.5466 B0.7649 
N324 X227.756 Y-13.103 Z7.993 A351.6128 B0.7645 
N325 X227.758 Y-13.156 Z8.033 A351.8303 B0.7647 
N326 X227.759 Y-13.203 Z8.085 A352.2704 B0.7689 
N327 X227.758 Y-13.242 Z8.154 A353.0237 B0.7793 
N328 X227.757 Y-13.281 Z8.249 A354.1961 B0.7992 
N329 X227.753 Y-13.326 Z8.412 A356.3542 B0.8329 
N330 X227.746 Y-13.397 Z8.669 A359.8827 B0.8978 
N331 X227.732 Y-13.552 Z9.133 A6.4920 B1.0166 
N332 X227.713 Y-13.884 Z9.811 A16.7910 B1.1940 
N333 X227.696 Y-14.457 Z10.564 A29.7533 B1.3870 
N334 X227.689 Y-15.192 Z11.174 A42.8615 B1.4803 
N335 X227.693 Y-16.020 Z11.591 A55.5874 B1.4768 
N336 X227.705 Y-16.881 Z11.812 A67.7982 B1.4041 
N337 X227.721 Y-17.740 Z11.849 A79.6119 B1.2901 
N338 X227.743 Y-18.602 Z11.708 A91.6130 B1.1240 
N339 X227.775 Y-19.454 Z11.370 A104.1899 B0.8826 
N340 X227.815 Y-20.242 Z10.832 A117.3020 B0.5637 
N341 X227.862 Y-20.896 Z10.117 A130.6085 B0.1801 
N342 X227.900 Y-21.353 Z9.306 A143.4023 B-0.1570 
N343 X227.925 Y-21.541 Z8.735 A151.6050 B-0.3453 
N344 X227.937 Y-21.597 Z8.422 A155.8725 B-0.4378 
N345 X227.943 Y-21.606 Z8.260 A157.9672 B-0.4841 
N346 X227.945 Y-21.599 Z8.170 A159.0387 B-0.5078 
N347 X227.947 Y-21.581 Z8.106 A159.7024 B-0.5237 
N348 X227.947 Y-21.554 Z8.062 A160.0214 B-0.5312 
N349 X227.947 Y-21.519 Z8.023 A160.1949 B-0.5363 
N350 X227.946 Y-21.474 Z7.980 A160.3197 B-0.5388 
N351 X227.945 Y-21.414 Z7.929 A160.4036 B-0.5395 
N352 X227.943 Y-21.339 Z7.867 A160.4596 B-0.5404 
N353 X227.940 Y-21.245 Z7.791 A160.5008 B-0.5405 
N354 X227.937 Y-21.129 Z7.696 A160.5368 B-0.5409 
N355 X227.933 Y-20.984 Z7.578 A160.5741 B-0.5415 
N356 X227.929 Y-20.803 Z7.431 A160.6167 B-0.5424 
N357 X227.922 Y-20.577 Z7.245 A160.6674 B-0.5432 
N358 X227.915 Y-20.307 Z7.024 A160.7270 B-0.5448 
N359 X227.908 Y-20.035 Z6.801 A160.7955 B-0.5460 
N360 X227.901 Y-19.763 Z6.577 A160.8734 B-0.5477 
N361 X227.894 Y-19.491 Z6.353 A160.9621 B-0.5497 
N362 X227.886 Y-19.219 Z6.129 A161.0625 B-0.5517 
N363 X227.879 Y-18.946 Z5.904 A161.1753 B-0.5544 
N364 X227.872 Y-18.673 Z5.679 A161.3007 B-0.5569 
N365 X227.865 Y-18.400 Z5.454 A161.4384 B-0.5600 
N366 X227.858 Y-18.126 Z5.229 A161.5885 B-0.5632 
N367 X227.850 Y-17.852 Z5.003 A161.7508 B-0.5667 
N368 X227.843 Y-17.577 Z4.777 A161.9254 B-0.5705 
N369 X227.836 Y-17.302 Z4.552 A162.1125 B-0.5745 
N370 X227.829 Y-17.026 Z4.326 A162.3122 B-0.5788 
N371 X227.821 Y-16.749 Z4.101 A162.5253 B-0.5833 
N372 X227.814 Y-16.471 Z3.875 A162.7527 B-0.5882 
N373 X227.807 Y-16.193 Z3.649 A162.9956 B-0.5933 
N374 X227.799 Y-15.914 Z3.424 A163.2556 B-0.5988 
N375 X227.792 Y-15.634 Z3.198 A163.5345 B-0.6047 
N376 X227.784 Y-15.353 Z2.973 A163.8337 B-0.6110 
N377 X227.777 Y-15.071 Z2.747 A164.1542 B-0.6177 
N378 X227.769 Y-14.788 Z2.521 A164.4969 B-0.6250 
N379 X227.762 Y-14.504 Z2.296 A164.8625 B-0.6327 
N380 X227.754 Y-14.218 Z2.071 A165.2517 B-0.6408 
N381 X227.747 Y-13.931 Z1.846 A165.6654 B-0.6494 
N382 X227.739 Y-13.643 Z1.621 A166.1048 B-0.6585 
N383 X227.731 Y-13.352 Z1.396 A166.5712 B-0.6682 
N384 X227.724 Y-13.061 Z1.172 A167.0662 B-0.6783 
N385 X227.716 Y-12.767 Z0.949 A167.5914 B-0.6891 
N386 X227.708 Y-12.471 Z0.726 A168.1489 B-0.7004 
N387 X227.700 Y-12.173 Z0.503 A168.7408 B-0.7123 
N388 X227.692 Y-11.873 Z0.281 A169.3695 B-0.7249 
N389 X227.684 Y-11.571 Z0.059 A170.0376 B-0.7382 
N390 X227.675 Y-11.266 Z-0.162 A170.7483 B-0.7522 
N391 X227.667 Y-10.958 Z-0.382 A171.5052 B-0.7670 
N392 X227.659 Y-10.647 Z-0.602 A172.3127 B-0.7826 
N393 X227.650 Y-10.333 Z-0.822 A173.1755 B-0.7991 
N394 X227.642 Y-10.015 Z-1.040 A174.0991 B-0.8166 
N395 X227.633 Y-9.694 Z-1.259 A175.0881 B-0.8352 
N396 X227.624 Y-9.368 Z-1.476 A176.1465 B-0.8550 
N397 X227.615 Y-9.038 Z-1.693 A177.2766 B-0.8758 
N398 X227.606 Y-8.702 Z-1.907 A178.4791 B-0.8977 
N399 X227.597 Y-8.362 Z-2.120 A179.7530 B-0.9205 
N400 X227.588 Y-8.016 Z-2.329 A181.0954 B-0.9443 
N401 X227.578 Y-7.664 Z-2.534 A182.4990 B-0.9689 
N402 X227.568 Y-7.315 Z-2.731 A183.9471 B-0.9938 
N403 X227.559 Y-6.979 Z-2.914 A185.4196 B-1.0180 
N404 X227.550 Y-6.656 Z-3.086 A186.9053 B-1.0415 
N405 X227.542 Y-6.345 Z-3.246 A188.3982 B-1.0643 
N406 X227.533 Y-6.043 Z-3.396 A189.8952 B-1.0864 
N407 X227.525 Y-5.751 Z-3.535 A191.3943 B-1.1077 
N408 X227.517 Y-5.467 Z-3.666 A192.8947 B-1.1282 
N409 X227.509 Y-5.190 Z-3.787 A194.3958 B-1.1480 
N410 X227.502 Y-4.919 Z-3.901 A195.8974 B-1.1669 
N411 X227.494 Y-4.653 Z-4.007 A197.3992 B-1.1851 
N412 X227.487 Y-4.393 Z-4.106 A198.9013 B-1.2025 
N413 X227.479 Y-4.137 Z-4.198 A200.4035 B-1.2190 
N414 X227.472 Y-3.884 Z-4.284 A201.9059 B-1.2347 
N415 X227.465 Y-3.635 Z-4.363 A203.4083 B-1.2496 
N416 X227.457 Y-3.388 Z-4.436 A204.9109 B-1.2636 
N417 X227.450 Y-3.144 Z-4.503 A206.4136 B-1.2767 
N418 X227.443 Y-2.902 Z-4.564 A207.9163 B-1.2889 
N419 X227.435 Y-2.662 Z-4.619 A209.4192 B-1.3003 
N420 X227.428 Y-2.423 Z-4.668 A210.9221 B-1.3108 
N421 X227.420 Y-2.185 Z-4.712 A212.4252 B-1.3203 
N422 X227.413 Y-1.947 Z-4.749 A213.9283 B-1.3289 
N423 X227.405 Y-1.711 Z-4.781 A215.4314 B-1.3367 
N424 X227.397 Y-1.474 Z-4.807 A216.9347 B-1.3436 
N425 X227.389 Y-1.238 Z-4.827 A218.4380 B-1.3495 
N426 X227.381 Y-1.002 Z-4.842 A219.9414 B-1.3544 
N427 X227.372 Y-0.766 Z-4.850 A221.4448 B-1.3585 
N428 X227.364 Y-0.530 Z-4.851 A222.9482 B-1.3616 
N429 X227.355 Y-0.293 Z-4.847 A224.4517 B-1.3638 
N430 X227.346 Y-0.055 Z-4.836 A225.9553 B-1.3650 
N431 X227.337 Y0.183 Z-4.818 A227.4588 B-1.3653 
N432 X227.328 Y0.423 Z-4.793 A228.9624 B-1.3647 
N433 X227.318 Y0.663 Z-4.760 A230.4660 B-1.3632 
N434 X227.309 Y0.905 Z-4.721 A231.9696 B-1.3607 
N435 X227.299 Y1.148 Z-4.673 A233.4733 B-1.3572 
N436 X227.288 Y1.392 Z-4.617 A234.9769 B-1.3528 
N437 X227.278 Y1.638 Z-4.553 A236.4805 B-1.3476 
N438 X227.267 Y1.885 Z-4.480 A237.9841 B-1.3414 
N439 X227.255 Y2.134 Z-4.397 A239.4877 B-1.3342 
N440 X227.244 Y2.384 Z-4.305 A240.9913 B-1.3261 
N441 X227.232 Y2.637 Z-4.202 A242.4948 B-1.3172 
N442 X227.219 Y2.891 Z-4.089 A243.9983 B-1.3073 
N443 X227.207 Y3.147 Z-3.964 A245.5018 B-1.2965 
N444 X227.193 Y3.405 Z-3.826 A247.0052 B-1.2848 
N445 X227.180 Y3.665 Z-3.677 A248.5085 B-1.2723 
N446 X227.166 Y3.926 Z-3.513 A250.0118 B-1.2588 
N447 X227.151 Y4.189 Z-3.336 A251.5151 B-1.2446 
N448 X227.136 Y4.454 Z-3.143 A253.0183 B-1.2294 
N449 X227.121 Y4.721 Z-2.934 A254.5214 B-1.2134 
N450 X227.105 Y4.989 Z-2.709 A256.0244 B-1.1966 
N451 X227.088 Y5.257 Z-2.467 A257.5273 B-1.1790 
N452 X227.071 Y5.524 Z-2.209 A259.0302 B-1.1605 
N453 X227.054 Y5.788 Z-1.938 A260.5329 B-1.1413 
N454 X227.037 Y6.048 Z-1.655 A262.0355 B-1.1212 
N455 X227.020 Y6.301 Z-1.362 A263.5380 B-1.1007 
N456 X227.003 Y6.549 Z-1.058 A265.0403 B-1.0787 
N457 X226.985 Y6.792 Z-0.742 A266.5423 B-1.0568 
N458 X226.968 Y7.030 Z-0.413 A268.0440 B-1.0335 
N459 X226.951 Y7.259 Z-0.077 A269.5453 B-1.0096 
N460 X226.934 Y7.476 Z0.256 A271.0468 B-0.9858 
N461 X226.918 Y7.678 Z0.577 A272.5485 B-0.9600 
N462 X226.903 Y7.866 Z0.882 A274.0502 B-0.9351 
N463 X226.890 Y8.039 Z1.170 A275.5519 B-0.9081 
N464 X226.877 Y8.201 Z1.442 A277.0535 B-0.8812 
N465 X226.865 Y8.349 Z1.694 A278.5550 B-0.8537 
N466 X226.854 Y8.487 Z1.924 A280.0563 B-0.8254 
N467 X226.845 Y8.615 Z2.138 A281.5576 B-0.7968 
N468 X226.835 Y8.735 Z2.342 A283.0588 B-0.7669 
N469 X226.826 Y8.849 Z2.532 A284.5598 B-0.7374 
N470 X226.818 Y8.956 Z2.705 A286.0608 B-0.7071 
N471 X226.811 Y9.057 Z2.861 A287.5616 B-0.6762 
N472 X226.804 Y9.154 Z3.005 A289.0623 B-0.6449 
N473 X226.797 Y9.246 Z3.137 A290.5630 B-0.6131 
N474 X226.791 Y9.336 Z3.259 A292.0636 B-0.5810 
N475 X226.785 Y9.423 Z3.374 A293.5642 B-0.5481 
N476 X226.779 Y9.508 Z3.482 A295.0649 B-0.5159 
N477 X226.773 Y9.590 Z3.585 A296.5657 B-0.4823 
N478 X226.767 Y9.671 Z3.684 A298.0670 B-0.4481 
N479 X226.762 Y9.750 Z3.781 A299.5692 B-0.4142 
N480 X226.757 Y9.827 Z3.876 A301.0733 B-0.3805 
N481 X226.751 Y9.903 Z3.969 A302.5807 B-0.3461 
N482 X226.746 Y9.977 Z4.062 A304.0945 B-0.3113 
N483 X226.741 Y10.050 Z4.156 A305.6198 B-0.2763 
N484 X226.735 Y10.122 Z4.250 A307.1669 B-0.2410 
N485 X226.730 Y10.194 Z4.347 A308.7539 B-0.2055 
N486 X226.725 Y10.267 Z4.449 A310.4148 B-0.1688 
N487 X226.718 Y10.342 Z4.561 A312.1942 B-0.1260 
N488 X226.712 Y10.419 Z4.681 A314.0787 B-0.0810 
N489 X226.705 Y10.496 Z4.808 A316.0575 B-0.0338 
N490 X226.698 Y10.572 Z4.943 A318.1205 B0.0156 
N491 X226.690 Y10.647 Z5.085 A320.2570 B0.0672 
N492 X226.683 Y10.718 Z5.232 A322.4556 B0.1210 
N493 X226.675 Y10.786 Z5.386 A324.7040 B0.1759 
N494 X226.667 Y10.849 Z5.544 A326.9899 B0.2307 
N495 X226.660 Y10.907 Z5.706 A329.3008 B0.2852 
N496 X226.652 Y10.958 Z5.871 A331.6251 B0.3393 
N497 X226.645 Y11.003 Z6.038 A333.9522 B0.3931 
N498 X226.638 Y11.041 Z6.206 A336.2720 B0.4463 
N499 X226.630 Y11.072 Z6.374 A338.5757 B0.4990 
N500 X226.624 Y11.096 Z6.542 A340.8550 B0.5502 
N501 X226.617 Y11.113 Z6.709 A343.1024 B0.5994 
N502 X226.611 Y11.122 Z6.873 A345.3111 B0.6466 
N503 X226.605 Y11.126 Z7.034 A347.4743 B0.6917 
N504 X226.599 Y11.122 Z7.192 A349.5856 B0.7349 
N505 X226.594 Y11.113 Z7.345 A351.6378 B0.7761 
N506 X226.589 Y11.098 Z7.493 A353.6230 B0.8152 
N507 X226.585 Y11.078 Z7.636 A355.5308 B0.8520 
N508 X226.580 Y11.054 Z7.770 A357.3468 B0.8865 
N509 X226.577 Y11.027 Z7.896 A359.0491 B0.9159 
N510 X226.574 Y10.999 Z8.013 A0.6592 B0.9420 
N511 X226.571 Y10.967 Z8.127 A2.2193 B0.9675 
N512 X226.568 Y10.932 Z8.238 A3.7525 B0.9923 
N513 X226.566 Y10.892 Z8.347 A5.2711 B1.0163 
N514 X226.563 Y10.848 Z8.455 A6.7818 B1.0399 
N515 X226.561 Y10.800 Z8.562 A8.2883 B1.0629 
N516 X226.559 Y10.747 Z8.668 A9.7926 B1.0852 
N517 X226.558 Y10.688 Z8.773 A11.2957 B1.1066 
N518 X226.556 Y10.624 Z8.877 A12.7982 B1.1268 
N519 X226.555 Y10.553 Z8.980 A14.3004 B1.1464 
N520 X226.554 Y10.475 Z9.081 A15.8026 B1.1658 
N521 X226.554 Y10.390 Z9.180 A17.3047 B1.1844 
N522 X226.554 Y10.296 Z9.277 A18.8068 B1.2011 
N523 X226.554 Y10.192 Z9.372 A20.3089 B1.2180 
N524 X226.556 Y10.077 Z9.464 A21.8109 B1.2339 
N525 X226.557 Y9.951 Z9.553 A23.3127 B1.2485 
N526 X226.560 Y9.811 Z9.637 A24.8141 B1.2629 
N527 X226.563 Y9.655 Z9.716 A26.3145 B1.2758 
N528 X226.567 Y9.480 Z9.789 A27.8132 B1.2881 
N529 X226.573 Y9.283 Z9.854 A29.3085 B1.2994 
N530 X226.580 Y9.065 Z9.910 A30.7975 B1.3103 
N531 X226.588 Y8.826 Z9.956 A32.2748 B1.3193 
N532 X226.598 Y8.561 Z9.988 A33.7305 B1.3285 
N533 X226.610 Y8.254 Z10.000 A35.1463 B1.3356 
N534 X226.625 Y7.891 Z9.982 A36.4882 B1.3422 
N535 X226.643 Y7.505 Z9.939 A37.6944 B1.3481 
N536 X226.661 Y7.129 Z9.879 A38.7205 B1.3507 
N537 X226.679 Y6.762 Z9.803 A39.5598 B1.3533 
N538 X226.697 Y6.405 Z9.713 A40.2254 B1.3543 
N539 X226.715 Y6.055 Z9.612 A40.7399 B1.3560 
N540 X226.734 Y5.713 Z9.502 A41.1267 B1.3562 
N541 X226.752 Y5.376 Z9.385 A41.4054 B1.3571 
N542 X226.771 Y5.045 Z9.263 A41.5901 B1.3574 
N543 X226.789 Y4.717 Z9.134 A41.6889 B1.3575 
N544 X226.808 Y4.394 Z9.002 A41.7056 B1.3576 
N545 X226.826 Y4.075 Z8.865 A41.6409 B1.3574 
N546 X226.845 Y3.760 Z8.725 A41.4937 B1.3571 
N547 X226.863 Y3.449 Z8.582 A41.2617 B1.3566 
N548 X226.882 Y3.141 Z8.435 A40.9424 B1.3559 
N549 X226.901 Y2.836 Z8.286 A40.5332 B1.3549 
N550 X226.919 Y2.534 Z8.134 A40.0323 B1.3536 
N551 X226.938 Y2.236 Z7.981 A39.4395 B1.3520 
N552 X226.957 Y1.939 Z7.826 A38.7559 B1.3498 
N553 X226.976 Y1.645 Z7.670 A37.9845 B1.3472 
N554 X226.995 Y1.353 Z7.513 A37.1287 B1.3439 
N555 X227.013 Y1.061 Z7.357 A36.1927 B1.3400 
N556 X227.032 Y0.770 Z7.202 A35.1804 B1.3354 
N557 X227.051 Y0.479 Z7.047 A34.0961 B1.3299 
N558 X227.070 Y0.188 Z6.895 A32.9448 B1.3236 
N559 X227.089 Y-0.104 Z6.745 A31.7323 B1.3163 
N560 X227.109 Y-0.397 Z6.599 A30.4660 B1.3080 
N561 X227.128 Y-0.692 Z6.456 A29.1545 B1.2988 
N562 X227.147 Y-0.989 Z6.318 A27.8080 B1.2887 
N563 X227.166 Y-1.288 Z6.186 A26.4375 B1.2779 
N564 X227.185 Y-1.589 Z6.061 A25.0559 B1.2668 
N565 X227.204 Y-1.892 Z5.944 A23.6777 B1.2558 
N566 X227.223 Y-2.198 Z5.835 A22.3191 B1.2456 
N567 X227.242 Y-2.504 Z5.737 A20.9963 B1.2366 
N568 X227.261 Y-2.812 Z5.649 A19.7216 B1.2292 
N569 X227.279 Y-3.121 Z5.573 A18.4984 B1.2232 
N570 X227.297 Y-3.432 Z5.506 A17.3178 B1.2179 
N571 X227.316 Y-3.743 Z5.449 A16.1596 B1.2118 
N572 X227.334 Y-4.058 Z5.399 A15.0001 B1.2036 
N573 X227.352 Y-4.375 Z5.355 A13.8228 B1.1922 
N574 X227.369 Y-4.696 Z5.318 A12.6237 B1.1776 
N575 X227.387 Y-5.020 Z5.286 A11.4081 B1.1601 
N576 X227.404 Y-5.348 Z5.262 A10.1820 B1.1401 
N577 X227.421 Y-5.678 Z5.244 A8.9473 B1.1178 
N578 X227.438 Y-6.012 Z5.233 A7.7043 B1.0933 
N579 X227.455 Y-6.348 Z5.229 A6.4598 B1.0672 
N580 X227.471 Y-6.686 Z5.233 A5.2302 B1.0404 
N581 X227.487 Y-7.025 Z5.245 A4.0386 B1.0140 
N582 X227.503 Y-7.364 Z5.268 A2.9065 B0.9892 
N583 X227.519 Y-7.701 Z5.301 A1.8477 B0.9666 
N584 X227.534 Y-8.036 Z5.344 A0.8663 B0.9463 
N585 X227.549 Y-8.369 Z5.396 A359.9585 B0.9282 
N586 X227.563 Y-8.699 Z5.457 A359.1161 B0.9120 
N587 X227.578 Y-9.028 Z5.527 A358.3290 B0.8972 
N588 X227.592 Y-9.355 Z5.603 A357.5881 B0.8835 
N589 X227.606 Y-9.680 Z5.686 A356.8859 B0.8705 
N590 X227.619 Y-10.005 Z5.775 A356.2185 B0.8579 
N591 X227.633 Y-10.328 Z5.871 A355.5857 B0.8462 
N592 X227.646 Y-10.649 Z5.972 A354.9905 B0.8343 
N593 X227.659 Y-10.970 Z6.080 A354.4368 B0.8241 
N594 X227.671 Y-11.289 Z6.194 A353.9275 B0.8140 
N595 X227.684 Y-11.607 Z6.313 A353.4631 B0.8051 
N596 X227.696 Y-11.923 Z6.439 A353.0422 B0.7974 
N597 X227.708 Y-12.233 Z6.566 A352.6662 B0.7893 
N598 X227.718 Y-12.493 Z6.674 A352.3427 B0.7831 
N599 X227.725 Y-12.699 Z6.760 A352.0736 B0.7780 
N600 X227.731 Y-12.863 Z6.827 A351.8569 B0.7736 
N601 X227.736 Y-12.994 Z6.882 A351.6917 B0.7703 
N602 X227.740 Y-13.101 Z6.928 A351.5827 B0.7676 
N603 X227.743 Y-13.182 Z6.966 A351.5466 B0.7649 
N604 X227.746 Y-13.249 Z7.003 A351.6128 B0.7645 
N605 X227.747 Y-13.298 Z7.043 A351.8303 B0.7647 
N606 X227.748 Y-13.337 Z7.094 A352.2704 B0.7689 
N607 X227.748 Y-13.364 Z7.161 A353.0237 B0.7793 
N608 X227.746 Y-13.382 Z7.255 A354.1961 B0.7992 
N609 X227.742 Y-13.389 Z7.414 A356.3542 B0.8329 
N610 X227.734 Y-13.399 Z7.669 A359.8827 B0.8978 
N611 X227.719 Y-13.439 Z8.139 A6.4920 B1.0166 
N612 X227.697 Y-13.595 Z8.854 A16.7910 B1.1940 
N613 X227.677 Y-13.961 Z9.696 A29.7533 B1.3870 
N614 X227.669 Y-14.512 Z10.441 A42.8615 B1.4803 
N615 X227.673 Y-15.195 Z11.026 A55.5874 B1.4768 
N616 X227.686 Y-15.956 Z11.434 A67.7982 B1.4041 
N617 X227.704 Y-16.756 Z11.669 A79.6119 B1.2901 
N618 X227.728 Y-17.602 Z11.736 A91.6130 B1.1240 
N619 X227.763 Y-18.484 Z11.615 A104.1899 B0.8826 
N620 X227.808 Y-19.353 Z11.290 A117.3020 B0.5637 
N621 X227.860 Y-20.136 Z10.768 A130.6085 B0.1801 
N622 X227.902 Y-20.757 Z10.109 A143.4023 B-0.1570 
N623 X227.929 Y-21.065 Z9.614 A151.6050 B-0.3453 
N624 X227.943 Y-21.188 Z9.334 A155.8725 B-0.4378 
N625 X227.949 Y-21.231 Z9.187 A157.9672 B-0.4841 
N626 X227.952 Y-21.242 Z9.101 A159.0387 B-0.5078 
N627 X227.954 Y-21.236 Z9.037 A159.7024 B-0.5237 
N628 X227.954 Y-21.216 Z8.992 A160.0214 B-0.5312 
N629 X227.954 Y-21.185 Z8.951 A160.1949 B-0.5363 
N630 X227.953 Y-21.143 Z8.905 A160.3197 B-0.5388 
N631 X227.952 Y-21.086 Z8.850 A160.4036 B-0.5395 
N632 X227.950 Y-21.013 Z8.786 A160.4596 B-0.5404 
N633 X227.947 Y-20.921 Z8.706 A160.5008 B-0.5405 
N634 X227.944 Y-20.806 Z8.609 A160.5368 B-0.5409 
N635 X227.940 Y-20.663 Z8.487 A160.5741 B-0.5415 
N636 X227.936 Y-20.485 Z8.337 A160.6167 B-0.5424 
N637 X227.929 Y-20.260 Z8.148 A160.6674 B-0.5432 
N638 X227.922 Y-19.992 Z7.924 A160.7270 B-0.5448 
N639 X227.915 Y-19.723 Z7.698 A160.7955 B-0.5460 
N640 X227.908 Y-19.453 Z7.471 A160.8734 B-0.5477 
N641 X227.901 Y-19.184 Z7.244 A160.9621 B-0.5497 
N642 X227.893 Y-18.914 Z7.017 A161.0625 B-0.5517 
N643 X227.886 Y-18.644 Z6.790 A161.1753 B-0.5544 
N644 X227.879 Y-18.374 Z6.562 A161.3007 B-0.5569 
N645 X227.872 Y-18.104 Z6.334 A161.4384 B-0.5600 
N646 X227.865 Y-17.834 Z6.106 A161.5885 B-0.5632 
N647 X227.857 Y-17.563 Z5.878 A161.7508 B-0.5667 
N648 X227.850 Y-17.292 Z5.650 A161.9254 B-0.5705 
N649 X227.843 Y-17.021 Z5.422 A162.1125 B-0.5745 
N650 X227.836 Y-16.749 Z5.194 A162.3122 B-0.5788 
N651 X227.828 Y-16.476 Z4.966 A162.5253 B-0.5833 
N652 X227.821 Y-16.203 Z4.738 A162.7527 B-0.5882 
N653 X227.814 Y-15.930 Z4.510 A162.9956 B-0.5933 
N654 X227.806 Y-15.656 Z4.282 A163.2556 B-0.5988 
N655 X227.799 Y-15.381 Z4.055 A163.5345 B-0.6047 
N656 X227.792 Y-15.106 Z3.827 A163.8337 B-0.6110 
N657 X227.784 Y-14.829 Z3.599 A164.1542 B-0.6177 
N658 X227.777 Y-14.552 Z3.371 A164.4969 B-0.6250 
N659 X227.769 Y-14.274 Z3.144 A164.8625 B-0.6327 
N660 X227.762 Y-13.995 Z2.917 A165.2517 B-0.6408 
N661 X227.754 Y-13.715 Z2.690 A165.6654 B-0.6494 
N662 X227.747 Y-13.434 Z2.463 A166.1048 B-0.6585 
N663 X227.739 Y-13.152 Z2.237 A166.5712 B-0.6682 
N664 X227.731 Y-12.868 Z2.011 A167.0662 B-0.6783 
N665 X227.724 Y-12.583 Z1.786 A167.5914 B-0.6891 
N666 X227.716 Y-12.296 Z1.561 A168.1489 B-0.7004 
N667 X227.708 Y-12.007 Z1.337 A168.7408 B-0.7123 
N668 X227.700 Y-11.717 Z1.113 A169.3695 B-0.7249 
N669 X227.692 Y-11.425 Z0.889 A170.0376 B-0.7382 
N670 X227.684 Y-11.131 Z0.666 A170.7483 B-0.7522 
N671 X227.676 Y-10.834 Z0.444 A171.5052 B-0.7670 
N672 X227.667 Y-10.536 Z0.222 A172.3127 B-0.7826 
N673 X227.659 Y-10.234 Z0.001 A173.1755 B-0.7991 
N674 X227.651 Y-9.930 Z-0.220 A174.0991 B-0.8166 
N675 X227.642 Y-9.623 Z-0.440 A175.0881 B-0.8352 
N676 X227.634 Y-9.313 Z-0.660 A176.1465 B-0.8550 
N677 X227.625 Y-8.999 Z-0.879 A177.2766 B-0.8758 
N678 X227.616 Y-8.681 Z-1.097 A178.4791 B-0.8977 
N679 X227.607 Y-8.358 Z-1.312 A179.7530 B-0.9205 
N680 X227.598 Y-8.031 Z-1.526 A181.0954 B-0.9443 
N681 X227.588 Y-7.699 Z-1.735 A182.4990 B-0.9689 
N682 X227.579 Y-7.369 Z-1.936 A183.9471 B-0.9938 
N683 X227.570 Y-7.054 Z-2.125 A185.4196 B-1.0180 
N684 X227.561 Y-6.751 Z-2.303 A186.9053 B-1.0415 
N685 X227.553 Y-6.459 Z-2.469 A188.3982 B-1.0643 
N686 X227.545 Y-6.178 Z-2.625 A189.8952 B-1.0864 
N687 X227.537 Y-5.905 Z-2.772 A191.3943 B-1.1077 
N688 X227.529 Y-5.640 Z-2.910 A192.8947 B-1.1282 
N689 X227.521 Y-5.381 Z-3.040 A194.3958 B-1.1480 
N690 X227.514 Y-5.129 Z-3.163 A195.8974 B-1.1669 
N691 X227.506 Y-4.882 Z-3.278 A197.3992 B-1.1851 
N692 X227.499 Y-4.639 Z-3.387 A198.9013 B-1.2025 
N693 X227.492 Y-4.400 Z-3.489 A200.4035 B-1.2190 
N694 X227.484 Y-4.165 Z-3.585 A201.9059 B-1.2347 
N695 X227.477 Y-3.933 Z-3.675 A203.4083 B-1.2496 
N696 X227.470 Y-3.703 Z-3.759 A204.9109 B-1.2636 
N697 X227.463 Y-3.475 Z-3.837 A206.4136 B-1.2767 
N698 X227.455 Y-3.248 Z-3.910 A207.9163 B-1.2889 
N699 X227.448 Y-3.023 Z-3.978 A209.4192 B-1.3003 
N700 X227.441 Y-2.799 Z-4.040 A210.9221 B-1.3108 
N701 X227.433 Y-2.575 Z-4.097 A212.4252 B-1.3203 
N702 X227.425 Y-2.352 Z-4.148 A213.9283 B-1.3289 
N703 X227.418 Y-2.129 Z-4.193 A215.4314 B-1.3367 
N704 X227.410 Y-1.906 Z-4.234 A216.9347 B-1.3436 
N705 X227.402 Y-1.682 Z-4.268 A218.4380 B-1.3495 
N706 X227.394 Y-1.459 Z-4.297 A219.9414 B-1.3544 
N707 X227.385 Y-1.234 Z-4.320 A221.4448 B-1.3585 
N708 X227.377 Y-1.009 Z-4.337 A222.9482 B-1.3616 
N709 X227.368 Y-0.783 Z-4.347 A224.4517 B-1.3638 
N710 X227.359 Y-0.556 Z-4.351 A225.9553 B-1.3650 
N711 X227.350 Y-0.327 Z-4.349 A227.4588 B-1.3653 
N712 X227.341 Y-0.097 Z-4.340 A228.9624 B-1.3647 
N713 X227.331 Y0.135 Z-4.324 A230.4660 B-1.3632 
N714 X227.321 Y0.368 Z-4.300 A231.9696 B-1.3607 
N715 X227.311 Y0.603 Z-4.269 A233.4733 B-1.3572 
N716 X227.300 Y0.839 Z-4.230 A234.9769 B-1.3528 
N717 X227.290 Y1.078 Z-4.182 A236.4805 B-1.3476 
N718 X227.279 Y1.319 Z-4.126 A237.9841 B-1.3414 
N719 X227.267 Y1.562 Z-4.060 A239.4877 B-1.3342 
N720 X227.255 Y1.807 Z-3.984 A240.9913 B-1.3261 
N721 X227.243 Y2.054 Z-3.899 A242.4948 B-1.3172 
N722 X227.231 Y2.304 Z-3.802 A243.9983 B-1.3073 
N723 X227.218 Y2.556 Z-3.694 A245.5018 B-1.2965 
N724 X227.205 Y2.810 Z-3.574 A247.0052 B-1.2848 
N725 X227.191 Y3.067 Z-3.441 A248.5085 B-1.2723 
N726 X227.177 Y3.325 Z-3.295 A250.0118 B-1.2588 
N727 X227.162 Y3.587 Z-3.134 A251.5151 B-1.2446 
N728 X227.147 Y3.850 Z-2.958 A253.0183 B-1.2294 
N729 X227.131 Y4.115 Z-2.766 A254.5214 B-1.2134 
N730 X227.115 Y4.382 Z-2.558 A256.0244 B-1.1966 
N731 X227.098 Y4.650 Z-2.333 A257.5273 B-1.1790 
N732 X227.081 Y4.917 Z-2.091 A259.0302 B-1.1605 
N733 X227.064 Y5.182 Z-1.836 A260.5329 B-1.1413 
N734 X227.046 Y5.443 Z-1.570 A262.0355 B-1.1212 
N735 X227.029 Y5.698 Z-1.294 A263.5380 B-1.1007 
N736 X227.011 Y5.948 Z-1.006 A265.0403 B-1.0787 
N737 X226.994 Y6.194 Z-0.706 A266.5423 B-1.0568 
N738 X226.976 Y6.434 Z-0.393 A268.0440 B-1.0335 
N739 X226.959 Y6.666 Z-0.072 A269.5453 B-1.0096 
N740 X226.942 Y6.887 Z0.246 A271.0468 B-0.9858 
N741 X226.926 Y7.093 Z0.551 A272.5485 B-0.9600 
N742 X226.911 Y7.285 Z0.841 A274.0502 B-0.9351 
N743 X226.897 Y7.464 Z1.114 A275.5519 B-0.9081 
N744 X226.884 Y7.630 Z1.372 A277.0535 B-0.8812 
N745 X226.872 Y7.784 Z1.609 A278.5550 B-0.8537 
N746 X226.861 Y7.928 Z1.825 A280.0563 B-0.8254 
N747 X226.851 Y8.062 Z2.025 A281.5576 B-0.7968 
N748 X226.841 Y8.189 Z2.215 A283.0588 B-0.7669 
N749 X226.832 Y8.310 Z2.392 A284.5598 B-0.7374 
N750 X226.823 Y8.424 Z2.551 A286.0608 B-0.7071 
N751 X226.816 Y8.533 Z2.695 A287.5616 B-0.6762 
N752 X226.808 Y8.637 Z2.826 A289.0623 B-0.6449 
N753 X226.801 Y8.738 Z2.946 A290.5630 B-0.6131 
N754 X226.795 Y8.836 Z3.057 A292.0636 B-0.5810 
N755 X226.788 Y8.932 Z3.159 A293.5642 B-0.5481 
N756 X226.782 Y9.026 Z3.256 A295.0649 B-0.5159 
N757 X226.776 Y9.118 Z3.348 A296.5657 B-0.4823 
N758 X226.771 Y9.208 Z3.437 A298.0670 B-0.4481 
N759 X226.765 Y9.296 Z3.524 A299.5692 B-0.4142 
N760 X226.759 Y9.383 Z3.608 A301.0733 B-0.3805 
N761 X226.754 Y9.469 Z3.692 A302.5807 B-0.3461 
N762 X226.748 Y9.554 Z3.776 A304.0945 B-0.3113 
N763 X226.742 Y9.637 Z3.860 A305.6198 B-0.2763 
N764 X226.737 Y9.720 Z3.946 A307.1669 B-0.2410 
N765 X226.731 Y9.804 Z4.034 A308.7539 B-0.2055 
N766 X226.726 Y9.889 Z4.127 A310.4148 B-0.1688 
N767 X226.719 Y9.977 Z4.230 A312.1942 B-0.1260 
N768 X226.712 Y10.068 Z4.340 A314.0787 B-0.0810 
N769 X226.705 Y10.159 Z4.459 A316.0575 B-0.0338 
N770 X226.698 Y10.251 Z4.584 A318.1205 B0.0156 
N771 X226.690 Y10.341 Z4.717 A320.2570 B0.0672 
N772 X226.682 Y10.429 Z4.856 A322.4556 B0.1210 
N773 X226.674 Y10.514 Z5.001 A324.7040 B0.1759 
N774 X226.666 Y10.594 Z5.151 A326.9899 B0.2307 
N775 X226.658 Y10.670 Z5.306 A329.3008 B0.2852 
N776 X226.650 Y10.739 Z5.465 A331.6251 B0.3393 
N777 X226.642 Y10.802 Z5.627 A333.9522 B0.3931 
N778 X226.635 Y10.859 Z5.791 A336.2720 B0.4463 
N779 X226.627 Y10.908 Z5.955 A338.5757 B0.4990 
N780 X226.620 Y10.950 Z6.121 A340.8550 B0.5502 
N781 X226.613 Y10.984 Z6.285 A343.1024 B0.5994 
N782 X226.607 Y11.011 Z6.448 A345.3111 B0.6466 
N783 X226.601 Y11.031 Z6.609 A347.4743 B0.6917 
N784 X226.595 Y11.044 Z6.767 A349.5856 B0.7349 
N785 X226.590 Y11.051 Z6.921 A351.6378 B0.7761 
N786 X226.585 Y11.051 Z7.071 A353.6230 B0.8152 
N787 X226.580 Y11.045 Z7.215 A355.5308 B0.8520 
N788 X226.576 Y11.034 Z7.353 A357.3468 B0.8865 
N789 X226.572 Y11.021 Z7.481 A359.0491 B0.9159 
N790 X226.569 Y11.004 Z7.602 A0.6592 B0.9420 
N791 X226.566 Y10.983 Z7.720 A2.2193 B0.9675 
N792 X226.563 Y10.958 Z7.835 A3.7525 B0.9923 
N793 X226.560 Y10.929 Z7.949 A5.2711 B1.0163 
N794 X226.558 Y10.895 Z8.062 A6.7818 B1.0399 
N795 X226.556 Y10.856 Z8.173 A8.2883 B1.0629 
N796 X226.554 Y10.813 Z8.285 A9.7926 B1.0852 
N797 X226.552 Y10.764 Z8.395 A11.2957 B1.1066 
N798 X226.550 Y10.708 Z8.504 A12.7982 B1.1268 
N799 X226.549 Y10.647 Z8.613 A14.3004 B1.1464 
N800 X226.548 Y10.577 Z8.720 A15.8026 B1.1658 
N801 X226.548 Y10.500 Z8.825 A17.3047 B1.1844 
N802 X226.548 Y10.414 Z8.929 A18.8068 B1.2011 
N803 X226.549 Y10.318 Z9.031 A20.3089 B1.2180 
N804 X226.550 Y10.211 Z9.129 A21.8109 B1.2339 
N805 X226.551 Y10.092 Z9.225 A23.3127 B1.2485 
N806 X226.554 Y9.959 Z9.316 A24.8141 B1.2629 
N807 X226.557 Y9.810 Z9.403 A26.3145 B1.2758 
N808 X226.562 Y9.642 Z9.483 A27.8132 B1.2881 
N809 X226.567 Y9.451 Z9.555 A29.3085 B1.2994 
N810 X226.574 Y9.238 Z9.619 A30.7975 B1.3103 
N811 X226.582 Y9.005 Z9.672 A32.2748 B1.3193 
N812 X226.592 Y8.745 Z9.712 A33.7305 B1.3285 
N813 X226.604 Y8.443 Z9.731 A35.1463 B1.3356 
N814 X226.620 Y8.084 Z9.721 A36.4882 B1.3422 
N815 X226.637 Y7.702 Z9.685 A37.6944 B1.3481 
N816 X226.655 Y7.327 Z9.631 A38.7205 B1.3507 
N817 X226.673 Y6.962 Z9.560 A39.5598 B1.3533 
N818 X226.692 Y6.605 Z9.476 A40.2254 B1.3543 
N819 X226.710 Y6.256 Z9.380 A40.7399 B1.3560 
N820 X226.728 Y5.912 Z9.274 A41.1267 B1.3562 
N821 X226.747 Y5.574 Z9.160 A41.4054 B1.3571 
N822 X226.765 Y5.241 Z9.041 A41.5901 B1.3574 
N823 X226.784 Y4.912 Z8.916 A41.6889 B1.3575 
N824 X226.802 Y4.587 Z8.786 A41.7056 B1.3576 
N825 X226.821 Y4.265 Z8.652 A41.6409 B1.3574 
N826 X226.840 Y3.947 Z8.514 A41.4937 B1.3571 
N827 X226.858 Y3.632 Z8.372 A41.2617 B1.3566 
N828 X226.877 Y3.321 Z8.228 A40.9424 B1.3559 
N829 X226.896 Y3.012 Z8.080 A40.5332 B1.3549 
N830 X226.915 Y2.707 Z7.929 A40.0323 B1.3536 
N831 X226.933 Y2.403 Z7.777 A39.4395 B1.3520 
N832 X226.952 Y2.103 Z7.622 A38.7559 B1.3498 
N833 X226.971 Y1.803 Z7.467 A37.9845 B1.3472 
N834 X226.990 Y1.506 Z7.311 A37.1287 B1.3439 
N835 X227.009 Y1.209 Z7.155 A36.1927 B1.3400 
N836 X227.028 Y0.912 Z7.000 A35.1804 B1.3354 
N837 X227.047 Y0.615 Z6.846 A34.0961 B1.3299 
N838 X227.066 Y0.318 Z6.694 A32.9448 B1.3236 
N839 X227.085 Y0.020 Z6.545 A31.7323 B1.3163 
N840 X227.105 Y-0.280 Z6.399 A30.4660 B1.3080 
N841 X227.124 Y-0.581 Z6.257 A29.1545 B1.2988 
N842 X227.143 Y-0.884 Z6.119 A27.8080 B1.2887 
N843 X227.162 Y-1.189 Z5.988 A26.4375 B1.2779 
N844 X227.181 Y-1.497 Z5.864 A25.0559 B1.2668 
N845 X227.201 Y-1.806 Z5.748 A23.6777 B1.2558 
N846 X227.220 Y-2.118 Z5.640 A22.3191 B1.2456 
N847 X227.239 Y-2.430 Z5.544 A20.9963 B1.2366 
N848 X227.257 Y-2.744 Z5.458 A19.7216 B1.2292 
N849 X227.276 Y-3.058 Z5.383 A18.4984 B1.2232 
N850 X227.294 Y-3.373 Z5.319 A17.3178 B1.2179 
N851 X227.312 Y-3.690 Z5.264 A16.1596 B1.2118 
N852 X227.331 Y-4.009 Z5.216 A15.0001 B1.2036 
N853 X227.349 Y-4.331 Z5.175 A13.8228 B1.1922 
N854 X227.366 Y-4.656 Z5.140 A12.6237 B1.1776 
N855 X227.384 Y-4.985 Z5.111 A11.4081 B1.1601 
N856 X227.401 Y-5.317 Z5.090 A10.1820 B1.1401 
N857 X227.419 Y-5.652 Z5.075 A8.9473 B1.1178 
N858 X227.436 Y-5.989 Z5.067 A7.7043 B1.0933 
N859 X227.452 Y-6.330 Z5.066 A6.4598 B1.0672 
N860 X227.469 Y-6.672 Z5.073 A5.2302 B1.0404 
N861 X227.485 Y-7.014 Z5.089 A4.0386 B1.0140 
N862 X227.501 Y-7.356 Z5.115 A2.9065 B0.9892 
N863 X227.517 Y-7.696 Z5.151 A1.8477 B0.9666 
N864 X227.532 Y-8.034 Z5.197 A0.8663 B0.9463 
N865 X227.547 Y-8.369 Z5.253 A359.9585 B0.9282 
N866 X227.562 Y-8.701 Z5.318 A359.1161 B0.9120 
N867 X227.576 Y-9.032 Z5.391 A358.3290 B0.8972 
N868 X227.590 Y-9.360 Z5.471 A357.5881 B0.8835 
N869 X227.604 Y-9.687 Z5.558 A356.8859 B0.8705 
N870 X227.618 Y-10.013 Z5.651 A356.2185 B0.8579 
N871 X227.631 Y-10.337 Z5.750 A355.5857 B0.8462 
N872 X227.645 Y-10.660 Z5.855 A354.9905 B0.8343 
N873 X227.657 Y-10.981 Z5.966 A354.4368 B0.8241 
N874 X227.670 Y-11.301 Z6.084 A353.9275 B0.8140 
N875 X227.683 Y-11.619 Z6.207 A353.4631 B0.8051 
N876 X227.695 Y-11.936 Z6.336 A353.0422 B0.7974 
N877 X227.707 Y-12.246 Z6.467 A352.6662 B0.7893 
N878 X227.716 Y-12.506 Z6.579 A352.3427 B0.7831 
N879 X227.724 Y-12.711 Z6.668 A352.0736 B0.7780 
N880 X227.730 Y-12.876 Z6.739 A351.8569 B0.7736 
N881 X227.735 Y-13.006 Z6.797 A351.6917 B0.7703 
N882 X227.739 Y-13.113 Z6.846 A351.5827 B0.7676 
N883 X227.743 Y-13.194 Z6.888 A351.5466 B0.7649 
N884 X227.745 Y-13.260 Z6.929 A351.6128 B0.7645 
N885 X227.747 Y-13.308 Z6.972 A351.8303 B0.7647 
N886 X227.748 Y-13.346 Z7.027 A352.2704 B0.7689 
N887 X227.747 Y-13.371 Z7.097 A353.0237 B0.7793 
N888 X227.745 Y-13.388 Z7.194 A354.1961 B0.7992 
N889 X227.741 Y-13.393 Z7.357 A356.3542 B0.8329 
N890 X227.733 Y-13.400 Z7.615 A359.8827 B0.8978 
N891 X227.718 Y-13.433 Z8.090 A6.4920 B1.0166 
N892 X227.696 Y-13.581 Z8.810 A16.7910 B1.1940 
N893 X227.676 Y-13.940 Z9.658 A29.7533 B1.3870 
N894 X227.669 Y-14.485 Z10.412 A42.8615 B1.4803 
N895 X227.673 Y-15.166 Z11.006 A55.5874 B1.4768 
N896 X227.685 Y-15.926 Z11.422 A67.7982 B1.4041 
N897 X227.703 Y-16.728 Z11.664 A79.6119 B1.2901 
N898 X227.728 Y-17.577 Z11.736 A91.6130 B1.1240 
N899 X227.763 Y-18.464 Z11.620 A104.1899 B0.8826 
N900 X227.807 Y-19.337 Z11.298 A117.3020 B0.5637 
N901 X227.859 Y-20.126 Z10.778 A130.6085 B0.1801 
N902 X227.902 Y-20.750 Z10.118 A143.4023 B-0.1570 
N903 X227.929 Y-21.062 Z9.621 A151.6050 B-0.3453 
N904 X227.943 Y-21.187 Z9.338 A155.8725 B-0.4378 
N905 X227.949 Y-21.231 Z9.187 A157.9673 B-0.4841 
N906 X227.952 Y-21.242 Z9.101 A159.0389 B-0.5079 
N907 X227.954 Y-21.236 Z9.037 A159.7017 B-0.5239 
N908 X227.954 Y-21.216 Z8.992 A160.0187 B-0.5318 
N909 X227.954 Y-21.185 Z8.951 A160.1917 B-0.5372 
N910 X227.953 Y-21.143 Z8.905 A160.3167 B-0.5400 
N911 X227.952 Y-21.085 Z8.851 A160.4011 B-0.5411 
N912 X227.950 Y-21.013 Z8.786 A160.4579 B-0.5425 
N913 X227.948 Y-20.921 Z8.707 A160.4998 B-0.5434 
N914 X227.945 Y-20.806 Z8.609 A160.5364 B-0.5449 
N915 X227.941 Y-20.663 Z8.488 A160.5742 B-0.5470 
N916 X227.937 Y-20.485 Z8.338 A160.6171 B-0.5500 
N917 X227.931 Y-20.260 Z8.149 A160.6678 B-0.5539 
N918 X227.924 Y-19.993 Z7.924 A160.7275 B-0.5599 
N919 X227.917 Y-19.724 Z7.698 A160.7960 B-0.5667 
N920 X227.911 Y-19.454 Z7.472 A160.8739 B-0.5752 
N921 X227.905 Y-19.185 Z7.245 A160.9625 B-0.5858 
N922 X227.898 Y-18.915 Z7.018 A161.0627 B-0.5983 
N923 X227.892 Y-18.646 Z6.791 A161.1753 B-0.6140 
N924 X227.887 Y-18.376 Z6.563 A161.3003 B-0.6323 
N925 X227.881 Y-18.106 Z6.335 A161.4377 B-0.6547 
N926 X227.876 Y-17.835 Z6.107 A161.5873 B-0.6809 
N927 X227.871 Y-17.565 Z5.879 A161.7491 B-0.7120 
N928 X227.867 Y-17.294 Z5.651 A161.9230 B-0.7484 
N929 X227.862 Y-17.022 Z5.423 A162.1093 B-0.7908 
N930 X227.859 Y-16.750 Z5.195 A162.3081 B-0.8395 
N931 X227.855 Y-16.478 Z4.967 A162.5201 B-0.8953 
N932 X227.852 Y-16.205 Z4.739 A162.7461 B-0.9582 
N933 X227.849 Y-15.931 Z4.511 A162.9874 B-1.0283 
N934 X227.846 Y-15.657 Z4.284 A163.2456 B-1.1053 
N935 X227.843 Y-15.382 Z4.056 A163.5222 B-1.1884 
N936 X227.839 Y-15.107 Z3.828 A163.8186 B-1.2766 
N937 X227.835 Y-14.830 Z3.600 A164.1361 B-1.3679 
N938 X227.829 Y-14.553 Z3.372 A164.4755 B-1.4606 
N939 X227.822 Y-14.275 Z3.145 A164.8374 B-1.5515 
N940 X227.814 Y-13.996 Z2.918 A165.2228 B-1.6388 
N941 X227.803 Y-13.716 Z2.691 A165.6325 B-1.7190 
N942 X227.789 Y-13.435 Z2.465 A166.0679 B-1.7905 
N943 X227.773 Y-13.153 Z2.239 A166.5305 B-1.8507 
N944 X227.755 Y-12.869 Z2.013 A167.0217 B-1.8989 
N945 X227.734 Y-12.585 Z1.788 A167.5434 B-1.9341 
N946 X227.711 Y-12.298 Z1.564 A168.0976 B-1.9569 
N947 X227.686 Y-12.011 Z1.340 A168.6863 B-1.9680 
N948 X227.659 Y-11.722 Z1.117 A169.3120 B-1.9686 
N949 X227.631 Y-11.430 Z0.895 A169.9771 B-1.9610 
N950 X227.602 Y-11.137 Z0.673 A170.6847 B-1.9465 
N951 X227.572 Y-10.842 Z0.451 A171.4383 B-1.9279 
N952 X227.543 Y-10.545 Z0.230 A172.2422 B-1.9063 
N953 X227.514 Y-10.244 Z0.010 A173.1009 B-1.8840 
N954 X227.485 Y-9.942 Z-0.211 A174.0198 B-1.8621 
N955 X227.456 Y-9.636 Z-0.430 A175.0036 B-1.8421 
N956 X227.429 Y-9.327 Z-0.649 A176.0561 B-1.8245 
N957 X227.402 Y-9.014 Z-0.868 A177.1797 B-1.8101 
N958 X227.375 Y-8.697 Z-1.085 A178.3753 B-1.7992 
N959 X227.350 Y-8.375 Z-1.300 A179.6421 B-1.7918 
N960 X227.325 Y-8.049 Z-1.512 A180.9776 B-1.7881 
N961 X227.300 Y-7.718 Z-1.721 A182.3752 B-1.7879 
N962 X227.276 Y-7.388 Z-1.923 A183.8204 B-1.7910 
N963 X227.255 Y-7.070 Z-2.113 A185.2922 B-1.7969 
N964 X227.234 Y-6.766 Z-2.292 A186.7785 B-1.8049 
N965 X227.215 Y-6.473 Z-2.459 A188.2729 B-1.8144 
N966 X227.197 Y-6.190 Z-2.616 A189.7716 B-1.8252 
N967 X227.180 Y-5.917 Z-2.763 A191.2727 B-1.8367 
N968 X227.164 Y-5.651 Z-2.902 A192.7752 B-1.8487 
N969 X227.148 Y-5.391 Z-3.033 A194.2784 B-1.8612 
N970 X227.134 Y-5.138 Z-3.156 A195.7821 B-1.8736 
N971 X227.119 Y-4.891 Z-3.271 A197.2860 B-1.8860 
N972 X227.105 Y-4.647 Z-3.380 A198.7902 B-1.8981 
N973 X227.091 Y-4.408 Z-3.483 A200.2946 B-1.9069 
N974 X227.077 Y-4.172 Z-3.579 A201.7992 B-1.9123 
N975 X227.062 Y-3.939 Z-3.669 A203.3041 B-1.9144 
N976 X227.048 Y-3.709 Z-3.754 A204.8090 B-1.9164 
N977 X227.035 Y-3.481 Z-3.833 A206.3138 B-1.9214 
N978 X227.022 Y-3.254 Z-3.906 A207.8185 B-1.9291 
N979 X227.010 Y-3.028 Z-3.974 A209.3231 B-1.9393 
N980 X226.998 Y-2.804 Z-4.036 A210.8277 B-1.9497 
N981 X226.987 Y-2.580 Z-4.093 A212.3325 B-1.9591 
N982 X226.975 Y-2.356 Z-4.144 A213.8373 B-1.9677 
N983 X226.962 Y-2.133 Z-4.190 A215.3422 B-1.9754 
N984 X226.950 Y-1.910 Z-4.230 A216.8471 B-1.9821 
N985 X226.938 Y-1.686 Z-4.265 A218.3522 B-1.9880 
N986 X226.925 Y-1.462 Z-4.294 A219.8573 B-1.9929 
N987 X226.913 Y-1.238 Z-4.317 A221.3625 B-1.9969 
N988 X226.900 Y-1.012 Z-4.334 A222.8678 B-1.9999 
N989 X226.887 Y-0.786 Z-4.344 A224.3731 B-2.0021 
N990 X226.874 Y-0.558 Z-4.349 A225.8784 B-2.0033 
N991 X226.860 Y-0.330 Z-4.346 A227.3839 B-2.0035 
N992 X226.847 Y-0.099 Z-4.337 A228.8893 B-2.0029 
N993 X226.833 Y0.132 Z-4.321 A230.3948 B-2.0013 
N994 X226.818 Y0.366 Z-4.298 A231.9002 B-1.9988 
N995 X226.803 Y0.601 Z-4.267 A233.4057 B-1.9953 
N996 X226.788 Y0.838 Z-4.227 A234.9113 B-1.9909 
N997 X226.773 Y1.076 Z-4.180 A236.4168 B-1.9857 
N998 X226.757 Y1.317 Z-4.123 A237.9223 B-1.9795 
N999 X226.741 Y1.560 Z-4.058 A239.4277 B-1.9723 
N1000 X226.724 Y1.805 Z-3.982 A240.9332 B-1.9642 
N1001 X226.706 Y2.053 Z-3.897 A242.4386 B-1.9553 
N1002 X226.688 Y2.302 Z-3.800 A243.9440 B-1.9454 
N1003 X226.670 Y2.554 Z-3.692 A245.4493 B-1.9347 
N1004 X226.651 Y2.809 Z-3.572 A246.9546 B-1.9231 
N1005 X226.631 Y3.066 Z-3.439 A248.4599 B-1.9106 
N1006 X226.611 Y3.325 Z-3.293 A249.9650 B-1.8972 
N1007 X226.590 Y3.586 Z-3.132 A251.4701 B-1.8829 
N1008 X226.568 Y3.849 Z-2.956 A252.9751 B-1.8678 
N1009 X226.545 Y4.115 Z-2.764 A254.4801 B-1.8519 
N1010 X226.521 Y4.382 Z-2.556 A255.9849 B-1.8351 
N1011 X226.497 Y4.650 Z-2.331 A257.4896 B-1.8175 
N1012 X226.472 Y4.917 Z-2.090 A258.9942 B-1.7992 
N1013 X226.447 Y5.182 Z-1.834 A260.4987 B-1.7800 
N1014 X226.421 Y5.443 Z-1.568 A262.0030 B-1.7599 
N1015 X226.396 Y5.698 Z-1.291 A263.5070 B-1.7397 
N1016 X226.370 Y5.949 Z-1.004 A265.0107 B-1.7175 
N1017 X226.344 Y6.194 Z-0.703 A266.5139 B-1.6960 
N1018 X226.317 Y6.434 Z-0.390 A268.0163 B-1.6726 
N1019 X226.291 Y6.666 Z-0.070 A269.5181 B-1.6489 
N1020 X226.266 Y6.887 Z0.248 A271.0207 B-1.6255 
N1021 X226.241 Y7.093 Z0.554 A272.5236 B-1.5995 
N1022 X226.219 Y7.285 Z0.844 A274.0267 B-1.5751 
N1023 X226.198 Y7.464 Z1.118 A275.5298 B-1.5481 
N1024 X226.179 Y7.630 Z1.375 A277.0328 B-1.5214 
N1025 X226.161 Y7.785 Z1.613 A278.5357 B-1.4943 
N1026 X226.145 Y7.928 Z1.829 A280.0385 B-1.4662 
N1027 X226.130 Y8.062 Z2.029 A281.5412 B-1.4380 
N1028 X226.116 Y8.190 Z2.219 A283.0437 B-1.4079 
N1029 X226.103 Y8.310 Z2.396 A284.5461 B-1.3790 
N1030 X226.091 Y8.424 Z2.555 A286.0483 B-1.3489 
N1031 X226.080 Y8.533 Z2.699 A287.5504 B-1.3183 
N1032 X226.071 Y8.637 Z2.830 A289.0524 B-1.2873 
N1033 X226.062 Y8.738 Z2.950 A290.5543 B-1.2558 
N1034 X226.053 Y8.837 Z3.060 A292.0560 B-1.2241 
N1035 X226.045 Y8.932 Z3.163 A293.5577 B-1.1913 
N1036 X226.038 Y9.026 Z3.260 A295.0594 B-1.1597 
N1037 X226.031 Y9.118 Z3.352 A296.5613 B-1.1264 
N1038 X226.024 Y9.208 Z3.440 A298.0635 B-1.0924 
N1039 X226.017 Y9.296 Z3.527 A299.5665 B-1.0587 
N1040 X226.010 Y9.383 Z3.611 A301.0711 B-1.0255 
N1041 X226.004 Y9.469 Z3.695 A302.5788 B-0.9915 
N1042 X225.998 Y9.553 Z3.779 A304.0919 B-0.9571 
N1043 X225.992 Y9.637 Z3.863 A305.6153 B-0.9224 
N1044 X225.986 Y9.720 Z3.948 A307.1574 B-0.8874 
N1045 X225.979 Y9.802 Z4.035 A308.7339 B-0.8522 
N1046 X225.973 Y9.887 Z4.127 A310.3729 B-0.8168 
N1047 X225.966 Y9.974 Z4.227 A312.1262 B-0.7757 
N1048 X225.959 Y10.063 Z4.337 A313.9938 B-0.7314 
N1049 X225.951 Y10.154 Z4.454 A315.9609 B-0.6849 
N1050 X225.943 Y10.246 Z4.579 A318.0152 B-0.6362 
N1051 X225.935 Y10.336 Z4.711 A320.1449 B-0.5853 
N1052 X225.927 Y10.424 Z4.849 A322.3381 B-0.5322 
N1053 X225.918 Y10.509 Z4.993 A324.5822 B-0.4777 
N1054 X225.909 Y10.590 Z5.143 A326.8646 B-0.4232 
N1055 X225.901 Y10.666 Z5.298 A329.1728 B-0.3691 
N1056 X225.893 Y10.736 Z5.456 A331.4953 B-0.3153 
N1057 X225.884 Y10.799 Z5.618 A333.8212 B-0.2620 
N1058 X225.876 Y10.856 Z5.781 A336.1404 B-0.2091 
N1059 X225.868 Y10.906 Z5.945 A338.4441 B-0.1569 
N1060 X225.860 Y10.948 Z6.110 A340.7239 B-0.1060 
N1061 X225.853 Y10.983 Z6.275 A342.9722 B-0.0571 
N1062 X225.846 Y11.011 Z6.438 A345.1823 B-0.0102 
N1063 X225.839 Y11.031 Z6.599 A347.3472 B0.0348 
N1064 X225.833 Y11.045 Z6.757 A349.4605 B0.0777 
N1065 X225.827 Y11.052 Z6.911 A351.5152 B0.1187 
N1066 X225.821 Y11.053 Z7.061 A353.5032 B0.1577 
N1067 X225.816 Y11.047 Z7.205 A355.4147 B0.1944 
N1068 X225.811 Y11.037 Z7.343 A357.2359 B0.2287 
N1069 X225.807 Y11.023 Z7.472 A358.9462 B0.2584 
N1070 X225.803 Y11.007 Z7.594 A0.5615 B0.2844 
N1071 X225.799 Y10.987 Z7.711 A2.1246 B0.3098 
N1072 X225.796 Y10.962 Z7.827 A3.6591 B0.3344 
N1073 X225.793 Y10.933 Z7.940 A5.1781 B0.3583 
N1074 X225.790 Y10.900 Z8.053 A6.6884 B0.3817 
N1075 X225.787 Y10.862 Z8.165 A8.1941 B0.4046 
N1076 X225.784 Y10.819 Z8.276 A9.6972 B0.4268 
N1077 X225.781 Y10.770 Z8.387 A11.1991 B0.4482 
N1078 X225.779 Y10.716 Z8.496 A12.7002 B0.4685 
N1079 X225.777 Y10.654 Z8.605 A14.2009 B0.4879 
N1080 X225.775 Y10.586 Z8.712 A15.7015 B0.5071 
N1081 X225.773 Y10.510 Z8.817 A17.2020 B0.5256 
N1082 X225.771 Y10.424 Z8.921 A18.7024 B0.5425 
N1083 X225.770 Y10.329 Z9.023 A20.2028 B0.5591 
N1084 X225.770 Y10.224 Z9.122 A21.7030 B0.5750 
N1085 X225.769 Y10.106 Z9.217 A23.2030 B0.5896 
N1086 X225.769 Y9.974 Z9.309 A24.7024 B0.6039 
N1087 X225.770 Y9.827 Z9.396 A26.2009 B0.6168 
N1088 X225.771 Y9.661 Z9.477 A27.6975 B0.6290 
N1089 X225.773 Y9.472 Z9.550 A29.1907 B0.6404 
N1090 X225.775 Y9.262 Z9.614 A30.6777 B0.6510 
N1091 X225.779 Y9.031 Z9.668 A32.1531 B0.6602 
N1092 X225.783 Y8.774 Z9.709 A33.6076 B0.6691 
N1093 X225.788 Y8.477 Z9.731 A35.0237 B0.6763 
N1094 X225.795 Y8.125 Z9.724 A36.3698 B0.6829 
N1095 X225.804 Y7.741 Z9.689 A37.5885 B0.6884 
N1096 X225.813 Y7.366 Z9.637 A38.6309 B0.6911 
N1097 X225.822 Y7.000 Z9.568 A39.4874 B0.6936 
N1098 X225.831 Y6.642 Z9.485 A40.1694 B0.6946 
N1099 X225.840 Y6.291 Z9.389 A40.6983 B0.6958 
N1100 X225.850 Y5.947 Z9.284 A41.0974 B0.6961 
N1101 X225.859 Y5.609 Z9.172 A41.3865 B0.6965 
N1102 X225.869 Y5.275 Z9.053 A41.5802 B0.6967 
N1103 X225.878 Y4.945 Z8.928 A41.6871 B0.6965 
N1104 X225.888 Y4.619 Z8.798 A41.7112 B0.6964 
N1105 X225.898 Y4.297 Z8.665 A41.6537 B0.6960 
N1106 X225.907 Y3.978 Z8.527 A41.5135 B0.6955 
N1107 X225.917 Y3.663 Z8.386 A41.2886 B0.6948 
N1108 X225.926 Y3.351 Z8.241 A40.9765 B0.6939 
N1109 X225.936 Y3.042 Z8.093 A40.5746 B0.6927 
N1110 X225.946 Y2.736 Z7.943 A40.0812 B0.6912 
N1111 X225.956 Y2.433 Z7.790 A39.4957 B0.6893 
N1112 X225.965 Y2.131 Z7.636 A38.8194 B0.6869 
N1113 X225.975 Y1.832 Z7.480 A38.0548 B0.6840 
N1114 X225.985 Y1.534 Z7.324 A37.2056 B0.6806 
N1115 X225.995 Y1.236 Z7.168 A36.2757 B0.6765 
N1116 X226.005 Y0.940 Z7.013 A35.2692 B0.6717 
N1117 X226.015 Y0.643 Z6.859 A34.1904 B0.6660 
N1118 X226.025 Y0.345 Z6.707 A33.0440 B0.6595 
N1119 X226.035 Y0.047 Z6.557 A31.8360 B0.6520 
N1120 X226.045 Y-0.253 Z6.410 A30.5736 B0.6436 
N1121 X226.055 Y-0.554 Z6.268 A29.2654 B0.6341 
N1122 X226.066 Y-0.857 Z6.130 A27.9214 B0.6238 
N1123 X226.076 Y-1.162 Z5.998 A26.5528 B0.6126 
N1124 X226.086 Y-1.470 Z5.873 A25.1724 B0.6007 
N1125 X226.096 Y-1.779 Z5.756 A23.7949 B0.5884 
N1126 X226.106 Y-2.091 Z5.649 A22.4365 B0.5759 
N1127 X226.116 Y-2.403 Z5.551 A21.1134 B0.5635 
N1128 X226.126 Y-2.717 Z5.464 A19.8379 B0.5514 
N1129 X226.135 Y-3.031 Z5.389 A18.6135 B0.5394 
N1130 X226.145 Y-3.347 Z5.324 A17.4313 B0.5272 
N1131 X226.154 Y-3.663 Z5.268 A16.2711 B0.5143 
N1132 X226.163 Y-3.982 Z5.220 A15.1094 B0.5000 
N1133 X226.172 Y-4.305 Z5.178 A13.9300 B0.4842 
N1134 X226.181 Y-4.630 Z5.142 A12.7297 B0.4669 
N1135 X226.189 Y-4.959 Z5.113 A11.5153 B0.4484 
N1136 X226.198 Y-5.290 Z5.091 A10.2946 B0.4291 
N1137 X226.206 Y-5.624 Z5.077 A9.0706 B0.4091 
N1138 X226.214 Y-5.961 Z5.069 A7.8425 B0.3888 
N1139 X226.221 Y-6.301 Z5.068 A6.6123 B0.3681 
N1140 X226.228 Y-6.643 Z5.075 A5.3903 B0.3476 
N1141 X226.235 Y-6.985 Z5.090 A4.1955 B0.3276 
N1142 X226.242 Y-7.328 Z5.115 A3.0498 B0.3084 
N1143 X226.248 Y-7.668 Z5.150 A1.9713 B0.2903 
N1144 X226.254 Y-8.007 Z5.195 A0.9695 B0.2734 
N1145 X226.260 Y-8.343 Z5.250 A0.0447 B0.2577 
N1146 X226.266 Y-8.676 Z5.313 A359.1900 B0.2429 
N1147 X226.271 Y-9.007 Z5.386 A358.3948 B0.2290 
N1148 X226.276 Y-9.336 Z5.465 A357.6486 B0.2156 
N1149 X226.281 Y-9.664 Z5.551 A356.9429 B0.2028 
N1150 X226.285 Y-9.989 Z5.644 A356.2728 B0.1903 
N1151 X226.290 Y-10.314 Z5.742 A355.6376 B0.1782 
N1152 X226.294 Y-10.636 Z5.847 A355.0398 B0.1667 
N1153 X226.298 Y-10.958 Z5.958 A354.4833 B0.1560 
N1154 X226.301 Y-11.278 Z6.075 A353.9711 B0.1461 
N1155 X226.304 Y-11.596 Z6.198 A353.5038 B0.1371 
N1156 X226.308 Y-11.913 Z6.327 A353.0803 B0.1288 
N1157 X226.310 Y-12.223 Z6.458 A352.7017 B0.1210 
N1158 X226.313 Y-12.488 Z6.572 A352.3747 B0.1145 
N1159 X226.315 Y-12.697 Z6.662 A352.1023 B0.1091 
N1160 X226.316 Y-12.863 Z6.734 A351.8828 B0.1049 
N1161 X226.317 Y-12.997 Z6.793 A351.7149 B0.1013 
N1162 X226.318 Y-13.105 Z6.843 A351.6033 B0.0983 
N1163 X226.319 Y-13.187 Z6.885 A351.5640 B0.0960 
N1164 X226.319 Y-13.254 Z6.926 A351.6247 B0.0948 
N1165 X226.319 Y-13.303 Z6.970 A351.8326 B0.0954 
N1166 X226.319 Y-13.342 Z7.023 A352.2556 B0.0992 
N1167 X226.318 Y-13.368 Z7.092 A352.9811 B0.1086 
N1168 X226.315 Y-13.385 Z7.186 A354.1099 B0.1276 
N1169 X226.311 Y-13.391 Z7.343 A356.1900 B0.1593 
N1170 X226.303 Y-13.397 Z7.592 A359.5795 B0.2202 
N1171 X226.287 Y-13.426 Z8.050 A5.9511 B0.3326 
N1172 X226.265 Y-13.562 Z8.752 A15.9713 B0.5043 
N1173 X226.245 Y-13.896 Z9.586 A28.5959 B0.6858 
N1174 X226.235 Y-14.427 Z10.353 A41.7334 B0.7981 
N1175 X226.238 Y-15.103 Z10.966 A54.5811 B0.8101 
N1176 X226.249 Y-15.871 Z11.402 A67.0167 B0.7457 
N1177 X226.266 Y-16.689 Z11.659 A79.0849 B0.6349 
N1178 X226.291 Y-17.556 Z11.739 A91.3260 B0.4660 
N1179 X226.324 Y-18.451 Z11.625 A104.0246 B0.2268 
N1180 X226.367 Y-19.330 Z11.303 A117.1871 B-0.0867 
N1181 X226.418 Y-20.120 Z10.781 A130.5102 B-0.4692 
N1182 X226.460 Y-20.746 Z10.120 A143.3259 B-0.8025 
N1183 X226.485 Y-21.059 Z9.621 A151.5607 B-0.9891 
N1184 X226.498 Y-21.185 Z9.336 A155.8635 B-1.0809 
N1185 X226.504 Y-21.229 Z9.185 A157.9571 B-1.1263 
N1186 X226.506 Y-21.240 Z9.099 A159.0274 B-1.1497 
N1187 X226.507 Y-21.234 Z9.035 A159.6907 B-1.1656 
N1188 X226.507 Y-21.213 Z8.990 A160.0100 B-1.1722 
N1189 X226.505 Y-21.183 Z8.949 A160.1837 B-1.1779 
N1190 X226.503 Y-21.141 Z8.903 A160.3087 B-1.1806 
N1191 X226.499 Y-21.083 Z8.849 A160.3926 B-1.1808 
N1192 X226.495 Y-21.011 Z8.784 A160.4486 B-1.1821 
N1193 X226.490 Y-20.920 Z8.705 A160.4897 B-1.1819 
N1194 X226.483 Y-20.805 Z8.608 A160.5256 B-1.1821 
N1195 X226.474 Y-20.662 Z8.487 A160.5628 B-1.1827 
N1196 X226.464 Y-20.484 Z8.337 A160.6053 B-1.1836 
N1197 X226.450 Y-20.261 Z8.149 A160.6557 B-1.1839 
N1198 X226.434 Y-19.993 Z7.925 A160.7151 B-1.1858 
N1199 X226.418 Y-19.725 Z7.699 A160.7833 B-1.1864 
N1200 X226.402 Y-19.456 Z7.473 A160.8609 B-1.1880 
N1201 X226.386 Y-19.186 Z7.247 A160.9491 B-1.1901 
N1202 X226.370 Y-18.917 Z7.020 A161.0491 B-1.1916 
N1203 X226.354 Y-18.648 Z6.793 A161.1613 B-1.1945 
N1204 X226.338 Y-18.379 Z6.566 A161.2861 B-1.1965 
N1205 X226.322 Y-18.109 Z6.338 A161.4232 B-1.1995 
N1206 X226.306 Y-17.839 Z6.111 A161.5727 B-1.2025 
N1207 X226.290 Y-17.569 Z5.883 A161.7343 B-1.2058 
N1208 X226.274 Y-17.299 Z5.655 A161.9081 B-1.2093 
N1209 X226.258 Y-17.028 Z5.428 A162.0943 B-1.2131 
N1210 X226.242 Y-16.756 Z5.200 A162.2931 B-1.2172 
N1211 X226.226 Y-16.484 Z4.973 A162.5052 B-1.2215 
N1212 X226.210 Y-16.212 Z4.745 A162.7314 B-1.2260 
N1213 X226.194 Y-15.939 Z4.518 A162.9731 B-1.2309 
N1214 X226.178 Y-15.665 Z4.290 A163.2318 B-1.2361 
N1215 X226.162 Y-15.391 Z4.063 A163.5091 B-1.2417 
N1216 X226.146 Y-15.116 Z3.836 A163.8066 B-1.2478 
N1217 X226.130 Y-14.841 Z3.609 A164.1253 B-1.2543 
N1218 X226.114 Y-14.564 Z3.381 A164.4661 B-1.2612 
N1219 X226.097 Y-14.287 Z3.154 A164.8296 B-1.2686 
N1220 X226.081 Y-14.008 Z2.928 A165.2166 B-1.2764 
N1221 X226.065 Y-13.729 Z2.701 A165.6280 B-1.2847 
N1222 X226.049 Y-13.448 Z2.475 A166.0648 B-1.2934 
N1223 X226.032 Y-13.166 Z2.249 A166.5284 B-1.3027 
N1224 X226.016 Y-12.883 Z2.024 A167.0203 B-1.3125 
N1225 X225.999 Y-12.599 Z1.799 A167.5423 B-1.3228 
N1226 X225.983 Y-12.312 Z1.574 A168.0963 B-1.3337 
N1227 X225.966 Y-12.025 Z1.350 A168.6843 B-1.3453 
N1228 X225.950 Y-11.735 Z1.127 A169.3088 B-1.3574 
N1229 X225.933 Y-11.444 Z0.904 A169.9723 B-1.3703 
N1230 X225.916 Y-11.150 Z0.682 A170.6780 B-1.3838 
N1231 X225.899 Y-10.854 Z0.460 A171.4293 B-1.3981 
N1232 X225.882 Y-10.556 Z0.239 A172.2306 B-1.4132 
N1233 X225.865 Y-10.256 Z0.018 A173.0866 B-1.4292 
N1234 X225.848 Y-9.953 Z-0.203 A174.0026 B-1.4462 
N1235 X225.831 Y-9.646 Z-0.423 A174.9835 B-1.4643 
N1236 X225.814 Y-9.337 Z-0.642 A176.0332 B-1.4834 
N1237 X225.796 Y-9.024 Z-0.861 A177.1541 B-1.5037 
N1238 X225.779 Y-8.707 Z-1.078 A178.3472 B-1.5250 
N1239 X225.761 Y-8.385 Z-1.293 A179.6118 B-1.5472 
N1240 X225.743 Y-8.059 Z-1.506 A180.9453 B-1.5703 
N1241 X225.725 Y-7.728 Z-1.715 A182.3413 B-1.5944 
N1242 X225.707 Y-7.397 Z-1.918 A183.7849 B-1.6188 
N1243 X225.690 Y-7.080 Z-2.108 A185.2550 B-1.6426 
N1244 X225.674 Y-6.776 Z-2.286 A186.7395 B-1.6657 
N1245 X225.658 Y-6.483 Z-2.454 A188.2319 B-1.6881 
N1246 X225.643 Y-6.200 Z-2.611 A189.7287 B-1.7098 
N1247 X225.629 Y-5.926 Z-2.759 A191.2278 B-1.7308 
N1248 X225.615 Y-5.660 Z-2.898 A192.7284 B-1.7510 
N1249 X225.601 Y-5.401 Z-3.028 A194.2297 B-1.7705 
N1250 X225.588 Y-5.148 Z-3.151 A195.7316 B-1.7892 
N1251 X225.575 Y-4.900 Z-3.267 A197.2338 B-1.8071 
N1252 X225.562 Y-4.657 Z-3.376 A198.7362 B-1.8243 
N1253 X225.550 Y-4.418 Z-3.479 A200.2388 B-1.8406 
N1254 X225.538 Y-4.182 Z-3.575 A201.7416 B-1.8560 
N1255 X225.526 Y-3.949 Z-3.666 A203.2445 B-1.8707 
N1256 X225.514 Y-3.719 Z-3.751 A204.7476 B-1.8846 
N1257 X225.502 Y-3.491 Z-3.830 A206.2508 B-1.8976 
N1258 X225.490 Y-3.264 Z-3.903 A207.7541 B-1.9097 
N1259 X225.478 Y-3.038 Z-3.971 A209.2576 B-1.9210 
N1260 X225.466 Y-2.814 Z-4.033 A210.7611 B-1.9314 
N1261 X225.455 Y-2.590 Z-4.090 A212.2648 B-1.9409 
N1262 X225.443 Y-2.367 Z-4.142 A213.7685 B-1.9496 
N1263 X225.431 Y-2.144 Z-4.188 A215.2723 B-1.9573 
N1264 X225.419 Y-1.921 Z-4.228 A216.7763 B-1.9642 
N1265 X225.407 Y-1.697 Z-4.263 A218.2803 B-1.9702 
N1266 X225.394 Y-1.473 Z-4.292 A219.7844 B-1.9752 
N1267 X225.382 Y-1.249 Z-4.316 A221.2885 B-1.9793 
N1268 X225.369 Y-1.024 Z-4.333 A222.7927 B-1.9825 
N1269 X225.356 Y-0.798 Z-4.344 A224.2970 B-1.9849 
N1270 X225.343 Y-0.570 Z-4.349 A225.8013 B-1.9862 
N1271 X225.330 Y-0.342 Z-4.347 A227.3057 B-1.9867 
N1272 X225.317 Y-0.112 Z-4.338 A228.8101 B-1.9862 
N1273 X225.303 Y0.120 Z-4.322 A230.3145 B-1.9849 
N1274 X225.288 Y0.353 Z-4.299 A231.8189 B-1.9826 
N1275 X225.274 Y0.587 Z-4.269 A233.3234 B-1.9794 
N1276 X225.259 Y0.824 Z-4.230 A234.8279 B-1.9752 
N1277 X225.244 Y1.063 Z-4.183 A236.3323 B-1.9702 
N1278 X225.228 Y1.303 Z-4.127 A237.8368 B-1.9643 
N1279 X225.212 Y1.546 Z-4.062 A239.3412 B-1.9574 
N1280 X225.195 Y1.791 Z-3.987 A240.8456 B-1.9497 
N1281 X225.178 Y2.038 Z-3.902 A242.3500 B-1.9411 
N1282 X225.160 Y2.287 Z-3.806 A243.8544 B-1.9315 
N1283 X225.142 Y2.539 Z-3.699 A245.3587 B-1.9211 
N1284 X225.123 Y2.793 Z-3.580 A246.8629 B-1.9098 
N1285 X225.104 Y3.049 Z-3.448 A248.3671 B-1.8977 
N1286 X225.084 Y3.308 Z-3.303 A249.8713 B-1.8846 
N1287 X225.063 Y3.569 Z-3.143 A251.3754 B-1.8708 
N1288 X225.041 Y3.832 Z-2.968 A252.8794 B-1.8561 
N1289 X225.019 Y4.097 Z-2.778 A254.3833 B-1.8405 
N1290 X224.996 Y4.364 Z-2.570 A255.8871 B-1.8242 
N1291 X224.972 Y4.632 Z-2.346 A257.3908 B-1.8070 
N1292 X224.947 Y4.899 Z-2.106 A258.8944 B-1.7890 
N1293 X224.922 Y5.164 Z-1.852 A260.3979 B-1.7703 
N1294 X224.897 Y5.425 Z-1.587 A261.9012 B-1.7506 
N1295 X224.871 Y5.681 Z-1.311 A263.4043 B-1.7309 
N1296 X224.845 Y5.931 Z-1.024 A264.9071 B-1.7092 
N1297 X224.820 Y6.177 Z-0.725 A266.4093 B-1.6880 
N1298 X224.793 Y6.417 Z-0.412 A267.9108 B-1.6652 
N1299 X224.767 Y6.650 Z-0.093 A269.4115 B-1.6418 
N1300 X224.742 Y6.871 Z0.225 A270.9131 B-1.6189 
N1301 X224.718 Y7.079 Z0.532 A272.4151 B-1.5934 
N1302 X224.696 Y7.272 Z0.823 A273.9172 B-1.5696 
N1303 X224.675 Y7.451 Z1.098 A275.4193 B-1.5429 
N1304 X224.656 Y7.618 Z1.356 A276.9214 B-1.5169 
N1305 X224.638 Y7.774 Z1.595 A278.4234 B-1.4901 
N1306 X224.622 Y7.917 Z1.813 A279.9252 B-1.4627 
N1307 X224.607 Y8.052 Z2.014 A281.4270 B-1.4347 
N1308 X224.593 Y8.180 Z2.205 A282.9286 B-1.4054 
N1309 X224.580 Y8.301 Z2.382 A284.4300 B-1.3769 
N1310 X224.568 Y8.415 Z2.543 A285.9313 B-1.3474 
N1311 X224.558 Y8.524 Z2.689 A287.4325 B-1.3172 
N1312 X224.548 Y8.629 Z2.820 A288.9336 B-1.2869 
N1313 X224.539 Y8.730 Z2.941 A290.4345 B-1.2557 
N1314 X224.531 Y8.829 Z3.052 A291.9353 B-1.2247 
N1315 X224.523 Y8.925 Z3.155 A293.4361 B-1.1923 
N1316 X224.515 Y9.018 Z3.252 A294.9369 B-1.1612 
N1317 X224.508 Y9.110 Z3.344 A296.4378 B-1.1285 
N1318 X224.501 Y9.200 Z3.433 A297.9391 B-1.0950 
N1319 X224.495 Y9.289 Z3.520 A299.4412 B-1.0618 
N1320 X224.488 Y9.376 Z3.604 A300.9450 B-1.0290 
N1321 X224.482 Y9.462 Z3.688 A302.4518 B-0.9956 
N1322 X224.476 Y9.546 Z3.772 A303.9646 B-0.9618 
N1323 X224.470 Y9.630 Z3.856 A305.4883 B-0.9276 
N1324 X224.464 Y9.713 Z3.941 A307.0323 B-0.8933 
N1325 X224.458 Y9.796 Z4.028 A308.6138 B-0.8586 
N1326 X224.452 Y9.881 Z4.120 A310.2649 B-0.8233 
N1327 X224.445 Y9.969 Z4.223 A312.0348 B-0.7817 
N1328 X224.437 Y10.059 Z4.332 A313.9103 B-0.7381 
N1329 X224.430 Y10.151 Z4.450 A315.8805 B-0.6924 
N1330 X224.422 Y10.242 Z4.574 A317.9354 B-0.6445 
N1331 X224.414 Y10.333 Z4.706 A320.0646 B-0.5944 
N1332 X224.405 Y10.421 Z4.844 A322.2569 B-0.5420 
N1333 X224.397 Y10.506 Z4.988 A324.4999 B-0.4881 
N1334 X224.388 Y10.587 Z5.138 A326.7814 B-0.4343 
N1335 X224.380 Y10.663 Z5.292 A329.0889 B-0.3807 
N1336 X224.372 Y10.733 Z5.451 A331.4109 B-0.3274 
N1337 X224.364 Y10.797 Z5.612 A333.7366 B-0.2746 
N1338 X224.356 Y10.854 Z5.775 A336.0559 B-0.2222 
N1339 X224.348 Y10.904 Z5.939 A338.3599 B-0.1703 
N1340 X224.340 Y10.947 Z6.104 A340.6403 B-0.1199 
N1341 X224.333 Y10.982 Z6.269 A342.8898 B-0.0713 
N1342 X224.326 Y11.010 Z6.432 A345.1012 B-0.0247 
N1343 X224.319 Y11.031 Z6.593 A347.2684 B0.0199 
N1344 X224.313 Y11.045 Z6.751 A349.3848 B0.0625 
N1345 X224.307 Y11.052 Z6.905 A351.4440 B0.1032 
N1346 X224.301 Y11.053 Z7.056 A353.4392 B0.1419 
N1347 X224.296 Y11.048 Z7.201 A355.3620 B0.1782 
N1348 X224.291 Y11.038 Z7.340 A357.2021 B0.2123 
N1349 X224.286 Y11.023 Z7.472 A358.9443 B0.2436 
N1350 X224.283 Y11.007 Z7.595 A0.5749 B0.2693 
N1351 X224.279 Y10.987 Z7.713 A2.1450 B0.2943 
N1352 X224.276 Y10.962 Z7.828 A3.6826 B0.3187 
N1353 X224.273 Y10.933 Z7.942 A5.2024 B0.3423 
N1354 X224.270 Y10.899 Z8.055 A6.7127 B0.3655 
N1355 X224.267 Y10.861 Z8.167 A8.2179 B0.3881 
N1356 X224.264 Y10.818 Z8.278 A9.7203 B0.4102 
N1357 X224.261 Y10.770 Z8.388 A11.2212 B0.4314 
N1358 X224.259 Y10.715 Z8.498 A12.7215 B0.4515 
N1359 X224.257 Y10.654 Z8.606 A14.2213 B0.4708 
N1360 X224.255 Y10.585 Z8.713 A15.7209 B0.4898 
N1361 X224.253 Y10.509 Z8.819 A17.2204 B0.5082 
N1362 X224.251 Y10.424 Z8.922 A18.7199 B0.5250 
N1363 X224.250 Y10.328 Z9.024 A20.2193 B0.5416 
N1364 X224.249 Y10.222 Z9.123 A21.7187 B0.5574 
N1365 X224.249 Y10.105 Z9.218 A23.2178 B0.5719 
N1366 X224.249 Y9.973 Z9.310 A24.7164 B0.5861 
N1367 X224.249 Y9.826 Z9.397 A26.2142 B0.5990 
N1368 X224.250 Y9.659 Z9.477 A27.7103 B0.6111 
N1369 X224.252 Y9.471 Z9.550 A29.2032 B0.6225 
N1370 X224.255 Y9.260 Z9.615 A30.6901 B0.6330 
N1371 X224.258 Y9.029 Z9.669 A32.1661 B0.6421 
N1372 X224.262 Y8.773 Z9.710 A33.6218 B0.6509 
N1373 X224.267 Y8.476 Z9.732 A35.0399 B0.6580 
N1374 X224.274 Y8.123 Z9.725 A36.3886 B0.6644 
N1375 X224.282 Y7.739 Z9.690 A37.6090 B0.6695 
N1376 X224.291 Y7.364 Z9.638 A38.6516 B0.6720 
N1377 X224.300 Y6.998 Z9.569 A39.5071 B0.6742 
N1378 X224.309 Y6.641 Z9.485 A40.1873 B0.6750 
N1379 X224.318 Y6.290 Z9.390 A40.7142 B0.6760 
N1380 X224.327 Y5.947 Z9.285 A41.1113 B0.6762 
N1381 X224.336 Y5.608 Z9.172 A41.3989 B0.6765 
N1382 X224.345 Y5.275 Z9.053 A41.5916 B0.6766 
N1383 X224.355 Y4.945 Z8.929 A41.6979 B0.6764 
N1384 X224.364 Y4.620 Z8.799 A41.7218 B0.6763 
N1385 X224.373 Y4.298 Z8.666 A41.6644 B0.6759 
N1386 X224.382 Y3.979 Z8.528 A41.5246 B0.6754 
N1387 X224.392 Y3.664 Z8.387 A41.3004 B0.6747 
N1388 X224.401 Y3.352 Z8.242 A40.9890 B0.6739 
N1389 X224.411 Y3.043 Z8.095 A40.5879 B0.6727 
N1390 X224.420 Y2.738 Z7.944 A40.0953 B0.6713 
N1391 X224.429 Y2.434 Z7.792 A39.5106 B0.6695 
N1392 X224.439 Y2.133 Z7.638 A38.8351 B0.6673 
N1393 X224.448 Y1.834 Z7.482 A38.0713 B0.6645 
N1394 X224.458 Y1.536 Z7.326 A37.2229 B0.6612 
N1395 X224.468 Y1.239 Z7.170 A36.2937 B0.6573 
N1396 X224.477 Y0.942 Z7.015 A35.2880 B0.6526 
N1397 X224.487 Y0.645 Z6.861 A34.2100 B0.6471 
N1398 X224.497 Y0.348 Z6.709 A33.0643 B0.6407 
N1399 X224.507 Y0.050 Z6.559 A31.8569 B0.6334 
N1400 X224.517 Y-0.249 Z6.412 A30.5950 B0.6251 
N1401 X224.526 Y-0.550 Z6.270 A29.2872 B0.6158 
N1402 X224.536 Y-0.853 Z6.132 A27.9436 B0.6055 
N1403 X224.546 Y-1.158 Z6.000 A26.5753 B0.5944 
N1404 X224.556 Y-1.465 Z5.875 A25.1952 B0.5826 
N1405 X224.566 Y-1.775 Z5.758 A23.8179 B0.5704 
N1406 X224.575 Y-2.086 Z5.650 A22.4597 B0.5579 
N1407 X224.585 Y-2.398 Z5.553 A21.1367 B0.5455 
N1408 X224.595 Y-2.711 Z5.466 A19.8612 B0.5334 
N1409 X224.604 Y-3.026 Z5.390 A18.6368 B0.5213 
N1410 X224.613 Y-3.341 Z5.325 A17.4545 B0.5090 
N1411 X224.622 Y-3.657 Z5.269 A16.2942 B0.4959 
N1412 X224.631 Y-3.976 Z5.221 A15.1323 B0.4815 
N1413 X224.640 Y-4.298 Z5.179 A13.9527 B0.4657 
N1414 X224.648 Y-4.623 Z5.143 A12.7520 B0.4484 
N1415 X224.656 Y-4.952 Z5.114 A11.5372 B0.4299 
N1416 X224.664 Y-5.283 Z5.091 A10.3162 B0.4107 
N1417 X224.672 Y-5.617 Z5.076 A9.0917 B0.3910 
N1418 X224.680 Y-5.954 Z5.068 A7.8632 B0.3708 
N1419 X224.687 Y-6.293 Z5.068 A6.6325 B0.3504 
N1420 X224.694 Y-6.634 Z5.074 A5.4102 B0.3302 
N1421 X224.701 Y-6.977 Z5.089 A4.2150 B0.3104 
N1422 X224.707 Y-7.319 Z5.114 A3.0689 B0.2915 
N1423 X224.713 Y-7.660 Z5.148 A1.9900 B0.2737 
N1424 X224.719 Y-7.998 Z5.193 A0.9880 B0.2570 
N1425 X224.725 Y-8.334 Z5.247 A0.0629 B0.2414 
N1426 X224.730 Y-8.667 Z5.311 A359.2078 B0.2268 
N1427 X224.735 Y-8.998 Z5.383 A358.4122 B0.2130 
N1428 X224.740 Y-9.327 Z5.462 A357.6657 B0.1998 
N1429 X224.744 Y-9.654 Z5.548 A356.9595 B0.1871 
N1430 X224.748 Y-9.979 Z5.640 A356.2887 B0.1747 
N1431 X224.752 Y-10.303 Z5.739 A355.6526 B0.1628 
N1432 X224.756 Y-10.626 Z5.843 A355.0536 B0.1514 
N1433 X224.760 Y-10.947 Z5.954 A354.4958 B0.1407 
N1434 X224.763 Y-11.267 Z6.071 A353.9823 B0.1309 
N1435 X224.766 Y-11.585 Z6.194 A353.5136 B0.1220 
N1436 X224.769 Y-11.902 Z6.322 A353.0887 B0.1138 
N1437 X224.772 Y-12.213 Z6.453 A352.7083 B0.1060 
N1438 X224.774 Y-12.480 Z6.568 A352.3791 B0.0995 
N1439 X224.776 Y-12.691 Z6.658 A352.1046 B0.0942 
N1440 X224.777 Y-12.857 Z6.731 A351.8828 B0.0900 
N1441 X224.778 Y-12.992 Z6.790 A351.7119 B0.0864 
N1442 X224.779 Y-13.101 Z6.841 A351.5964 B0.0835 
N1443 X224.780 Y-13.184 Z6.883 A351.5517 B0.0813 
N1444 X224.780 Y-13.252 Z6.924 A351.6053 B0.0801 
N1445 X224.780 Y-13.302 Z6.967 A351.8046 B0.0809 
N1446 X224.780 Y-13.341 Z7.020 A352.2191 B0.0848 
N1447 X224.779 Y-13.368 Z7.089 A352.9402 B0.0947 
N1448 X224.776 Y-13.385 Z7.183 A354.0711 B0.1146 
N1449 X224.772 Y-13.391 Z7.342 A356.1745 B0.1496 
N1450 X224.764 Y-13.397 Z7.593 A359.5940 B0.2142 
N1451 X224.748 Y-13.428 Z8.062 A6.1265 B0.3438 
N1452 X224.727 Y-13.569 Z8.777 A16.3354 B0.5468 
N1453 X224.707 Y-13.921 Z9.633 A29.3416 B0.8078 
N1454 X224.699 Y-14.464 Z10.394 A42.5068 B0.9448 
N1455 X224.702 Y-15.145 Z10.997 A55.3164 B0.9666 
N1456 X224.714 Y-15.914 Z11.420 A67.6689 B0.9019 
N1457 X224.731 Y-16.725 Z11.666 A79.5959 B0.7850 
N1458 X224.754 Y-17.579 Z11.739 A91.6537 B0.6129 
N1459 X224.787 Y-18.467 Z11.621 A104.2512 B0.3595 
N1460 X224.828 Y-19.341 Z11.297 A117.3589 B0.0216 
N1461 X224.878 Y-20.128 Z10.775 A130.6531 B-0.3992 
N1462 X224.917 Y-20.751 Z10.114 A143.4304 B-0.7868 
N1463 X224.942 Y-21.060 Z9.618 A151.6103 B-0.9796 
N1464 X224.955 Y-21.185 Z9.336 A155.8662 B-1.0703 
N1465 X224.960 Y-21.229 Z9.185 A157.9574 B-1.1149 
N1466 X224.963 Y-21.240 Z9.099 A159.0277 B-1.1381 
N1467 X224.964 Y-21.234 Z9.035 A159.6910 B-1.1538 
N1468 X224.963 Y-21.213 Z8.990 A160.0103 B-1.1603 
N1469 X224.962 Y-21.183 Z8.949 A160.1840 B-1.1659 
N1470 X224.960 Y-21.141 Z8.903 A160.3090 B-1.1685 
N1471 X224.956 Y-21.084 Z8.849 A160.3929 B-1.1687 
N1472 X224.952 Y-21.011 Z8.784 A160.4489 B-1.1700 
N1473 X224.946 Y-20.920 Z8.705 A160.4900 B-1.1698 
N1474 X224.940 Y-20.805 Z8.608 A160.5259 B-1.1700 
N1475 X224.931 Y-20.662 Z8.487 A160.5631 B-1.1706 
N1476 X224.921 Y-20.485 Z8.337 A160.6055 B-1.1715 
N1477 X224.907 Y-20.261 Z8.149 A160.6560 B-1.1718 
N1478 X224.892 Y-19.994 Z7.925 A160.7154 B-1.1736 
N1479 X224.876 Y-19.725 Z7.699 A160.7835 B-1.1742 
N1480 X224.860 Y-19.456 Z7.473 A160.8612 B-1.1759 
N1481 X224.844 Y-19.187 Z7.247 A160.9494 B-1.1779 
N1482 X224.828 Y-18.917 Z7.020 A161.0494 B-1.1794 
N1483 X224.812 Y-18.648 Z6.793 A161.1616 B-1.1822 
N1484 X224.797 Y-18.379 Z6.566 A161.2864 B-1.1842 
N1485 X224.781 Y-18.109 Z6.338 A161.4236 B-1.1872 
N1486 X224.765 Y-17.839 Z6.111 A161.5730 B-1.1901 
N1487 X224.749 Y-17.569 Z5.883 A161.7346 B-1.1933 
N1488 X224.733 Y-17.299 Z5.655 A161.9084 B-1.1969 
N1489 X224.717 Y-17.028 Z5.428 A162.0946 B-1.2006 
N1490 X224.702 Y-16.756 Z5.200 A162.2935 B-1.2046 
N1491 X224.686 Y-16.484 Z4.973 A162.5056 B-1.2088 
N1492 X224.670 Y-16.212 Z4.745 A162.7318 B-1.2134 
N1493 X224.654 Y-15.939 Z4.518 A162.9735 B-1.2182 
N1494 X224.638 Y-15.665 Z4.290 A163.2322 B-1.2233 
N1495 X224.622 Y-15.391 Z4.063 A163.5096 B-1.2289 
N1496 X224.606 Y-15.116 Z3.836 A163.8071 B-1.2348 
N1497 X224.590 Y-14.840 Z3.609 A164.1258 B-1.2412 
N1498 X224.574 Y-14.564 Z3.381 A164.4666 B-1.2480 
N1499 X224.558 Y-14.287 Z3.154 A164.8302 B-1.2553 
N1500 X224.542 Y-14.008 Z2.928 A165.2172 B-1.2630 
N1501 X224.526 Y-13.729 Z2.701 A165.6286 B-1.2712 
N1502 X224.510 Y-13.448 Z2.475 A166.0654 B-1.2798 
N1503 X224.494 Y-13.166 Z2.249 A166.5290 B-1.2890 
N1504 X224.477 Y-12.883 Z2.024 A167.0210 B-1.2987 
N1505 X224.461 Y-12.598 Z1.799 A167.5431 B-1.3089 
N1506 X224.445 Y-12.312 Z1.574 A168.0971 B-1.3196 
N1507 X224.428 Y-12.024 Z1.350 A168.6852 B-1.3310 
N1508 X224.412 Y-11.735 Z1.127 A169.3097 B-1.3430 
N1509 X224.395 Y-11.443 Z0.904 A169.9733 B-1.3557 
N1510 X224.379 Y-11.150 Z0.682 A170.6790 B-1.3691 
N1511 X224.362 Y-10.854 Z0.460 A171.4304 B-1.3832 
N1512 X224.345 Y-10.556 Z0.238 A172.2318 B-1.3981 
N1513 X224.328 Y-10.256 Z0.017 A173.0879 B-1.4139 
N1514 X224.311 Y-9.953 Z-0.203 A174.0040 B-1.4307 
N1515 X224.294 Y-9.646 Z-0.423 A174.9850 B-1.4485 
N1516 X224.277 Y-9.337 Z-0.642 A176.0348 B-1.4675 
N1517 X224.260 Y-9.024 Z-0.861 A177.1558 B-1.4875 
N1518 X224.243 Y-8.707 Z-1.078 A178.3490 B-1.5085 
N1519 X224.225 Y-8.385 Z-1.294 A179.6138 B-1.5305 
N1520 X224.207 Y-8.059 Z-1.506 A180.9474 B-1.5534 
N1521 X224.190 Y-7.728 Z-1.716 A182.3435 B-1.5771 
N1522 X224.172 Y-7.397 Z-1.918 A183.7871 B-1.6013 
N1523 X224.155 Y-7.080 Z-2.108 A185.2573 B-1.6248 
N1524 X224.139 Y-6.776 Z-2.287 A186.7418 B-1.6477 
N1525 X224.123 Y-6.483 Z-2.454 A188.2342 B-1.6699 
N1526 X224.108 Y-6.200 Z-2.611 A189.7309 B-1.6913 
N1527 X224.094 Y-5.926 Z-2.759 A191.2300 B-1.7121 
N1528 X224.080 Y-5.660 Z-2.898 A192.7305 B-1.7321 
N1529 X224.067 Y-5.401 Z-3.028 A194.2318 B-1.7514 
N1530 X224.054 Y-5.148 Z-3.151 A195.7336 B-1.7699 
N1531 X224.041 Y-4.900 Z-3.267 A197.2357 B-1.7877 
N1532 X224.029 Y-4.657 Z-3.376 A198.7381 B-1.8047 
N1533 X224.016 Y-4.418 Z-3.479 A200.2406 B-1.8209 
N1534 X224.004 Y-4.182 Z-3.575 A201.7434 B-1.8362 
N1535 X223.992 Y-3.949 Z-3.666 A203.2462 B-1.8508 
N1536 X223.981 Y-3.719 Z-3.751 A204.7492 B-1.8646 
N1537 X223.969 Y-3.491 Z-3.830 A206.2523 B-1.8775 
N1538 X223.957 Y-3.264 Z-3.903 A207.7556 B-1.8895 
N1539 X223.946 Y-3.039 Z-3.971 A209.2589 B-1.9008 
N1540 X223.934 Y-2.814 Z-4.033 A210.7624 B-1.9112 
N1541 X223.922 Y-2.590 Z-4.090 A212.2660 B-1.9207 
N1542 X223.911 Y-2.367 Z-4.142 A213.7696 B-1.9293 
N1543 X223.899 Y-2.144 Z-4.188 A215.2734 B-1.9371 
N1544 X223.887 Y-1.921 Z-4.228 A216.7772 B-1.9439 
N1545 X223.875 Y-1.697 Z-4.263 A218.2811 B-1.9499 
N1546 X223.863 Y-1.474 Z-4.292 A219.7851 B-1.9550 
N1547 X223.850 Y-1.249 Z-4.316 A221.2892 B-1.9592 
N1548 X223.838 Y-1.024 Z-4.333 A222.7933 B-1.9625 
N1549 X223.825 Y-0.798 Z-4.344 A224.2975 B-1.9649 
N1550 X223.812 Y-0.571 Z-4.349 A225.8017 B-1.9664 
N1551 X223.799 Y-0.342 Z-4.347 A227.3060 B-1.9669 
N1552 X223.786 Y-0.112 Z-4.338 A228.8103 B-1.9666 
N1553 X223.772 Y0.119 Z-4.323 A230.3146 B-1.9654 
N1554 X223.758 Y0.352 Z-4.300 A231.8189 B-1.9633 
N1555 X223.744 Y0.587 Z-4.269 A233.3233 B-1.9602 
N1556 X223.729 Y0.824 Z-4.230 A234.8277 B-1.9563 
N1557 X223.714 Y1.062 Z-4.183 A236.3321 B-1.9515 
N1558 X223.698 Y1.303 Z-4.127 A237.8364 B-1.9457 
N1559 X223.682 Y1.545 Z-4.062 A239.3408 B-1.9391 
N1560 X223.666 Y1.790 Z-3.987 A240.8451 B-1.9316 
N1561 X223.649 Y2.037 Z-3.902 A242.3494 B-1.9232 
N1562 X223.631 Y2.287 Z-3.807 A243.8537 B-1.9139 
N1563 X223.613 Y2.539 Z-3.699 A245.3579 B-1.9038 
N1564 X223.595 Y2.793 Z-3.580 A246.8621 B-1.8928 
N1565 X223.575 Y3.049 Z-3.448 A248.3662 B-1.8809 
N1566 X223.555 Y3.308 Z-3.303 A249.8703 B-1.8682 
N1567 X223.535 Y3.569 Z-3.143 A251.3743 B-1.8546 
N1568 X223.513 Y3.832 Z-2.969 A252.8782 B-1.8403 
N1569 X223.491 Y4.097 Z-2.778 A254.3821 B-1.8251 
N1570 X223.468 Y4.364 Z-2.571 A255.8858 B-1.8090 
N1571 X223.444 Y4.631 Z-2.347 A257.3895 B-1.7922 
N1572 X223.420 Y4.899 Z-2.107 A258.8931 B-1.7746 
N1573 X223.395 Y5.164 Z-1.853 A260.3965 B-1.7563 
N1574 X223.370 Y5.425 Z-1.587 A261.8997 B-1.7370 
N1575 X223.345 Y5.680 Z-1.311 A263.4028 B-1.7177 
N1576 X223.320 Y5.931 Z-1.025 A264.9055 B-1.6964 
N1577 X223.294 Y6.177 Z-0.725 A266.4077 B-1.6756 
N1578 X223.268 Y6.417 Z-0.413 A267.9092 B-1.6532 
N1579 X223.242 Y6.649 Z-0.094 A269.4099 B-1.6303 
N1580 X223.217 Y6.871 Z0.225 A270.9115 B-1.6078 
N1581 X223.193 Y7.078 Z0.532 A272.4134 B-1.5828 
N1582 X223.171 Y7.271 Z0.823 A273.9155 B-1.5594 
N1583 X223.150 Y7.451 Z1.097 A275.4177 B-1.5332 
N1584 X223.131 Y7.618 Z1.356 A276.9197 B-1.5077 
N1585 X223.114 Y7.773 Z1.595 A278.4217 B-1.4813 
N1586 X223.098 Y7.917 Z1.813 A279.9235 B-1.4544 
N1587 X223.083 Y8.052 Z2.014 A281.4253 B-1.4269 
N1588 X223.069 Y8.180 Z2.204 A282.9269 B-1.3981 
N1589 X223.056 Y8.301 Z2.382 A284.4283 B-1.3701 
N1590 X223.045 Y8.415 Z2.543 A285.9296 B-1.3411 
N1591 X223.034 Y8.524 Z2.688 A287.4308 B-1.3114 
N1592 X223.025 Y8.629 Z2.820 A288.9319 B-1.2816 
N1593 X223.016 Y8.730 Z2.941 A290.4329 B-1.2509 
N1594 X223.007 Y8.829 Z3.052 A291.9337 B-1.2205 
N1595 X223.000 Y8.924 Z3.155 A293.4345 B-1.1886 
N1596 X222.992 Y9.018 Z3.252 A294.9354 B-1.1580 
N1597 X222.985 Y9.110 Z3.344 A296.4363 B-1.1258 
N1598 X222.978 Y9.200 Z3.433 A297.9376 B-1.0928 
N1599 X222.972 Y9.289 Z3.519 A299.4398 B-1.0602 
N1600 X222.966 Y9.376 Z3.604 A300.9436 B-1.0279 
N1601 X222.959 Y9.462 Z3.688 A302.4505 B-0.9951 
N1602 X222.953 Y9.546 Z3.772 A303.9633 B-0.9617 
N1603 X222.947 Y9.630 Z3.856 A305.4870 B-0.9281 
N1604 X222.941 Y9.713 Z3.941 A307.0310 B-0.8943 
N1605 X222.935 Y9.796 Z4.028 A308.6126 B-0.8602 
N1606 X222.929 Y9.881 Z4.120 A310.2636 B-0.8254 
N1607 X222.922 Y9.969 Z4.222 A312.0335 B-0.7845 
N1608 X222.915 Y10.059 Z4.332 A313.9089 B-0.7415 
N1609 X222.908 Y10.151 Z4.449 A315.8790 B-0.6965 
N1610 X222.900 Y10.242 Z4.574 A317.9339 B-0.6493 
N1611 X222.892 Y10.333 Z4.706 A320.0631 B-0.6000 
N1612 X222.884 Y10.421 Z4.844 A322.2553 B-0.5484 
N1613 X222.875 Y10.506 Z4.988 A324.4983 B-0.4952 
N1614 X222.867 Y10.587 Z5.138 A326.7797 B-0.4422 
N1615 X222.859 Y10.663 Z5.292 A329.0873 B-0.3894 
N1616 X222.851 Y10.733 Z5.450 A331.4093 B-0.3368 
N1617 X222.843 Y10.797 Z5.612 A333.7349 B-0.2847 
N1618 X222.835 Y10.854 Z5.775 A336.0543 B-0.2330 
N1619 X222.827 Y10.904 Z5.939 A338.3583 B-0.1819 
N1620 X222.819 Y10.946 Z6.104 A340.6387 B-0.1321 
N1621 X222.812 Y10.982 Z6.268 A342.8882 B-0.0842 
N1622 X222.805 Y11.010 Z6.431 A345.0997 B-0.0382 
N1623 X222.799 Y11.031 Z6.592 A347.2669 B0.0058 
N1624 X222.792 Y11.045 Z6.751 A349.3833 B0.0479 
N1625 X222.786 Y11.052 Z6.905 A351.4426 B0.0881 
N1626 X222.781 Y11.053 Z7.056 A353.4379 B0.1263 
N1627 X222.775 Y11.048 Z7.201 A355.3608 B0.1622 
N1628 X222.771 Y11.038 Z7.340 A357.2009 B0.1959 
N1629 X222.766 Y11.023 Z7.472 A358.9432 B0.2268 
N1630 X222.763 Y11.007 Z7.595 A0.5739 B0.2522 
N1631 X222.759 Y10.987 Z7.713 A2.1441 B0.2769 
N1632 X222.756 Y10.962 Z7.828 A3.6816 B0.3010 
N1633 X222.753 Y10.933 Z7.942 A5.2015 B0.3244 
N1634 X222.749 Y10.900 Z8.055 A6.7118 B0.3473 
N1635 X222.746 Y10.861 Z8.167 A8.2170 B0.3697 
N1636 X222.744 Y10.818 Z8.278 A9.7194 B0.3916 
N1637 X222.741 Y10.770 Z8.388 A11.2204 B0.4126 
N1638 X222.739 Y10.715 Z8.498 A12.7206 B0.4325 
N1639 X222.737 Y10.654 Z8.606 A14.2204 B0.4515 
N1640 X222.734 Y10.585 Z8.713 A15.7201 B0.4704 
N1641 X222.733 Y10.509 Z8.819 A17.2196 B0.4886 
N1642 X222.731 Y10.424 Z8.922 A18.7191 B0.5053 
N1643 X222.730 Y10.329 Z9.024 A20.2185 B0.5217 
N1644 X222.729 Y10.223 Z9.123 A21.7178 B0.5374 
N1645 X222.729 Y10.105 Z9.218 A23.2169 B0.5518 
N1646 X222.729 Y9.973 Z9.310 A24.7155 B0.5659 
N1647 X222.729 Y9.826 Z9.397 A26.2133 B0.5787 
N1648 X222.730 Y9.660 Z9.477 A27.7093 B0.5908 
N1649 X222.732 Y9.471 Z9.550 A29.2022 B0.6021 
N1650 X222.734 Y9.260 Z9.615 A30.6892 B0.6126 
N1651 X222.737 Y9.030 Z9.669 A32.1652 B0.6217 
N1652 X222.741 Y8.773 Z9.710 A33.6208 B0.6304 
N1653 X222.746 Y8.476 Z9.732 A35.0389 B0.6376 
N1654 X222.753 Y8.123 Z9.725 A36.3877 B0.6440 
N1655 X222.760 Y7.740 Z9.690 A37.6083 B0.6492 
N1656 X222.769 Y7.365 Z9.638 A38.6511 B0.6517 
N1657 X222.777 Y6.999 Z9.569 A39.5067 B0.6539 
N1658 X222.786 Y6.641 Z9.485 A40.1870 B0.6548 
N1659 X222.795 Y6.291 Z9.390 A40.7140 B0.6558 
N1660 X222.804 Y5.947 Z9.285 A41.1113 B0.6560 
N1661 X222.813 Y5.609 Z9.173 A41.3990 B0.6563 
N1662 X222.822 Y5.275 Z9.053 A41.5917 B0.6564 
N1663 X222.831 Y4.946 Z8.929 A41.6981 B0.6562 
N1664 X222.840 Y4.620 Z8.800 A41.7221 B0.6561 
N1665 X222.849 Y4.298 Z8.666 A41.6647 B0.6557 
N1666 X222.858 Y3.979 Z8.528 A41.5250 B0.6552 
N1667 X222.867 Y3.664 Z8.387 A41.3008 B0.6545 
N1668 X222.876 Y3.352 Z8.242 A40.9895 B0.6537 
N1669 X222.885 Y3.044 Z8.095 A40.5884 B0.6525 
N1670 X222.894 Y2.738 Z7.944 A40.0959 B0.6511 
N1671 X222.903 Y2.435 Z7.792 A39.5112 B0.6492 
N1672 X222.913 Y2.133 Z7.638 A38.8357 B0.6470 
N1673 X222.922 Y1.834 Z7.482 A38.0719 B0.6442 
N1674 X222.931 Y1.536 Z7.326 A37.2235 B0.6409 
N1675 X222.940 Y1.239 Z7.170 A36.2944 B0.6369 
N1676 X222.950 Y0.942 Z7.015 A35.2887 B0.6322 
N1677 X222.959 Y0.646 Z6.861 A34.2107 B0.6267 
N1678 X222.969 Y0.349 Z6.709 A33.0650 B0.6203 
N1679 X222.978 Y0.051 Z6.559 A31.8576 B0.6130 
N1680 X222.988 Y-0.249 Z6.412 A30.5957 B0.6047 
N1681 X222.998 Y-0.550 Z6.270 A29.2879 B0.5954 
N1682 X223.007 Y-0.853 Z6.132 A27.9443 B0.5852 
N1683 X223.017 Y-1.158 Z6.000 A26.5760 B0.5742 
N1684 X223.026 Y-1.465 Z5.875 A25.1958 B0.5624 
N1685 X223.036 Y-1.774 Z5.758 A23.8185 B0.5502 
N1686 X223.045 Y-2.086 Z5.650 A22.4602 B0.5378 
N1687 X223.054 Y-2.398 Z5.553 A21.1372 B0.5254 
N1688 X223.064 Y-2.711 Z5.466 A19.8617 B0.5132 
N1689 X223.073 Y-3.025 Z5.390 A18.6373 B0.5011 
N1690 X223.082 Y-3.340 Z5.325 A17.4549 B0.4888 
N1691 X223.090 Y-3.657 Z5.269 A16.2946 B0.4756 
N1692 X223.099 Y-3.976 Z5.221 A15.1327 B0.4613 
N1693 X223.107 Y-4.298 Z5.179 A13.9530 B0.4455 
N1694 X223.115 Y-4.623 Z5.143 A12.7524 B0.4283 
N1695 X223.123 Y-4.951 Z5.114 A11.5376 B0.4100 
N1696 X223.131 Y-5.283 Z5.091 A10.3164 B0.3910 
N1697 X223.139 Y-5.617 Z5.076 A9.0920 B0.3715 
N1698 X223.146 Y-5.953 Z5.068 A7.8634 B0.3516 
N1699 X223.153 Y-6.293 Z5.068 A6.6327 B0.3316 
N1700 X223.160 Y-6.634 Z5.074 A5.4104 B0.3116 
N1701 X223.166 Y-6.977 Z5.089 A4.2152 B0.2922 
N1702 X223.172 Y-7.319 Z5.114 A3.0691 B0.2737 
N1703 X223.178 Y-7.660 Z5.148 A1.9902 B0.2562 
N1704 X223.184 Y-7.998 Z5.193 A0.9881 B0.2398 
N1705 X223.189 Y-8.334 Z5.247 A0.0630 B0.2245 
N1706 X223.194 Y-8.667 Z5.311 A359.2079 B0.2101 
N1707 X223.199 Y-8.998 Z5.383 A358.4123 B0.1964 
N1708 X223.203 Y-9.327 Z5.462 A357.6658 B0.1834 
N1709 X223.207 Y-9.654 Z5.548 A356.9596 B0.1708 
N1710 X223.212 Y-9.979 Z5.640 A356.2888 B0.1586 
N1711 X223.215 Y-10.303 Z5.739 A355.6527 B0.1468 
N1712 X223.219 Y-10.626 Z5.843 A355.0537 B0.1355 
N1713 X223.222 Y-10.947 Z5.954 A354.4958 B0.1250 
N1714 X223.225 Y-11.267 Z6.071 A353.9823 B0.1153 
N1715 X223.228 Y-11.585 Z6.194 A353.5136 B0.1065 
N1716 X223.231 Y-11.902 Z6.322 A353.0887 B0.0984 
N1717 X223.233 Y-12.213 Z6.453 A352.7083 B0.0907 
N1718 X223.235 Y-12.480 Z6.568 A352.3791 B0.0843 
N1719 X223.237 Y-12.691 Z6.658 A352.1047 B0.0791 
N1720 X223.238 Y-12.857 Z6.731 A351.8828 B0.0749 
N1721 X223.239 Y-12.992 Z6.790 A351.7119 B0.0714 
N1722 X223.240 Y-13.101 Z6.841 A351.5964 B0.0685 
N1723 X223.240 Y-13.184 Z6.883 A351.5517 B0.0663 
N1724 X223.241 Y-13.252 Z6.924 A351.6054 B0.0652 
N1725 X223.241 Y-13.302 Z6.967 A351.8047 B0.0659 
N1726 X223.241 Y-13.341 Z7.020 A352.2192 B0.0697 
N1727 X223.239 Y-13.368 Z7.089 A352.9403 B0.0795 
N1728 X223.237 Y-13.385 Z7.183 A354.0712 B0.0992 
N1729 X223.232 Y-13.391 Z7.342 A356.1746 B0.1338 
N1730 X223.224 Y-13.397 Z7.593 A359.5942 B0.1976 
N1731 X223.209 Y-13.428 Z8.062 A6.1267 B0.3258 
N1732 X223.188 Y-13.569 Z8.777 A16.3356 B0.5267 
N1733 X223.169 Y-13.921 Z9.633 A29.3418 B0.7855 
N1734 X223.160 Y-14.464 Z10.394 A42.5069 B0.9219 
N1735 X223.163 Y-15.145 Z10.997 A55.3166 B0.9446 
N1736 X223.175 Y-15.914 Z11.420 A67.6690 B0.8820 
N1737 X223.191 Y-16.725 Z11.666 A79.5960 B0.7675 
N1738 X223.214 Y-17.579 Z11.739 A91.6538 B0.5986 
N1739 X223.246 Y-18.467 Z11.621 A104.2513 B0.3495 
N1740 X223.287 Y-19.341 Z11.297 A117.3590 B0.0170 
N1741 X223.335 Y-20.128 Z10.775 A130.6532 B-0.3977 
N1742 X223.375 Y-20.751 Z10.114 A143.4305 B-0.7800 
N1743 X223.399 Y-21.061 Z9.618 A151.6105 B-0.9702 
N1744 X223.411 Y-21.185 Z9.336 A155.8664 B-1.0595 
N1745 X223.417 Y-21.229 Z9.185 A157.9576 B-1.1036 
N1746 X223.419 Y-21.240 Z9.099 A159.0279 B-1.1264 
N1747 X223.420 Y-21.234 Z9.035 A159.6912 B-1.1419 
N1748 X223.420 Y-21.214 Z8.990 A160.0106 B-1.1483 
N1749 X223.418 Y-21.183 Z8.949 A160.1842 B-1.1539 
N1750 X223.416 Y-21.141 Z8.903 A160.3092 B-1.1564 
N1751 X223.413 Y-21.084 Z8.849 A160.3932 B-1.1566 
N1752 X223.408 Y-21.011 Z8.784 A160.4492 B-1.1579 
N1753 X223.403 Y-20.920 Z8.705 A160.4903 B-1.1577 
N1754 X223.396 Y-20.805 Z8.608 A160.5262 B-1.1579 
N1755 X223.388 Y-20.662 Z8.487 A160.5634 B-1.1585 
N1756 X223.378 Y-20.485 Z8.337 A160.6058 B-1.1594 
N1757 X223.364 Y-20.261 Z8.149 A160.6562 B-1.1597 
N1758 X223.349 Y-19.994 Z7.925 A160.7156 B-1.1615 
N1759 X223.333 Y-19.725 Z7.699 A160.7838 B-1.1621 
N1760 X223.317 Y-19.456 Z7.473 A160.8614 B-1.1637 
N1761 X223.302 Y-19.187 Z7.247 A160.9497 B-1.1657 
N1762 X223.286 Y-18.917 Z7.020 A161.0497 B-1.1671 
N1763 X223.271 Y-18.648 Z6.793 A161.1619 B-1.1700 
N1764 X223.255 Y-18.379 Z6.566 A161.2867 B-1.1719 
N1765 X223.239 Y-18.109 Z6.338 A161.4239 B-1.1748 
N1766 X223.224 Y-17.839 Z6.111 A161.5733 B-1.1777 
N1767 X223.208 Y-17.569 Z5.883 A161.7349 B-1.1809 
N1768 X223.192 Y-17.299 Z5.655 A161.9087 B-1.1844 
N1769 X223.177 Y-17.028 Z5.428 A162.0950 B-1.1881 
N1770 X223.161 Y-16.756 Z5.200 A162.2938 B-1.1920 
N1771 X223.145 Y-16.484 Z4.973 A162.5059 B-1.1962 
N1772 X223.129 Y-16.212 Z4.745 A162.7322 B-1.2007 
N1773 X223.114 Y-15.939 Z4.518 A162.9739 B-1.2054 
N1774 X223.098 Y-15.665 Z4.290 A163.2326 B-1.2105 
N1775 X223.082 Y-15.391 Z4.063 A163.5100 B-1.2160 
N1776 X223.066 Y-15.116 Z3.836 A163.8075 B-1.2218 
N1777 X223.051 Y-14.840 Z3.608 A164.1263 B-1.2281 
N1778 X223.035 Y-14.564 Z3.381 A164.4671 B-1.2349 
N1779 X223.019 Y-14.287 Z3.154 A164.8307 B-1.2420 
N1780 X223.003 Y-14.008 Z2.927 A165.2177 B-1.2497 
N1781 X222.987 Y-13.729 Z2.701 A165.6291 B-1.2577 
N1782 X222.971 Y-13.448 Z2.475 A166.0660 B-1.2663 
N1783 X222.955 Y-13.166 Z2.249 A166.5297 B-1.2753 
N1784 X222.939 Y-12.883 Z2.024 A167.0217 B-1.2848 
N1785 X222.923 Y-12.598 Z1.799 A167.5438 B-1.2949 
N1786 X222.907 Y-12.312 Z1.574 A168.0978 B-1.3055 
N1787 X222.890 Y-12.024 Z1.350 A168.6860 B-1.3168 
N1788 X222.874 Y-11.735 Z1.127 A169.3105 B-1.3286 
N1789 X222.858 Y-11.443 Z0.904 A169.9742 B-1.3411 
N1790 X222.841 Y-11.150 Z0.681 A170.6800 B-1.3543 
N1791 X222.825 Y-10.854 Z0.460 A171.4315 B-1.3683 
N1792 X222.808 Y-10.556 Z0.238 A172.2329 B-1.3830 
N1793 X222.791 Y-10.256 Z0.017 A173.0891 B-1.3986 
N1794 X222.775 Y-9.952 Z-0.203 A174.0053 B-1.4152 
N1795 X222.758 Y-9.646 Z-0.423 A174.9864 B-1.4328 
N1796 X222.741 Y-9.337 Z-0.643 A176.0363 B-1.4515 
N1797 X222.724 Y-9.023 Z-0.861 A177.1575 B-1.4713 
N1798 X222.707 Y-8.706 Z-1.078 A178.3509 B-1.4921 
N1799 X222.689 Y-8.385 Z-1.294 A179.6157 B-1.5138 
N1800 X222.672 Y-8.059 Z-1.507 A180.9495 B-1.5364 
N1801 X222.654 Y-7.727 Z-1.716 A182.3456 B-1.5599 
N1802 X222.637 Y-7.397 Z-1.918 A183.7894 B-1.5838 
N1803 X222.620 Y-7.080 Z-2.108 A185.2595 B-1.6071 
N1804 X222.604 Y-6.776 Z-2.287 A186.7440 B-1.6297 
N1805 X222.589 Y-6.483 Z-2.454 A188.2364 B-1.6516 
N1806 X222.574 Y-6.200 Z-2.611 A189.7331 B-1.6729 
N1807 X222.560 Y-5.926 Z-2.759 A191.2321 B-1.6934 
N1808 X222.546 Y-5.660 Z-2.898 A192.7326 B-1.7132 
N1809 X222.533 Y-5.401 Z-3.028 A194.2338 B-1.7323 
N1810 X222.520 Y-5.148 Z-3.151 A195.7356 B-1.7507 
N1811 X222.507 Y-4.900 Z-3.267 A197.2376 B-1.7682 
N1812 X222.495 Y-4.657 Z-3.376 A198.7399 B-1.7851 
N1813 X222.483 Y-4.418 Z-3.479 A200.2424 B-1.8012 
N1814 X222.471 Y-4.182 Z-3.576 A201.7451 B-1.8164 
N1815 X222.459 Y-3.949 Z-3.666 A203.2479 B-1.8309 
N1816 X222.448 Y-3.719 Z-3.751 A204.7508 B-1.8446 
N1817 X222.436 Y-3.491 Z-3.830 A206.2539 B-1.8574 
N1818 X222.424 Y-3.264 Z-3.903 A207.7570 B-1.8694 
N1819 X222.413 Y-3.039 Z-3.971 A209.2603 B-1.8806 
N1820 X222.401 Y-2.814 Z-4.033 A210.7637 B-1.8909 
N1821 X222.390 Y-2.591 Z-4.090 A212.2672 B-1.9004 
N1822 X222.378 Y-2.367 Z-4.142 A213.7708 B-1.9090 
N1823 X222.367 Y-2.144 Z-4.188 A215.2744 B-1.9168 
N1824 X222.355 Y-1.921 Z-4.229 A216.7782 B-1.9237 
N1825 X222.343 Y-1.698 Z-4.263 A218.2820 B-1.9297 
N1826 X222.331 Y-1.474 Z-4.293 A219.7859 B-1.9348 
N1827 X222.319 Y-1.249 Z-4.316 A221.2899 B-1.9391 
N1828 X222.307 Y-1.024 Z-4.333 A222.7939 B-1.9424 
N1829 X222.294 Y-0.798 Z-4.344 A224.2980 B-1.9449 
N1830 X222.281 Y-0.571 Z-4.349 A225.8021 B-1.9465 
N1831 X222.268 Y-0.342 Z-4.347 A227.3063 B-1.9472 
N1832 X222.255 Y-0.112 Z-4.338 A228.8105 B-1.9470 
N1833 X222.241 Y0.119 Z-4.323 A230.3147 B-1.9459 
N1834 X222.228 Y0.352 Z-4.300 A231.8190 B-1.9440 
N1835 X222.213 Y0.587 Z-4.269 A233.3233 B-1.9411 
N1836 X222.199 Y0.823 Z-4.230 A234.8275 B-1.9373 
N1837 X222.184 Y1.062 Z-4.183 A236.3318 B-1.9327 
N1838 X222.168 Y1.302 Z-4.127 A237.8361 B-1.9272 
N1839 X222.153 Y1.545 Z-4.062 A239.3404 B-1.9207 
N1840 X222.136 Y1.790 Z-3.988 A240.8446 B-1.9135 
N1841 X222.120 Y2.037 Z-3.903 A242.3488 B-1.9053 
N1842 X222.102 Y2.286 Z-3.807 A243.8530 B-1.8963 
N1843 X222.084 Y2.538 Z-3.700 A245.3572 B-1.8864 
N1844 X222.066 Y2.792 Z-3.580 A246.8613 B-1.8757 
N1845 X222.047 Y3.049 Z-3.449 A248.3653 B-1.8641 
N1846 X222.027 Y3.307 Z-3.303 A249.8693 B-1.8517 
N1847 X222.007 Y3.568 Z-3.144 A251.3733 B-1.8385 
N1848 X221.986 Y3.831 Z-2.969 A252.8771 B-1.8244 
N1849 X221.964 Y4.097 Z-2.778 A254.3809 B-1.8096 
N1850 X221.941 Y4.363 Z-2.571 A255.8846 B-1.7939 
N1851 X221.917 Y4.631 Z-2.347 A257.3882 B-1.7775 
N1852 X221.893 Y4.898 Z-2.107 A258.8917 B-1.7602 
N1853 X221.869 Y5.164 Z-1.853 A260.3951 B-1.7423 
N1854 X221.844 Y5.424 Z-1.588 A261.8983 B-1.7234 
N1855 X221.819 Y5.680 Z-1.312 A263.4013 B-1.7045 
N1856 X221.794 Y5.931 Z-1.025 A264.9040 B-1.6836 
N1857 X221.768 Y6.176 Z-0.726 A266.4062 B-1.6632 
N1858 X221.742 Y6.416 Z-0.414 A267.9076 B-1.6413 
N1859 X221.717 Y6.649 Z-0.094 A269.4083 B-1.6188 
N1860 X221.692 Y6.871 Z0.224 A270.9099 B-1.5967 
N1861 X221.668 Y7.078 Z0.531 A272.4118 B-1.5721 
N1862 X221.647 Y7.271 Z0.822 A273.9139 B-1.5492 
N1863 X221.626 Y7.451 Z1.097 A275.4160 B-1.5235 
N1864 X221.607 Y7.618 Z1.356 A276.9180 B-1.4984 
N1865 X221.589 Y7.773 Z1.595 A278.4200 B-1.4725 
N1866 X221.574 Y7.917 Z1.812 A279.9219 B-1.4461 
N1867 X221.559 Y8.052 Z2.014 A281.4236 B-1.4191 
N1868 X221.545 Y8.180 Z2.204 A282.9252 B-1.3907 
N1869 X221.533 Y8.301 Z2.382 A284.4267 B-1.3633 
N1870 X221.521 Y8.415 Z2.543 A285.9280 B-1.3348 
N1871 X221.511 Y8.524 Z2.688 A287.4292 B-1.3056 
N1872 X221.501 Y8.629 Z2.820 A288.9303 B-1.2763 
N1873 X221.492 Y8.730 Z2.940 A290.4313 B-1.2461 
N1874 X221.484 Y8.828 Z3.051 A291.9322 B-1.2162 
N1875 X221.476 Y8.924 Z3.155 A293.4330 B-1.1849 
N1876 X221.469 Y9.018 Z3.252 A294.9338 B-1.1548 
N1877 X221.462 Y9.110 Z3.344 A296.4348 B-1.1231 
N1878 X221.456 Y9.200 Z3.433 A297.9362 B-1.0907 
N1879 X221.449 Y9.289 Z3.519 A299.4384 B-1.0586 
N1880 X221.443 Y9.376 Z3.604 A300.9423 B-1.0269 
N1881 X221.437 Y9.462 Z3.688 A302.4492 B-0.9945 
N1882 X221.431 Y9.546 Z3.772 A303.9620 B-0.9617 
N1883 X221.425 Y9.630 Z3.856 A305.4858 B-0.9286 
N1884 X221.419 Y9.713 Z3.941 A307.0298 B-0.8953 
N1885 X221.413 Y9.796 Z4.028 A308.6114 B-0.8618 
N1886 X221.407 Y9.881 Z4.120 A310.2624 B-0.8275 
N1887 X221.400 Y9.969 Z4.222 A312.0322 B-0.7872 
N1888 X221.393 Y10.059 Z4.332 A313.9075 B-0.7450 
N1889 X221.386 Y10.151 Z4.449 A315.8776 B-0.7006 
N1890 X221.378 Y10.242 Z4.574 A317.9324 B-0.6542 
N1891 X221.370 Y10.332 Z4.705 A320.0616 B-0.6055 
N1892 X221.362 Y10.421 Z4.844 A322.2537 B-0.5547 
N1893 X221.354 Y10.506 Z4.988 A324.4967 B-0.5024 
N1894 X221.346 Y10.587 Z5.138 A326.7781 B-0.4501 
N1895 X221.338 Y10.663 Z5.292 A329.0856 B-0.3980 
N1896 X221.329 Y10.733 Z5.450 A331.4076 B-0.3462 
N1897 X221.321 Y10.797 Z5.611 A333.7333 B-0.2948 
N1898 X221.314 Y10.854 Z5.775 A336.0526 B-0.2439 
N1899 X221.306 Y10.904 Z5.939 A338.3567 B-0.1934 
N1900 X221.298 Y10.946 Z6.104 A340.6372 B-0.1443 
N1901 X221.291 Y10.982 Z6.268 A342.8866 B-0.0971 
N1902 X221.285 Y11.010 Z6.431 A345.0982 B-0.0517 
N1903 X221.278 Y11.031 Z6.592 A347.2654 B-0.0082 
N1904 X221.272 Y11.045 Z6.751 A349.3819 B0.0334 
N1905 X221.266 Y11.052 Z6.905 A351.4413 B0.0730 
N1906 X221.260 Y11.053 Z7.056 A353.4366 B0.1107 
N1907 X221.255 Y11.048 Z7.201 A355.3596 B0.1462 
N1908 X221.250 Y11.038 Z7.340 A357.1998 B0.1794 
N1909 X221.246 Y11.023 Z7.472 A358.9422 B0.2100 
N1910 X221.242 Y11.007 Z7.595 A0.5729 B0.2351 
N1911 X221.239 Y10.987 Z7.713 A2.1432 B0.2596 
N1912 X221.236 Y10.962 Z7.828 A3.6807 B0.2834 
N1913 X221.232 Y10.933 Z7.942 A5.2006 B0.3065 
N1914 X221.229 Y10.900 Z8.055 A6.7110 B0.3292 
N1915 X221.226 Y10.861 Z8.167 A8.2162 B0.3513 
N1916 X221.224 Y10.818 Z8.278 A9.7186 B0.3729 
N1917 X221.221 Y10.770 Z8.388 A11.2196 B0.3937 
N1918 X221.219 Y10.715 Z8.498 A12.7198 B0.4134 
N1919 X221.216 Y10.654 Z8.606 A14.2196 B0.4323 
N1920 X221.214 Y10.585 Z8.713 A15.7192 B0.4511 
N1921 X221.213 Y10.509 Z8.818 A17.2188 B0.4691 
N1922 X221.211 Y10.424 Z8.922 A18.7182 B0.4856 
N1923 X221.210 Y10.329 Z9.024 A20.2177 B0.5019 
N1924 X221.209 Y10.223 Z9.122 A21.7170 B0.5174 
N1925 X221.209 Y10.105 Z9.218 A23.2161 B0.5317 
N1926 X221.208 Y9.973 Z9.310 A24.7147 B0.5457 
N1927 X221.209 Y9.826 Z9.396 A26.2124 B0.5585 
N1928 X221.210 Y9.660 Z9.477 A27.7084 B0.5705 
N1929 X221.211 Y9.471 Z9.550 A29.2013 B0.5818 
N1930 X221.213 Y9.261 Z9.615 A30.6882 B0.5922 
N1931 X221.216 Y9.030 Z9.669 A32.1642 B0.6013 
N1932 X221.220 Y8.773 Z9.710 A33.6199 B0.6100 
N1933 X221.225 Y8.476 Z9.732 A35.0380 B0.6172 
N1934 X221.231 Y8.124 Z9.725 A36.3868 B0.6236 
N1935 X221.239 Y7.740 Z9.690 A37.6075 B0.6288 
N1936 X221.247 Y7.365 Z9.638 A38.6505 B0.6314 
N1937 X221.255 Y6.999 Z9.569 A39.5064 B0.6336 
N1938 X221.264 Y6.641 Z9.486 A40.1868 B0.6345 
N1939 X221.272 Y6.291 Z9.390 A40.7139 B0.6355 
N1940 X221.281 Y5.947 Z9.285 A41.1113 B0.6358 
N1941 X221.289 Y5.609 Z9.173 A41.3991 B0.6361 
N1942 X221.298 Y5.275 Z9.054 A41.5918 B0.6362 
N1943 X221.307 Y4.946 Z8.929 A41.6983 B0.6361 
N1944 X221.315 Y4.620 Z8.800 A41.7223 B0.6359 
N1945 X221.324 Y4.298 Z8.666 A41.6650 B0.6355 
N1946 X221.333 Y3.980 Z8.528 A41.5253 B0.6350 
N1947 X221.342 Y3.665 Z8.387 A41.3012 B0.6343 
N1948 X221.350 Y3.353 Z8.242 A40.9899 B0.6334 
N1949 X221.359 Y3.044 Z8.095 A40.5889 B0.6323 
N1950 X221.368 Y2.738 Z7.945 A40.0964 B0.6308 
N1951 X221.377 Y2.435 Z7.792 A39.5118 B0.6290 
N1952 X221.386 Y2.134 Z7.638 A38.8363 B0.6267 
N1953 X221.395 Y1.834 Z7.482 A38.0726 B0.6239 
N1954 X221.404 Y1.536 Z7.326 A37.2242 B0.6205 
N1955 X221.413 Y1.239 Z7.171 A36.2951 B0.6165 
N1956 X221.422 Y0.943 Z7.015 A35.2894 B0.6118 
N1957 X221.432 Y0.646 Z6.861 A34.2113 B0.6063 
N1958 X221.441 Y0.349 Z6.709 A33.0657 B0.5999 
N1959 X221.450 Y0.051 Z6.559 A31.8583 B0.5926 
N1960 X221.459 Y-0.249 Z6.412 A30.5964 B0.5843 
N1961 X221.469 Y-0.550 Z6.270 A29.2886 B0.5751 
N1962 X221.478 Y-0.853 Z6.132 A27.9449 B0.5649 
N1963 X221.487 Y-1.158 Z6.000 A26.5766 B0.5539 
N1964 X221.496 Y-1.465 Z5.875 A25.1964 B0.5422 
N1965 X221.506 Y-1.774 Z5.758 A23.8191 B0.5301 
N1966 X221.515 Y-2.085 Z5.650 A22.4608 B0.5177 
N1967 X221.524 Y-2.398 Z5.553 A21.1377 B0.5053 
N1968 X221.533 Y-2.711 Z5.466 A19.8622 B0.4931 
N1969 X221.541 Y-3.025 Z5.390 A18.6377 B0.4810 
N1970 X221.550 Y-3.340 Z5.325 A17.4554 B0.4686 
N1971 X221.559 Y-3.657 Z5.269 A16.2950 B0.4554 
N1972 X221.567 Y-3.976 Z5.221 A15.1331 B0.4411 
N1973 X221.575 Y-4.298 Z5.179 A13.9534 B0.4253 
N1974 X221.583 Y-4.623 Z5.143 A12.7527 B0.4082 
N1975 X221.591 Y-4.951 Z5.114 A11.5379 B0.3901 
N1976 X221.598 Y-5.283 Z5.091 A10.3167 B0.3713 
N1977 X221.605 Y-5.617 Z5.076 A9.0923 B0.3520 
N1978 X221.612 Y-5.953 Z5.068 A7.8637 B0.3324 
N1979 X221.619 Y-6.293 Z5.068 A6.6330 B0.3127 
N1980 X221.625 Y-6.634 Z5.074 A5.4106 B0.2931 
N1981 X221.632 Y-6.977 Z5.089 A4.2154 B0.2741 
N1982 X221.637 Y-7.319 Z5.114 A3.0692 B0.2558 
N1983 X221.643 Y-7.660 Z5.148 A1.9903 B0.2387 
N1984 X221.648 Y-7.998 Z5.193 A0.9882 B0.2226 
N1985 X221.653 Y-8.334 Z5.247 A0.0631 B0.2075 
N1986 X221.658 Y-8.667 Z5.311 A359.2080 B0.1933 
N1987 X221.663 Y-8.998 Z5.383 A358.4124 B0.1799 
N1988 X221.667 Y-9.327 Z5.462 A357.6658 B0.1670 
N1989 X221.671 Y-9.654 Z5.548 A356.9597 B0.1546 
N1990 X221.675 Y-9.979 Z5.640 A356.2889 B0.1425 
N1991 X221.678 Y-10.303 Z5.739 A355.6527 B0.1308 
N1992 X221.682 Y-10.626 Z5.843 A355.0537 B0.1197 
N1993 X221.685 Y-10.947 Z5.954 A354.4959 B0.1093 
N1994 X221.688 Y-11.267 Z6.071 A353.9823 B0.0997 
N1995 X221.690 Y-11.585 Z6.194 A353.5137 B0.0910 
N1996 X221.693 Y-11.902 Z6.322 A353.0887 B0.0830 
N1997 X221.695 Y-12.213 Z6.453 A352.7083 B0.0755 
N1998 X221.697 Y-12.480 Z6.568 A352.3792 B0.0691 
N1999 X221.698 Y-12.691 Z6.658 A352.1047 B0.0639 
N2000 X221.699 Y-12.857 Z6.731 A351.8829 B0.0598 
N2001 X221.700 Y-12.992 Z6.790 A351.7120 B0.0563 
N2002 X221.701 Y-13.101 Z6.841 A351.5965 B0.0534 
N2003 X221.701 Y-13.184 Z6.883 A351.5518 B0.0513 
N2004 X221.702 Y-13.252 Z6.924 A351.6054 B0.0502 
N2005 X221.702 Y-13.302 Z6.967 A351.8047 B0.0509 
N2006 X221.701 Y-13.341 Z7.020 A352.2192 B0.0547 
N2007 X221.700 Y-13.368 Z7.089 A352.9404 B0.0644 
N2008 X221.698 Y-13.385 Z7.183 A354.0713 B0.0838 
N2009 X221.693 Y-13.391 Z7.342 A356.1747 B0.1180 
N2010 X221.685 Y-13.397 Z7.593 A359.5943 B0.1810 
N2011 X221.670 Y-13.428 Z8.062 A6.1269 B0.3077 
N2012 X221.649 Y-13.569 Z8.777 A16.3358 B0.5065 
N2013 X221.630 Y-13.921 Z9.633 A29.3420 B0.7631 
N2014 X221.622 Y-14.464 Z10.394 A42.5070 B0.8990 
N2015 X221.624 Y-15.145 Z10.997 A55.3167 B0.9227 
N2016 X221.635 Y-15.914 Z11.420 A67.6691 B0.8620 
N2017 X221.652 Y-16.725 Z11.666 A79.5961 B0.7500 
N2018 X221.674 Y-17.579 Z11.739 A91.6539 B0.5843 
N2019 X221.706 Y-18.467 Z11.621 A104.2513 B0.3395 
N2020 X221.746 Y-19.341 Z11.297 A117.3590 B0.0124 
N2021 X221.793 Y-20.128 Z10.775 A130.6532 B-0.3962 
N2022 X221.832 Y-20.751 Z10.114 A143.4306 B-0.7732 
N2023 X221.856 Y-21.061 Z9.618 A151.6107 B-0.9607 
N2024 X221.868 Y-21.185 Z9.336 A155.8666 B-1.0488 
N2025 X221.874 Y-21.229 Z9.185 A157.9578 B-1.0922 
N2026 X221.876 Y-21.240 Z9.099 A159.0282 B-1.1148 
N2027 X221.877 Y-21.234 Z9.035 A159.6915 B-1.1301 
N2028 X221.876 Y-21.214 Z8.990 A160.0108 B-1.1364 
N2029 X221.875 Y-21.183 Z8.949 A160.1845 B-1.1418 
N2030 X221.873 Y-21.141 Z8.903 A160.3095 B-1.1444 
N2031 X221.869 Y-21.084 Z8.849 A160.3934 B-1.1446 
N2032 X221.865 Y-21.011 Z8.784 A160.4495 B-1.1458 
N2033 X221.860 Y-20.920 Z8.705 A160.4906 B-1.1456 
N2034 X221.853 Y-20.805 Z8.608 A160.5265 B-1.1458 
N2035 X221.845 Y-20.662 Z8.487 A160.5636 B-1.1464 
N2036 X221.835 Y-20.485 Z8.337 A160.6061 B-1.1473 
N2037 X221.822 Y-20.261 Z8.149 A160.6565 B-1.1476 
N2038 X221.806 Y-19.994 Z7.925 A160.7159 B-1.1494 
N2039 X221.791 Y-19.725 Z7.699 A160.7841 B-1.1499 
N2040 X221.775 Y-19.456 Z7.473 A160.8617 B-1.1515 
N2041 X221.760 Y-19.187 Z7.247 A160.9500 B-1.1535 
N2042 X221.744 Y-18.917 Z7.020 A161.0500 B-1.1549 
N2043 X221.729 Y-18.648 Z6.793 A161.1622 B-1.1577 
N2044 X221.713 Y-18.379 Z6.566 A161.2870 B-1.1597 
N2045 X221.698 Y-18.109 Z6.339 A161.4242 B-1.1625 
N2046 X221.682 Y-17.839 Z6.111 A161.5736 B-1.1654 
N2047 X221.667 Y-17.569 Z5.883 A161.7352 B-1.1685 
N2048 X221.651 Y-17.299 Z5.655 A161.9091 B-1.1719 
N2049 X221.636 Y-17.028 Z5.428 A162.0953 B-1.1756 
N2050 X221.620 Y-16.756 Z5.200 A162.2942 B-1.1795 
N2051 X221.605 Y-16.484 Z4.973 A162.5063 B-1.1836 
N2052 X221.589 Y-16.212 Z4.745 A162.7326 B-1.1880 
N2053 X221.573 Y-15.939 Z4.518 A162.9743 B-1.1927 
N2054 X221.558 Y-15.665 Z4.290 A163.2330 B-1.1977 
N2055 X221.542 Y-15.391 Z4.063 A163.5104 B-1.2031 
N2056 X221.527 Y-15.116 Z3.836 A163.8080 B-1.2088 
N2057 X221.511 Y-14.840 Z3.608 A164.1267 B-1.2151 
N2058 X221.495 Y-14.564 Z3.381 A164.4676 B-1.2217 
N2059 X221.480 Y-14.286 Z3.154 A164.8312 B-1.2288 
N2060 X221.464 Y-14.008 Z2.927 A165.2183 B-1.2363 
N2061 X221.448 Y-13.729 Z2.701 A165.6297 B-1.2443 
N2062 X221.432 Y-13.448 Z2.475 A166.0666 B-1.2527 
N2063 X221.416 Y-13.166 Z2.249 A166.5303 B-1.2616 
N2064 X221.400 Y-12.883 Z2.024 A167.0224 B-1.2710 
N2065 X221.384 Y-12.598 Z1.799 A167.5445 B-1.2809 
N2066 X221.368 Y-12.312 Z1.574 A168.0986 B-1.2914 
N2067 X221.352 Y-12.024 Z1.350 A168.6868 B-1.3025 
N2068 X221.336 Y-11.735 Z1.127 A169.3114 B-1.3142 
