N11 ; ORDER       : 44444
N12 ; OPER. NAME  : Flank Milling Transition:146
N13 ; OPER. DESCR.: finish flank root/promienie przejsc wyk
N14 ; OPER. TYPE  : preFinFlank
N15 ; GEO. OPTION : 2
N16 ; MACHINE     : SH_HX151_24_SIM840D
N17 ;             : STARRAG_HECKERT_5axis_finish_milling_machine
N18 ; CONTROL     : SINUMERIK 840D
N19 ; created:   2022-11-03 13:37:30.796406
;-------DODATKOWE DANE-------------------
; PROGRAMISTA : Mariusz Malec
; PARTID      : 139T004654P1015_-
;  dec_value  : 0.7
;  lean_angle : 10.0
;  tilt_angle : 0.0
;  airf_offset: 0.05
;  firstoffset: 1.5
;----------------------------------------
N20 ;----------------------------------------
RAPORT("T44444","Flank Milling Transition:146")
N21 TRAFOOF
N22 D0
N23 G90 G94
N24 STOPRE
N25 M9 ; chlodziwo wyl
N26 ; --- Flank Milling Transition:146 - finish flank root/promienie przejsc wyk ---
N28 ;ToolChange : concat=None ,current_tdmid=None, PP.tdmId=940783
N29 MSG(" TLID=940783 D=3.86 R=2.3 Ang=10.0 Len=175.0 ")
N30 TRAFOOF
N31 D0
N32 G0 G53 Z290 B0
N33 G0 X200
N34 G0 Y150
N35 T="7740783"
N36 G0 X500
RAPORT("T44444","ToolChangeStart 7740783")
N37 M6
RAPORT("T44444","ToolChangeEnd")
N38 ; (Preloading tool)
N39 T="7741084"
N40 G0 X200
N41 STOPRE
N42 S9978 M03
N43 STOPRE
N44 TOL(0.001,1,1)
N45 G0 X192.461 A148.8159
N46 TRAORI
N47 G54 D3
N48 D3 
N49 TRANS  X=R9 A=R25
STOPRE
E_ZDARZ=300017
;ACS_FINISH_UBG_PLATFORM_XLB_ROOT=7740783
STOPRE
N50 ; DELTA A > 40.1
N51 TRAFOOF
N52 STOPRE
N53 G0 G53 D0 Z265.000
N54 G1 G53 A148.8159 F10000
N55 TRAORI
N56 G54 D3
N57 TRANS  X=R9 A=R25
N58 G00 X192.461 Y-58.115 Z-34.262 A148.8159 B16.6941 
N59 M342 ; chlodziwo woda
N60 X181.458 Y-31.978 Z6.918 
N61 G01 X181.534 Y-29.550 Z8.889 F878 
N62 X181.755 Y-26.641 Z10.021 
N63 X182.099 Y-23.537 Z10.201 
N64 X182.532 Y-20.540 Z9.412 
N65 M342 ; chlodziwo woda
N66 X183.012 Y-17.945 Z7.731 
N67 X183.019 Y-17.935 Z7.715 A149.6007 B16.7190 
N68 X183.028 Y-17.917 Z7.691 A150.3700 B16.7416 
N69 X183.040 Y-17.882 Z7.656 A150.9704 B16.7562 
N70 X183.055 Y-17.826 Z7.606 A151.2685 B16.7585 
N71 X183.074 Y-17.744 Z7.537 A151.3710 B16.7517 
N72 X183.096 Y-17.642 Z7.453 A151.4040 B16.7406 
N73 X183.124 Y-17.513 Z7.347 A151.4300 B16.7258 
N74 X183.159 Y-17.343 Z7.206 A151.4666 B16.7065 
N75 X183.200 Y-17.135 Z7.035 A151.5154 B16.6829 
N76 X183.243 Y-16.907 Z6.847 A151.5718 B16.6569 
N77 X183.283 Y-16.678 Z6.659 A151.6310 B16.6309 
N78 X183.320 Y-16.448 Z6.472 A151.6940 B16.6049 
N79 X183.356 Y-16.219 Z6.284 A151.7624 B16.5788 
N80 X183.388 Y-15.989 Z6.096 A151.8378 B16.5527 
N81 X183.419 Y-15.760 Z5.909 A151.9217 B16.5266 
N82 X183.446 Y-15.530 Z5.722 A152.0150 B16.5006 
N83 X183.471 Y-15.300 Z5.536 A152.1179 B16.4745 
N84 X183.495 Y-15.069 Z5.350 A152.2301 B16.4484 
N85 X183.516 Y-14.839 Z5.164 A152.3514 B16.4221 
N86 X183.535 Y-14.609 Z4.979 A152.4812 B16.3957 
N87 X183.551 Y-14.378 Z4.795 A152.6194 B16.3692 
N88 X183.565 Y-14.147 Z4.611 A152.7660 B16.3424 
N89 X183.577 Y-13.915 Z4.428 A152.9209 B16.3154 
N90 X183.586 Y-13.684 Z4.245 A153.0840 B16.2881 
N91 X183.593 Y-13.452 Z4.064 A153.2555 B16.2606 
N92 X183.598 Y-13.220 Z3.883 A153.4352 B16.2322 
N93 X183.602 Y-12.987 Z3.703 A153.6233 B16.2022 
N94 X183.607 Y-12.755 Z3.524 A153.8207 B16.1717 
N95 X183.611 Y-12.522 Z3.345 A154.0282 B16.1408 
N96 X183.615 Y-12.289 Z3.168 A154.2470 B16.1093 
N97 X183.619 Y-12.055 Z2.992 A154.4785 B16.0772 
N98 X183.622 Y-11.822 Z2.817 A154.7236 B16.0445 
N99 X183.625 Y-11.588 Z2.644 A154.9829 B16.0111 
N100 X183.628 Y-11.353 Z2.471 A155.2570 B15.9769 
N101 X183.630 Y-11.119 Z2.300 A155.5457 B15.9419 
N102 X183.632 Y-10.884 Z2.131 A155.8492 B15.9060 
N103 X183.633 Y-10.649 Z1.963 A156.1673 B15.8691 
N104 X183.635 Y-10.413 Z1.796 A156.5005 B15.8311 
N105 X183.637 Y-10.177 Z1.632 A156.8490 B15.7921 
N106 X183.638 Y-9.940 Z1.468 A157.2134 B15.7518 
N107 X183.639 Y-9.703 Z1.307 A157.5944 B15.7102 
N108 X183.639 Y-9.466 Z1.148 A157.9925 B15.6672 
N109 X183.639 Y-9.228 Z0.990 A158.4085 B15.6227 
N110 X183.638 Y-8.989 Z0.834 A158.8431 B15.5766 
N111 X183.638 Y-8.750 Z0.681 A159.2972 B15.5288 
N112 X183.637 Y-8.511 Z0.530 A159.7714 B15.4792 
N113 X183.636 Y-8.271 Z0.381 A160.2675 B15.4330 
N114 X183.634 Y-8.031 Z0.234 A160.7864 B15.3900 
N115 X183.632 Y-7.790 Z0.090 A161.3283 B15.3454 
N116 X183.629 Y-7.548 Z-0.051 A161.8944 B15.2993 
N117 X183.627 Y-7.306 Z-0.189 A162.4859 B15.2514 
N118 X183.624 Y-7.064 Z-0.325 A163.1043 B15.2016 
N119 X183.621 Y-6.821 Z-0.458 A163.7519 B15.1499 
N120 X183.617 Y-6.578 Z-0.587 A164.4308 B15.0961 
N121 X183.613 Y-6.335 Z-0.713 A165.1436 B15.0400 
N122 X183.609 Y-6.091 Z-0.836 A165.8927 B14.9814 
N123 X183.605 Y-5.847 Z-0.955 A166.6794 B14.9202 
N124 X183.600 Y-5.603 Z-1.070 A167.5046 B14.8564 
N125 X183.595 Y-5.359 Z-1.181 A168.3681 B14.7898 
N126 X183.590 Y-5.114 Z-1.288 A169.2694 B14.7203 
N127 X183.585 Y-4.869 Z-1.391 A170.2080 B14.6479 
N128 X183.579 Y-4.635 Z-1.485 A171.1421 B14.5703 
N129 X183.573 Y-4.435 Z-1.562 A171.9631 B14.5018 
N130 X183.565 Y-4.255 Z-1.628 A172.7227 B14.4384 
N131 X183.555 Y-4.062 Z-1.696 A173.5604 B14.3685 
N132 X183.542 Y-3.868 Z-1.762 A174.4309 B14.2958 
N133 X183.527 Y-3.674 Z-1.825 A175.3284 B14.2210 
N134 X183.510 Y-3.471 Z-1.887 A176.2973 B14.1403 
N135 X183.493 Y-3.270 Z-1.945 A177.2835 B14.0583 
N136 X183.475 Y-3.080 Z-1.996 A178.2505 B13.9781 
N137 X183.458 Y-2.892 Z-2.044 A179.2358 B13.8965 
N138 X183.440 Y-2.708 Z-2.087 A180.2321 B13.8142 
N139 X183.423 Y-2.529 Z-2.126 A181.2263 B13.7323 
N140 X183.407 Y-2.356 Z-2.161 A182.2166 B13.6510 
N141 X183.392 Y-2.189 Z-2.192 A183.1993 B13.5706 
N142 X183.378 Y-2.027 Z-2.219 A184.1728 B13.4912 
N143 X183.365 Y-1.871 Z-2.242 A185.1375 B13.4129 
N144 X183.354 Y-1.720 Z-2.262 A186.0935 B13.3356 
N145 X183.344 Y-1.574 Z-2.280 A187.0435 B13.2592 
N146 X183.335 Y-1.431 Z-2.294 A187.9876 B13.1836 
N147 X183.327 Y-1.292 Z-2.306 A188.9234 B13.1090 
N148 X183.320 Y-1.158 Z-2.316 A189.8493 B13.0356 
N149 X183.315 Y-1.026 Z-2.323 A190.7726 B12.9629 
N150 X183.311 Y-0.895 Z-2.328 A191.7133 B12.8892 
N151 X183.307 Y-0.763 Z-2.331 A192.6691 B12.8148 
N152 X183.305 Y-0.636 Z-2.332 A193.6146 B12.7418 
N153 X183.303 Y-0.514 Z-2.331 A194.5295 B12.6716 
N154 X183.303 Y-0.398 Z-2.328 A195.4151 B12.6041 
N155 X183.304 Y-0.280 Z-2.324 A196.3241 B12.5355 
N156 X183.305 Y-0.160 Z-2.317 A197.2685 B12.4647 
N157 X183.308 Y-0.039 Z-2.308 A198.2367 B12.3927 
N158 X183.311 Y0.082 Z-2.298 A199.2076 B12.3213 
N159 X183.314 Y0.201 Z-2.286 A200.1772 B12.2507 
N160 X183.318 Y0.318 Z-2.271 A201.1468 B12.1807 
N161 X183.322 Y0.435 Z-2.255 A202.1233 B12.1111 
N162 X183.327 Y0.551 Z-2.237 A203.1051 B12.0419 
N163 X183.332 Y0.666 Z-2.217 A204.0903 B11.9732 
N164 X183.337 Y0.781 Z-2.195 A205.0783 B11.9053 
N165 X183.342 Y0.894 Z-2.172 A206.0658 B11.8383 
N166 X183.347 Y1.006 Z-2.146 A207.0504 B11.7723 
N167 X183.351 Y1.117 Z-2.119 A208.0302 B11.7077 
N168 X183.355 Y1.226 Z-2.090 A209.0018 B11.6445 
N169 X183.359 Y1.333 Z-2.060 A209.9619 B11.5830 
N170 X183.362 Y1.438 Z-2.029 A210.9065 B11.5235 
N171 X183.363 Y1.540 Z-1.997 A211.8321 B11.4661 
N172 X183.364 Y1.639 Z-1.964 A212.7388 B11.4108 
N173 X183.364 Y1.737 Z-1.929 A213.6343 B11.3570 
N174 X183.363 Y1.833 Z-1.894 A214.5180 B11.3049 
N175 X183.360 Y1.928 Z-1.857 A215.3934 B11.2542 
N176 X183.357 Y2.028 Z-1.816 A216.3188 B11.2015 
N177 X183.352 Y2.133 Z-1.771 A217.2946 B11.1472 
N178 X183.347 Y2.239 Z-1.724 A218.2796 B11.0932 
N179 X183.343 Y2.344 Z-1.674 A219.2629 B11.0292 
N180 X183.339 Y2.450 Z-1.622 A220.2497 B10.9655 
N181 X183.335 Y2.556 Z-1.568 A221.2370 B10.9022 
N182 X183.331 Y2.662 Z-1.511 A222.2246 B10.8393 
N183 X183.327 Y2.768 Z-1.452 A223.2117 B10.7770 
N184 X183.323 Y2.874 Z-1.390 A224.1964 B10.7152 
N185 X183.319 Y2.980 Z-1.326 A225.1761 B10.6540 
N186 X183.314 Y3.087 Z-1.258 A226.1419 B10.5938 
N187 X183.310 Y3.195 Z-1.187 A227.0786 B10.5353 
N188 X183.306 Y3.304 Z-1.111 A227.9664 B10.4790 
N189 X183.302 Y3.415 Z-1.030 A228.7848 B10.4259 
N190 X183.297 Y3.529 Z-0.943 A229.5233 B10.3763 
N191 X183.293 Y3.644 Z-0.851 A230.1853 B10.3299 
N192 X183.288 Y3.762 Z-0.753 A230.7864 B10.2860 
N193 X183.284 Y3.880 Z-0.649 A231.3482 B10.2436 
N194 X183.279 Y3.999 Z-0.541 A231.8891 B10.2020 
N195 X183.274 Y4.119 Z-0.429 A232.4226 B10.1605 
N196 X183.270 Y4.238 Z-0.312 A232.9593 B10.1187 
N197 X183.265 Y4.357 Z-0.192 A233.5118 B10.0761 
N198 X183.262 Y4.476 Z-0.067 A234.0917 B9.9709 
N199 X183.263 Y4.593 Z0.061 A234.7135 B9.7402 
N200 X183.268 Y4.708 Z0.192 A235.3951 B9.3871 
N201 X183.277 Y4.820 Z0.325 A236.1478 B8.9098 
N202 X183.287 Y4.930 Z0.459 A236.9526 B8.3715 
N203 X183.295 Y5.032 Z0.588 A237.7445 B7.8558 
N204 X183.303 Y5.132 Z0.718 A238.5488 B7.2889 
N205 X183.311 Y5.231 Z0.852 A239.3570 B6.6670 
N206 X183.318 Y5.331 Z0.991 A240.1593 B5.9869 
N207 X183.325 Y5.430 Z1.134 A240.9519 B5.2487 
N208 X183.331 Y5.530 Z1.281 A241.7334 B4.4471 
N209 X183.337 Y5.629 Z1.434 A242.5050 B3.5806 
N210 X183.343 Y5.728 Z1.591 A243.2682 B2.6425 
N211 X183.349 Y5.826 Z1.753 A244.0249 B1.6268 
N212 X183.354 Y5.924 Z1.919 A244.7760 B0.5321 
N213 X183.360 Y6.022 Z2.090 A245.5217 B-0.6503 
N214 X183.366 Y6.119 Z2.264 A246.2616 B-1.9247 
N215 X183.362 Y6.214 Z2.441 A247.0265 B-2.9516 
N216 X183.338 Y6.306 Z2.619 A247.8444 B-3.4144 
N217 X183.311 Y6.397 Z2.802 A248.6615 B-3.8909 
N218 X183.283 Y6.485 Z2.988 A249.4762 B-4.3800 
N219 X183.252 Y6.573 Z3.178 A250.2900 B-4.8826 
N220 X183.218 Y6.659 Z3.375 A251.1069 B-5.4012 
N221 X183.182 Y6.743 Z3.573 A251.9116 B-5.9256 
N222 X183.144 Y6.824 Z3.774 A252.7064 B-6.4561 
N223 X183.100 Y6.909 Z3.995 A253.5671 B-7.0434 
N224 X183.055 Y6.989 Z4.215 A254.4178 B-7.6327 
N225 X183.014 Y7.055 Z4.407 A255.1751 B-8.1605 
N226 X182.970 Y7.122 Z4.610 A255.9931 B-8.7332 
N227 X182.923 Y7.187 Z4.819 A256.8595 B-9.3393 
N228 X182.876 Y7.245 Z5.019 A257.7258 B-9.9421 
N229 X182.830 Y7.298 Z5.215 A258.6121 B-10.5541 
N230 X182.785 Y7.345 Z5.406 A259.5158 B-11.1720 
N231 X182.741 Y7.388 Z5.590 A260.4361 B-11.7934 
N232 X182.698 Y7.425 Z5.767 A261.3748 B-12.4167 
N233 X182.658 Y7.456 Z5.933 A262.3332 B-13.0388 
N234 X182.620 Y7.482 Z6.088 A263.3103 B-13.6569 
N235 X182.586 Y7.503 Z6.232 A264.3038 B-14.2698 
N236 X182.553 Y7.521 Z6.368 A265.3114 B-14.8776 
N237 X182.523 Y7.534 Z6.497 A266.3283 B-15.4780 
N238 X182.496 Y7.544 Z6.615 A267.3288 B-16.0542 
N239 X182.473 Y7.550 Z6.709 A268.2192 B-16.5533 
N240 X182.455 Y7.554 Z6.792 A269.0782 B-17.0209 
N241 X182.435 Y7.556 Z6.883 A270.1203 B-17.5711 
N242 X182.418 Y7.556 Z6.965 A271.1894 B-18.1167 
N243 X182.404 Y7.554 Z7.037 A272.2694 B-18.6489 
N244 X182.392 Y7.551 Z7.101 A273.3532 B-19.1647 
N245 X182.383 Y7.547 Z7.158 A274.4486 B-19.6681 
N246 X182.375 Y7.543 Z7.208 A275.5641 B-20.1631 
N247 X182.369 Y7.538 Z7.248 A276.5976 B-20.6057 
N248 X182.366 Y7.534 Z7.281 A277.5733 B-21.0098 
N249 X182.364 Y7.529 Z7.314 A278.6799 B-21.4751 
N250 X182.366 Y7.525 Z7.345 A279.8494 B-22.0765 
N251 X182.368 Y7.521 Z7.372 A281.0151 B-22.6347 
N252 X182.371 Y7.518 Z7.393 A282.1454 B-23.1408 
N253 X182.373 Y7.514 Z7.411 A283.2569 B-23.6081 
N254 X182.376 Y7.511 Z7.427 A284.3783 B-24.0516 
N255 X182.379 Y7.509 Z7.440 A285.5077 B-24.4723 
N256 X182.382 Y7.507 Z7.450 A286.6460 B-24.8718 
N257 X182.386 Y7.505 Z7.459 A287.7997 B-25.2532 
N258 X182.389 Y7.503 Z7.466 A288.9667 B-25.6163 
N259 X182.392 Y7.503 Z7.471 A290.1445 B-25.9608 
N260 X182.395 Y7.502 Z7.475 A291.3286 B-26.2859 
N261 X182.399 Y7.502 Z7.477 A292.5033 B-26.5880 
N262 X182.401 Y7.503 Z7.478 A293.6637 B-26.8673 
N263 X182.404 Y7.504 Z7.478 A294.8078 B-27.1244 
N264 X182.407 Y7.506 Z7.477 A295.9353 B-27.3604 
N265 X182.409 Y7.508 Z7.475 A297.0455 B-27.5763 
N266 X182.412 Y7.511 Z7.473 A298.1669 B-27.7780 
N267 X182.414 Y7.514 Z7.470 A299.3053 B-27.9661 
N268 X182.416 Y7.518 Z7.466 A300.4556 B-28.1393 
N269 X182.418 Y7.522 Z7.461 A301.6167 B-28.2972 
N270 X182.420 Y7.527 Z7.456 A302.7874 B-28.4392 
N271 X182.422 Y7.533 Z7.451 A303.9668 B-28.5648 
N272 X182.423 Y7.539 Z7.445 A305.1395 B-28.6724 
N273 X182.424 Y7.545 Z7.439 A306.2760 B-28.7602 
N274 X182.425 Y7.552 Z7.433 A307.4092 B-28.8317 
N275 X182.425 Y7.559 Z7.426 A308.5380 B-28.8868 
N276 X182.425 Y7.566 Z7.420 A309.6610 B-28.9257 
N277 X182.425 Y7.574 Z7.413 A310.7774 B-28.9485 
N278 X182.425 Y7.583 Z7.406 A311.8864 B-28.9554 
N279 X182.424 Y7.591 Z7.399 A312.9956 B-28.9465 
N280 X182.423 Y7.602 Z7.393 A314.1397 B-28.9207 
N281 X182.421 Y7.611 Z7.386 A315.3016 B-28.8769 
N282 X182.419 Y7.622 Z7.379 A316.4613 B-28.8155 
N283 X182.417 Y7.632 Z7.372 A317.6178 B-28.7365 
N284 X182.414 Y7.643 Z7.365 A318.7704 B-28.6399 
N285 X182.411 Y7.654 Z7.359 A319.9182 B-28.5257 
N286 X182.408 Y7.666 Z7.353 A321.0604 B-28.3942 
N287 X182.404 Y7.678 Z7.348 A322.1964 B-28.2453 
N288 X182.400 Y7.690 Z7.342 A323.3332 B-28.0782 
N289 X182.395 Y7.703 Z7.338 A324.4665 B-27.8932 
N290 X182.390 Y7.714 Z7.333 A325.5915 B-27.6913 
N291 X182.385 Y7.727 Z7.329 A326.7076 B-27.4726 
N292 X182.379 Y7.739 Z7.325 A327.8142 B-27.2376 
N293 X182.373 Y7.751 Z7.322 A328.9107 B-26.9865 
N294 X182.367 Y7.764 Z7.320 A329.9968 B-26.7196 
N295 X182.360 Y7.776 Z7.318 A331.0720 B-26.4374 
N296 X182.353 Y7.788 Z7.317 A332.1332 B-26.1410 
N297 X182.346 Y7.799 Z7.317 A333.1692 B-25.8342 
N298 X182.339 Y7.810 Z7.317 A334.1936 B-25.5137 
N299 X182.331 Y7.821 Z7.317 A335.2064 B-25.1797 
N300 X182.324 Y7.832 Z7.319 A336.2073 B-24.8327 
N301 X182.315 Y7.842 Z7.321 A337.2020 B-24.4708 
N302 X182.307 Y7.852 Z7.323 A338.1962 B-24.0919 
N303 X182.298 Y7.862 Z7.326 A339.1892 B-23.6958 
N304 X182.289 Y7.872 Z7.330 A340.1816 B-23.2821 
N305 X182.280 Y7.880 Z7.335 A341.1819 B-22.8464 
N306 X182.270 Y7.889 Z7.341 A342.1896 B-22.3884 
N307 X182.259 Y7.897 Z7.347 A343.2012 B-21.9086 
N308 X182.248 Y7.904 Z7.354 A344.2125 B-21.4085 
N309 X182.236 Y7.911 Z7.362 A345.2187 B-20.8901 
N310 X182.224 Y7.916 Z7.371 A346.2145 B-20.3560 
N311 X182.211 Y7.921 Z7.380 A347.1972 B-19.8077 
N312 X182.198 Y7.925 Z7.390 A348.1724 B-19.2421 
N313 X182.184 Y7.928 Z7.401 A349.1370 B-18.6605 
N314 X182.169 Y7.930 Z7.412 A350.0865 B-18.0657 
N315 X182.155 Y7.930 Z7.424 A351.0167 B-17.4603 
N316 X182.140 Y7.930 Z7.436 A351.9238 B-16.8473 
N317 X182.125 Y7.928 Z7.449 A352.8062 B-16.2282 
N318 X182.110 Y7.926 Z7.462 A353.6775 B-15.5993 
N319 X182.096 Y7.922 Z7.475 A354.5436 B-14.9674 
N320 X182.082 Y7.917 Z7.489 A355.4043 B-14.3341 
N321 X182.068 Y7.911 Z7.504 A356.2589 B-13.7004 
N322 X182.054 Y7.904 Z7.519 A357.1069 B-13.0672 
N323 X182.041 Y7.896 Z7.534 A357.9485 B-12.4350 
N324 X182.029 Y7.886 Z7.550 A358.7845 B-11.8038 
N325 X182.017 Y7.875 Z7.566 A359.6139 B-11.1747 
N326 X182.006 Y7.862 Z7.582 A0.4357 B-10.5490 
N327 X181.995 Y7.849 Z7.598 A1.2487 B-9.9281 
N328 X181.986 Y7.833 Z7.615 A2.0580 B-9.3084 
N329 X181.977 Y7.816 Z7.632 A2.8674 B-8.6872 
N330 X181.969 Y7.797 Z7.649 A3.6758 B-8.0657 
N331 X181.962 Y7.776 Z7.667 A4.4818 B-7.4450 
N332 X181.956 Y7.753 Z7.684 A5.2853 B-6.8254 
N333 X181.951 Y7.727 Z7.702 A6.0855 B-6.2075 
N334 X181.947 Y7.699 Z7.720 A6.8806 B-5.5925 
N335 X181.945 Y7.667 Z7.737 A7.6690 B-4.9819 
N336 X181.944 Y7.632 Z7.755 A8.4497 B-4.3768 
N337 X181.945 Y7.594 Z7.772 A9.2241 B-3.7766 
N338 X181.948 Y7.553 Z7.789 A9.9965 B-3.1782 
N339 X181.953 Y7.507 Z7.805 A10.7702 B-2.5799 
N340 X181.959 Y7.457 Z7.821 A11.5563 B-1.9735 
N341 X181.968 Y7.401 Z7.837 A12.3642 B-1.3523 
N342 X181.980 Y7.340 Z7.852 A13.1833 B-0.7253 
N343 X181.995 Y7.272 Z7.865 A14.0111 B-0.0949 
N344 X182.012 Y7.197 Z7.878 A14.8521 B0.5417 
N345 X182.033 Y7.114 Z7.888 A15.7104 B1.1871 
N346 X182.058 Y7.022 Z7.896 A16.5746 B1.8322 
N347 X182.088 Y6.920 Z7.902 A17.4473 B2.4787 
N348 X182.123 Y6.805 Z7.904 A18.3441 B3.1372 
N349 X182.163 Y6.678 Z7.901 A19.2526 B3.7954 
N350 X182.202 Y6.557 Z7.896 A20.0638 B4.3726 
N351 X182.243 Y6.426 Z7.886 A20.8959 B4.9514 
N352 X182.292 Y6.278 Z7.871 A21.7905 B5.5593 
N353 X182.345 Y6.120 Z7.851 A22.6749 B6.1462 
N354 X182.401 Y5.951 Z7.824 A23.5386 B6.7075 
N355 X182.458 Y5.777 Z7.792 A24.3455 B7.2214 
N356 X182.516 Y5.596 Z7.754 A25.1078 B7.6964 
N357 X182.574 Y5.409 Z7.711 A25.8346 B8.1384 
N358 X182.630 Y5.225 Z7.664 A26.4903 B8.5274 
N359 X182.683 Y5.042 Z7.615 A27.0897 B8.8748 
N360 X182.734 Y4.860 Z7.562 A27.6393 B9.1869 
N361 X182.782 Y4.677 Z7.507 A28.1409 B9.4669 
N362 X182.828 Y4.490 Z7.448 A28.6045 B9.7225 
N363 X182.871 Y4.306 Z7.387 A29.0170 B9.9483 
N364 X182.907 Y4.140 Z7.331 A29.3517 B10.1309 
N365 X182.943 Y3.960 Z7.268 A29.6807 B10.3104 
N366 X182.986 Y3.733 Z7.187 A30.0517 B10.5140 
N367 X183.033 Y3.466 Z7.089 A30.4311 B10.7252 
N368 X183.078 Y3.187 Z6.983 A30.7737 B10.9202 
N369 X183.120 Y2.898 Z6.872 A31.0797 B11.0840 
N370 X183.157 Y2.607 Z6.759 A31.3405 B11.2302 
N371 X183.190 Y2.314 Z6.644 A31.5565 B11.3622 
N372 X183.217 Y2.019 Z6.527 A31.7256 B11.4826 
N373 X183.240 Y1.722 Z6.408 A31.8451 B11.5940 
N374 X183.257 Y1.423 Z6.289 A31.9113 B11.6994 
N375 X183.269 Y1.122 Z6.169 A31.9205 B11.8021 
N376 X183.277 Y0.828 Z6.052 A31.7792 B11.8550 
N377 X183.288 Y0.540 Z5.937 A31.4929 B11.8064 
N378 X183.298 Y0.248 Z5.822 A31.1300 B11.7547 
N379 X183.309 Y-0.047 Z5.707 A30.6855 B11.6999 
N380 X183.320 Y-0.346 Z5.593 A30.1557 B11.6417 
N381 X183.330 Y-0.649 Z5.480 A29.5389 B11.5801 
N382 X183.341 Y-0.957 Z5.369 A28.8353 B11.5153 
N383 X183.352 Y-1.268 Z5.260 A28.0468 B11.4473 
N384 X183.362 Y-1.584 Z5.155 A27.1755 B11.3765 
N385 X183.373 Y-1.905 Z5.052 A26.2231 B11.3031 
N386 X183.383 Y-2.221 Z4.957 A25.2228 B11.2295 
N387 X183.392 Y-2.519 Z4.872 A24.2224 B11.1588 
N388 X183.401 Y-2.804 Z4.796 A23.2224 B11.0908 
N389 X183.409 Y-3.077 Z4.728 A22.2226 B11.0250 
N390 X183.416 Y-3.342 Z4.667 A21.2232 B10.9611 
N391 X183.424 Y-3.601 Z4.611 A20.2243 B10.8990 
N392 X183.431 Y-3.853 Z4.562 A19.2257 B10.8384 
N393 X183.437 Y-4.102 Z4.517 A18.2273 B10.7791 
N394 X183.444 Y-4.349 Z4.477 A17.2291 B10.7210 
N395 X183.450 Y-4.593 Z4.442 A16.2314 B10.6641 
N396 X183.456 Y-4.835 Z4.412 A15.2340 B10.6083 
N397 X183.461 Y-5.077 Z4.385 A14.2367 B10.5536 
N398 X183.467 Y-5.318 Z4.363 A13.2398 B10.4998 
N399 X183.472 Y-5.558 Z4.345 A12.2433 B10.4471 
N400 X183.477 Y-5.800 Z4.332 A11.2470 B10.3952 
N401 X183.482 Y-6.042 Z4.323 A10.2509 B10.3443 
N402 X183.486 Y-6.285 Z4.318 A9.2552 B10.2943 
N403 X183.491 Y-6.530 Z4.317 A8.2599 B10.2451 
N404 X183.495 Y-6.776 Z4.320 A7.2647 B10.1967 
N405 X183.499 Y-7.026 Z4.329 A6.2699 B10.1490 
N406 X183.503 Y-7.278 Z4.341 A5.2755 B10.1022 
N407 X183.507 Y-7.534 Z4.359 A4.2814 B10.0560 
N408 X183.510 Y-7.794 Z4.381 A3.2876 B10.0105 
N409 X183.513 Y-8.059 Z4.409 A2.2942 B9.9657 
N410 X183.516 Y-8.328 Z4.442 A1.3011 B9.9214 
N411 X183.519 Y-8.604 Z4.481 A0.3091 B9.8777 
N412 X183.522 Y-8.886 Z4.526 A359.3152 B9.8344 
N413 X183.524 Y-9.172 Z4.577 A358.3381 B9.7922 
N414 X183.525 Y-9.467 Z4.636 A357.3576 B9.7502 
N415 X183.526 Y-9.775 Z4.702 A356.3653 B9.7078 
N416 X183.528 Y-10.095 Z4.778 A355.3722 B9.6655 
N417 X183.529 Y-10.423 Z4.861 A354.3917 B9.6238 
N418 X183.530 Y-10.748 Z4.950 A353.4595 B9.5840 
N419 X183.530 Y-11.054 Z5.040 A352.6128 B9.5478 
N420 X183.529 Y-11.373 Z5.138 A351.7632 B9.5112 
N421 X183.528 Y-11.690 Z5.242 A350.9540 B9.4762 
N422 X183.526 Y-12.003 Z5.349 A350.1828 B9.4425 
N423 X183.524 Y-12.313 Z5.460 A349.4474 B9.4101 
N424 X183.522 Y-12.621 Z5.575 A348.7451 B9.3788 
N425 X183.519 Y-12.926 Z5.693 A348.0727 B9.3486 
N426 X183.516 Y-13.229 Z5.815 A347.4266 B9.3194 
N427 X183.513 Y-13.530 Z5.940 A346.8036 B9.2912 
N428 X183.509 Y-13.828 Z6.068 A346.2041 B9.2639 
N429 X183.504 Y-14.124 Z6.198 A345.6336 B9.2373 
N430 X183.499 Y-14.417 Z6.331 A345.0991 B9.2112 
N431 X183.494 Y-14.707 Z6.467 A344.6076 B9.1855 
N432 X183.489 Y-14.994 Z6.604 A344.1615 B9.1572 
N433 X183.483 Y-15.263 Z6.735 A343.7780 B9.1278 
N434 X183.478 Y-15.480 Z6.843 A343.4869 B9.1039 
N435 X183.472 Y-15.657 Z6.931 A343.2584 B9.0845 
N436 X183.463 Y-15.817 Z7.012 A343.0560 B9.0671 
N437 X183.450 Y-15.980 Z7.095 A342.8520 B9.0496 
N438 X183.437 Y-16.124 Z7.170 A342.6706 B9.0342 
N439 X183.421 Y-16.263 Z7.242 A342.4932 B9.0195 
N440 X183.406 Y-16.387 Z7.307 A342.3336 B9.0066 
N441 X183.393 Y-16.487 Z7.360 A342.2038 B8.9964 
N442 X183.377 Y-16.589 Z7.413 A342.0668 B8.9862 
N443 X183.357 Y-16.708 Z7.477 A341.8989 B8.9745 
N444 X183.334 Y-16.829 Z7.542 A341.7365 B8.9625 
N445 X183.312 Y-16.929 Z7.597 A341.7381 B8.9482 
N446 X183.294 Y-16.993 Z7.635 A342.2202 B8.9235 
N447 X183.278 Y-17.026 Z7.659 A343.1842 B8.8884 
N448 X183.267 Y-17.041 Z7.674 A344.1904 B8.8553 
N449 X183.257 Y-17.050 Z7.685 A345.1995 B8.8240 
N450 X183.247 Y-17.056 Z7.695 A346.1835 B8.7949 
N451 X183.239 Y-17.061 Z7.703 A347.1788 B8.7668 
N452 X183.230 Y-17.065 Z7.712 A348.2006 B8.7392 
N453 X183.222 Y-17.069 Z7.720 A349.2432 B8.7125 
N454 X183.213 Y-17.071 Z7.729 A350.2977 B8.6868 
N455 X183.205 Y-17.074 Z7.736 A351.3539 B8.6625 
N456 X183.197 Y-17.076 Z7.744 A352.4199 B8.6393 
N457 X183.190 Y-17.078 Z7.752 A353.4950 B8.6174 
N458 X183.182 Y-17.080 Z7.760 A354.5779 B8.5968 
N459 X183.176 Y-17.081 Z7.768 A355.6679 B8.5776 
N460 X183.169 Y-17.083 Z7.775 A356.7585 B8.5599 
N461 X183.163 Y-17.085 Z7.783 A357.8391 B8.5440 
N462 X183.158 Y-17.086 Z7.790 A358.9238 B8.5295 
N463 X183.152 Y-17.088 Z7.798 A0.0128 B8.5165 
N464 X183.148 Y-17.090 Z7.805 A1.1058 B8.5052 
N465 X183.144 Y-17.092 Z7.813 A2.2023 B8.4954 
N466 X183.140 Y-17.093 Z7.821 A3.3019 B8.4872 
N467 X183.137 Y-17.095 Z7.828 A4.4042 B8.4808 
N468 X183.134 Y-17.097 Z7.836 A5.4825 B8.4761 
N469 X183.132 Y-17.099 Z7.842 A6.4904 B8.4732 
N470 X183.131 Y-17.101 Z7.849 A7.4965 B8.4717 
N471 X183.130 Y-17.103 Z7.856 A8.5038 
N472 X183.129 Y-17.105 Z7.863 A9.5122 B8.4732 
N473 X183.128 Y-17.107 Z7.870 A10.5212 B8.4761 
N474 X183.129 Y-17.109 Z7.877 A11.5308 B8.4806 
N475 X183.129 Y-17.112 Z7.884 A12.5407 B8.4865 
N476 X183.130 Y-17.114 Z7.890 A13.5508 B8.4939 
N477 X183.132 Y-17.117 Z7.897 A14.5606 B8.5028 
N478 X183.133 Y-17.120 Z7.904 A15.5797 B8.5133 
N479 X183.136 Y-17.122 Z7.911 A16.6014 B8.5254 
N480 X183.138 Y-17.125 Z7.918 A17.6225 B8.5390 
N481 X183.142 Y-17.128 Z7.925 A18.6429 B8.5542 
N482 X183.145 Y-17.132 Z7.931 A19.6625 B8.5709 
N483 X183.149 Y-17.135 Z7.938 A20.6811 B8.5891 
N484 X183.153 Y-17.138 Z7.945 A21.6986 B8.6088 
N485 X183.158 Y-17.142 Z7.951 A22.7149 B8.6301 
N486 X183.163 Y-17.146 Z7.958 A23.7300 B8.6529 
N487 X183.168 Y-17.150 Z7.964 A24.7436 B8.6771 
N488 X183.174 Y-17.154 Z7.971 A25.7973 B8.7040 
N489 X183.181 Y-17.158 Z7.979 A26.9541 B8.7353 
N490 X183.188 Y-17.163 Z7.986 A28.1089 B8.7686 
N491 X183.196 Y-17.168 Z7.993 A29.2618 B8.8037 
N492 X183.204 Y-17.174 Z8.000 A30.4129 B8.8408 
N493 X183.212 Y-17.179 Z8.007 A31.5622 B8.8797 
N494 X183.220 Y-17.185 Z8.014 A32.7099 B8.9205 
N495 X183.228 Y-17.190 Z8.021 A33.8560 B8.9631 
N496 X183.237 Y-17.196 Z8.027 A34.9698 B9.0063 
N497 X183.245 Y-17.202 Z8.034 A36.0908 B9.0516 
N498 X183.254 Y-17.208 Z8.040 A37.2106 B9.0986 
N499 X183.263 Y-17.215 Z8.046 A38.3295 B9.1473 
N500 X183.272 Y-17.221 Z8.052 A39.4475 B9.1977 
N501 X183.280 Y-17.228 Z8.058 A40.5649 B9.2498 
N502 X183.289 Y-17.235 Z8.064 A41.6819 B9.3036 
N503 X183.298 Y-17.241 Z8.070 A42.7986 B9.3590 
N504 X183.306 Y-17.249 Z8.075 A43.9098 B9.4159 
N505 X183.314 Y-17.255 Z8.081 A44.9734 B9.4718 
N506 X183.322 Y-17.263 Z8.086 A46.0373 B9.5291 
N507 X183.330 Y-17.270 Z8.091 A47.1015 B9.5880 
N508 X183.338 Y-17.277 Z8.095 A48.1664 B9.6483 
N509 X183.345 Y-17.285 Z8.100 A49.2319 B9.7100 
N510 X183.352 Y-17.292 Z8.105 A50.2983 B9.7732 
N511 X183.359 Y-17.300 Z8.109 A51.3656 B9.8378 
N512 X183.366 Y-17.308 Z8.113 A52.4320 B9.9037 
N513 X183.372 Y-17.316 Z8.117 A53.4682 B9.9689 
N514 X183.378 Y-17.323 Z8.121 A54.5027 B10.0353 
N515 X183.383 Y-17.331 Z8.125 A55.5385 B10.1029 
N516 X183.388 Y-17.339 Z8.128 A56.5756 B10.1718 
N517 X183.393 Y-17.348 Z8.132 A57.6140 B10.2419 
N518 X183.397 Y-17.356 Z8.135 A58.6538 B10.3132 
N519 X183.401 Y-17.364 Z8.138 A59.6950 B10.3856 
N520 X183.404 Y-17.373 Z8.141 A60.7357 B10.4591 
N521 X183.407 Y-17.381 Z8.143 A61.7597 B10.5324 
N522 X183.409 Y-17.390 Z8.146 A62.7850 B10.6067 
N523 X183.410 Y-17.398 Z8.148 A63.8115 B10.6821 
N524 X183.412 Y-17.406 Z8.150 A64.8390 B10.7584 
N525 X183.413 Y-17.415 Z8.152 A65.8674 B10.8356 
N526 X183.413 Y-17.424 Z8.154 A66.8966 B10.9137 
N527 X183.414 Y-17.433 Z8.155 A67.9264 B10.9926 
N528 X183.414 Y-17.442 Z8.157 A68.9571 B11.0724 
N529 X183.415 Y-17.451 Z8.158 A69.9889 B11.1529 
N530 X183.415 Y-17.460 Z8.159 A71.0212 B11.2343 
N531 X183.415 Y-17.469 Z8.160 A72.0540 B11.3164 
N532 X183.414 Y-17.478 Z8.161 A73.0873 B11.3991 
N533 X183.413 Y-17.487 Z8.162 A74.1210 B11.4824 
N534 X183.412 Y-17.497 Z8.162 A75.1552 B11.5663 
N535 X183.410 Y-17.506 Z8.162 A76.1899 B11.6507 
N536 X183.408 Y-17.515 Z8.162 A77.2270 B11.7358 
N537 X183.405 Y-17.525 Z8.162 A78.2849 B11.8230 
N538 X183.401 Y-17.534 Z8.162 A79.3433 B11.9107 
N539 X183.397 Y-17.544 Z8.161 A80.4020 B11.9988 
N540 X183.392 Y-17.554 Z8.161 A81.4608 B12.0872 
N541 X183.387 Y-17.563 Z8.160 A82.5196 B12.1759 
N542 X183.381 Y-17.573 Z8.159 A83.5783 B12.2648 
N543 X183.375 Y-17.582 Z8.157 A84.6367 B12.3539 
N544 X183.368 Y-17.592 Z8.156 A85.7133 B12.4447 
N545 X183.361 Y-17.602 Z8.154 A86.8242 B12.5386 
N546 X183.353 Y-17.612 Z8.152 A87.9359 B12.6325 
N547 X183.344 Y-17.622 Z8.150 A89.0470 B12.7265 
N548 X183.336 Y-17.632 Z8.147 A90.1576 B12.8204 
N549 X183.327 Y-17.642 Z8.144 A91.2678 B12.9142 
N550 X183.317 Y-17.652 Z8.142 A92.3777 B13.0078 
N551 X183.307 Y-17.661 Z8.139 A93.4872 B13.1013 
N552 X183.297 Y-17.671 Z8.135 A94.6157 B13.1962 
N553 X183.286 Y-17.681 Z8.132 A95.7862 B13.2944 
N554 X183.275 Y-17.691 Z8.128 A96.9345 B13.3903 
N555 X183.264 Y-17.701 Z8.124 A98.0826 B13.4860 
N556 X183.252 Y-17.711 Z8.119 A99.2308 B13.5812 
N557 X183.241 Y-17.721 Z8.115 A100.3791 B13.6759 
N558 X183.229 Y-17.730 Z8.110 A101.5275 B13.7702 
N559 X183.217 Y-17.740 Z8.105 A102.6761 B13.8639 
N560 X183.205 Y-17.749 Z8.100 A103.8251 B13.9570 
N561 X183.195 Y-17.757 Z8.096 A104.8588 B14.0403 
N562 X183.184 Y-17.765 Z8.091 A105.8865 B14.1225 
N563 X183.173 Y-17.774 Z8.086 A106.9147 B14.2042 
N564 X183.163 Y-17.782 Z8.081 A107.9435 B14.2853 
N565 X183.152 Y-17.789 Z8.075 A108.9729 B14.3658 
N566 X183.141 Y-17.797 Z8.070 A110.0032 B14.4456 
N567 X183.131 Y-17.805 Z8.064 A111.0343 B14.5249 
N568 X183.121 Y-17.813 Z8.058 A112.0663 B14.6034 
N569 X183.111 Y-17.820 Z8.052 A113.0994 B14.6813 
N570 X183.101 Y-17.827 Z8.046 A114.1341 B14.7584 
N571 X183.091 Y-17.835 Z8.040 A115.1751 B14.8352 
N572 X183.082 Y-17.842 Z8.033 A116.2181 B14.9112 
N573 X183.072 Y-17.849 Z8.026 A117.2624 B14.9864 
N574 X183.063 Y-17.856 Z8.019 A118.3077 B15.0607 
N575 X183.055 Y-17.863 Z8.012 A119.3540 B15.1342 
N576 X183.047 Y-17.869 Z8.005 A120.4013 B15.2066 
N577 X183.039 Y-17.876 Z7.998 A121.4495 B15.2781 
N578 X183.031 Y-17.882 Z7.990 A122.4984 B15.3486 
N579 X183.024 Y-17.888 Z7.983 A123.5481 B15.4180 
N580 X183.017 Y-17.894 Z7.975 A124.6083 B15.4870 
N581 X183.010 Y-17.900 Z7.966 A125.7658 B15.5609 
N582 X183.004 Y-17.907 Z7.957 A126.9410 B15.6345 
N583 X182.998 Y-17.913 Z7.948 A128.1162 B15.7066 
N584 X182.993 Y-17.918 Z7.938 A129.2909 B15.7771 
N585 X182.988 Y-17.924 Z7.928 A130.4647 B15.8460 
N586 X182.984 Y-17.929 Z7.918 A131.6372 B15.9132 
N587 X182.981 Y-17.934 Z7.908 A132.8077 B15.9786 
N588 X182.979 Y-17.938 Z7.898 A133.9797 B16.0425 
N589 X182.977 Y-17.944 Z7.887 A135.1570 B16.1050 
N590 X182.976 Y-17.947 Z7.877 A136.2430 B16.1610 
N591 X182.975 Y-17.950 Z7.867 A137.3247 B16.2154 
N592 X182.975 Y-17.953 Z7.857 A138.4013 B16.2680 
N593 X182.976 Y-17.956 Z7.846 A139.4716 B16.3188 
N594 X182.977 Y-17.958 Z7.836 A140.5344 B16.3677 
N595 X182.979 Y-17.960 Z7.825 A141.5996 B16.4152 
N596 X182.982 Y-17.961 Z7.813 A142.7229 B16.4636 
N597 X182.985 Y-17.961 Z7.800 A143.8302 B16.5096 
N598 X182.990 Y-17.961 Z7.788 A144.9169 B16.5531 
N599 X182.994 Y-17.959 Z7.775 A145.9768 B16.5938 
N600 X183.000 Y-17.957 Z7.761 A146.9852 B16.6310 
N601 X183.006 Y-17.952 Z7.747 A147.9341 B16.6644 
N602 X183.012 Y-17.945 Z7.731 A148.8159 B16.6941 
N603 X185.213 Y-23.173 Z-0.505 
N604 G00 X190.714 Y-36.241 Z-21.095 
N605 X191.761 Y-58.096 Z-34.279 
N606 X180.758 Y-31.959 Z6.901 
N607 G01 X180.834 Y-29.531 Z8.872 F878 
N608 X181.055 Y-26.623 Z10.004 
N609 X181.399 Y-23.518 Z10.184 
N610 X181.832 Y-20.522 Z9.395 
N611 M342 ; chlodziwo woda
N612 X182.312 Y-17.927 Z7.714 
N613 X182.319 Y-17.917 Z7.698 A149.6007 B16.7190 
N614 X182.328 Y-17.898 Z7.675 A150.3700 B16.7416 
N615 X182.340 Y-17.864 Z7.641 A150.9704 B16.7562 
N616 X182.354 Y-17.808 Z7.591 A151.2685 B16.7585 
N617 X182.374 Y-17.726 Z7.522 A151.3710 B16.7517 
N618 X182.396 Y-17.625 Z7.439 A151.4040 B16.7406 
N619 X182.424 Y-17.496 Z7.332 A151.4300 B16.7258 
N620 X182.459 Y-17.326 Z7.192 A151.4666 B16.7065 
N621 X182.500 Y-17.119 Z7.022 A151.5154 B16.6829 
N622 X182.543 Y-16.891 Z6.834 A151.5718 B16.6569 
N623 X182.583 Y-16.662 Z6.647 A151.6310 B16.6309 
N624 X182.620 Y-16.433 Z6.459 A151.6940 B16.6049 
N625 X182.655 Y-16.205 Z6.272 A151.7624 B16.5788 
N626 X182.688 Y-15.975 Z6.085 A151.8378 B16.5527 
N627 X182.718 Y-15.746 Z5.898 A151.9217 B16.5266 
N628 X182.746 Y-15.517 Z5.712 A152.0150 B16.5006 
N629 X182.771 Y-15.287 Z5.526 A152.1179 B16.4745 
N630 X182.795 Y-15.058 Z5.340 A152.2301 B16.4484 
N631 X182.816 Y-14.828 Z5.155 A152.3514 B16.4221 
N632 X182.835 Y-14.598 Z4.971 A152.4812 B16.3957 
N633 X182.851 Y-14.367 Z4.787 A152.6194 B16.3692 
N634 X182.865 Y-14.137 Z4.603 A152.7660 B16.3424 
N635 X182.877 Y-13.906 Z4.420 A152.9209 B16.3154 
N636 X182.886 Y-13.675 Z4.239 A153.0840 B16.2881 
N637 X182.892 Y-13.444 Z4.057 A153.2555 B16.2606 
N638 X182.897 Y-13.212 Z3.877 A153.4352 B16.2322 
N639 X182.902 Y-12.980 Z3.697 A153.6233 B16.2022 
N640 X182.906 Y-12.748 Z3.519 A153.8207 B16.1717 
N641 X182.911 Y-12.516 Z3.341 A154.0282 B16.1408 
N642 X182.915 Y-12.283 Z3.164 A154.2470 B16.1093 
N643 X182.918 Y-12.051 Z2.989 A154.4785 B16.0772 
N644 X182.921 Y-11.817 Z2.814 A154.7236 B16.0445 
N645 X182.925 Y-11.584 Z2.641 A154.9829 B16.0111 
N646 X182.927 Y-11.351 Z2.469 A155.2570 B15.9769 
N647 X182.930 Y-11.117 Z2.299 A155.5457 B15.9419 
N648 X182.932 Y-10.882 Z2.130 A155.8492 B15.9060 
N649 X182.933 Y-10.648 Z1.962 A156.1673 B15.8691 
N650 X182.935 Y-10.413 Z1.796 A156.5005 B15.8311 
N651 X182.936 Y-10.177 Z1.632 A156.8490 B15.7921 
N652 X182.938 Y-9.941 Z1.469 A157.2134 B15.7518 
N653 X182.938 Y-9.705 Z1.308 A157.5944 B15.7102 
N654 X182.938 Y-9.468 Z1.149 A157.9925 B15.6672 
N655 X182.938 Y-9.231 Z0.992 A158.4085 B15.6227 
N656 X182.938 Y-8.993 Z0.837 A158.8431 B15.5766 
N657 X182.937 Y-8.755 Z0.684 A159.2972 B15.5288 
N658 X182.937 Y-8.516 Z0.533 A159.7714 B15.4792 
N659 X182.935 Y-8.277 Z0.384 A160.2675 B15.4330 
N660 X182.934 Y-8.037 Z0.238 A160.7864 B15.3900 
N661 X182.931 Y-7.797 Z0.095 A161.3283 B15.3454 
N662 X182.929 Y-7.556 Z-0.046 A161.8944 B15.2993 
N663 X182.927 Y-7.315 Z-0.185 A162.4859 B15.2514 
N664 X182.924 Y-7.073 Z-0.320 A163.1043 B15.2016 
N665 X182.920 Y-6.831 Z-0.453 A163.7519 B15.1499 
N666 X182.917 Y-6.589 Z-0.582 A164.4308 B15.0961 
N667 X182.913 Y-6.346 Z-0.708 A165.1436 B15.0400 
N668 X182.909 Y-6.103 Z-0.830 A165.8927 B14.9814 
N669 X182.905 Y-5.860 Z-0.949 A166.6794 B14.9202 
N670 X182.900 Y-5.617 Z-1.064 A167.5046 B14.8564 
N671 X182.895 Y-5.374 Z-1.175 A168.3681 B14.7898 
N672 X182.890 Y-5.130 Z-1.282 A169.2694 B14.7203 
N673 X182.885 Y-4.886 Z-1.384 A170.2080 B14.6479 
N674 X182.879 Y-4.652 Z-1.478 A171.1421 B14.5703 
N675 X182.873 Y-4.453 Z-1.555 A171.9631 B14.5018 
N676 X182.866 Y-4.274 Z-1.622 A172.7227 B14.4384 
N677 X182.855 Y-4.082 Z-1.690 A173.5604 B14.3685 
N678 X182.842 Y-3.888 Z-1.756 A174.4309 B14.2958 
N679 X182.827 Y-3.695 Z-1.819 A175.3284 B14.2210 
N680 X182.810 Y-3.492 Z-1.881 A176.2973 B14.1403 
N681 X182.793 Y-3.292 Z-1.939 A177.2835 B14.0583 
N682 X182.776 Y-3.103 Z-1.991 A178.2505 B13.9781 
N683 X182.758 Y-2.916 Z-2.039 A179.2358 B13.8965 
N684 X182.740 Y-2.732 Z-2.082 A180.2321 B13.8142 
N685 X182.723 Y-2.553 Z-2.122 A181.2263 B13.7323 
N686 X182.707 Y-2.381 Z-2.157 A182.2166 B13.6510 
N687 X182.692 Y-2.214 Z-2.188 A183.1993 B13.5706 
N688 X182.678 Y-2.053 Z-2.215 A184.1728 B13.4912 
N689 X182.666 Y-1.898 Z-2.239 A185.1375 B13.4129 
N690 X182.654 Y-1.747 Z-2.260 A186.0935 B13.3356 
N691 X182.644 Y-1.601 Z-2.278 A187.0435 B13.2592 
N692 X182.635 Y-1.458 Z-2.293 A187.9876 B13.1836 
N693 X182.627 Y-1.320 Z-2.305 A188.9234 B13.1090 
N694 X182.621 Y-1.186 Z-2.315 A189.8493 B13.0356 
N695 X182.616 Y-1.054 Z-2.323 A190.7726 B12.9629 
N696 X182.611 Y-0.923 Z-2.328 A191.7133 B12.8892 
N697 X182.608 Y-0.792 Z-2.332 A192.6691 B12.8148 
N698 X182.605 Y-0.664 Z-2.333 A193.6146 B12.7418 
N699 X182.604 Y-0.543 Z-2.333 A194.5295 B12.6716 
N700 X182.603 Y-0.427 Z-2.331 A195.4151 B12.6041 
N701 X182.604 Y-0.309 Z-2.326 A196.3241 B12.5355 
N702 X182.606 Y-0.189 Z-2.320 A197.2685 B12.4647 
N703 X182.608 Y-0.067 Z-2.312 A198.2367 B12.3927 
N704 X182.611 Y0.053 Z-2.302 A199.2076 B12.3213 
N705 X182.615 Y0.172 Z-2.290 A200.1772 B12.2507 
N706 X182.619 Y0.289 Z-2.276 A201.1468 B12.1807 
N707 X182.623 Y0.406 Z-2.261 A202.1233 B12.1111 
N708 X182.628 Y0.522 Z-2.243 A203.1051 B12.0419 
N709 X182.633 Y0.637 Z-2.224 A204.0903 B11.9732 
N710 X182.638 Y0.752 Z-2.202 A205.0783 B11.9053 
N711 X182.643 Y0.866 Z-2.179 A206.0658 B11.8383 
N712 X182.648 Y0.978 Z-2.154 A207.0504 B11.7723 
N713 X182.652 Y1.089 Z-2.128 A208.0302 B11.7077 
N714 X182.656 Y1.198 Z-2.099 A209.0018 B11.6445 
N715 X182.659 Y1.306 Z-2.070 A209.9619 B11.5830 
N716 X182.662 Y1.411 Z-2.039 A210.9065 B11.5235 
N717 X182.664 Y1.513 Z-2.007 A211.8321 B11.4661 
N718 X182.665 Y1.612 Z-1.974 A212.7388 B11.4108 
N719 X182.664 Y1.710 Z-1.940 A213.6343 B11.3570 
N720 X182.663 Y1.807 Z-1.905 A214.5180 B11.3049 
N721 X182.661 Y1.902 Z-1.868 A215.3934 B11.2542 
N722 X182.657 Y2.002 Z-1.828 A216.3188 B11.2015 
N723 X182.652 Y2.108 Z-1.784 A217.2946 B11.1472 
N724 X182.648 Y2.214 Z-1.737 A218.2796 B11.0932 
N725 X182.644 Y2.320 Z-1.687 A219.2629 B11.0292 
N726 X182.639 Y2.427 Z-1.636 A220.2497 B10.9655 
N727 X182.635 Y2.533 Z-1.582 A221.2370 B10.9022 
N728 X182.631 Y2.639 Z-1.525 A222.2246 B10.8393 
N729 X182.627 Y2.746 Z-1.466 A223.2117 B10.7770 
N730 X182.623 Y2.852 Z-1.405 A224.1964 B10.7152 
N731 X182.619 Y2.959 Z-1.340 A225.1761 B10.6540 
N732 X182.615 Y3.066 Z-1.273 A226.1419 B10.5938 
N733 X182.611 Y3.174 Z-1.202 A227.0786 B10.5353 
N734 X182.606 Y3.284 Z-1.126 A227.9664 B10.4790 
N735 X182.602 Y3.396 Z-1.045 A228.7848 B10.4259 
N736 X182.597 Y3.510 Z-0.959 A229.5233 B10.3763 
N737 X182.593 Y3.626 Z-0.866 A230.1853 B10.3299 
N738 X182.588 Y3.744 Z-0.768 A230.7864 B10.2860 
N739 X182.584 Y3.863 Z-0.665 A231.3482 B10.2436 
N740 X182.579 Y3.983 Z-0.557 A231.8891 B10.2020 
N741 X182.574 Y4.103 Z-0.445 A232.4226 B10.1605 
N742 X182.570 Y4.223 Z-0.328 A232.9593 B10.1187 
N743 X182.565 Y4.343 Z-0.207 A233.5118 B10.0761 
N744 X182.562 Y4.462 Z-0.082 A234.0917 B9.9709 
N745 X182.563 Y4.579 Z0.046 A234.7135 B9.7402 
N746 X182.568 Y4.694 Z0.176 A235.3951 B9.3871 
N747 X182.577 Y4.808 Z0.310 A236.1478 B8.9098 
N748 X182.587 Y4.916 Z0.441 A236.9526 B8.3715 
N749 X182.596 Y5.014 Z0.564 A237.7445 B7.8558 
N750 X182.604 Y5.110 Z0.689 A238.5488 B7.2889 
N751 X182.612 Y5.206 Z0.817 A239.3570 B6.6670 
N752 X182.619 Y5.302 Z0.949 A240.1593 B5.9869 
N753 X182.626 Y5.398 Z1.086 A240.9519 B5.2487 
N754 X182.633 Y5.494 Z1.228 A241.7334 B4.4471 
N755 X182.640 Y5.590 Z1.374 A242.5050 B3.5806 
N756 X182.646 Y5.687 Z1.525 A243.2682 B2.6425 
N757 X182.652 Y5.783 Z1.680 A244.0249 B1.6268 
N758 X182.658 Y5.879 Z1.839 A244.7760 B0.5321 
N759 X182.665 Y5.974 Z2.003 A245.5217 B-0.6503 
N760 X182.671 Y6.069 Z2.170 A246.2616 B-1.9247 
N761 X182.668 Y6.163 Z2.340 A247.0265 B-2.9516 
N762 X182.644 Y6.254 Z2.512 A247.8444 B-3.4144 
N763 X182.619 Y6.343 Z2.687 A248.6615 B-3.8909 
N764 X182.591 Y6.431 Z2.866 A249.4762 B-4.3800 
N765 X182.560 Y6.517 Z3.049 A250.2900 B-4.8826 
N766 X182.527 Y6.603 Z3.239 A251.1069 B-5.4012 
N767 X182.491 Y6.687 Z3.430 A251.9116 B-5.9256 
N768 X182.454 Y6.766 Z3.624 A252.7064 B-6.4561 
N769 X182.410 Y6.852 Z3.839 A253.5671 B-7.0434 
N770 X182.366 Y6.932 Z4.051 A254.4178 B-7.6327 
N771 X182.326 Y7.000 Z4.237 A255.1751 B-8.1605 
N772 X182.281 Y7.067 Z4.433 A255.9931 B-8.7332 
N773 X182.234 Y7.134 Z4.636 A256.8595 B-9.3393 
N774 X182.187 Y7.194 Z4.830 A257.7258 B-9.9421 
N775 X182.141 Y7.249 Z5.021 A258.6121 B-10.5541 
N776 X182.095 Y7.299 Z5.206 A259.5158 B-11.1720 
N777 X182.050 Y7.345 Z5.385 A260.4361 B-11.7934 
N778 X182.006 Y7.385 Z5.557 A261.3748 B-12.4167 
N779 X181.965 Y7.420 Z5.719 A262.3332 B-13.0388 
N780 X181.926 Y7.450 Z5.871 A263.3103 B-13.6569 
N781 X181.889 Y7.476 Z6.013 A264.3038 B-14.2698 
N782 X181.855 Y7.497 Z6.147 A265.3114 B-14.8776 
N783 X181.823 Y7.515 Z6.274 A266.3283 B-15.4780 
N784 X181.793 Y7.530 Z6.390 A267.3288 B-16.0542 
N785 X181.769 Y7.540 Z6.485 A268.2192 B-16.5533 
N786 X181.748 Y7.548 Z6.567 A269.0782 B-17.0209 
N787 X181.726 Y7.555 Z6.658 A270.1203 B-17.5711 
N788 X181.706 Y7.560 Z6.741 A271.1894 B-18.1167 
N789 X181.689 Y7.563 Z6.815 A272.2694 B-18.6489 
N790 X181.674 Y7.565 Z6.881 A273.3532 B-19.1647 
N791 X181.662 Y7.565 Z6.940 A274.4486 B-19.6681 
N792 X181.650 Y7.565 Z6.993 A275.5641 B-20.1631 
N793 X181.642 Y7.564 Z7.036 A276.5976 B-20.6057 
N794 X181.635 Y7.563 Z7.072 A277.5733 B-21.0098 
N795 X181.630 Y7.562 Z7.109 A278.6799 B-21.4751 
N796 X181.629 Y7.561 Z7.144 A279.8494 B-22.0765 
N797 X181.628 Y7.561 Z7.175 A281.0151 B-22.6347 
N798 X181.627 Y7.560 Z7.201 A282.1454 B-23.1408 
N799 X181.626 Y7.559 Z7.223 A283.2569 B-23.6081 
N800 X181.626 Y7.558 Z7.243 A284.3783 B-24.0516 
N801 X181.626 Y7.557 Z7.261 A285.5077 B-24.4723 
N802 X181.626 Y7.557 Z7.277 A286.6460 B-24.8718 
N803 X181.626 Y7.556 Z7.290 A287.7997 B-25.2532 
N804 X181.626 Y7.556 Z7.303 A288.9667 B-25.6163 
N805 X181.626 Y7.556 Z7.314 A290.1445 B-25.9608 
N806 X181.626 Y7.556 Z7.323 A291.3286 B-26.2859 
N807 X181.626 Y7.557 Z7.331 A292.5033 B-26.5880 
N808 X181.626 Y7.558 Z7.338 A293.6637 B-26.8673 
N809 X181.626 Y7.559 Z7.344 A294.8078 B-27.1244 
N810 X181.626 Y7.560 Z7.349 A295.9353 B-27.3604 
N811 X181.626 Y7.562 Z7.353 A297.0455 B-27.5763 
N812 X181.626 Y7.564 Z7.356 A298.1669 B-27.7780 
N813 X181.626 Y7.566 Z7.359 A299.3053 B-27.9661 
N814 X181.626 Y7.569 Z7.361 A300.4556 B-28.1393 
N815 X181.625 Y7.571 Z7.363 A301.6167 B-28.2972 
N816 X181.625 Y7.575 Z7.364 A302.7874 B-28.4392 
N817 X181.625 Y7.578 Z7.365 A303.9668 B-28.5648 
N818 X181.624 Y7.582 Z7.366 A305.1395 B-28.6724 
N819 X181.623 Y7.586 Z7.366 A306.2760 B-28.7602 
N820 X181.622 Y7.590 Z7.366 A307.4092 B-28.8317 
N821 X181.621 Y7.595 Z7.366 A308.5380 B-28.8868 
N822 X181.620 Y7.600 Z7.366 A309.6610 B-28.9257 
N823 X181.618 Y7.605 Z7.365 A310.7774 B-28.9485 
N824 X181.617 Y7.610 Z7.365 A311.8864 B-28.9554 
N825 X181.615 Y7.615 Z7.364 A312.9956 B-28.9465 
N826 X181.613 Y7.621 Z7.363 A314.1397 B-28.9207 
N827 X181.611 Y7.627 Z7.362 A315.3016 B-28.8769 
N828 X181.608 Y7.633 Z7.362 A316.4613 B-28.8155 
N829 X181.606 Y7.640 Z7.361 A317.6178 B-28.7365 
N830 X181.603 Y7.646 Z7.361 A318.7704 B-28.6399 
N831 X181.600 Y7.653 Z7.361 A319.9182 B-28.5257 
N832 X181.597 Y7.660 Z7.361 A321.0604 B-28.3942 
N833 X181.593 Y7.667 Z7.361 A322.1964 B-28.2453 
N834 X181.589 Y7.674 Z7.361 A323.3332 B-28.0782 
N835 X181.585 Y7.681 Z7.362 A324.4665 B-27.8932 
N836 X181.581 Y7.688 Z7.363 A325.5915 B-27.6913 
N837 X181.577 Y7.695 Z7.364 A326.7076 B-27.4726 
N838 X181.572 Y7.702 Z7.366 A327.8142 B-27.2376 
N839 X181.567 Y7.709 Z7.368 A328.9107 B-26.9865 
N840 X181.562 Y7.715 Z7.370 A329.9968 B-26.7196 
N841 X181.557 Y7.722 Z7.373 A331.0720 B-26.4374 
N842 X181.552 Y7.728 Z7.376 A332.1332 B-26.1410 
N843 X181.547 Y7.734 Z7.379 A333.1692 B-25.8342 
N844 X181.541 Y7.740 Z7.383 A334.1936 B-25.5137 
N845 X181.536 Y7.745 Z7.388 A335.2064 B-25.1797 
N846 X181.530 Y7.750 Z7.392 A336.2073 B-24.8327 
N847 X181.524 Y7.755 Z7.397 A337.2020 B-24.4708 
N848 X181.518 Y7.759 Z7.403 A338.1962 B-24.0919 
N849 X181.512 Y7.763 Z7.409 A339.1892 B-23.6958 
N850 X181.506 Y7.766 Z7.415 A340.1816 B-23.2821 
N851 X181.499 Y7.769 Z7.422 A341.1819 B-22.8464 
N852 X181.492 Y7.772 Z7.430 A342.1896 B-22.3884 
N853 X181.484 Y7.774 Z7.438 A343.2012 B-21.9086 
N854 X181.476 Y7.775 Z7.447 A344.2125 B-21.4085 
N855 X181.468 Y7.775 Z7.456 A345.2187 B-20.8901 
N856 X181.459 Y7.775 Z7.466 A346.2145 B-20.3560 
N857 X181.449 Y7.774 Z7.476 A347.1972 B-19.8077 
N858 X181.439 Y7.772 Z7.487 A348.1724 B-19.2421 
N859 X181.429 Y7.769 Z7.498 A349.1370 B-18.6605 
N860 X181.418 Y7.765 Z7.509 A350.0865 B-18.0657 
N861 X181.406 Y7.760 Z7.520 A351.0167 B-17.4603 
N862 X181.395 Y7.755 Z7.532 A351.9238 B-16.8473 
N863 X181.384 Y7.748 Z7.544 A352.8062 B-16.2282 
N864 X181.372 Y7.740 Z7.556 A353.6775 B-15.5993 
N865 X181.361 Y7.732 Z7.568 A354.5436 B-14.9674 
N866 X181.350 Y7.722 Z7.581 A355.4043 B-14.3341 
N867 X181.339 Y7.712 Z7.594 A356.2589 B-13.7004 
N868 X181.329 Y7.700 Z7.607 A357.1069 B-13.0672 
N869 X181.319 Y7.688 Z7.620 A357.9485 B-12.4350 
N870 X181.310 Y7.674 Z7.633 A358.7845 B-11.8038 
N871 X181.301 Y7.659 Z7.647 A359.6139 B-11.1747 
N872 X181.293 Y7.643 Z7.660 A0.4357 B-10.5490 
N873 X181.285 Y7.626 Z7.674 A1.2487 B-9.9281 
N874 X181.279 Y7.607 Z7.687 A2.0580 B-9.3084 
N875 X181.272 Y7.587 Z7.701 A2.8674 B-8.6872 
N876 X181.267 Y7.565 Z7.715 A3.6758 B-8.0657 
N877 X181.263 Y7.541 Z7.729 A4.4818 B-7.4450 
N878 X181.259 Y7.515 Z7.742 A5.2853 B-6.8254 
N879 X181.257 Y7.487 Z7.756 A6.0855 B-6.2075 
N880 X181.255 Y7.456 Z7.770 A6.8806 B-5.5925 
N881 X181.256 Y7.422 Z7.783 A7.6690 B-4.9819 
N882 X181.257 Y7.386 Z7.796 A8.4497 B-4.3768 
N883 X181.260 Y7.346 Z7.808 A9.2241 B-3.7766 
N884 X181.265 Y7.304 Z7.820 A9.9965 B-3.1782 
N885 X181.271 Y7.257 Z7.832 A10.7702 B-2.5799 
N886 X181.280 Y7.207 Z7.843 A11.5563 B-1.9735 
N887 X181.290 Y7.150 Z7.853 A12.3642 B-1.3523 
N888 X181.304 Y7.089 Z7.862 A13.1833 B-0.7253 
N889 X181.319 Y7.022 Z7.870 A14.0111 B-0.0949 
N890 X181.338 Y6.948 Z7.877 A14.8521 B0.5417 
N891 X181.360 Y6.866 Z7.882 A15.7104 B1.1871 
N892 X181.386 Y6.776 Z7.884 A16.5746 B1.8322 
N893 X181.416 Y6.677 Z7.884 A17.4473 B2.4787 
N894 X181.452 Y6.566 Z7.880 A18.3441 B3.1372 
N895 X181.492 Y6.443 Z7.873 A19.2526 B3.7954 
N896 X181.531 Y6.326 Z7.863 A20.0638 B4.3726 
N897 X181.572 Y6.200 Z7.849 A20.8959 B4.9514 
N898 X181.620 Y6.057 Z7.830 A21.7905 B5.5593 
N899 X181.672 Y5.905 Z7.806 A22.6749 B6.1462 
N900 X181.727 Y5.743 Z7.777 A23.5386 B6.7075 
N901 X181.783 Y5.576 Z7.742 A24.3455 B7.2214 
N902 X181.840 Y5.402 Z7.703 A25.1078 B7.6964 
N903 X181.897 Y5.223 Z7.658 A25.8346 B8.1384 
N904 X181.951 Y5.046 Z7.611 A26.4903 B8.5274 
N905 X182.003 Y4.871 Z7.561 A27.0897 B8.8748 
N906 X182.052 Y4.695 Z7.510 A27.6393 B9.1869 
N907 X182.099 Y4.520 Z7.455 A28.1409 B9.4669 
N908 X182.144 Y4.340 Z7.396 A28.6045 B9.7225 
N909 X182.186 Y4.163 Z7.336 A29.0170 B9.9483 
N910 X182.221 Y4.004 Z7.281 A29.3517 B10.1309 
N911 X182.255 Y3.831 Z7.220 A29.6807 B10.3104 
N912 X182.296 Y3.612 Z7.141 A30.0517 B10.5140 
N913 X182.342 Y3.356 Z7.046 A30.4311 B10.7252 
N914 X182.385 Y3.087 Z6.944 A30.7737 B10.9202 
N915 X182.425 Y2.809 Z6.837 A31.0797 B11.0840 
N916 X182.462 Y2.528 Z6.728 A31.3405 B11.2302 
N917 X182.493 Y2.246 Z6.616 A31.5565 B11.3622 
N918 X182.519 Y1.962 Z6.504 A31.7256 B11.4826 
N919 X182.541 Y1.676 Z6.390 A31.8451 B11.5940 
N920 X182.558 Y1.388 Z6.275 A31.9113 B11.6994 
N921 X182.569 Y1.097 Z6.159 A31.9205 B11.8021 
N922 X182.578 Y0.808 Z6.044 A31.7792 B11.8550 
N923 X182.588 Y0.520 Z5.929 A31.4929 B11.8064 
N924 X182.599 Y0.229 Z5.814 A31.1300 B11.7547 
N925 X182.609 Y-0.067 Z5.700 A30.6855 B11.6999 
N926 X182.620 Y-0.365 Z5.586 A30.1557 B11.6417 
N927 X182.630 Y-0.668 Z5.473 A29.5389 B11.5801 
N928 X182.641 Y-0.976 Z5.363 A28.8353 B11.5153 
N929 X182.652 Y-1.287 Z5.254 A28.0468 B11.4473 
N930 X182.662 Y-1.603 Z5.149 A27.1755 B11.3765 
N931 X182.673 Y-1.924 Z5.047 A26.2231 B11.3031 
N932 X182.683 Y-2.239 Z4.952 A25.2228 B11.2295 
N933 X182.692 Y-2.537 Z4.868 A24.2224 B11.1588 
N934 X182.701 Y-2.821 Z4.792 A23.2224 B11.0908 
N935 X182.709 Y-3.094 Z4.725 A22.2226 B11.0250 
N936 X182.716 Y-3.359 Z4.664 A21.2232 B10.9611 
N937 X182.724 Y-3.617 Z4.609 A20.2243 B10.8990 
N938 X182.730 Y-3.869 Z4.559 A19.2257 B10.8384 
N939 X182.737 Y-4.118 Z4.515 A18.2273 B10.7791 
N940 X182.743 Y-4.363 Z4.475 A17.2291 B10.7210 
N941 X182.749 Y-4.607 Z4.441 A16.2314 B10.6641 
N942 X182.755 Y-4.849 Z4.410 A15.2340 B10.6083 
N943 X182.761 Y-5.090 Z4.384 A14.2367 B10.5536 
N944 X182.766 Y-5.330 Z4.363 A13.2398 B10.4998 
N945 X182.771 Y-5.571 Z4.345 A12.2433 B10.4471 
N946 X182.776 Y-5.811 Z4.332 A11.2470 B10.3952 
N947 X182.781 Y-6.053 Z4.323 A10.2509 B10.3443 
N948 X182.786 Y-6.295 Z4.318 A9.2552 B10.2943 
N949 X182.790 Y-6.539 Z4.317 A8.2599 B10.2451 
N950 X182.794 Y-6.785 Z4.321 A7.2647 B10.1967 
N951 X182.799 Y-7.034 Z4.329 A6.2699 B10.1490 
N952 X182.802 Y-7.286 Z4.342 A5.2755 B10.1022 
N953 X182.806 Y-7.541 Z4.359 A4.2814 B10.0560 
N954 X182.809 Y-7.800 Z4.382 A3.2876 B10.0105 
N955 X182.813 Y-8.064 Z4.410 A2.2942 B9.9657 
N956 X182.816 Y-8.333 Z4.443 A1.3011 B9.9214 
N957 X182.818 Y-8.608 Z4.482 A0.3091 B9.8777 
N958 X182.821 Y-8.889 Z4.527 A359.3152 B9.8344 
N959 X182.823 Y-9.174 Z4.578 A358.3381 B9.7922 
N960 X182.824 Y-9.468 Z4.636 A357.3576 B9.7502 
N961 X182.826 Y-9.776 Z4.702 A356.3653 B9.7078 
N962 X182.827 Y-10.094 Z4.778 A355.3722 B9.6655 
N963 X182.828 Y-10.422 Z4.861 A354.3917 B9.6238 
N964 X182.830 Y-10.745 Z4.950 A353.4595 B9.5840 
N965 X182.829 Y-11.051 Z5.039 A352.6128 B9.5478 
N966 X182.828 Y-11.369 Z5.137 A351.7632 B9.5112 
N967 X182.827 Y-11.684 Z5.240 A350.9540 B9.4762 
N968 X182.826 Y-11.997 Z5.347 A350.1828 B9.4425 
N969 X182.824 Y-12.307 Z5.457 A349.4474 B9.4101 
N970 X182.821 Y-12.614 Z5.572 A348.7451 B9.3788 
N971 X182.819 Y-12.918 Z5.690 A348.0727 B9.3486 
N972 X182.815 Y-13.220 Z5.811 A347.4266 B9.3194 
N973 X182.812 Y-13.520 Z5.935 A346.8036 B9.2912 
N974 X182.808 Y-13.817 Z6.063 A346.2041 B9.2639 
N975 X182.803 Y-14.112 Z6.193 A345.6336 B9.2373 
N976 X182.799 Y-14.405 Z6.326 A345.0991 B9.2112 
N977 X182.793 Y-14.694 Z6.461 A344.6076 B9.1855 
N978 X182.788 Y-14.981 Z6.597 A344.1615 B9.1572 
N979 X182.783 Y-15.249 Z6.728 A343.7780 B9.1278 
N980 X182.778 Y-15.465 Z6.835 A343.4869 B9.1039 
N981 X182.771 Y-15.642 Z6.924 A343.2584 B9.0845 
N982 X182.762 Y-15.802 Z7.004 A343.0560 B9.0671 
N983 X182.750 Y-15.964 Z7.087 A342.8520 B9.0496 
N984 X182.736 Y-16.107 Z7.161 A342.6706 B9.0342 
N985 X182.721 Y-16.247 Z7.233 A342.4932 B9.0195 
N986 X182.705 Y-16.370 Z7.298 A342.3336 B9.0066 
N987 X182.692 Y-16.470 Z7.350 A342.2038 B8.9964 
N988 X182.676 Y-16.571 Z7.404 A342.0668 B8.9862 
N989 X182.656 Y-16.690 Z7.467 A341.8989 B8.9745 
N990 X182.633 Y-16.811 Z7.532 A341.7365 B8.9625 
N991 X182.611 Y-16.911 Z7.587 A341.7381 B8.9482 
N992 X182.593 Y-16.975 Z7.625 A342.2202 B8.9235 
N993 X182.578 Y-17.008 Z7.650 A343.1842 B8.8884 
N994 X182.566 Y-17.023 Z7.665 A344.1904 B8.8553 
N995 X182.556 Y-17.033 Z7.677 A345.1995 B8.8240 
N996 X182.547 Y-17.040 Z7.687 A346.1835 B8.7949 
N997 X182.538 Y-17.045 Z7.696 A347.1788 B8.7668 
N998 X182.529 Y-17.049 Z7.706 A348.2006 B8.7392 
N999 X182.521 Y-17.053 Z7.714 A349.2432 B8.7125 
N1000 X182.512 Y-17.056 Z7.723 A350.2977 B8.6868 
N1001 X182.504 Y-17.059 Z7.731 A351.3539 B8.6625 
N1002 X182.496 Y-17.062 Z7.740 A352.4199 B8.6393 
N1003 X182.489 Y-17.065 Z7.748 A353.4950 B8.6174 
N1004 X182.481 Y-17.067 Z7.756 A354.5779 B8.5968 
N1005 X182.474 Y-17.069 Z7.764 A355.6679 B8.5776 
N1006 X182.468 Y-17.072 Z7.772 A356.7585 B8.5599 
N1007 X182.462 Y-17.074 Z7.780 A357.8391 B8.5440 
N1008 X182.456 Y-17.076 Z7.788 A358.9238 B8.5295 
N1009 X182.451 Y-17.079 Z7.796 A0.0128 B8.5165 
N1010 X182.447 Y-17.081 Z7.804 A1.1058 B8.5052 
N1011 X182.443 Y-17.083 Z7.812 A2.2023 B8.4954 
N1012 X182.439 Y-17.086 Z7.820 A3.3019 B8.4872 
N1013 X182.436 Y-17.089 Z7.827 A4.4042 B8.4808 
N1014 X182.433 Y-17.091 Z7.835 A5.4825 B8.4761 
N1015 X182.431 Y-17.094 Z7.842 A6.4904 B8.4732 
N1016 X182.429 Y-17.096 Z7.849 A7.4965 B8.4717 
N1017 X182.428 Y-17.099 Z7.856 A8.5038 
N1018 X182.428 Y-17.102 Z7.863 A9.5122 B8.4732 
N1019 X182.427 Y-17.105 Z7.870 A10.5212 B8.4761 
N1020 X182.427 Y-17.108 Z7.877 A11.5308 B8.4806 
N1021 X182.428 Y-17.111 Z7.884 A12.5407 B8.4865 
N1022 X182.429 Y-17.114 Z7.890 A13.5508 B8.4939 
N1023 X182.430 Y-17.117 Z7.897 A14.5606 B8.5028 
N1024 X182.432 Y-17.121 Z7.904 A15.5797 B8.5133 
N1025 X182.434 Y-17.124 Z7.911 A16.6014 B8.5254 
N1026 X182.437 Y-17.128 Z7.917 A17.6225 B8.5390 
N1027 X182.440 Y-17.132 Z7.924 A18.6429 B8.5542 
N1028 X182.444 Y-17.136 Z7.931 A19.6625 B8.5709 
N1029 X182.448 Y-17.140 Z7.937 A20.6811 B8.5891 
N1030 X182.452 Y-17.144 Z7.943 A21.6986 B8.6088 
N1031 X182.457 Y-17.148 Z7.950 A22.7149 B8.6301 
N1032 X182.462 Y-17.153 Z7.956 A23.7300 B8.6529 
N1033 X182.467 Y-17.157 Z7.962 A24.7436 B8.6771 
N1034 X182.473 Y-17.162 Z7.969 A25.7973 B8.7040 
N1035 X182.480 Y-17.168 Z7.976 A26.9541 B8.7353 
N1036 X182.487 Y-17.173 Z7.983 A28.1089 B8.7686 
N1037 X182.495 Y-17.179 Z7.989 A29.2618 B8.8037 
N1038 X182.502 Y-17.185 Z7.996 A30.4129 B8.8408 
N1039 X182.511 Y-17.191 Z8.002 A31.5622 B8.8797 
N1040 X182.519 Y-17.197 Z8.009 A32.7099 B8.9205 
N1041 X182.527 Y-17.204 Z8.015 A33.8560 B8.9631 
N1042 X182.536 Y-17.210 Z8.021 A34.9698 B9.0063 
N1043 X182.544 Y-17.217 Z8.026 A36.0908 B9.0516 
N1044 X182.553 Y-17.224 Z8.032 A37.2106 B9.0986 
N1045 X182.562 Y-17.230 Z8.038 A38.3295 B9.1473 
N1046 X182.571 Y-17.237 Z8.043 A39.4475 B9.1977 
N1047 X182.579 Y-17.245 Z8.048 A40.5649 B9.2498 
N1048 X182.588 Y-17.252 Z8.053 A41.6819 B9.3036 
N1049 X182.597 Y-17.259 Z8.058 A42.7986 B9.3590 
N1050 X182.606 Y-17.267 Z8.063 A43.9098 B9.4159 
N1051 X182.614 Y-17.274 Z8.068 A44.9734 B9.4718 
N1052 X182.622 Y-17.281 Z8.072 A46.0373 B9.5291 
N1053 X182.630 Y-17.289 Z8.076 A47.1015 B9.5880 
N1054 X182.637 Y-17.296 Z8.080 A48.1664 B9.6483 
N1055 X182.645 Y-17.304 Z8.084 A49.2319 B9.7100 
N1056 X182.652 Y-17.312 Z8.088 A50.2983 B9.7732 
N1057 X182.659 Y-17.320 Z8.091 A51.3656 B9.8378 
N1058 X182.666 Y-17.328 Z8.095 A52.4320 B9.9037 
N1059 X182.672 Y-17.336 Z8.098 A53.4682 B9.9689 
N1060 X182.678 Y-17.344 Z8.101 A54.5027 B10.0353 
N1061 X182.683 Y-17.352 Z8.104 A55.5385 B10.1029 
N1062 X182.688 Y-17.360 Z8.107 A56.5756 B10.1718 
N1063 X182.693 Y-17.368 Z8.109 A57.6140 B10.2419 
N1064 X182.697 Y-17.376 Z8.112 A58.6538 B10.3132 
N1065 X182.701 Y-17.385 Z8.114 A59.6950 B10.3856 
N1066 X182.704 Y-17.393 Z8.116 A60.7357 B10.4591 
N1067 X182.707 Y-17.401 Z8.118 A61.7597 B10.5324 
N1068 X182.709 Y-17.410 Z8.120 A62.7850 B10.6067 
N1069 X182.711 Y-17.418 Z8.121 A63.8115 B10.6821 
N1070 X182.712 Y-17.427 Z8.123 A64.8390 B10.7584 
N1071 X182.713 Y-17.435 Z8.124 A65.8674 B10.8356 
N1072 X182.714 Y-17.444 Z8.125 A66.8966 B10.9137 
N1073 X182.714 Y-17.453 Z8.126 A67.9264 B10.9926 
N1074 X182.715 Y-17.461 Z8.127 A68.9571 B11.0724 
N1075 X182.715 Y-17.470 Z8.128 A69.9889 B11.1529 
N1076 X182.715 Y-17.479 Z8.128 A71.0212 B11.2343 
N1077 X182.715 Y-17.488 Z8.128 A72.0540 B11.3164 
N1078 X182.715 Y-17.496 Z8.128 A73.0873 B11.3991 
N1079 X182.714 Y-17.505 Z8.128 A74.1210 B11.4824 
N1080 X182.713 Y-17.514 Z8.128 A75.1552 B11.5663 
N1081 X182.711 Y-17.523 Z8.128 A76.1899 B11.6507 
N1082 X182.709 Y-17.532 Z8.127 A77.2270 B11.7358 
N1083 X182.706 Y-17.541 Z8.127 A78.2849 B11.8230 
N1084 X182.702 Y-17.550 Z8.126 A79.3433 B11.9107 
N1085 X182.698 Y-17.559 Z8.125 A80.4020 B11.9988 
N1086 X182.693 Y-17.568 Z8.123 A81.4608 B12.0872 
N1087 X182.688 Y-17.577 Z8.122 A82.5196 B12.1759 
N1088 X182.682 Y-17.586 Z8.120 A83.5783 B12.2648 
N1089 X182.676 Y-17.595 Z8.118 A84.6367 B12.3539 
N1090 X182.669 Y-17.604 Z8.116 A85.7133 B12.4447 
N1091 X182.662 Y-17.613 Z8.114 A86.8242 B12.5386 
N1092 X182.654 Y-17.622 Z8.112 A87.9359 B12.6325 
N1093 X182.646 Y-17.631 Z8.109 A89.0470 B12.7265 
N1094 X182.637 Y-17.641 Z8.106 A90.1576 B12.8204 
N1095 X182.628 Y-17.650 Z8.104 A91.2678 B12.9142 
N1096 X182.618 Y-17.659 Z8.100 A92.3777 B13.0078 
N1097 X182.608 Y-17.668 Z8.097 A93.4872 B13.1013 
N1098 X182.598 Y-17.677 Z8.094 A94.6157 B13.1962 
N1099 X182.587 Y-17.686 Z8.090 A95.7862 B13.2944 
N1100 X182.576 Y-17.695 Z8.086 A96.9345 B13.3903 
N1101 X182.565 Y-17.704 Z8.082 A98.0826 B13.4860 
N1102 X182.554 Y-17.713 Z8.077 A99.2308 B13.5812 
N1103 X182.542 Y-17.722 Z8.073 A100.3791 B13.6759 
N1104 X182.530 Y-17.731 Z8.068 A101.5275 B13.7702 
N1105 X182.519 Y-17.739 Z8.063 A102.6761 B13.8639 
N1106 X182.507 Y-17.748 Z8.058 A103.8251 B13.9570 
N1107 X182.496 Y-17.756 Z8.054 A104.8588 B14.0403 
N1108 X182.485 Y-17.763 Z8.049 A105.8865 B14.1225 
N1109 X182.475 Y-17.770 Z8.044 A106.9147 B14.2042 
N1110 X182.464 Y-17.778 Z8.039 A107.9435 B14.2853 
N1111 X182.453 Y-17.785 Z8.034 A108.9729 B14.3658 
N1112 X182.443 Y-17.792 Z8.029 A110.0032 B14.4456 
N1113 X182.432 Y-17.799 Z8.023 A111.0343 B14.5249 
N1114 X182.422 Y-17.806 Z8.018 A112.0663 B14.6034 
N1115 X182.412 Y-17.813 Z8.012 A113.0994 B14.6813 
N1116 X182.402 Y-17.819 Z8.006 A114.1341 B14.7584 
N1117 X182.392 Y-17.826 Z8.000 A115.1751 B14.8352 
N1118 X182.383 Y-17.832 Z7.994 A116.2181 B14.9112 
N1119 X182.373 Y-17.839 Z7.988 A117.2624 B14.9864 
N1120 X182.364 Y-17.845 Z7.982 A118.3077 B15.0607 
N1121 X182.356 Y-17.851 Z7.975 A119.3540 B15.1342 
N1122 X182.347 Y-17.857 Z7.968 A120.4013 B15.2066 
N1123 X182.340 Y-17.863 Z7.962 A121.4495 B15.2781 
N1124 X182.332 Y-17.869 Z7.955 A122.4984 B15.3486 
N1125 X182.325 Y-17.875 Z7.948 A123.5481 B15.4180 
N1126 X182.318 Y-17.880 Z7.940 A124.6083 B15.4870 
N1127 X182.311 Y-17.886 Z7.932 A125.7658 B15.5609 
N1128 X182.305 Y-17.892 Z7.924 A126.9410 B15.6345 
N1129 X182.299 Y-17.897 Z7.915 A128.1162 B15.7066 
N1130 X182.294 Y-17.902 Z7.906 A129.2909 B15.7771 
N1131 X182.289 Y-17.907 Z7.898 A130.4647 B15.8460 
N1132 X182.285 Y-17.912 Z7.888 A131.6372 B15.9132 
N1133 X182.282 Y-17.917 Z7.879 A132.8077 B15.9786 
N1134 X182.279 Y-17.921 Z7.870 A133.9797 B16.0425 
N1135 X182.277 Y-17.925 Z7.860 A135.1570 B16.1050 
N1136 X182.276 Y-17.928 Z7.851 A136.2430 B16.1610 
N1137 X182.275 Y-17.931 Z7.842 A137.3247 B16.2154 
N1138 X182.275 Y-17.934 Z7.832 A138.4013 B16.2680 
N1139 X182.276 Y-17.937 Z7.822 A139.4716 B16.3188 
N1140 X182.277 Y-17.939 Z7.813 A140.5344 B16.3677 
N1141 X182.279 Y-17.940 Z7.802 A141.5996 B16.4152 
N1142 X182.282 Y-17.941 Z7.791 A142.7229 B16.4636 
N1143 X182.286 Y-17.942 Z7.780 A143.8302 B16.5096 
N1144 X182.290 Y-17.941 Z7.768 A144.9169 B16.5531 
N1145 X182.294 Y-17.940 Z7.756 A145.9768 B16.5938 
N1146 X182.300 Y-17.937 Z7.743 A146.9852 B16.6310 
N1147 X182.306 Y-17.933 Z7.729 A147.9341 B16.6644 
N1148 X182.312 Y-17.927 Z7.714 A148.8159 B16.6941 
N1149 X184.513 Y-23.154 Z-0.522 
N1150 G00 X190.014 Y-36.222 Z-21.112 
N1151 X191.061 Y-58.078 Z-34.296 
N1152 X180.058 Y-31.941 Z6.884 
N1153 G01 X180.134 Y-29.513 Z8.855 F878 
N1154 X180.355 Y-26.604 Z9.987 
N1155 X180.699 Y-23.499 Z10.167 
N1156 X181.132 Y-20.503 Z9.378 
N1157 M342 ; chlodziwo woda
VELOLIM[A]=100 ;PRZYWOLANIE VELOLIM
N1158 X181.612 Y-17.908 Z7.698 
N1158 X181.612 Y-17.908 Z7.698 
F200
N1159 X181.619 Y-17.898 Z7.682 A149.6007 B16.7190 F199 
N1160 X181.628 Y-17.880 Z7.659 A150.3700 B16.7416 
N1161 X181.639 Y-17.846 Z7.625 A150.9704 B16.7562 
N1162 X181.654 Y-17.790 Z7.576 A151.2685 B16.7585 
N1163 X181.673 Y-17.708 Z7.508 A151.3710 B16.7517 
N1164 X181.696 Y-17.607 Z7.424 A151.4040 B16.7406 
N1165 X181.724 Y-17.478 Z7.318 A151.4300 B16.7258 
N1166 X181.759 Y-17.309 Z7.178 A151.4666 B16.7065 
N1167 X181.800 Y-17.102 Z7.008 A151.5154 B16.6829 
N1168 X181.842 Y-16.875 Z6.821 A151.5718 B16.6569 
N1169 X181.882 Y-16.647 Z6.634 A151.6310 B16.6309 
N1170 X181.920 Y-16.418 Z6.447 A151.6940 B16.6049 
N1171 X181.955 Y-16.190 Z6.260 A151.7624 B16.5788 
N1172 X181.987 Y-15.961 Z6.074 A151.8378 B16.5527 
N1173 X182.018 Y-15.733 Z5.887 A151.9217 B16.5266 
N1174 X182.045 Y-15.504 Z5.701 A152.0150 B16.5006 
N1175 X182.071 Y-15.275 Z5.516 A152.1179 B16.4745 
N1176 X182.094 Y-15.046 Z5.331 A152.2301 B16.4484 
N1177 X182.115 Y-14.816 Z5.146 A152.3514 B16.4221 
N1178 X182.134 Y-14.587 Z4.962 A152.4812 B16.3957 
N1179 X182.151 Y-14.357 Z4.778 A152.6194 B16.3692 
N1180 X182.165 Y-14.127 Z4.595 A152.7660 B16.3424 
N1181 X182.176 Y-13.897 Z4.413 A152.9209 B16.3154 
N1182 X182.185 Y-13.666 Z4.232 A153.0840 B16.2881 
N1183 X182.192 Y-13.436 Z4.051 A153.2555 B16.2606 
N1184 X182.197 Y-13.205 Z3.871 A153.4352 B16.2322 
N1185 X182.201 Y-12.973 Z3.692 A153.6233 B16.2022 
N1186 X182.206 Y-12.742 Z3.514 A153.8207 B16.1717 
N1187 X182.210 Y-12.510 Z3.336 A154.0282 B16.1408 
N1188 X182.214 Y-12.278 Z3.160 A154.2470 B16.1093 
N1189 X182.218 Y-12.046 Z2.985 A154.4785 B16.0772 
N1190 X182.221 Y-11.813 Z2.811 A154.7236 B16.0445 
N1191 X182.224 Y-11.581 Z2.639 A154.9829 B16.0111 
N1192 X182.227 Y-11.348 Z2.467 A155.2570 B15.9769 
N1193 X182.229 Y-11.114 Z2.297 A155.5457 B15.9419 
N1194 X182.231 Y-10.881 Z2.128 A155.8492 B15.9060 
N1195 X182.232 Y-10.647 Z1.961 A156.1673 B15.8691 
N1196 X182.234 Y-10.412 Z1.796 A156.5005 B15.8311 
N1197 X182.236 Y-10.177 Z1.632 A156.8490 B15.7921 
N1198 X182.237 Y-9.942 Z1.470 A157.2134 B15.7518 
N1199 X182.238 Y-9.706 Z1.309 A157.5944 B15.7102 
N1200 X182.238 Y-9.470 Z1.150 A157.9925 B15.6672 
N1201 X182.238 Y-9.234 Z0.994 A158.4085 B15.6227 
N1202 X182.238 Y-8.996 Z0.839 A158.8431 B15.5766 
N1203 X182.237 Y-8.759 Z0.686 A159.2972 B15.5288 
N1204 X182.236 Y-8.521 Z0.536 A159.7714 B15.4792 
N1205 X182.235 Y-8.282 Z0.388 A160.2675 B15.4330 
N1206 X182.233 Y-8.043 Z0.242 A160.7864 B15.3900 
N1207 X182.231 Y-7.804 Z0.099 A161.3283 B15.3454 
N1208 X182.229 Y-7.564 Z-0.042 A161.8944 B15.2993 
N1209 X182.226 Y-7.323 Z-0.180 A162.4859 B15.2514 
N1210 X182.223 Y-7.083 Z-0.315 A163.1043 B15.2016 
N1211 X182.220 Y-6.841 Z-0.447 A163.7519 B15.1499 
N1212 X182.217 Y-6.600 Z-0.576 A164.4308 B15.0961 
N1213 X182.213 Y-6.358 Z-0.702 A165.1436 B15.0400 
N1214 X182.209 Y-6.116 Z-0.824 A165.8927 B14.9814 
N1215 X182.205 Y-5.874 Z-0.943 A166.6794 B14.9202 
N1216 X182.200 Y-5.631 Z-1.057 A167.5046 B14.8564 
N1217 X182.195 Y-5.389 Z-1.168 A168.3681 B14.7898 
N1218 X182.190 Y-5.146 Z-1.275 A169.2694 B14.7203 
N1219 X182.185 Y-4.903 Z-1.378 A170.2080 B14.6479 
N1220 X182.179 Y-4.670 Z-1.472 A171.1421 B14.5703 
N1221 X182.173 Y-4.471 Z-1.549 A171.9631 B14.5018 
N1222 X182.166 Y-4.293 Z-1.616 A172.7227 B14.4384 
N1223 X182.155 Y-4.101 Z-1.684 A173.5604 B14.3685 
N1224 X182.142 Y-3.908 Z-1.750 A174.4309 B14.2958 
N1225 X182.127 Y-3.715 Z-1.813 A175.3284 B14.2210 
N1226 X182.110 Y-3.514 Z-1.875 A176.2973 B14.1403 
N1227 X182.093 Y-3.315 Z-1.934 A177.2835 B14.0583 
N1228 X182.076 Y-3.126 Z-1.985 A178.2505 B13.9781 
N1229 X182.058 Y-2.939 Z-2.034 A179.2358 B13.8965 
N1230 X182.041 Y-2.756 Z-2.078 A180.2321 B13.8142 
N1231 X182.024 Y-2.578 Z-2.117 A181.2263 B13.7323 
N1232 X182.008 Y-2.406 Z-2.153 A182.2166 B13.6510 
N1233 X181.993 Y-2.240 Z-2.184 A183.1993 B13.5706 
N1234 X181.979 Y-2.079 Z-2.212 A184.1728 B13.4912 
N1235 X181.966 Y-1.924 Z-2.237 A185.1375 B13.4129 
N1236 X181.955 Y-1.774 Z-2.258 A186.0935 B13.3356 
N1237 X181.945 Y-1.628 Z-2.276 A187.0435 B13.2592 
N1238 X181.936 Y-1.486 Z-2.291 A187.9876 B13.1836 
N1239 X181.928 Y-1.348 Z-2.304 A188.9234 B13.1090 
N1240 X181.922 Y-1.214 Z-2.314 A189.8493 B13.0356 
N1241 X181.916 Y-1.083 Z-2.323 A190.7726 B12.9629 
N1242 X181.912 Y-0.951 Z-2.329 A191.7133 B12.8892 
N1243 X181.909 Y-0.820 Z-2.333 A192.6691 B12.8148 
N1244 X181.906 Y-0.693 Z-2.335 A193.6146 B12.7418 
N1245 X181.904 Y-0.571 Z-2.335 A194.5295 B12.6716 
N1246 X181.904 Y-0.455 Z-2.333 A195.4151 B12.6041 
N1247 X181.905 Y-0.338 Z-2.329 A196.3241 B12.5355 
N1248 X181.907 Y-0.218 Z-2.323 A197.2685 B12.4647 
N1249 X181.909 Y-0.096 Z-2.316 A198.2367 B12.3927 
N1250 X181.912 Y0.024 Z-2.306 A199.2076 B12.3213 
N1251 X181.915 Y0.143 Z-2.295 A200.1772 B12.2507 
N1252 X181.919 Y0.260 Z-2.282 A201.1468 B12.1807 
N1253 X181.924 Y0.377 Z-2.266 A202.1233 B12.1111 
N1254 X181.928 Y0.493 Z-2.249 A203.1051 B12.0419 
N1255 X181.933 Y0.609 Z-2.230 A204.0903 B11.9732 
N1256 X181.938 Y0.724 Z-2.209 A205.0783 B11.9053 
N1257 X181.943 Y0.838 Z-2.187 A206.0658 B11.8383 
N1258 X181.948 Y0.950 Z-2.162 A207.0504 B11.7723 
N1259 X181.953 Y1.061 Z-2.136 A208.0302 B11.7077 
N1260 X181.957 Y1.171 Z-2.108 A209.0018 B11.6445 
N1261 X181.960 Y1.278 Z-2.079 A209.9619 B11.5830 
N1262 X181.963 Y1.384 Z-2.049 A210.9065 B11.5235 
N1263 X181.964 Y1.486 Z-2.017 A211.8321 B11.4661 
N1264 X181.965 Y1.586 Z-1.985 A212.7388 B11.4108 
N1265 X181.965 Y1.684 Z-1.951 A213.6343 B11.3570 
N1266 X181.964 Y1.781 Z-1.916 A214.5180 B11.3049 
N1267 X181.961 Y1.877 Z-1.880 A215.3934 B11.2542 
N1268 X181.957 Y1.977 Z-1.840 A216.3188 B11.2015 
N1269 X181.953 Y2.083 Z-1.796 A217.2946 B11.1472 
N1270 X181.948 Y2.190 Z-1.749 A218.2796 B11.0932 
N1271 X181.944 Y2.296 Z-1.700 A219.2629 B11.0292 
N1272 X181.940 Y2.403 Z-1.649 A220.2497 B10.9655 
N1273 X181.936 Y2.510 Z-1.595 A221.2370 B10.9022 
N1274 X181.932 Y2.617 Z-1.539 A222.2246 B10.8393 
N1275 X181.927 Y2.724 Z-1.480 A223.2117 B10.7770 
N1276 X181.923 Y2.831 Z-1.419 A224.1964 B10.7152 
N1277 X181.919 Y2.938 Z-1.355 A225.1761 B10.6540 
N1278 X181.915 Y3.046 Z-1.288 A226.1419 B10.5938 
N1279 X181.911 Y3.154 Z-1.217 A227.0786 B10.5353 
N1280 X181.906 Y3.265 Z-1.141 A227.9664 B10.4790 
N1281 X181.902 Y3.377 Z-1.060 A228.7848 B10.4259 
N1282 X181.898 Y3.492 Z-0.974 A229.5233 B10.3763 
N1283 X181.893 Y3.608 Z-0.881 A230.1853 B10.3299 
N1284 X181.888 Y3.727 Z-0.783 A230.7864 B10.2860 
N1285 X181.884 Y3.846 Z-0.680 A231.3482 B10.2436 
N1286 X181.879 Y3.967 Z-0.572 A231.8891 B10.2020 
N1287 X181.874 Y4.087 Z-0.460 A232.4226 B10.1605 
N1288 X181.870 Y4.208 Z-0.343 A232.9593 B10.1187 
N1289 X181.865 Y4.328 Z-0.223 A233.5118 B10.0761 
N1290 X181.862 Y4.447 Z-0.098 A234.0917 B9.9709 
N1291 X181.863 Y4.565 Z0.030 A234.7135 B9.7402 
N1292 X181.868 Y4.681 Z0.161 A235.3951 B9.3871 
N1293 X181.877 Y4.795 Z0.294 A236.1478 B8.9098 
N1294 X181.887 Y4.901 Z0.423 A236.9526 B8.3715 
N1295 X181.896 Y4.995 Z0.540 A237.7445 B7.8558 
N1296 X181.904 Y5.088 Z0.659 A238.5488 B7.2889 
N1297 X181.912 Y5.180 Z0.782 A239.3570 B6.6670 
N1298 X181.920 Y5.273 Z0.908 A240.1593 B5.9869 
N1299 X181.928 Y5.365 Z1.039 A240.9519 B5.2487 
N1300 X181.935 Y5.458 Z1.174 A241.7334 B4.4471 
N1301 X181.942 Y5.552 Z1.314 A242.5050 B3.5806 
N1302 X181.949 Y5.645 Z1.458 A243.2682 B2.6425 
N1303 X181.955 Y5.739 Z1.607 A244.0249 B1.6268 
N1304 X181.962 Y5.832 Z1.760 A244.7760 B0.5321 
N1305 X181.969 Y5.925 Z1.916 A245.5217 B-0.6503 
N1306 X181.976 Y6.018 Z2.077 A246.2616 B-1.9247 
N1307 X181.974 Y6.110 Z2.240 A247.0265 B-2.9516 
N1308 X181.951 Y6.199 Z2.405 A247.8444 B-3.4144 
N1309 X181.926 Y6.287 Z2.573 A248.6615 B-3.8909 
N1310 X181.898 Y6.374 Z2.745 A249.4762 B-4.3800 
N1311 X181.868 Y6.459 Z2.922 A250.2900 B-4.8826 
N1312 X181.836 Y6.544 Z3.104 A251.1069 B-5.4012 
N1313 X181.801 Y6.627 Z3.289 A251.9116 B-5.9256 
N1314 X181.764 Y6.708 Z3.476 A252.7064 B-6.4561 
N1315 X181.721 Y6.793 Z3.682 A253.5671 B-7.0434 
N1316 X181.677 Y6.874 Z3.887 A254.4178 B-7.6327 
N1317 X181.637 Y6.942 Z4.067 A255.1751 B-8.1605 
N1318 X181.592 Y7.011 Z4.257 A255.9931 B-8.7332 
N1319 X181.545 Y7.078 Z4.453 A256.8595 B-9.3393 
N1320 X181.499 Y7.140 Z4.642 A257.7258 B-9.9421 
N1321 X181.452 Y7.197 Z4.826 A258.6121 B-10.5541 
N1322 X181.405 Y7.250 Z5.006 A259.5158 B-11.1720 
N1323 X181.359 Y7.298 Z5.181 A260.4361 B-11.7934 
N1324 X181.315 Y7.342 Z5.348 A261.3748 B-12.4167 
N1325 X181.272 Y7.380 Z5.507 A262.3332 B-13.0388 
N1326 X181.231 Y7.414 Z5.655 A263.3103 B-13.6569 
N1327 X181.193 Y7.443 Z5.794 A264.3038 B-14.2698 
N1328 X181.157 Y7.468 Z5.926 A265.3114 B-14.8776 
N1329 X181.122 Y7.491 Z6.051 A266.3283 B-15.4780 
N1330 X181.091 Y7.509 Z6.166 A267.3288 B-16.0542 
N1331 X181.064 Y7.523 Z6.260 A268.2192 B-16.5533 
N1332 X181.041 Y7.534 Z6.342 A269.0782 B-17.0209 
N1333 X181.017 Y7.546 Z6.433 A270.1203 B-17.5711 
N1334 X180.994 Y7.555 Z6.517 A271.1894 B-18.1167 
N1335 X180.974 Y7.562 Z6.592 A272.2694 B-18.6489 
N1336 X180.956 Y7.568 Z6.660 A273.3532 B-19.1647 
N1337 X180.940 Y7.573 Z6.721 A274.4486 B-19.6681 
N1338 X180.926 Y7.577 Z6.776 A275.5641 B-20.1631 
N1339 X180.914 Y7.580 Z6.822 A276.5976 B-20.6057 
N1340 X180.905 Y7.582 Z6.860 A277.5733 B-21.0098 
N1341 X180.896 Y7.584 Z6.900 A278.6799 B-21.4751 
N1342 X180.892 Y7.587 Z6.940 A279.8494 B-22.0765 
N1343 X180.887 Y7.590 Z6.974 A281.0151 B-22.6347 
N1344 X180.883 Y7.592 Z7.005 A282.1454 B-23.1408 
N1345 X180.879 Y7.593 Z7.031 A283.2569 B-23.6081 
N1346 X180.875 Y7.595 Z7.056 A284.3783 B-24.0516 
N1347 X180.872 Y7.596 Z7.079 A285.5077 B-24.4723 
N1348 X180.869 Y7.598 Z7.099 A286.6460 B-24.8718 
N1349 X180.866 Y7.599 Z7.119 A287.7997 B-25.2532 
N1350 X180.863 Y7.601 Z7.136 A288.9667 B-25.6163 
N1351 X180.860 Y7.602 Z7.153 A290.1445 B-25.9608 
N1352 X180.857 Y7.603 Z7.168 A291.3286 B-26.2859 
N1353 X180.854 Y7.605 Z7.182 A292.5033 B-26.5880 
N1354 X180.851 Y7.606 Z7.195 A293.6637 B-26.8673 
N1355 X180.848 Y7.607 Z7.207 A294.8078 B-27.1244 
N1356 X180.845 Y7.609 Z7.217 A295.9353 B-27.3604 
N1357 X180.843 Y7.610 Z7.227 A297.0455 B-27.5763 
N1358 X180.840 Y7.612 Z7.237 A298.1669 B-27.7780 
N1359 X180.838 Y7.614 Z7.246 A299.3053 B-27.9661 
N1360 X180.835 Y7.615 Z7.254 A300.4556 B-28.1393 
N1361 X180.833 Y7.617 Z7.263 A301.6167 B-28.2972 
N1362 X180.830 Y7.619 Z7.271 A302.7874 B-28.4392 
N1363 X180.827 Y7.621 Z7.278 A303.9668 B-28.5648 
N1364 X180.825 Y7.623 Z7.286 A305.1395 B-28.6724 
N1365 X180.822 Y7.625 Z7.292 A306.2760 B-28.7602 
N1366 X180.820 Y7.627 Z7.299 A307.4092 B-28.8317 
N1367 X180.817 Y7.629 Z7.305 A308.5380 B-28.8868 
N1368 X180.815 Y7.631 Z7.311 A309.6610 B-28.9257 
N1369 X180.812 Y7.634 Z7.316 A310.7774 B-28.9485 
N1370 X180.809 Y7.636 Z7.322 A311.8864 B-28.9554 
N1371 X180.807 Y7.638 Z7.328 A312.9956 B-28.9465 
N1372 X180.804 Y7.641 Z7.333 A314.1397 B-28.9207 
N1373 X180.801 Y7.643 Z7.339 A315.3016 B-28.8769 
N1374 X180.798 Y7.645 Z7.345 A316.4613 B-28.8155 
N1375 X180.795 Y7.648 Z7.351 A317.6178 B-28.7365 
N1376 X180.792 Y7.650 Z7.356 A318.7704 B-28.6399 
N1377 X180.789 Y7.652 Z7.362 A319.9182 B-28.5257 
N1378 X180.785 Y7.654 Z7.368 A321.0604 B-28.3942 
N1379 X180.782 Y7.656 Z7.374 A322.1964 B-28.2453 
N1380 X180.779 Y7.658 Z7.380 A323.3332 B-28.0782 
N1381 X180.775 Y7.660 Z7.386 A324.4665 B-27.8932 
N1382 X180.772 Y7.661 Z7.393 A325.5915 B-27.6913 
N1383 X180.768 Y7.663 Z7.399 A326.7076 B-27.4726 
N1384 X180.765 Y7.664 Z7.406 A327.8142 B-27.2376 
N1385 X180.761 Y7.665 Z7.412 A328.9107 B-26.9865 
N1386 X180.758 Y7.666 Z7.419 A329.9968 B-26.7196 
N1387 X180.754 Y7.667 Z7.426 A331.0720 B-26.4374 
N1388 X180.751 Y7.667 Z7.433 A332.1332 B-26.1410 
N1389 X180.747 Y7.667 Z7.440 A333.1692 B-25.8342 
N1390 X180.744 Y7.666 Z7.448 A334.1936 B-25.5137 
N1391 X180.740 Y7.666 Z7.455 A335.2064 B-25.1797 
N1392 X180.737 Y7.665 Z7.463 A336.2073 B-24.8327 
N1393 X180.733 Y7.664 Z7.471 A337.2020 B-24.4708 
N1394 X180.730 Y7.662 Z7.479 A338.1962 B-24.0919 
N1395 X180.726 Y7.660 Z7.487 A339.1892 B-23.6958 
N1396 X180.722 Y7.657 Z7.496 A340.1816 B-23.2821 
N1397 X180.718 Y7.654 Z7.505 A341.1819 B-22.8464 
N1398 X180.714 Y7.650 Z7.514 A342.1896 B-22.3884 
N1399 X180.710 Y7.645 Z7.523 A343.2012 B-21.9086 
N1400 X180.705 Y7.640 Z7.533 A344.2125 B-21.4085 
N1401 X180.699 Y7.634 Z7.543 A345.2187 B-20.8901 
N1402 X180.694 Y7.627 Z7.554 A346.2145 B-20.3560 
N1403 X180.688 Y7.620 Z7.564 A347.1972 B-19.8077 
N1404 X180.681 Y7.612 Z7.575 A348.1724 B-19.2421 
N1405 X180.674 Y7.603 Z7.585 A349.1370 B-18.6605 
N1406 X180.666 Y7.593 Z7.596 A350.0865 B-18.0657 
N1407 X180.658 Y7.583 Z7.607 A351.0167 B-17.4603 
N1408 X180.650 Y7.572 Z7.617 A351.9238 B-16.8473 
N1409 X180.642 Y7.560 Z7.628 A352.8062 B-16.2282 
N1410 X180.634 Y7.547 Z7.638 A353.6775 B-15.5993 
N1411 X180.626 Y7.534 Z7.649 A354.5436 B-14.9674 
N1412 X180.618 Y7.519 Z7.660 A355.4043 B-14.3341 
N1413 X180.611 Y7.504 Z7.670 A356.2589 B-13.7004 
N1414 X180.604 Y7.488 Z7.681 A357.1069 B-13.0672 
N1415 X180.597 Y7.472 Z7.692 A357.9485 B-12.4350 
N1416 X180.591 Y7.454 Z7.702 A358.7845 B-11.8038 
N1417 X180.585 Y7.435 Z7.713 A359.6139 B-11.1747 
N1418 X180.580 Y7.415 Z7.723 A0.4357 B-10.5490 
N1419 X180.575 Y7.395 Z7.734 A1.2487 B-9.9281 
N1420 X180.571 Y7.373 Z7.744 A2.0580 B-9.3084 
N1421 X180.568 Y7.350 Z7.754 A2.8674 B-8.6872 
N1422 X180.565 Y7.325 Z7.764 A3.6758 B-8.0657 
N1423 X180.564 Y7.299 Z7.774 A4.4818 B-7.4450 
N1424 X180.563 Y7.270 Z7.784 A5.2853 B-6.8254 
N1425 X180.563 Y7.240 Z7.794 A6.0855 B-6.2075 
N1426 X180.564 Y7.207 Z7.803 A6.8806 B-5.5925 
N1427 X180.566 Y7.172 Z7.812 A7.6690 B-4.9819 
N1428 X180.570 Y7.135 Z7.821 A8.4497 B-4.3768 
N1429 X180.575 Y7.094 Z7.829 A9.2241 B-3.7766 
N1430 X180.582 Y7.051 Z7.836 A9.9965 B-3.1782 
N1431 X180.590 Y7.004 Z7.843 A10.7702 B-2.5799 
N1432 X180.600 Y6.953 Z7.849 A11.5563 B-1.9735 
N1433 X180.613 Y6.897 Z7.855 A12.3642 B-1.3523 
N1434 X180.627 Y6.836 Z7.859 A13.1833 B-0.7253 
N1435 X180.644 Y6.770 Z7.862 A14.0111 B-0.0949 
N1436 X180.664 Y6.698 Z7.864 A14.8521 B0.5417 
N1437 X180.688 Y6.618 Z7.864 A15.7104 B1.1871 
N1438 X180.714 Y6.531 Z7.862 A16.5746 B1.8322 
N1439 X180.745 Y6.435 Z7.857 A17.4473 B2.4787 
N1440 X180.781 Y6.327 Z7.849 A18.3441 B3.1372 
N1441 X180.821 Y6.208 Z7.837 A19.2526 B3.7954 
N1442 X180.860 Y6.095 Z7.823 A20.0638 B4.3726 
N1443 X180.901 Y5.974 Z7.806 A20.8959 B4.9514 
N1444 X180.949 Y5.837 Z7.784 A21.7905 B5.5593 
N1445 X181.000 Y5.691 Z7.757 A22.6749 B6.1462 
N1446 X181.054 Y5.535 Z7.725 A23.5386 B6.7075 
N1447 X181.109 Y5.375 Z7.689 A24.3455 B7.2214 
N1448 X181.164 Y5.209 Z7.648 A25.1078 B7.6964 
N1449 X181.220 Y5.037 Z7.603 A25.8346 B8.1384 
N1450 X181.273 Y4.868 Z7.555 A26.4903 B8.5274 
N1451 X181.323 Y4.699 Z7.506 A27.0897 B8.8748 
N1452 X181.371 Y4.531 Z7.454 A27.6393 B9.1869 
N1453 X181.416 Y4.363 Z7.400 A28.1409 B9.4669 
N1454 X181.460 Y4.191 Z7.343 A28.6045 B9.7225 
N1455 X181.500 Y4.021 Z7.284 A29.0170 B9.9483 
N1456 X181.534 Y3.868 Z7.231 A29.3517 B10.1309 
N1457 X181.567 Y3.702 Z7.171 A29.6807 B10.3104 
N1458 X181.607 Y3.492 Z7.095 A30.0517 B10.5140 
N1459 X181.650 Y3.245 Z7.003 A30.4311 B10.7252 
N1460 X181.692 Y2.987 Z6.905 A30.7737 B10.9202 
N1461 X181.731 Y2.719 Z6.801 A31.0797 B11.0840 
N1462 X181.766 Y2.450 Z6.696 A31.3405 B11.2302 
N1463 X181.796 Y2.178 Z6.589 A31.5565 B11.3622 
N1464 X181.822 Y1.905 Z6.481 A31.7256 B11.4826 
N1465 X181.843 Y1.630 Z6.371 A31.8451 B11.5940 
N1466 X181.859 Y1.353 Z6.261 A31.9113 B11.6994 
N1467 X181.870 Y1.073 Z6.150 A31.9205 B11.8021 
N1468 X181.878 Y0.789 Z6.036 A31.7792 B11.8550 
N1469 X181.888 Y0.500 Z5.922 A31.4929 B11.8064 
N1470 X181.899 Y0.209 Z5.807 A31.1300 B11.7547 
N1471 X181.909 Y-0.086 Z5.692 A30.6855 B11.6999 
N1472 X181.920 Y-0.385 Z5.579 A30.1557 B11.6417 
N1473 X181.931 Y-0.688 Z5.467 A29.5389 B11.5801 
N1474 X181.941 Y-0.995 Z5.356 A28.8353 B11.5153 
N1475 X181.952 Y-1.306 Z5.248 A28.0468 B11.4473 
N1476 X181.962 Y-1.622 Z5.143 A27.1755 B11.3765 
N1477 X181.973 Y-1.942 Z5.042 A26.2231 B11.3031 
N1478 X181.983 Y-2.257 Z4.948 A25.2228 B11.2295 
N1479 X181.992 Y-2.555 Z4.864 A24.2224 B11.1588 
N1480 X182.001 Y-2.839 Z4.788 A23.2224 B11.0908 
N1481 X182.009 Y-3.111 Z4.721 A22.2226 B11.0250 
N1482 X182.016 Y-3.376 Z4.660 A21.2232 B10.9611 
N1483 X182.023 Y-3.633 Z4.606 A20.2243 B10.8990 
N1484 X182.030 Y-3.885 Z4.557 A19.2257 B10.8384 
N1485 X182.037 Y-4.133 Z4.513 A18.2273 B10.7791 
N1486 X182.043 Y-4.378 Z4.474 A17.2291 B10.7210 
N1487 X182.049 Y-4.621 Z4.439 A16.2314 B10.6641 
N1488 X182.055 Y-4.863 Z4.409 A15.2340 B10.6083 
N1489 X182.061 Y-5.103 Z4.383 A14.2367 B10.5536 
N1490 X182.066 Y-5.343 Z4.362 A13.2398 B10.4998 
N1491 X182.071 Y-5.583 Z4.345 A12.2433 B10.4471 
N1492 X182.076 Y-5.823 Z4.332 A11.2470 B10.3952 
N1493 X182.081 Y-6.064 Z4.323 A10.2509 B10.3443 
N1494 X182.085 Y-6.305 Z4.318 A9.2552 B10.2943 
N1495 X182.090 Y-6.549 Z4.317 A8.2599 B10.2451 
N1496 X182.094 Y-6.794 Z4.321 A7.2647 B10.1967 
N1497 X182.098 Y-7.042 Z4.330 A6.2699 B10.1490 
N1498 X182.102 Y-7.293 Z4.343 A5.2755 B10.1022 
N1499 X182.105 Y-7.548 Z4.360 A4.2814 B10.0560 
N1500 X182.109 Y-7.806 Z4.383 A3.2876 B10.0105 
N1501 X182.112 Y-8.069 Z4.410 A2.2942 B9.9657 
N1502 X182.115 Y-8.337 Z4.444 A1.3011 B9.9214 
N1503 X182.118 Y-8.611 Z4.482 A0.3091 B9.8777 
N1504 X182.120 Y-8.892 Z4.527 A359.3152 B9.8344 
N1505 X182.122 Y-9.176 Z4.578 A358.3381 B9.7922 
N1506 X182.124 Y-9.469 Z4.636 A357.3576 B9.7502 
N1507 X182.125 Y-9.776 Z4.702 A356.3653 B9.7078 
N1508 X182.126 Y-10.094 Z4.777 A355.3722 B9.6655 
N1509 X182.127 Y-10.420 Z4.860 A354.3917 B9.6238 
N1510 X182.129 Y-10.743 Z4.949 A353.4595 B9.5840 
N1511 X182.128 Y-11.047 Z5.038 A352.6128 B9.5478 
N1512 X182.127 Y-11.365 Z5.136 A351.7632 B9.5112 
N1513 X182.126 Y-11.679 Z5.238 A350.9540 B9.4762 
N1514 X182.125 Y-11.991 Z5.344 A350.1828 B9.4425 
N1515 X182.123 Y-12.300 Z5.455 A349.4474 B9.4101 
N1516 X182.121 Y-12.606 Z5.569 A348.7451 B9.3788 
N1517 X182.118 Y-12.910 Z5.686 A348.0727 B9.3486 
N1518 X182.115 Y-13.211 Z5.807 A347.4266 B9.3194 
N1519 X182.111 Y-13.510 Z5.931 A346.8036 B9.2912 
N1520 X182.107 Y-13.807 Z6.058 A346.2041 B9.2639 
N1521 X182.103 Y-14.101 Z6.188 A345.6336 B9.2373 
N1522 X182.098 Y-14.392 Z6.320 A345.0991 B9.2112 
N1523 X182.093 Y-14.681 Z6.454 A344.6076 B9.1855 
N1524 X182.087 Y-14.967 Z6.591 A344.1615 B9.1572 
N1525 X182.082 Y-15.235 Z6.721 A343.7780 B9.1278 
N1526 X182.077 Y-15.451 Z6.828 A343.4869 B9.1039 
N1527 X182.070 Y-15.627 Z6.916 A343.2584 B9.0845 
N1528 X182.061 Y-15.786 Z6.996 A343.0560 B9.0671 
N1529 X182.049 Y-15.948 Z7.079 A342.8520 B9.0496 
N1530 X182.036 Y-16.091 Z7.153 A342.6706 B9.0342 
N1531 X182.020 Y-16.230 Z7.225 A342.4932 B9.0195 
N1532 X182.005 Y-16.354 Z7.289 A342.3336 B9.0066 
N1533 X181.991 Y-16.453 Z7.341 A342.2038 B8.9964 
N1534 X181.976 Y-16.554 Z7.395 A342.0668 B8.9862 
N1535 X181.955 Y-16.673 Z7.458 A341.8989 B8.9745 
N1536 X181.932 Y-16.794 Z7.522 A341.7365 B8.9625 
N1537 X181.911 Y-16.893 Z7.577 A341.7381 B8.9482 
N1538 X181.892 Y-16.957 Z7.616 A342.2202 B8.9235 
N1539 X181.877 Y-16.990 Z7.641 A343.1842 B8.8884 
N1540 X181.865 Y-17.006 Z7.656 A344.1904 B8.8553 
N1541 X181.855 Y-17.016 Z7.669 A345.1995 B8.8240 
N1542 X181.846 Y-17.023 Z7.680 A346.1835 B8.7949 
N1543 X181.837 Y-17.029 Z7.689 A347.1788 B8.7668 
N1544 X181.829 Y-17.033 Z7.699 A348.2006 B8.7392 
N1545 X181.820 Y-17.038 Z7.708 A349.2432 B8.7125 
N1546 X181.812 Y-17.041 Z7.718 A350.2977 B8.6868 
N1547 X181.803 Y-17.045 Z7.727 A351.3539 B8.6625 
N1548 X181.796 Y-17.048 Z7.735 A352.4199 B8.6393 
N1549 X181.788 Y-17.051 Z7.744 A353.4950 B8.6174 
N1550 X181.780 Y-17.054 Z7.753 A354.5779 B8.5968 
N1551 X181.773 Y-17.057 Z7.761 A355.6679 B8.5776 
N1552 X181.767 Y-17.060 Z7.770 A356.7585 B8.5599 
N1553 X181.761 Y-17.063 Z7.778 A357.8391 B8.5440 
N1554 X181.755 Y-17.066 Z7.786 A358.9238 B8.5295 
N1555 X181.750 Y-17.069 Z7.794 A0.0128 B8.5165 
N1556 X181.746 Y-17.072 Z7.803 A1.1058 B8.5052 
N1557 X181.741 Y-17.075 Z7.811 A2.2023 B8.4954 
N1558 X181.738 Y-17.079 Z7.819 A3.3019 B8.4872 
N1559 X181.734 Y-17.082 Z7.827 A4.4042 B8.4808 
N1560 X181.732 Y-17.085 Z7.835 A5.4825 B8.4761 
N1561 X181.730 Y-17.089 Z7.842 A6.4904 B8.4732 
N1562 X181.728 Y-17.092 Z7.849 A7.4965 B8.4717 
N1563 X181.727 Y-17.095 Z7.856 A8.5038 
N1564 X181.726 Y-17.099 Z7.863 A9.5122 B8.4732 
N1565 X181.726 Y-17.102 Z7.870 A10.5212 B8.4761 
N1566 X181.726 Y-17.106 Z7.877 A11.5308 B8.4806 
N1567 X181.726 Y-17.110 Z7.884 A12.5407 B8.4865 
N1568 X181.727 Y-17.114 Z7.890 A13.5508 B8.4939 
N1569 X181.729 Y-17.118 Z7.897 A14.5606 B8.5028 
N1570 X181.731 Y-17.122 Z7.904 A15.5797 B8.5133 
N1571 X181.733 Y-17.127 Z7.910 A16.6014 B8.5254 
N1572 X181.736 Y-17.131 Z7.917 A17.6225 B8.5390 
N1573 X181.739 Y-17.136 Z7.923 A18.6429 B8.5542 
N1574 X181.743 Y-17.140 Z7.930 A19.6625 B8.5709 
N1575 X181.747 Y-17.145 Z7.936 A20.6811 B8.5891 
N1576 X181.751 Y-17.150 Z7.942 A21.6986 B8.6088 
N1577 X181.756 Y-17.155 Z7.948 A22.7149 B8.6301 
N1578 X181.761 Y-17.160 Z7.954 A23.7300 B8.6529 
N1579 X181.766 Y-17.165 Z7.960 A24.7436 B8.6771 
N1580 X181.772 Y-17.171 Z7.966 A25.7973 B8.7040 
N1581 X181.779 Y-17.177 Z7.973 A26.9541 B8.7353 
N1582 X181.786 Y-17.183 Z7.979 A28.1089 B8.7686 
N1583 X181.793 Y-17.190 Z7.985 A29.2618 B8.8037 
N1584 X181.801 Y-17.197 Z7.992 A30.4129 B8.8408 
N1585 X181.809 Y-17.203 Z7.997 A31.5622 B8.8797 
N1586 X181.818 Y-17.210 Z8.003 A32.7099 B8.9205 
N1587 X181.826 Y-17.217 Z8.009 A33.8560 B8.9631 
N1588 X181.835 Y-17.224 Z8.014 A34.9698 B9.0063 
N1589 X181.843 Y-17.232 Z8.019 A36.0908 B9.0516 
N1590 X181.852 Y-17.239 Z8.024 A37.2106 B9.0986 
N1591 X181.861 Y-17.246 Z8.029 A38.3295 B9.1473 
N1592 X181.870 Y-17.254 Z8.034 A39.4475 B9.1977 
N1593 X181.879 Y-17.261 Z8.038 A40.5649 B9.2498 
N1594 X181.887 Y-17.269 Z8.043 A41.6819 B9.3036 
N1595 X181.896 Y-17.277 Z8.047 A42.7986 B9.3590 
N1596 X181.905 Y-17.285 Z8.051 A43.9098 B9.4159 
N1597 X181.913 Y-17.292 Z8.055 A44.9734 B9.4718 
N1598 X181.921 Y-17.300 Z8.058 A46.0373 B9.5291 
N1599 X181.929 Y-17.308 Z8.062 A47.1015 B9.5880 
N1600 X181.937 Y-17.316 Z8.065 A48.1664 B9.6483 
N1601 X181.944 Y-17.324 Z8.068 A49.2319 B9.7100 
N1602 X181.951 Y-17.332 Z8.071 A50.2983 B9.7732 
N1603 X181.958 Y-17.340 Z8.074 A51.3656 B9.8378 
N1604 X181.965 Y-17.348 Z8.077 A52.4320 B9.9037 
N1605 X181.971 Y-17.356 Z8.079 A53.4682 B9.9689 
N1606 X181.977 Y-17.364 Z8.081 A54.5027 B10.0353 
N1607 X181.983 Y-17.372 Z8.083 A55.5385 B10.1029 
N1608 X181.988 Y-17.380 Z8.085 A56.5756 B10.1718 
N1609 X181.993 Y-17.388 Z8.087 A57.6140 B10.2419 
N1610 X181.997 Y-17.397 Z8.089 A58.6538 B10.3132 
N1611 X182.001 Y-17.405 Z8.090 A59.6950 B10.3856 
N1612 X182.004 Y-17.413 Z8.091 A60.7357 B10.4591 
N1613 X182.007 Y-17.421 Z8.093 A61.7597 B10.5324 
N1614 X182.009 Y-17.430 Z8.094 A62.7850 B10.6067 
N1615 X182.011 Y-17.438 Z8.094 A63.8115 B10.6821 
N1616 X182.012 Y-17.446 Z8.095 A64.8390 B10.7584 
N1617 X182.013 Y-17.455 Z8.096 A65.8674 B10.8356 
N1618 X182.014 Y-17.463 Z8.096 A66.8966 B10.9137 
N1619 X182.015 Y-17.471 Z8.096 A67.9264 B10.9926 
N1620 X182.015 Y-17.480 Z8.096 A68.9571 B11.0724 
N1621 X182.016 Y-17.488 Z8.096 A69.9889 B11.1529 
N1622 X182.016 Y-17.496 Z8.096 A71.0212 B11.2343 
N1623 X182.016 Y-17.505 Z8.096 A72.0540 B11.3164 
N1624 X182.015 Y-17.513 Z8.095 A73.0873 B11.3991 
N1625 X182.015 Y-17.522 Z8.094 A74.1210 B11.4824 
N1626 X182.014 Y-17.530 Z8.094 A75.1552 B11.5663 
N1627 X182.012 Y-17.538 Z8.093 A76.1899 B11.6507 
N1628 X182.010 Y-17.547 Z8.092 A77.2270 B11.7358 
N1629 X182.007 Y-17.555 Z8.090 A78.2849 B11.8230 
N1630 X182.003 Y-17.564 Z8.089 A79.3433 B11.9107 
N1631 X181.999 Y-17.572 Z8.087 A80.4020 B11.9988 
N1632 X181.994 Y-17.580 Z8.085 A81.4608 B12.0872 
N1633 X181.989 Y-17.589 Z8.083 A82.5196 B12.1759 
N1634 X181.983 Y-17.597 Z8.081 A83.5783 B12.2648 
N1635 X181.977 Y-17.605 Z8.079 A84.6367 B12.3539 
N1636 X181.970 Y-17.614 Z8.077 A85.7133 B12.4447 
N1637 X181.963 Y-17.622 Z8.074 A86.8242 B12.5386 
N1638 X181.955 Y-17.631 Z8.071 A87.9359 B12.6325 
N1639 X181.947 Y-17.639 Z8.069 A89.0470 B12.7265 
N1640 X181.938 Y-17.648 Z8.065 A90.1576 B12.8204 
N1641 X181.929 Y-17.656 Z8.062 A91.2678 B12.9142 
N1642 X181.919 Y-17.664 Z8.059 A92.3777 B13.0078 
N1643 X181.910 Y-17.673 Z8.055 A93.4872 B13.1013 
N1644 X181.899 Y-17.681 Z8.052 A94.6157 B13.1962 
N1645 X181.889 Y-17.689 Z8.048 A95.7862 B13.2944 
N1646 X181.878 Y-17.698 Z8.044 A96.9345 B13.3903 
N1647 X181.866 Y-17.706 Z8.040 A98.0826 B13.4860 
N1648 X181.855 Y-17.714 Z8.035 A99.2308 B13.5812 
N1649 X181.843 Y-17.722 Z8.031 A100.3791 B13.6759 
N1650 X181.832 Y-17.730 Z8.026 A101.5275 B13.7702 
N1651 X181.820 Y-17.738 Z8.021 A102.6761 B13.8639 
N1652 X181.808 Y-17.745 Z8.017 A103.8251 B13.9570 
N1653 X181.797 Y-17.752 Z8.012 A104.8588 B14.0403 
N1654 X181.786 Y-17.759 Z8.008 A105.8865 B14.1225 
N1655 X181.776 Y-17.766 Z8.003 A106.9147 B14.2042 
N1656 X181.765 Y-17.772 Z7.998 A107.9435 B14.2853 
N1657 X181.754 Y-17.779 Z7.993 A108.9729 B14.3658 
N1658 X181.744 Y-17.785 Z7.988 A110.0032 B14.4456 
N1659 X181.733 Y-17.791 Z7.983 A111.0343 B14.5249 
N1660 X181.723 Y-17.798 Z7.978 A112.0663 B14.6034 
N1661 X181.713 Y-17.804 Z7.973 A113.0994 B14.6813 
N1662 X181.703 Y-17.810 Z7.967 A114.1341 B14.7584 
N1663 X181.693 Y-17.816 Z7.962 A115.1751 B14.8352 
N1664 X181.684 Y-17.822 Z7.956 A116.2181 B14.9112 
N1665 X181.674 Y-17.827 Z7.950 A117.2624 B14.9864 
N1666 X181.665 Y-17.833 Z7.944 A118.3077 B15.0607 
N1667 X181.657 Y-17.839 Z7.938 A119.3540 B15.1342 
N1668 X181.648 Y-17.844 Z7.932 A120.4013 B15.2066 
N1669 X181.640 Y-17.849 Z7.926 A121.4495 B15.2781 
N1670 X181.633 Y-17.855 Z7.919 A122.4984 B15.3486 
N1671 X181.626 Y-17.860 Z7.913 A123.5481 B15.4180 
N1672 X181.619 Y-17.865 Z7.906 A124.6083 B15.4870 
N1673 X181.612 Y-17.870 Z7.899 A125.7658 B15.5609 
N1674 X181.605 Y-17.875 Z7.891 A126.9410 B15.6345 
N1675 X181.599 Y-17.880 Z7.883 A128.1162 B15.7066 
N1676 X181.594 Y-17.885 Z7.875 A129.2909 B15.7771 
N1677 X181.589 Y-17.890 Z7.867 A130.4647 B15.8460 
N1678 X181.585 Y-17.894 Z7.859 A131.6372 B15.9132 
N1679 X181.582 Y-17.899 Z7.850 A132.8077 B15.9786 
N1680 X181.579 Y-17.903 Z7.842 A133.9797 B16.0425 
N1681 X181.577 Y-17.906 Z7.833 A135.1570 B16.1050 
N1682 X181.576 Y-17.910 Z7.825 A136.2430 B16.1610 
N1683 X181.576 Y-17.912 Z7.816 A137.3247 B16.2154 
N1684 X181.576 Y-17.915 Z7.807 A138.4013 B16.2680 
N1685 X181.576 Y-17.917 Z7.799 A139.4716 B16.3188 
N1686 X181.578 Y-17.919 Z7.789 A140.5344 B16.3677 
N1687 X181.580 Y-17.921 Z7.780 A141.5996 B16.4152 
N1688 X181.582 Y-17.922 Z7.770 A142.7229 B16.4636 
N1689 X181.586 Y-17.923 Z7.759 A143.8302 B16.5096 
N1690 X181.590 Y-17.922 Z7.748 A144.9169 B16.5531 
N1691 X181.594 Y-17.921 Z7.736 A145.9768 B16.5938 
N1692 X181.600 Y-17.918 Z7.724 A146.9852 B16.6310 
N1693 X181.606 Y-17.914 Z7.712 A147.9341 B16.6644 
N1694 X181.612 Y-17.908 Z7.698 A148.8159 B16.6941 
N1695 X183.813 Y-23.135 Z-0.539 F878 
N1696 G00 X192.615 Y-44.045 Z-33.483 
RAPORT("T44444","Flank Milling Transition:146 End")
N1698 ;trailer : concat=None
; points cnt = 1626
N1699 MSG (" --- GROUPED OF SUBPROGRAM --- ")
VELOLIM[A]=100 ;ODWOLANIE VELOLIM
N1700 FGROUP()
N1701 TRAFOOF
N10 ; PROGRAM NAME: 4444433
N11 ; ORDER       : 44444
N12 ; OPER. NAME  : Flank Milling Transition:147
N13 ; OPER. DESCR.: finish flank shroud
N14 ; OPER. TYPE  : preFinFlank
N15 ; GEO. OPTION : 2
N16 ; MACHINE     : SH_HX151_24_SIM840D
N17 ;             : STARRAG_HECKERT_5axis_finish_milling_machine
N18 ; CONTROL     : SINUMERIK 840D
N19 ; created:   2022-11-03 13:37:43.848438
;-------DODATKOWE DANE-------------------
; PROGRAMISTA : Mariusz Malec
; PARTID      : 139T004654P1015_-
;  dec_value  : 0.7
;  lean_angle : 10.0
;  tilt_angle : 0.0
;  airf_offset: 0.05
;  firstoffset: 1.5
;----------------------------------------
N20 ;----------------------------------------
RAPORT("T44444","Flank Milling Transition:147")
N21 TRAFOOF
N22 D0
N23 G0 G90 G94 Z260.0
N24 STOPRE
N25 M9 ; chlodziwo wyl
N26 ; --- Flank Milling Transition:147 - finish flank shroud ---
N28 ;ToolChange : concat=None ,current_tdmid=None, PP.tdmId=940783
N29 TRAFOOF
N30 D0
N31 G0 G54 Z270.0
N32 S9978 M03
N33 STOPRE
N34 TOL(0.001,1,1)
N35 G0  A128.5967
N36 TRAORI
N37 G54 D4
N38 D4 
N39 TRANS  X=R8 A=R25
STOPRE
E_ZDARZ=300018
;ACS_FINISH_UBG_PLATFORM_XLB_SHROUD=7740783
STOPRE
N40 ; DELTA A > 40.1
N41 TRAFOOF
N42 STOPRE
N43 G0 G53 D0 Z265.000
N44 G1 G53 A128.5967 F10000
N45 TRAORI
N46 G54 D4
N47 TRANS  X=R8 A=R25
N48 G00 X227.975 Y-55.560 Z-37.627 A128.5967 B-9.1489 
N49 M342 ; chlodziwo woda
N50 X234.065 Y-16.578 Z-6.913 
N51 G01 X234.106 Y-14.871 Z-4.291 F878 
N52 X234.225 Y-14.056 Z-1.273 
N53 X234.412 Y-14.212 Z1.847 
N54 X234.646 Y-15.325 Z4.761 
N55 M342 ; chlodziwo woda
N56 X234.906 Y-17.284 Z7.187 
N57 X234.911 Y-17.298 Z7.190 A127.7390 B-9.1907 
N58 X234.916 Y-17.310 Z7.192 A126.8165 B-9.2371 
N59 X234.920 Y-17.322 Z7.193 A125.8406 B-9.2875 
N60 X234.924 Y-17.333 Z7.193 A124.8091 B-9.3424 
N61 X234.927 Y-17.343 Z7.192 A123.7524 B-9.4003 
N62 X234.929 Y-17.353 Z7.190 A122.6770 B-9.4610 
N63 X234.931 Y-17.363 Z7.188 A121.5773 B-9.5247 
N64 X234.932 Y-17.372 Z7.186 A120.5253 B-9.5874 
N65 X234.933 Y-17.381 Z7.184 A119.4908 B-9.6505 
N66 X234.933 Y-17.390 Z7.182 A118.4501 B-9.7156 
N67 X234.933 Y-17.399 Z7.180 A117.4045 B-9.7824 
N68 X234.932 Y-17.408 Z7.178 A116.3550 B-9.8510 
N69 X234.931 Y-17.417 Z7.176 A115.3003 B-9.9215 
N70 X234.929 Y-17.426 Z7.174 A114.1866 B-9.9974 
N71 X234.927 Y-17.436 Z7.172 A113.0489 B-10.0766 
N72 X234.924 Y-17.446 Z7.170 A111.9098 B-10.1576 
N73 X234.921 Y-17.455 Z7.168 A110.7700 B-10.2402 
N74 X234.917 Y-17.465 Z7.166 A109.6300 B-10.3244 
N75 X234.912 Y-17.474 Z7.165 A108.4902 B-10.4100 
N76 X234.907 Y-17.484 Z7.164 A107.3512 B-10.4971 
N77 X234.902 Y-17.494 Z7.163 A106.2133 B-10.5855 
N78 X234.896 Y-17.503 Z7.161 A105.0876 B-10.6744 
N79 X234.890 Y-17.512 Z7.161 A104.0651 B-10.7562 
N80 X234.884 Y-17.521 Z7.160 A103.0440 B-10.8390 
N81 X234.877 Y-17.530 Z7.160 A102.0243 B-10.9227 
N82 X234.870 Y-17.539 Z7.159 A101.0060 B-11.0073 
N83 X234.863 Y-17.548 Z7.159 A99.9890 B-11.0927 
N84 X234.855 Y-17.557 Z7.159 A98.9732 B-11.1789 
N85 X234.847 Y-17.566 Z7.159 A97.9586 B-11.2659 
N86 X234.839 Y-17.575 Z7.160 A96.9451 B-11.3536 
N87 X234.831 Y-17.584 Z7.160 A95.9327 B-11.4420 
N88 X234.823 Y-17.593 Z7.161 A94.9218 B-11.5310 
N89 X234.815 Y-17.602 Z7.162 A93.9160 B-11.6204 
N90 X234.806 Y-17.611 Z7.163 A92.9069 B-11.7107 
N91 X234.797 Y-17.620 Z7.164 A91.8950 B-11.8019 
N92 X234.789 Y-17.629 Z7.166 A90.8808 B-11.8939 
N93 X234.780 Y-17.638 Z7.167 A89.8650 B-11.9866 
N94 X234.771 Y-17.648 Z7.169 A88.8482 B-12.0800 
N95 X234.763 Y-17.657 Z7.172 A87.8309 B-12.1740 
N96 X234.754 Y-17.666 Z7.174 A86.8137 B-12.2684 
N97 X234.745 Y-17.675 Z7.176 A85.7972 B-12.3632 
N98 X234.736 Y-17.684 Z7.179 A84.7452 B-12.4617 
N99 X234.727 Y-17.694 Z7.183 A83.6264 B-12.5668 
N100 X234.717 Y-17.704 Z7.186 A82.5072 B-12.6724 
N101 X234.708 Y-17.714 Z7.190 A81.3877 B-12.7783 
N102 X234.699 Y-17.723 Z7.194 A80.2675 B-12.8845 
N103 X234.690 Y-17.733 Z7.199 A79.1465 B-12.9911 
N104 X234.682 Y-17.743 Z7.203 A78.0246 B-13.0978 
N105 X234.674 Y-17.752 Z7.208 A76.9016 B-13.2048 
N106 X234.665 Y-17.761 Z7.213 A75.7779 B-13.3119 
N107 X234.658 Y-17.770 Z7.218 A74.6959 B-13.4150 
N108 X234.651 Y-17.779 Z7.224 A73.6124 B-13.5182 
N109 X234.644 Y-17.788 Z7.229 A72.5273 B-13.6215 
N110 X234.638 Y-17.797 Z7.235 A71.4406 B-13.7247 
N111 X234.632 Y-17.805 Z7.242 A70.3521 B-13.8279 
N112 X234.626 Y-17.814 Z7.248 A69.2618 B-13.9310 
N113 X234.622 Y-17.822 Z7.255 A68.1695 B-14.0339 
N114 X234.617 Y-17.830 Z7.261 A67.0755 B-14.1367 
N115 X234.614 Y-17.838 Z7.268 A66.0233 B-14.2351 
N116 X234.611 Y-17.845 Z7.275 A64.9856 B-14.3318 
N117 X234.609 Y-17.853 Z7.282 A63.9462 B-14.4281 
N118 X234.607 Y-17.860 Z7.289 A62.9054 B-14.5241 
N119 X234.605 Y-17.867 Z7.297 A61.8633 B-14.6197 
N120 X234.604 Y-17.874 Z7.304 A60.8201 B-14.7148 
N121 X234.604 Y-17.881 Z7.312 A59.7758 B-14.8093 
N122 X234.603 Y-17.887 Z7.320 A58.7316 B-14.9063 
N123 X234.603 Y-17.894 Z7.328 A57.7045 B-14.9948 
N124 X234.603 Y-17.900 Z7.336 A56.6844 B-15.0851 
N125 X234.604 Y-17.906 Z7.344 A55.6639 B-15.1747 
N126 X234.605 Y-17.911 Z7.353 A54.6428 B-15.2635 
N127 X234.606 Y-17.917 Z7.361 A53.6213 B-15.3515 
N128 X234.608 Y-17.922 Z7.370 A52.5996 B-15.4387 
N129 X234.611 Y-17.928 Z7.378 A51.5776 B-15.5251 
N130 X234.614 Y-17.933 Z7.387 A50.5554 B-15.6105 
N131 X234.617 Y-17.938 Z7.396 A49.5342 B-15.6948 
N132 X234.622 Y-17.942 Z7.405 A48.5134 B-15.7782 
N133 X234.627 Y-17.947 Z7.414 A47.4926 B-15.8605 
N134 X234.632 Y-17.951 Z7.423 A46.4721 B-15.9417 
N135 X234.638 Y-17.955 Z7.433 A45.4518 B-16.0218 
N136 X234.644 Y-17.959 Z7.442 A44.4321 B-16.1008 
N137 X234.651 Y-17.963 Z7.451 A43.4128 B-16.1786 
N138 X234.658 Y-17.966 Z7.461 A42.3907 B-16.2555 
N139 X234.666 Y-17.970 Z7.471 A41.3530 B-16.3323 
N140 X234.674 Y-17.973 Z7.480 A40.3160 B-16.4078 
N141 X234.682 Y-17.976 Z7.490 A39.2797 B-16.4820 
N142 X234.691 Y-17.979 Z7.500 A38.2441 B-16.5549 
N143 X234.700 Y-17.981 Z7.510 A37.2091 B-16.6263 
N144 X234.709 Y-17.984 Z7.520 A36.1747 B-16.6964 
N145 X234.718 Y-17.986 Z7.530 A35.1408 B-16.7651 
N146 X234.728 Y-17.988 Z7.540 A34.1011 B-16.8328 
N147 X234.738 Y-17.989 Z7.550 A33.0325 B-16.9008 
N148 X234.748 Y-17.991 Z7.561 A31.9642 B-16.9674 
N149 X234.759 Y-17.992 Z7.571 A30.8961 B-17.0324 
N150 X234.770 Y-17.993 Z7.582 A29.8279 B-17.0958 
N151 X234.781 Y-17.994 Z7.592 A28.7596 B-17.1576 
N152 X234.791 Y-17.995 Z7.603 A27.6909 B-17.2179 
N153 X234.803 Y-17.995 Z7.613 A26.6236 B-17.2866 
N154 X234.814 Y-17.996 Z7.623 A25.5444 B-17.3443 
N155 X234.825 Y-17.996 Z7.634 A24.4216 B-17.4025 
N156 X234.836 Y-17.995 Z7.645 A23.2976 B-17.4589 
N157 X234.847 Y-17.995 Z7.657 A22.1725 B-17.5135 
N158 X234.859 Y-17.995 Z7.668 A21.0460 B-17.5663 
N159 X234.870 Y-17.994 Z7.678 A19.9181 B-17.6172 
N160 X234.880 Y-17.993 Z7.689 A18.7886 B-17.6663 
N161 X234.891 Y-17.991 Z7.700 A17.6574 B-17.7134 
N162 X234.902 Y-17.990 Z7.711 A16.5241 B-17.7587 
N163 X234.912 Y-17.988 Z7.721 A15.3659 B-17.8030 
N164 X234.922 Y-17.986 Z7.732 A14.2056 B-17.8452 
N165 X234.932 Y-17.983 Z7.743 A13.0432 B-17.8855 
N166 X234.942 Y-17.981 Z7.753 A11.8785 B-17.9236 
N167 X234.951 Y-17.978 Z7.764 A10.7114 B-17.9598 
N168 X234.960 Y-17.975 Z7.774 A9.5420 B-17.9939 
N169 X234.968 Y-17.972 Z7.785 A8.3700 B-18.0259 
N170 X234.976 Y-17.968 Z7.795 A7.1887 B-18.0560 
N171 X234.983 Y-17.965 Z7.805 A6.0501 B-18.0829 
N172 X234.989 Y-17.961 Z7.814 A5.0189 B-18.1056 
N173 X234.995 Y-17.958 Z7.822 A3.9858 B-18.1266 
N174 X235.000 Y-17.954 Z7.831 A2.9511 B-18.1460 
N175 X235.005 Y-17.950 Z7.840 A1.9147 B-18.1637 
N176 X235.009 Y-17.946 Z7.848 A0.8769 B-18.1798 
N177 X235.013 Y-17.942 Z7.857 A359.8378 B-18.1942 
N178 X235.016 Y-17.938 Z7.865 A358.7975 B-18.2070 
N179 X235.019 Y-17.933 Z7.873 A357.7562 B-18.2181 
N180 X235.021 Y-17.929 Z7.881 A356.7143 B-18.2276 
N181 X235.022 Y-17.924 Z7.889 A355.6773 B-18.2354 
N182 X235.023 Y-17.919 Z7.897 A354.6452 B-18.2415 
N183 X235.024 Y-17.914 Z7.905 A353.6128 B-18.2460 
N184 X235.024 Y-17.908 Z7.912 A352.5803 B-18.2488 
N185 X235.023 Y-17.903 Z7.919 A351.5480 B-18.2501 
N186 X235.022 Y-17.897 Z7.927 A350.5161 B-18.2498 
N187 X235.021 Y-17.892 Z7.934 A349.4849 B-18.2479 
N188 X235.018 Y-17.886 Z7.941 A348.4546 B-18.2445 
N189 X235.016 Y-17.880 Z7.948 A347.4256 B-18.2395 
N190 X235.013 Y-17.874 Z7.955 A346.3838 B-18.2328 
N191 X235.009 Y-17.867 Z7.962 A345.2809 B-18.2241 
N192 X235.004 Y-17.860 Z7.969 A344.1515 B-18.2133 
N193 X234.999 Y-17.853 Z7.975 A343.0250 B-18.2008 
N194 X234.993 Y-17.845 Z7.982 A341.9015 B-18.1865 
N195 X234.987 Y-17.837 Z7.988 A340.7815 B-18.1705 
N196 X234.980 Y-17.830 Z7.995 A339.6653 B-18.1529 
N197 X234.973 Y-17.822 Z8.001 A338.5535 B-18.1336 
N198 X234.965 Y-17.813 Z8.006 A337.4433 B-18.1127 
N199 X234.956 Y-17.805 Z8.012 A336.3251 B-18.0900 
N200 X234.947 Y-17.796 Z8.017 A335.2069 B-18.0656 
N201 X234.938 Y-17.787 Z8.022 A334.0960 B-18.0397 
N202 X234.929 Y-17.777 Z8.027 A332.9935 B-18.0125 
N203 X234.918 Y-17.768 Z8.031 A331.9007 B-17.9839 
N204 X234.908 Y-17.758 Z8.035 A330.8171 B-17.9541 
N205 X234.897 Y-17.747 Z8.038 A329.7371 B-17.9230 
N206 X234.886 Y-17.736 Z8.041 A328.6701 B-17.8907 
N207 X234.875 Y-17.724 Z8.043 A327.6250 B-17.8578 
N208 X234.863 Y-17.711 Z8.045 A326.5882 B-17.8238 
N209 X234.851 Y-17.696 Z8.045 A325.5579 B-17.7887 
N210 X234.839 Y-17.679 Z8.044 A324.6096 B-17.7552 
N211 X234.827 Y-17.659 Z8.040 A323.7699 B-17.7244 
N212 X234.813 Y-17.633 Z8.031 A323.0215 B-17.6959 
N213 X234.802 Y-17.604 Z8.019 A322.5810 B-17.6783 
N214 X234.788 Y-17.558 Z7.996 A322.2994 B-17.6655 
N215 X234.772 Y-17.495 Z7.961 A322.2463 B-17.6603 
N216 X234.753 Y-17.413 Z7.916 A322.3350 B-17.6595 
N217 X234.730 Y-17.299 Z7.852 A322.5072 B-17.6599 
N218 X234.705 Y-17.169 Z7.780 A322.7004 B-17.6601 
N219 X234.682 Y-17.031 Z7.705 A322.8959 B-17.6598 
N220 X234.660 Y-16.885 Z7.626 A323.0971 B-17.6590 
N221 X234.641 Y-16.733 Z7.543 A323.3049 B-17.6578 
N222 X234.623 Y-16.574 Z7.459 A323.5194 B-17.6563 
N223 X234.608 Y-16.409 Z7.371 A323.7421 B-17.6544 
N224 X234.595 Y-16.239 Z7.282 A323.9740 B-17.6522 
N225 X234.586 Y-16.065 Z7.192 A324.2164 B-17.6498 
N226 X234.579 Y-15.880 Z7.097 A324.4842 B-17.6472 
N227 X234.575 Y-15.691 Z7.000 A324.7730 B-17.6445 
N228 X234.575 Y-15.488 Z6.898 A325.0998 B-17.6409 
N229 X234.578 Y-15.243 Z6.776 A325.5243 B-17.6386 
N230 X234.580 Y-14.957 Z6.636 A326.0582 B-17.6358 
N231 X234.581 Y-14.669 Z6.499 A326.6327 B-17.6328 
N232 X234.582 Y-14.378 Z6.363 A327.2405 B-17.6290 
N233 X234.583 Y-14.085 Z6.230 A327.8747 B-17.6244 
N234 X234.583 Y-13.790 Z6.100 A328.5315 B-17.6186 
N235 X234.583 Y-13.493 Z5.972 A329.2126 B-17.6117 
N236 X234.581 Y-13.193 Z5.848 A329.9216 B-17.6036 
N237 X234.581 Y-12.891 Z5.726 A330.6621 B-17.5942 
N238 X234.580 Y-12.586 Z5.608 A331.4370 B-17.5834 
N239 X234.578 Y-12.279 Z5.493 A332.2487 B-17.5711 
N240 X234.575 Y-11.968 Z5.382 A333.0995 B-17.5570 
N241 X234.572 Y-11.655 Z5.275 A333.9917 B-17.5411 
N242 X234.569 Y-11.338 Z5.172 A334.9278 B-17.5231 
N243 X234.565 Y-11.018 Z5.073 A335.9102 B-17.5028 
N244 X234.561 Y-10.701 Z4.980 A336.9228 B-17.4804 
N245 X234.556 Y-10.395 Z4.896 A337.9354 B-17.4566 
N246 X234.551 Y-10.099 Z4.820 A338.9473 B-17.4313 
N247 X234.546 Y-9.811 Z4.752 A339.9585 B-17.4045 
N248 X234.541 Y-9.532 Z4.690 A340.9692 B-17.3763 
N249 X234.535 Y-9.259 Z4.634 A341.9793 B-17.3466 
N250 X234.529 Y-8.992 Z4.584 A342.9889 B-17.3153 
N251 X234.523 Y-8.730 Z4.540 A343.9978 B-17.2826 
N252 X234.517 Y-8.473 Z4.500 A345.0062 B-17.2484 
N253 X234.511 Y-8.220 Z4.466 A346.0141 B-17.2127 
N254 X234.505 Y-7.970 Z4.437 A347.0215 B-17.1755 
N255 X234.498 Y-7.723 Z4.411 A348.0284 B-17.1368 
N256 X234.491 Y-7.479 Z4.391 A349.0347 B-17.0966 
N257 X234.484 Y-7.236 Z4.375 A350.0404 B-17.0549 
N258 X234.477 Y-6.995 Z4.363 A351.0459 B-17.0117 
N259 X234.469 Y-6.755 Z4.355 A352.0507 B-16.9670 
N260 X234.461 Y-6.516 Z4.351 A353.0549 B-16.9209 
N261 X234.453 Y-6.277 Z4.351 A354.0587 B-16.8731 
N262 X234.445 Y-6.038 Z4.356 A355.0621 B-16.8239 
N263 X234.437 Y-5.798 Z4.365 A356.0649 B-16.7731 
N264 X234.428 Y-5.557 Z4.378 A357.0672 B-16.7208 
N265 X234.419 Y-5.314 Z4.395 A358.0691 B-16.6669 
N266 X234.410 Y-5.070 Z4.417 A359.0705 B-16.6114 
N267 X234.400 Y-4.822 Z4.444 A0.0712 B-16.5543 
N268 X234.390 Y-4.571 Z4.475 A1.0716 B-16.4955 
N269 X234.379 Y-4.315 Z4.512 A2.0715 B-16.4349 
N270 X234.368 Y-4.052 Z4.555 A3.0708 B-16.3725 
N271 X234.357 Y-3.782 Z4.604 A4.0695 B-16.3080 
N272 X234.344 Y-3.501 Z4.660 A5.0677 B-16.2413 
N273 X234.331 Y-3.207 Z4.725 A6.0653 B-16.1722 
N274 X234.317 Y-2.898 Z4.799 A7.0623 B-16.1004 
N275 X234.302 Y-2.574 Z4.883 A8.0422 B-16.0268 
N276 X234.286 Y-2.253 Z4.973 A8.9462 B-15.9558 
N277 X234.271 Y-1.937 Z5.067 A9.7679 B-15.8881 
N278 X234.255 Y-1.625 Z5.166 A10.5054 B-15.8240 
N279 X234.240 Y-1.317 Z5.267 A11.1567 B-15.7639 
N280 X234.224 Y-1.014 Z5.372 A11.7208 B-15.7079 
N281 X234.209 Y-0.715 Z5.478 A12.1987 B-15.6563 
N282 X234.193 Y-0.420 Z5.587 A12.5932 B-15.6091 
N283 X234.178 Y-0.129 Z5.697 A12.9086 B-15.5658 
N284 X234.162 Y0.159 Z5.808 A13.1505 B-15.5271 
N285 X234.143 Y0.444 Z5.919 A13.3007 B-15.3561 
N286 X234.116 Y0.736 Z6.033 A13.2386 B-14.9142 
N287 X234.093 Y1.029 Z6.148 A13.0873 B-14.4711 
N288 X234.075 Y1.320 Z6.264 A12.8878 B-14.0273 
N289 X234.060 Y1.610 Z6.379 A12.6428 B-13.5807 
N290 X234.049 Y1.898 Z6.494 A12.3541 B-13.1294 
N291 X234.042 Y2.184 Z6.607 A12.0216 B-12.6616 
N292 X234.039 Y2.436 Z6.706 A11.6889 B-12.2220 
N293 X234.039 Y2.636 Z6.784 A11.3934 B-11.8629 
N294 X234.043 Y2.819 Z6.855 A11.0958 B-11.5263 
N295 X234.050 Y3.006 Z6.926 A10.7623 B-11.1746 
N296 X234.062 Y3.233 Z7.012 A10.3056 B-10.7291 
N297 X234.078 Y3.447 Z7.092 A9.8196 B-10.2925 
N298 X234.093 Y3.621 Z7.155 A9.3784 B-9.9225 
N299 X234.112 Y3.810 Z7.223 A8.8413 B-9.4980 
N300 X234.136 Y4.012 Z7.293 A8.2036 B-9.0214 
N301 X234.163 Y4.208 Z7.359 A7.5146 B-8.5301 
N302 X234.191 Y4.402 Z7.421 A6.7648 B-8.0158 
N303 X234.220 Y4.592 Z7.480 A5.9545 B-7.4785 
N304 X234.251 Y4.779 Z7.535 A5.0757 B-6.9128 
N305 X234.283 Y4.958 Z7.585 A4.1361 B-6.3288 
N306 X234.312 Y5.124 Z7.629 A3.1656 B-5.7458 
N307 X234.339 Y5.276 Z7.666 A2.1730 B-5.1659 
N308 X234.364 Y5.416 Z7.697 A1.1888 B-4.6005 
N309 X234.385 Y5.536 Z7.722 A0.2860 B-4.0862 
N310 X234.403 Y5.644 Z7.743 A359.4296 B-3.6023 
N311 X234.420 Y5.748 Z7.761 A358.5471 B-3.1088 
N312 X234.436 Y5.849 Z7.777 A357.6156 B-2.5971 
N313 X234.450 Y5.943 Z7.790 A356.6699 B-2.0897 
N314 X234.461 Y6.027 Z7.800 A355.7481 B-1.6067 
N315 X234.470 Y6.102 Z7.808 A354.8395 B-1.1410 
N316 X234.478 Y6.169 Z7.814 A353.9457 B-0.6918 
N317 X234.483 Y6.230 Z7.819 A353.0749 B-0.2622 
N318 X234.487 Y6.285 Z7.822 A352.2257 B0.1496 
N319 X234.490 Y6.336 Z7.824 A351.3685 B0.5583 
N320 X234.492 Y6.384 Z7.826 A350.5059 B0.9626 
N321 X234.492 Y6.428 Z7.827 A349.6481 B1.3578 
N322 X234.492 Y6.468 Z7.827 A348.7992 B1.7423 
N323 X234.491 Y6.505 Z7.827 A347.9662 B2.1130 
N324 X234.489 Y6.539 Z7.827 A347.1390 B2.4750 
N325 X234.486 Y6.571 Z7.826 A346.2781 B2.8452 
N326 X234.482 Y6.603 Z7.825 A345.3846 B3.2226 
N327 X234.478 Y6.632 Z7.823 A344.4893 B3.5939 
N328 X234.474 Y6.658 Z7.822 A343.6378 B3.9408 
N329 X234.469 Y6.680 Z7.820 A342.8316 B4.2634 
N330 X234.464 Y6.700 Z7.819 A342.0609 B4.5665 
N331 X234.459 Y6.720 Z7.817 A341.2689 B4.8727 
N332 X234.452 Y6.739 Z7.816 A340.4444 B5.1858 
N333 X234.445 Y6.757 Z7.814 A339.5903 B5.5040 
N334 X234.438 Y6.775 Z7.813 A338.7110 B5.8253 
N335 X234.430 Y6.792 Z7.811 A337.8168 B6.1439 
N336 X234.422 Y6.808 Z7.810 A336.9123 B6.4482 
N337 X234.415 Y6.824 Z7.808 A335.9984 B6.7350 
N338 X234.407 Y6.838 Z7.807 A335.0766 B7.0050 
N339 X234.400 Y6.851 Z7.806 A334.1482 B7.2592 
N340 X234.393 Y6.864 Z7.805 A333.2126 B7.4987 
N341 X234.386 Y6.876 Z7.804 A332.2703 B7.7242 
N342 X234.379 Y6.887 Z7.803 A331.3224 B7.9364 
N343 X234.373 Y6.898 Z7.802 A330.3700 B8.1357 
N344 X234.366 Y6.908 Z7.801 A329.4139 B8.3226 
N345 X234.360 Y6.918 Z7.801 A328.4527 B8.4980 
N346 X234.354 Y6.927 Z7.801 A327.4814 B8.6633 
N347 X234.348 Y6.936 Z7.800 A326.5008 B8.8185 
N348 X234.342 Y6.944 Z7.800 A325.5124 B8.9638 
N349 X234.336 Y6.952 Z7.801 A324.5177 B9.0991 
N350 X234.331 Y6.960 Z7.801 A323.5181 B9.2246 
N351 X234.326 Y6.967 Z7.801 A322.5145 B9.3404 
N352 X234.321 Y6.974 Z7.802 A321.5048 B9.4469 
N353 X234.316 Y6.981 Z7.803 A320.4921 B9.5441 
N354 X234.312 Y6.988 Z7.804 A319.4801 B9.6318 
N355 X234.308 Y6.994 Z7.805 A318.4726 B9.7100 
N356 X234.305 Y7.000 Z7.807 A317.4728 B9.7789 
N357 X234.303 Y7.006 Z7.808 A316.4835 B9.8387 
N358 X234.301 Y7.011 Z7.810 A315.5034 B9.8898 
N359 X234.299 Y7.016 Z7.812 A314.5107 B9.9338 
N360 X234.299 Y7.022 Z7.814 A313.5043 B9.9708 
N361 X234.298 Y7.027 Z7.817 A312.4868 B10.0006 
N362 X234.298 Y7.032 Z7.819 A311.4602 B10.0229 
N363 X234.299 Y7.037 Z7.822 A310.4267 B10.0374 
N364 X234.300 Y7.043 Z7.825 A309.3886 B10.0440 
N365 X234.301 Y7.049 Z7.828 A308.3483 B10.0427 
N366 X234.303 Y7.054 Z7.831 A307.3074 B10.0333 
N367 X234.305 Y7.059 Z7.834 A306.2694 B10.0160 
N368 X234.307 Y7.065 Z7.837 A305.2394 B9.9911 
N369 X234.309 Y7.070 Z7.839 A304.2216 B9.9587 
N370 X234.312 Y7.076 Z7.842 A303.2198 B9.9195 
N371 X234.314 Y7.081 Z7.845 A302.2356 B9.8739 
N372 X234.316 Y7.087 Z7.848 A301.2532 B9.8213 
N373 X234.318 Y7.092 Z7.851 A300.2734 B9.7619 
N374 X234.321 Y7.098 Z7.854 A299.2988 B9.6959 
N375 X234.323 Y7.104 Z7.856 A298.3255 B9.6232 
N376 X234.325 Y7.111 Z7.859 A297.3528 B9.5438 
N377 X234.327 Y7.117 Z7.862 A296.3769 B9.4573 
N378 X234.329 Y7.124 Z7.864 A295.3924 B9.3632 
N379 X234.331 Y7.131 Z7.867 A294.4004 B9.2614 
N380 X234.333 Y7.138 Z7.869 A293.4023 B9.1520 
N381 X234.335 Y7.145 Z7.871 A292.3996 B9.0351 
N382 X234.337 Y7.153 Z7.873 A291.3963 B8.9110 
N383 X234.339 Y7.161 Z7.875 A290.3939 B8.7801 
N384 X234.342 Y7.169 Z7.876 A289.3932 B8.6425 
N385 X234.344 Y7.177 Z7.877 A288.3949 B8.4983 
N386 X234.346 Y7.185 Z7.877 A287.4000 B8.3479 
N387 X234.349 Y7.194 Z7.878 A286.4093 B8.1913 
N388 X234.351 Y7.203 Z7.878 A285.4235 B8.0290 
N389 X234.353 Y7.212 Z7.877 A284.4356 B7.8597 
N390 X234.355 Y7.222 Z7.877 A283.4427 B7.6830 
N391 X234.358 Y7.232 Z7.875 A282.4455 B7.4989 
N392 X234.360 Y7.242 Z7.873 A281.4452 B7.3075 
N393 X234.362 Y7.253 Z7.870 A280.4431 B7.1082 
N394 X234.365 Y7.264 Z7.866 A279.4402 B6.9009 
