N10 ; PROGRAM NAME: 4444439
N11 ; ORDER       : 44444
N12 ; OPER. NAME  : Side Milling:164
N13 ; OPER. DESCR.: Side Milling/czolo nozki po luku wk
N14 ; OPER. TYPE  : sideMill
N15 ; GEO. OPTION : 1
N16 ; MACHINE     : SH_HX151_24_SIM840D
N17 ;             : STARRAG_HECKERT_5axis_finish_milling_machine
N18 ; CONTROL     : SINUMERIK 840D
N19 ; created:   2022-11-03 13:39:23.902208
;-------DODATKOWE DANE-------------------
; PROGRAMISTA : Mariusz Malec
; PARTID      : 139T004654P1015_-
;  ap         : 22.0
;  ae         : 0.05
;  lean_angle : 0.0
;  fin_offset : -9.0
;----------------------------------------
N20 ;----------------------------------------
RAPORT("T44444","Side Milling:164")
N21 TRAFOOF
N22 D0
N23 G90 G94
N24 STOPRE
N25 M9 ; chlodziwo wyl
N26 ; --- Side Milling:164 - Side Milling/czolo nozki po luku wk ---
N28 ;ToolChange : concat=None ,current_tdmid=None, PP.tdmId=957773
N29 MSG(" TLID=957773 D=9.5 R=1.0 Ang=0.0 Len=129.0 ")
N30 TRAFOOF
N31 D0
N32 G0 G53 Z290 B0
N33 G0 X200
N34 G0 Y150
N35 T="7757773"
N36 G0 X500
RAPORT("T44444","ToolChangeStart 7757773")
N37 M6
RAPORT("T44444","ToolChangeEnd")
N38 ; (Preloading tool)
N39 T="7757453"
N40 G0 X200
N41 STOPRE
N42 S6701 M03
N43 STOPRE
N44 TOL(0.1,1,1)
N45 G0 X134.385 A308.0000
N46 TRAORI
N47 G54 D1
N48 ;tol5=0.15
N49 D1 
STOPRE
E_ZDARZ=300007
;ACS_FINISH_ROOT_FRONT=7757773
STOPRE
;UWAGA : ZMIENIONA TOLERANCJA OSI A i B, ruchy osi A i B beda usuniete : TOL5=0.15
N50 ; DELTA A > 40.1
N51 TRAFOOF
N52 STOPRE
N53 G0 G53 D0 Z265.000
N54 G1 G53 A308.0000 F10000
N55 TRAORI
N56 G54 D1
N57 TRANS 
N58 G00 X134.385 Y34.257 Z44.467 A308.0000 B0.0000 
N59 M342 ; chlodziwo woda
N60 X134.385 Y-5.143 Z13.684 
N61 ;finish FSE
N62 G01 G41 X134.407 Y-4.528 Z12.896 F804
N63 G01 X134.407 Y-4.528 Z12.896 F804 
N64 X134.412 Y-4.405 Z12.738 
N65 X134.417 Y-4.282 Z12.581 
N66 X134.421 Y-4.158 Z12.423 
N67 X134.426 Y-4.035 Z12.266 
N68 X134.430 Y-3.912 Z12.108 
N69 X134.435 Y-3.789 Z11.951 
N70 X134.439 Y-3.666 Z11.793 
N71 X134.444 Y-3.543 Z11.635 
N72 X134.448 Y-3.420 Z11.478 
N73 X134.453 Y-3.297 Z11.320 
N74 X134.458 Y-3.174 Z11.163 
N75 X134.462 Y-3.051 Z11.005 
N76 X134.467 Y-2.927 Z10.848 
N77 X134.471 Y-2.804 Z10.690 
N78 X134.476 Y-2.681 Z10.533 
N79 X134.481 Y-2.535 Z10.345 
N80 X134.487 Y-2.389 Z10.158 
N81 X134.491 Y-2.266 Z10.000 
N82 X134.496 Y-2.142 Z9.842 
N83 X134.500 Y-2.019 Z9.685 
N84 X134.505 Y-1.895 Z9.527 
N85 X134.509 Y-1.772 Z9.369 
N86 X134.513 Y-1.649 Z9.211 
N87 X134.516 Y-1.525 Z9.053 
N88 X134.520 Y-1.402 Z8.895 
N89 X134.524 Y-1.279 Z8.737 
N90 X134.527 Y-1.155 Z8.579 
N91 X134.530 Y-1.032 Z8.421 
N92 X134.534 Y-0.908 Z8.263 
N93 X134.536 Y-0.785 Z8.105 
N94 X134.539 Y-0.662 Z7.947 
N95 X134.542 Y-0.538 Z7.789 
N96 X134.544 Y-0.415 Z7.631 
N97 X134.547 Y-0.291 Z7.474 
N98 X134.549 Y-0.168 Z7.316 
N99 X134.550 Y-0.045 Z7.158 
N100 X134.552 Y0.079 Z7.000 
N101 X134.554 Y0.202 Z6.842 
N102 X134.556 Y0.326 Z6.684 
N103 X134.557 Y0.449 Z6.526 
N104 X134.558 Y0.572 Z6.368 
N105 X134.559 Y0.696 Z6.210 
N106 X134.560 Y0.819 Z6.052 
N107 X134.561 Y0.943 Z5.894 
N108 X134.562 Y1.066 Z5.736 
N109 X134.562 Y1.189 Z5.578 
N110 X134.562 Y1.313 Z5.420 
N111 X134.562 Y1.436 Z5.262 
N112 X134.562 Y1.560 Z5.104 
N113 X134.563 Y1.683 Z4.946 
N114 X134.562 Y1.806 Z4.788 
N115 X134.561 Y1.930 Z4.630 
N116 X134.561 Y2.053 Z4.473 
N117 X134.560 Y2.177 Z4.315 
N118 X134.559 Y2.300 Z4.157 
N119 X134.558 Y2.424 Z3.999 
N120 X134.557 Y2.547 Z3.841 
N121 X134.555 Y2.670 Z3.683 
N122 X134.554 Y2.794 Z3.525 
N123 X134.552 Y2.917 Z3.367 
N124 X134.550 Y3.041 Z3.209 
N125 X134.548 Y3.164 Z3.051 
N126 X134.546 Y3.287 Z2.893 
N127 X134.543 Y3.411 Z2.735 
N128 X134.541 Y3.534 Z2.577 
N129 X134.539 Y3.658 Z2.419 
N130 X134.536 Y3.781 Z2.261 
N131 X134.533 Y3.904 Z2.103 
N132 X134.529 Y4.028 Z1.945 
N133 X134.526 Y4.151 Z1.788 
N134 X134.523 Y4.274 Z1.630 
N135 X134.519 Y4.398 Z1.472 
N136 X134.515 Y4.521 Z1.314 
N137 X134.512 Y4.645 Z1.156 
N138 X134.508 Y4.768 Z0.998 
N139 X134.503 Y4.891 Z0.840 
N140 X134.499 Y5.015 Z0.682 
N141 X134.495 Y5.138 Z0.524 
N142 X134.490 Y5.261 Z0.366 
N143 X134.485 Y5.385 Z0.208 
N144 X134.480 Y5.508 Z0.050 
N145 X134.475 Y5.632 Z-0.107 
N146 X134.469 Y5.755 Z-0.265 
N147 X134.464 Y5.878 Z-0.423 
N148 X134.458 Y6.002 Z-0.581 
N149 X134.452 Y6.125 Z-0.739 
N150 X134.446 Y6.248 Z-0.897 
N151 X134.441 Y6.372 Z-1.055 
N152 X134.435 Y6.495 Z-1.213 
N153 X134.428 Y6.618 Z-1.371 
N154 X134.421 Y6.742 Z-1.528 
N155 X134.415 Y6.865 Z-1.686 
N156 X134.408 Y6.988 Z-1.844 
N157 X134.401 Y7.112 Z-2.002 
N158 X134.394 Y7.235 Z-2.160 
N159 X134.387 Y7.358 Z-2.318 
N160 X134.379 Y7.482 Z-2.476 
N161 X134.371 Y7.605 Z-2.633 
N162 X134.364 Y7.728 Z-2.791 
N163 X134.356 Y7.852 Z-2.949 
N164 X134.348 Y7.975 Z-3.107 
N165 X134.340 Y8.098 Z-3.265 
N166 X134.331 Y8.222 Z-3.422 
N167 X134.322 Y8.345 Z-3.580 
N168 X134.314 Y8.468 Z-3.738 
N169 X134.305 Y8.591 Z-3.896 
N170 X134.296 Y8.715 Z-4.054 
N171 X134.287 Y8.838 Z-4.211 
N172 X134.277 Y8.961 Z-4.369 
N173 X134.268 Y9.085 Z-4.527 
N174 X134.259 Y9.208 Z-4.685 
N175 X134.249 Y9.331 Z-4.843 
N176 X134.239 Y9.454 Z-5.000 
N177 X134.229 Y9.578 Z-5.158 
N178 X134.219 Y9.701 Z-5.316 
N179 X134.208 Y9.824 Z-5.474 
N180 X134.198 Y9.947 Z-5.631 
N181 X134.187 Y10.070 Z-5.789 
N182 X134.176 Y10.194 Z-5.947 
N183 X134.165 Y10.317 Z-6.104 
N184 X134.154 Y10.440 Z-6.262 
N185 X134.142 Y10.563 Z-6.420 
N186 X134.131 Y10.687 Z-6.578 
N187 X134.120 Y10.810 Z-6.735 
N188 X134.108 Y10.933 Z-6.893 
N189 X134.096 Y11.056 Z-7.051 
N190 X134.084 Y11.179 Z-7.208 
N191 X134.072 Y11.302 Z-7.366 
N192 X134.057 Y11.448 Z-7.553 
N193 X134.043 Y11.594 Z-7.740 
N194 G40 X133.983 Y12.209 Z-8.526 F804
N195 X133.983 Y12.209 Z-8.526 
N196 G00 X133.983 Y35.849 Z9.944 
N197 X134.435 Y18.496 Z32.155 
N198 X134.435 Y-5.144 Z13.685 
N199 ;finish FSE
N200 G01 G41 X134.457 Y-4.529 Z12.897 F804
N201 G01 X134.457 Y-4.529 Z12.897 F804 
N202 X134.462 Y-4.405 Z12.739 
N203 X134.467 Y-4.282 Z12.582 
N204 X134.471 Y-4.159 Z12.424 
N205 X134.476 Y-4.036 Z12.267 
N206 X134.480 Y-3.913 Z12.109 
N207 X134.485 Y-3.790 Z11.952 
N208 X134.489 Y-3.667 Z11.794 
N209 X134.494 Y-3.544 Z11.636 
N210 X134.498 Y-3.421 Z11.479 
N211 X134.503 Y-3.298 Z11.321 
N212 X134.507 Y-3.174 Z11.164 
N213 X134.512 Y-3.051 Z11.006 
N214 X134.517 Y-2.928 Z10.849 
N215 X134.521 Y-2.805 Z10.691 
N216 X134.526 Y-2.682 Z10.533 
N217 X134.531 Y-2.536 Z10.346 
N218 X134.536 Y-2.390 Z10.159 
N219 X134.541 Y-2.266 Z10.001 
N220 X134.546 Y-2.143 Z9.843 
N221 X134.550 Y-2.019 Z9.685 
N222 X134.555 Y-1.896 Z9.527 
N223 X134.559 Y-1.773 Z9.370 
N224 X134.563 Y-1.649 Z9.212 
N225 X134.566 Y-1.526 Z9.054 
N226 X134.570 Y-1.402 Z8.896 
N227 X134.574 Y-1.279 Z8.738 
N228 X134.577 Y-1.156 Z8.580 
N229 X134.580 Y-1.032 Z8.422 
N230 X134.584 Y-0.909 Z8.264 
N231 X134.586 Y-0.785 Z8.106 
N232 X134.589 Y-0.662 Z7.948 
N233 X134.592 Y-0.539 Z7.790 
N234 X134.594 Y-0.415 Z7.632 
N235 X134.597 Y-0.292 Z7.474 
N236 X134.599 Y-0.168 Z7.316 
N237 X134.600 Y-0.045 Z7.158 
N238 X134.602 Y0.079 Z7.000 
N239 X134.604 Y0.202 Z6.842 
N240 X134.606 Y0.325 Z6.684 
N241 X134.607 Y0.449 Z6.526 
N242 X134.608 Y0.572 Z6.368 
N243 X134.609 Y0.696 Z6.210 
N244 X134.610 Y0.819 Z6.052 
N245 X134.611 Y0.943 Z5.894 
N246 X134.612 Y1.066 Z5.736 
N247 X134.612 Y1.189 Z5.578 
N248 X134.612 Y1.313 Z5.420 
N249 X134.612 Y1.436 Z5.262 
N250 X134.612 Y1.560 Z5.104 
N251 X134.613 Y1.683 Z4.946 
N252 X134.612 Y1.807 Z4.788 
N253 X134.611 Y1.930 Z4.630 
N254 X134.611 Y2.053 Z4.472 
N255 X134.610 Y2.177 Z4.314 
N256 X134.609 Y2.300 Z4.156 
N257 X134.608 Y2.424 Z3.998 
N258 X134.607 Y2.547 Z3.840 
N259 X134.605 Y2.671 Z3.682 
N260 X134.604 Y2.794 Z3.525 
N261 X134.602 Y2.917 Z3.367 
N262 X134.600 Y3.041 Z3.209 
N263 X134.598 Y3.164 Z3.051 
N264 X134.596 Y3.288 Z2.893 
N265 X134.593 Y3.411 Z2.735 
N266 X134.591 Y3.535 Z2.577 
N267 X134.589 Y3.658 Z2.419 
N268 X134.586 Y3.781 Z2.261 
N269 X134.582 Y3.905 Z2.103 
N270 X134.579 Y4.028 Z1.945 
N271 X134.576 Y4.152 Z1.787 
N272 X134.573 Y4.275 Z1.629 
N273 X134.569 Y4.398 Z1.471 
N274 X134.565 Y4.522 Z1.313 
N275 X134.562 Y4.645 Z1.155 
N276 X134.558 Y4.769 Z0.997 
N277 X134.553 Y4.892 Z0.839 
N278 X134.549 Y5.015 Z0.681 
N279 X134.545 Y5.139 Z0.523 
N280 X134.540 Y5.262 Z0.365 
N281 X134.535 Y5.386 Z0.207 
N282 X134.530 Y5.509 Z0.049 
N283 X134.525 Y5.632 Z-0.108 
N284 X134.519 Y5.756 Z-0.266 
N285 X134.514 Y5.879 Z-0.424 
N286 X134.508 Y6.003 Z-0.582 
N287 X134.502 Y6.126 Z-0.740 
N288 X134.496 Y6.249 Z-0.898 
N289 X134.491 Y6.373 Z-1.056 
N290 X134.485 Y6.496 Z-1.214 
N291 X134.478 Y6.619 Z-1.372 
N292 X134.471 Y6.743 Z-1.530 
N293 X134.464 Y6.866 Z-1.688 
N294 X134.458 Y6.989 Z-1.845 
N295 X134.451 Y7.113 Z-2.003 
N296 X134.444 Y7.236 Z-2.161 
N297 X134.437 Y7.360 Z-2.319 
N298 X134.429 Y7.483 Z-2.477 
N299 X134.421 Y7.606 Z-2.635 
N300 X134.414 Y7.730 Z-2.793 
N301 X134.406 Y7.853 Z-2.951 
N302 X134.398 Y7.976 Z-3.108 
N303 X134.389 Y8.100 Z-3.266 
N304 X134.381 Y8.223 Z-3.424 
N305 X134.372 Y8.346 Z-3.582 
N306 X134.364 Y8.469 Z-3.740 
N307 X134.355 Y8.593 Z-3.898 
N308 X134.346 Y8.716 Z-4.055 
N309 X134.337 Y8.839 Z-4.213 
N310 X134.327 Y8.963 Z-4.371 
N311 X134.318 Y9.086 Z-4.529 
N312 X134.309 Y9.209 Z-4.687 
N313 X134.299 Y9.333 Z-4.844 
N314 X134.289 Y9.456 Z-5.002 
N315 X134.279 Y9.579 Z-5.160 
N316 X134.269 Y9.702 Z-5.318 
N317 X134.258 Y9.826 Z-5.476 
N318 X134.247 Y9.949 Z-5.633 
N319 X134.237 Y10.072 Z-5.791 
N320 X134.226 Y10.195 Z-5.949 
N321 X134.215 Y10.319 Z-6.107 
N322 X134.204 Y10.442 Z-6.264 
N323 X134.192 Y10.565 Z-6.422 
N324 X134.181 Y10.688 Z-6.580 
N325 X134.170 Y10.812 Z-6.738 
N326 X134.158 Y10.935 Z-6.895 
N327 X134.145 Y11.058 Z-7.053 
N328 X134.133 Y11.181 Z-7.211 
N329 X134.121 Y11.304 Z-7.368 
N330 X134.107 Y11.450 Z-7.555 
N331 X134.093 Y11.596 Z-7.742 
N332 G40 X134.033 Y12.211 Z-8.529 F804
N333 X134.033 Y12.211 Z-8.529 
N334 G00 X134.033 Y51.611 Z22.255 
RAPORT("T44444","Side Milling:164 End")
N336 ;trailer : concat=None
; points cnt = 264
N337 MSG (" --- GROUPED OF SUBPROGRAM --- ")
N338 FGROUP()
N339 TRAFOOF
N10 ; PROGRAM NAME: 4444439
N11 ; ORDER       : 44444
N12 ; OPER. NAME  : Side Milling:165
N13 ; OPER. DESCR.: finish face root outlet FSA
N14 ; OPER. TYPE  : sideMill
N15 ; GEO. OPTION : 1
N16 ; MACHINE     : SH_HX151_24_SIM840D
N17 ;             : STARRAG_HECKERT_5axis_finish_milling_machine
N18 ; CONTROL     : SINUMERIK 840D
N19 ; created:   2022-11-03 13:39:30.313725
;-------DODATKOWE DANE-------------------
; PROGRAMISTA : Mariusz Malec
; PARTID      : 139T004654P1015_-
;  ap         : 22.0
;  ae         : 0.05
;  lean_angle : 0.0
;  fin_offset : -9.0
;----------------------------------------
N20 ;----------------------------------------
RAPORT("T44444","Side Milling:165")
N21 TRAFOOF
N22 D0
N23 G0 G90 G94 Z260.0
N24 STOPRE
N25 M9 ; chlodziwo wyl
N26 ; --- Side Milling:165 - finish face root outlet FSA ---
N28 ;ToolChange : concat=None ,current_tdmid=None, PP.tdmId=957773
N29 TRAFOOF
N30 D0
N31 G0 G54 Z270.0
N32 S6701 M03
N33 STOPRE
N34 TOL(0.1,1,1)
N35 G0  A128.0000
N36 TRAORI
N37 G54 D2
N38 ;tol5=0.15
N39 D2 
STOPRE
E_ZDARZ=300007
;ACS_FINISH_ROOT_FRONT=7757773
STOPRE
;UWAGA : ZMIENIONA TOLERANCJA OSI A i B, ruchy osi A i B beda usuniete : TOL5=0.15
N40 ; DELTA A > 40.1
N41 TRAFOOF
N42 STOPRE
N43 G0 G53 D0 Z265.000
N44 G1 G53 A128.0000 F10000
N45 TRAORI
N46 G54 D2
N47 TRANS 
N48 G00 X134.435 Y-37.670 Z-37.429 A128.0000 B0.0000 
N49 M342 ; chlodziwo woda
N50 X134.435 Y1.730 Z-6.646 
N51 ;FSA_1
N52 G01 G41 X134.453 Y1.115 Z-5.858 F804
N53 G01 X134.453 Y1.115 Z-5.858 F804 
N54 X134.456 Y0.992 Z-5.701 
N55 X134.460 Y0.868 Z-5.543 
N56 X134.463 Y0.745 Z-5.386 
N57 X134.467 Y0.622 Z-5.228 
N58 X134.471 Y0.499 Z-5.070 
N59 X134.474 Y0.376 Z-4.913 
N60 X134.478 Y0.253 Z-4.755 
N61 X134.481 Y0.130 Z-4.598 
N62 X134.485 Y0.007 Z-4.440 
N63 X134.488 Y-0.116 Z-4.283 
N64 X134.492 Y-0.240 Z-4.125 
N65 X134.495 Y-0.363 Z-3.967 
N66 X134.499 Y-0.486 Z-3.810 
N67 X134.502 Y-0.609 Z-3.652 
N68 X134.506 Y-0.732 Z-3.495 
N69 X134.510 Y-0.878 Z-3.308 
N70 X134.514 Y-1.024 Z-3.120 
N71 X134.518 Y-1.148 Z-2.963 
N72 X134.521 Y-1.271 Z-2.805 
N73 X134.525 Y-1.395 Z-2.647 
N74 X134.528 Y-1.518 Z-2.489 
N75 X134.531 Y-1.641 Z-2.331 
N76 X134.534 Y-1.765 Z-2.173 
N77 X134.537 Y-1.888 Z-2.015 
N78 X134.540 Y-2.011 Z-1.857 
N79 X134.543 Y-2.135 Z-1.699 
N80 X134.545 Y-2.258 Z-1.541 
N81 X134.547 Y-2.382 Z-1.383 
N82 X134.549 Y-2.505 Z-1.225 
N83 X134.551 Y-2.628 Z-1.068 
N84 X134.553 Y-2.752 Z-0.910 
N85 X134.555 Y-2.875 Z-0.752 
N86 X134.556 Y-2.999 Z-0.594 
N87 X134.557 Y-3.122 Z-0.436 
N88 X134.559 Y-3.245 Z-0.278 
N89 X134.560 Y-3.369 Z-0.120 
N90 X134.561 Y-3.492 Z0.038 
N91 X134.561 Y-3.615 Z0.196 
N92 X134.562 Y-3.739 Z0.354 
N93 X134.562 Y-3.862 Z0.512 
N94 X134.563 Y-3.986 Z0.670 
N95 X134.563 Y-4.109 Z0.828 
N96 X134.562 Y-4.232 Z0.986 
N97 X134.562 Y-4.356 Z1.143 
N98 X134.562 Y-4.479 Z1.301 
N99 X134.561 Y-4.603 Z1.459 
N100 X134.561 Y-4.726 Z1.617 
N101 X134.560 Y-4.849 Z1.775 
N102 X134.558 Y-4.973 Z1.933 
N103 X134.557 Y-5.096 Z2.091 
N104 X134.556 Y-5.220 Z2.249 
N105 X134.555 Y-5.343 Z2.407 
N106 X134.553 Y-5.466 Z2.565 
N107 X134.551 Y-5.590 Z2.723 
N108 X134.549 Y-5.713 Z2.881 
N109 X134.547 Y-5.836 Z3.039 
N110 X134.545 Y-5.960 Z3.197 
N111 X134.543 Y-6.083 Z3.354 
N112 X134.540 Y-6.207 Z3.512 
N113 X134.537 Y-6.330 Z3.670 
N114 X134.535 Y-6.453 Z3.828 
N115 X134.532 Y-6.577 Z3.986 
N116 X134.528 Y-6.700 Z4.144 
N117 X134.525 Y-6.823 Z4.302 
N118 X134.522 Y-6.947 Z4.460 
N119 X134.518 Y-7.070 Z4.618 
N120 X134.514 Y-7.194 Z4.776 
N121 X134.510 Y-7.317 Z4.934 
N122 X134.506 Y-7.440 Z5.091 
N123 X134.502 Y-7.564 Z5.249 
N124 X134.498 Y-7.687 Z5.407 
N125 X134.493 Y-7.810 Z5.565 
N126 X134.488 Y-7.934 Z5.723 
N127 X134.484 Y-8.057 Z5.881 
N128 X134.478 Y-8.180 Z6.039 
N129 X134.473 Y-8.304 Z6.197 
N130 X134.468 Y-8.427 Z6.355 
N131 X134.463 Y-8.550 Z6.512 
N132 X134.457 Y-8.674 Z6.670 
N133 X134.451 Y-8.797 Z6.828 
N134 X134.445 Y-8.921 Z6.986 
N135 X134.439 Y-9.044 Z7.144 
N136 X134.432 Y-9.167 Z7.302 
N137 X134.426 Y-9.290 Z7.460 
N138 X134.419 Y-9.414 Z7.617 
N139 X134.412 Y-9.537 Z7.775 
N140 X134.406 Y-9.660 Z7.933 
N141 X134.399 Y-9.784 Z8.091 
N142 X134.392 Y-9.907 Z8.249 
N143 X134.384 Y-10.030 Z8.407 
N144 X134.376 Y-10.154 Z8.564 
N145 X134.369 Y-10.277 Z8.722 
N146 X134.361 Y-10.400 Z8.880 
N147 X134.353 Y-10.524 Z9.038 
N148 X134.345 Y-10.647 Z9.196 
N149 X134.337 Y-10.770 Z9.353 
N150 X134.328 Y-10.893 Z9.511 
N151 X134.320 Y-11.017 Z9.669 
N152 X134.311 Y-11.140 Z9.827 
N153 X134.302 Y-11.263 Z9.985 
N154 X134.293 Y-11.387 Z10.142 
N155 X134.284 Y-11.510 Z10.300 
N156 X134.274 Y-11.633 Z10.458 
N157 X134.265 Y-11.756 Z10.616 
N158 X134.255 Y-11.880 Z10.773 
N159 X134.246 Y-12.003 Z10.931 
N160 X134.235 Y-12.126 Z11.089 
N161 X134.225 Y-12.249 Z11.247 
N162 X134.215 Y-12.372 Z11.404 
N163 X134.205 Y-12.496 Z11.562 
N164 X134.194 Y-12.619 Z11.720 
N165 X134.183 Y-12.742 Z11.878 
N166 X134.172 Y-12.865 Z12.035 
N167 X134.161 Y-12.989 Z12.193 
N168 X134.150 Y-13.112 Z12.351 
N169 X134.139 Y-13.235 Z12.508 
N170 X134.127 Y-13.358 Z12.666 
N171 X134.115 Y-13.481 Z12.824 
N172 X134.104 Y-13.604 Z12.981 
N173 X134.092 Y-13.728 Z13.139 
N174 X134.079 Y-13.851 Z13.297 
N175 X134.067 Y-13.974 Z13.454 
N176 X134.055 Y-14.097 Z13.612 
N177 X134.042 Y-14.220 Z13.769 
N178 X134.029 Y-14.343 Z13.927 
N179 X134.016 Y-14.467 Z14.085 
N180 X134.003 Y-14.590 Z14.242 
N181 X133.990 Y-14.713 Z14.400 
N182 X133.975 Y-14.859 Z14.587 
N183 X133.960 Y-15.005 Z14.773 
N184 G40 X133.895 Y-15.619 Z15.560 F804
N185 X133.895 Y-15.619 Z15.560 
N186 G00 X133.895 Y-39.259 Z-2.910 
N187 X134.485 Y-21.910 Z-25.117 
N188 X134.485 Y1.731 Z-6.647 
N189 ;FSA_1
N190 G01 G41 X134.503 Y1.115 Z-5.859 F804
N191 G01 X134.503 Y1.115 Z-5.859 F804 
N192 X134.506 Y0.992 Z-5.702 
N193 X134.510 Y0.869 Z-5.544 
N194 X134.513 Y0.746 Z-5.386 
N195 X134.517 Y0.623 Z-5.229 
N196 X134.521 Y0.500 Z-5.071 
N197 X134.524 Y0.377 Z-4.914 
N198 X134.528 Y0.253 Z-4.756 
N199 X134.531 Y0.130 Z-4.599 
N200 X134.535 Y0.007 Z-4.441 
N201 X134.538 Y-0.116 Z-4.283 
N202 X134.542 Y-0.239 Z-4.126 
N203 X134.545 Y-0.362 Z-3.968 
N204 X134.549 Y-0.485 Z-3.811 
N205 X134.552 Y-0.608 Z-3.653 
N206 X134.556 Y-0.731 Z-3.495 
N207 X134.560 Y-0.878 Z-3.308 
N208 X134.564 Y-1.024 Z-3.121 
N209 X134.568 Y-1.147 Z-2.963 
N210 X134.571 Y-1.271 Z-2.805 
N211 X134.575 Y-1.394 Z-2.647 
N212 X134.578 Y-1.517 Z-2.489 
N213 X134.581 Y-1.641 Z-2.332 
N214 X134.584 Y-1.764 Z-2.174 
N215 X134.587 Y-1.888 Z-2.016 
N216 X134.590 Y-2.011 Z-1.858 
N217 X134.593 Y-2.134 Z-1.700 
N218 X134.595 Y-2.258 Z-1.542 
N219 X134.597 Y-2.381 Z-1.384 
N220 X134.599 Y-2.505 Z-1.226 
N221 X134.601 Y-2.628 Z-1.068 
N222 X134.603 Y-2.751 Z-0.910 
N223 X134.605 Y-2.875 Z-0.752 
N224 X134.606 Y-2.998 Z-0.594 
N225 X134.607 Y-3.122 Z-0.436 
N226 X134.609 Y-3.245 Z-0.278 
N227 X134.610 Y-3.369 Z-0.120 
N228 X134.611 Y-3.492 Z0.038 
N229 X134.611 Y-3.615 Z0.196 
N230 X134.612 Y-3.739 Z0.354 
N231 X134.612 Y-3.862 Z0.512 
N232 X134.613 Y-3.986 Z0.670 
N233 X134.613 Y-4.109 Z0.828 
N234 X134.612 Y-4.232 Z0.986 
N235 X134.612 Y-4.356 Z1.144 
N236 X134.612 Y-4.479 Z1.302 
N237 X134.611 Y-4.603 Z1.459 
N238 X134.611 Y-4.726 Z1.617 
N239 X134.610 Y-4.849 Z1.775 
N240 X134.608 Y-4.973 Z1.933 
N241 X134.607 Y-5.096 Z2.091 
N242 X134.606 Y-5.220 Z2.249 
N243 X134.605 Y-5.343 Z2.407 
N244 X134.603 Y-5.467 Z2.565 
N245 X134.601 Y-5.590 Z2.723 
N246 X134.599 Y-5.713 Z2.881 
N247 X134.597 Y-5.837 Z3.039 
N248 X134.595 Y-5.960 Z3.197 
N249 X134.593 Y-6.084 Z3.355 
N250 X134.590 Y-6.207 Z3.513 
N251 X134.587 Y-6.330 Z3.671 
N252 X134.585 Y-6.454 Z3.829 
N253 X134.582 Y-6.577 Z3.987 
N254 X134.578 Y-6.701 Z4.145 
N255 X134.575 Y-6.824 Z4.303 
N256 X134.572 Y-6.947 Z4.461 
N257 X134.568 Y-7.071 Z4.619 
N258 X134.564 Y-7.194 Z4.776 
N259 X134.560 Y-7.318 Z4.934 
N260 X134.556 Y-7.441 Z5.092 
N261 X134.552 Y-7.564 Z5.250 
N262 X134.548 Y-7.688 Z5.408 
N263 X134.543 Y-7.811 Z5.566 
N264 X134.538 Y-7.934 Z5.724 
N265 X134.533 Y-8.058 Z5.882 
N266 X134.528 Y-8.181 Z6.040 
N267 X134.523 Y-8.305 Z6.198 
N268 X134.518 Y-8.428 Z6.356 
N269 X134.512 Y-8.551 Z6.514 
N270 X134.507 Y-8.675 Z6.671 
N271 X134.501 Y-8.798 Z6.829 
N272 X134.495 Y-8.921 Z6.987 
N273 X134.489 Y-9.045 Z7.145 
N274 X134.482 Y-9.168 Z7.303 
N275 X134.476 Y-9.291 Z7.461 
N276 X134.469 Y-9.415 Z7.619 
N277 X134.462 Y-9.538 Z7.777 
N278 X134.456 Y-9.662 Z7.935 
N279 X134.449 Y-9.785 Z8.092 
N280 X134.442 Y-9.908 Z8.250 
N281 X134.434 Y-10.032 Z8.408 
N282 X134.426 Y-10.155 Z8.566 
N283 X134.419 Y-10.278 Z8.724 
N284 X134.411 Y-10.402 Z8.882 
N285 X134.403 Y-10.525 Z9.039 
N286 X134.395 Y-10.648 Z9.197 
N287 X134.387 Y-10.771 Z9.355 
N288 X134.378 Y-10.895 Z9.513 
N289 X134.369 Y-11.018 Z9.671 
N290 X134.361 Y-11.141 Z9.829 
N291 X134.352 Y-11.265 Z9.986 
N292 X134.343 Y-11.388 Z10.144 
N293 X134.334 Y-11.511 Z10.302 
N294 X134.324 Y-11.634 Z10.460 
N295 X134.315 Y-11.758 Z10.618 
N296 X134.305 Y-11.881 Z10.775 
N297 X134.296 Y-12.004 Z10.933 
N298 X134.285 Y-12.128 Z11.091 
N299 X134.275 Y-12.251 Z11.249 
N300 X134.265 Y-12.374 Z11.406 
N301 X134.255 Y-12.497 Z11.564 
N302 X134.244 Y-12.621 Z11.722 
N303 X134.233 Y-12.744 Z11.880 
N304 X134.222 Y-12.867 Z12.037 
N305 X134.211 Y-12.990 Z12.195 
N306 X134.200 Y-13.113 Z12.353 
N307 X134.189 Y-13.237 Z12.511 
N308 X134.177 Y-13.360 Z12.668 
N309 X134.165 Y-13.483 Z12.826 
N310 X134.154 Y-13.606 Z12.984 
N311 X134.142 Y-13.730 Z13.141 
N312 X134.129 Y-13.853 Z13.299 
N313 X134.117 Y-13.976 Z13.457 
N314 X134.105 Y-14.099 Z13.614 
N315 X134.092 Y-14.222 Z13.772 
N316 X134.079 Y-14.345 Z13.930 
N317 X134.066 Y-14.469 Z14.087 
N318 X134.053 Y-14.592 Z14.245 
N319 X134.040 Y-14.715 Z14.402 
N320 X134.025 Y-14.861 Z14.589 
N321 X134.009 Y-15.007 Z14.776 
N322 G40 X133.945 Y-15.621 Z15.562 F804
N323 X133.945 Y-15.621 Z15.562 
N324 G00 X133.945 Y-55.022 Z-15.221 
RAPORT("T44444","Side Milling:165 End")
N326 ;trailer : concat=None
; points cnt = 264
N327 M9 ; chlodziwo wyl.
N328 M9 ; chlodziwo wyl.
N329 MSG (" --- KONIEC PROGRAMU --- ")
N330 TRANS
N331 G54
N332 FGROUP()
N333 TRAFOOF
N334 STOPRE
N335 G0 G53 D0 Z290.0 M9 M5
N336 G0 G53 Y150 A0 B0
N337 M17
