N10 ; PROGRAM NAME: 4444451
N11 ; ORDER       : 44444
N12 ; OPER. NAME  : Slot Finishing:152
N13 ; OPER. DESCR.: Finishing slot/fazy wk
N14 ; OPER. TYPE  : slotMillFinish
N15 ; GEO. OPTION : 1
N16 ; MACHINE     : SH_HX151_24_SIM840D
N17 ;             : STARRAG_HECKERT_5axis_finish_milling_machine
N18 ; CONTROL     : SINUMERIK 840D
N19 ; created:   2022-11-03 13:38:20.568660
;-------DODATKOWE DANE-------------------
; PROGRAMISTA : Mariusz Malec
; PARTID      : 139T004654P1015_-
;  ap         : 5.0
;  ae         : 0.5
;  lean_angle : 0.0
;  rad_Offset : 2.0
;  fin_Offset : 1.0
;----------------------------------------
N20 ;----------------------------------------
RAPORT("T44444","Slot Finishing:152")
N21 TRAFOOF
N22 D0
N23 G90 G94
N24 STOPRE
N25 M9 ; chlodziwo wyl
N26 ; --- Slot Finishing:152 - Finishing slot/fazy wk ---
N28 ;ToolChange : concat=None ,current_tdmid=None, PP.tdmId=956976
N29 MSG(" TLID=956976 D=6.0 R=0.0 Ang=31.0 Len=124.0 ")
N30 TRAFOOF
N31 D0
N32 G0 G53 Z290 B0
N33 G0 X200
N34 G0 Y150
N35 T="7756976"
N36 G0 X500
RAPORT("T44444","ToolChangeStart 7756976")
N37 M6
RAPORT("T44444","ToolChangeEnd")
N38 ; (Preloading tool)
N39 T="7740732"
N40 G0 X200
N41 STOPRE
N42 S6366 M03
N43 STOPRE
N44 TOL(0.01,1,1)
N45 G0 X177.589 A309.5338
N46 TRAORI
N47 G54 D1
N48 D1 
N49 TRANS  X=R18 B=R39
STOPRE
E_ZDARZ=300006
;ACS_FINISH_ROOT_BETE=7756976
STOPRE
N50 ; DELTA A > 40.1
N51 TRAFOOF
N52 STOPRE
N53 G0 G53 D0 Z265.000
N54 G1 G53 A309.5338 F10000
N55 TRAORI
N56 G54 D1
N57 TRANS  X=R18 B=R39
N58 G00 X177.589 Y36.966 Z48.618 A309.5338 B18.4094 
N59 M342 ; chlodziwo woda
N60 X165.493 Y-1.240 Z18.719 
N61 G01 X165.431 Y4.917 Z10.839 F763 
N62 X165.429 Y5.070 Z10.642 
N63 X165.428 Y5.224 Z10.445 
N64 X165.426 Y5.378 Z10.248 
N65 X165.425 Y5.532 Z10.051 
N66 X165.422 Y5.748 Z9.775 
N67 X165.421 Y5.903 Z9.576 A309.5214 B18.4093 
N68 X165.419 Y6.059 Z9.377 A309.5091 B18.4092 
N69 X165.418 Y6.214 Z9.178 A309.4967 B18.4091 
N70 X165.416 Y6.370 Z8.978 A309.4844 B18.4090 
N71 X165.415 Y6.526 Z8.779 A309.4720 B18.4089 
N72 X165.413 Y6.681 Z8.580 A309.4597 B18.4088 
N73 X165.411 Y6.837 Z8.381 A309.4473 B18.4087 
N74 X165.410 Y6.992 Z8.182 A309.4350 B18.4086 
N75 X165.408 Y7.148 Z7.983 A309.4226 B18.4085 
N76 X165.407 Y7.304 Z7.783 A309.4103 B18.4084 
N77 X165.405 Y7.459 Z7.584 A309.3979 B18.4083 
N78 X165.404 Y7.615 Z7.385 A309.3856 B18.4082 
N79 X165.402 Y7.770 Z7.186 A309.3732 B18.4081 
N80 X165.400 Y7.926 Z6.987 A309.3609 B18.4080 
N81 X165.399 Y8.082 Z6.788 A309.3485 B18.4079 
N82 X165.397 Y8.237 Z6.588 A309.3362 B18.4078 
N83 X165.396 Y8.393 Z6.389 A309.3238 B18.4077 
N84 X165.394 Y8.548 Z6.190 A309.3115 B18.4076 
N85 X165.393 Y8.704 Z5.991 A309.2991 B18.4075 
N86 X165.391 Y8.860 Z5.792 A309.2867 B18.4074 
N87 X165.389 Y9.015 Z5.593 A309.2744 B18.4072 
N88 X165.388 Y9.171 Z5.394 A309.2620 B18.4071 
N89 X165.382 Y9.326 Z5.194 A309.2495 B18.4067 
N90 X165.376 Y9.482 Z4.995 A309.2370 B18.4063 
N91 X165.369 Y9.638 Z4.796 A309.2245 B18.4059 
N92 X165.363 Y9.793 Z4.597 A309.2120 B18.4055 
N93 X165.357 Y9.949 Z4.398 A309.1995 B18.4052 
N94 X165.351 Y10.104 Z4.199 A309.1870 B18.4048 
N95 X165.345 Y10.260 Z4.000 A309.1745 B18.4044 
N96 X165.339 Y10.415 Z3.801 A309.1620 B18.4040 
N97 X165.333 Y10.571 Z3.602 A309.1495 B18.4036 
N98 X165.327 Y10.726 Z3.402 A309.1370 B18.4032 
N99 X165.321 Y10.882 Z3.203 A309.1245 B18.4027 
N100 X165.314 Y11.038 Z3.004 A309.1119 B18.4023 
N101 X165.308 Y11.193 Z2.805 A309.0994 B18.4019 
N102 X165.302 Y11.349 Z2.606 A309.0869 B18.4015 
N103 X165.296 Y11.504 Z2.407 A309.0744 B18.4011 
N104 X165.290 Y11.660 Z2.208 A309.0619 B18.4007 
N105 X165.284 Y11.815 Z2.009 A309.0494 B18.4003 
N106 X165.278 Y11.971 Z1.810 A309.0369 B18.3999 
N107 X165.272 Y12.126 Z1.611 A309.0244 B18.3995 
N108 X165.263 Y12.282 Z1.411 A309.0118 B18.3989 
N109 X165.253 Y12.437 Z1.212 A308.9993 B18.3983 
N110 X165.243 Y12.593 Z1.013 A308.9868 B18.3976 
N111 X165.233 Y12.748 Z0.814 A308.9742 B18.3969 
N112 X165.222 Y12.904 Z0.615 A308.9617 B18.3963 
N113 X165.212 Y13.059 Z0.416 A308.9491 B18.3956 
N114 X165.202 Y13.215 Z0.217 A308.9366 B18.3950 
N115 X165.192 Y13.370 Z0.018 A308.9240 B18.3943 
N116 X165.182 Y13.526 Z-0.181 A308.9115 B18.3937 
N117 X165.172 Y13.681 Z-0.380 A308.8989 B18.3930 
N118 X165.162 Y13.837 Z-0.579 A308.8864 B18.3923 
N119 X165.152 Y13.992 Z-0.778 A308.8739 B18.3917 
N120 X165.142 Y14.148 Z-0.977 A308.8613 B18.3910 
N121 X165.132 Y14.303 Z-1.176 A308.8488 B18.3903 
N122 X165.122 Y14.459 Z-1.375 A308.8362 B18.3897 
N123 X165.112 Y14.614 Z-1.574 A308.8237 B18.3890 
N124 X165.101 Y14.770 Z-1.773 A308.8112 B18.3883 
N125 X165.088 Y14.925 Z-1.971 A308.7988 B18.3874 
N126 X165.074 Y15.080 Z-2.170 A308.7864 B18.3866 
N127 X165.061 Y15.236 Z-2.369 A308.7740 B18.3857 
N128 X165.047 Y15.391 Z-2.568 A308.7616 B18.3848 
N129 X165.034 Y15.547 Z-2.767 A308.7492 B18.3840 
N130 X165.020 Y15.702 Z-2.966 A308.7368 B18.3831 
N131 X165.007 Y15.857 Z-3.165 A308.7244 B18.3822 
N132 X164.994 Y16.013 Z-3.364 A308.7120 B18.3813 
N133 X164.980 Y16.168 Z-3.563 A308.6996 B18.3805 
N134 X164.967 Y16.323 Z-3.761 A308.6872 B18.3796 
N135 X164.953 Y16.479 Z-3.960 A308.6748 B18.3787 
N136 X164.940 Y16.634 Z-4.159 A308.6624 B18.3779 
N137 X164.926 Y16.790 Z-4.358 A308.6500 B18.3770 
N138 X164.913 Y16.945 Z-4.557 A308.6376 B18.3761 
N139 X164.894 Y17.160 Z-4.832 
N140 X164.363 Y23.308 Z-12.701 
N141 G00 X170.401 Y42.644 Z1.951 
N142 X172.177 Y17.862 Z33.670 A309.5338 B18.4094 
N143 X166.129 Y-1.241 Z18.720 
N144 G01 X166.067 Y4.915 Z10.840 F763 
N145 X166.066 Y5.069 Z10.643 
N146 X166.064 Y5.223 Z10.446 
N147 X166.063 Y5.377 Z10.249 
N148 X166.061 Y5.531 Z10.052 
N149 X166.059 Y5.746 Z9.777 
N150 X166.057 Y5.902 Z9.577 A309.5214 B18.4093 
N151 X166.056 Y6.058 Z9.377 A309.5091 B18.4092 
N152 X166.054 Y6.214 Z9.178 A309.4967 B18.4091 
N153 X166.053 Y6.370 Z8.978 A309.4844 B18.4090 
N154 X166.051 Y6.526 Z8.779 A309.4720 B18.4089 
N155 X166.049 Y6.682 Z8.579 A309.4597 B18.4088 
N156 X166.048 Y6.838 Z8.379 A309.4473 B18.4087 
N157 X166.046 Y6.994 Z8.180 A309.4350 B18.4086 
N158 X166.045 Y7.150 Z7.980 A309.4226 B18.4085 
N159 X166.043 Y7.306 Z7.781 A309.4103 B18.4084 
N160 X166.042 Y7.462 Z7.581 A309.3979 B18.4083 
N161 X166.040 Y7.618 Z7.382 A309.3856 B18.4082 
N162 X166.038 Y7.774 Z7.182 A309.3732 B18.4081 
N163 X166.037 Y7.930 Z6.982 A309.3609 B18.4080 
N164 X166.035 Y8.086 Z6.783 A309.3485 B18.4079 
N165 X166.034 Y8.241 Z6.583 A309.3362 B18.4078 
N166 X166.032 Y8.397 Z6.384 A309.3238 B18.4077 
N167 X166.030 Y8.553 Z6.184 A309.3115 B18.4076 
N168 X166.029 Y8.709 Z5.984 A309.2991 B18.4075 
N169 X166.027 Y8.865 Z5.785 A309.2867 B18.4074 
N170 X166.026 Y9.021 Z5.585 A309.2744 B18.4072 
N171 X166.024 Y9.177 Z5.386 A309.2620 B18.4071 
N172 X166.018 Y9.333 Z5.186 A309.2495 B18.4067 
N173 X166.012 Y9.489 Z4.986 A309.2370 B18.4063 
N174 X166.006 Y9.645 Z4.787 A309.2245 B18.4059 
N175 X166.000 Y9.801 Z4.587 A309.2120 B18.4055 
N176 X165.993 Y9.957 Z4.388 A309.1995 B18.4052 
N177 X165.987 Y10.113 Z4.188 A309.1870 B18.4048 
N178 X165.981 Y10.268 Z3.989 A309.1745 B18.4044 
N179 X165.975 Y10.424 Z3.789 A309.1620 B18.4040 
N180 X165.969 Y10.580 Z3.590 A309.1495 B18.4036 
N181 X165.963 Y10.736 Z3.390 A309.1370 B18.4032 
N182 X165.957 Y10.892 Z3.191 A309.1245 B18.4027 
N183 X165.951 Y11.048 Z2.991 A309.1119 B18.4023 
N184 X165.944 Y11.204 Z2.792 A309.0994 B18.4019 
N185 X165.938 Y11.360 Z2.592 A309.0869 B18.4015 
N186 X165.932 Y11.516 Z2.392 A309.0744 B18.4011 
N187 X165.926 Y11.671 Z2.193 A309.0619 B18.4007 
N188 X165.920 Y11.827 Z1.993 A309.0494 B18.4003 
N189 X165.914 Y11.983 Z1.794 A309.0369 B18.3999 
N190 X165.908 Y12.139 Z1.594 A309.0244 B18.3995 
N191 X165.899 Y12.295 Z1.395 A309.0118 B18.3989 
N192 X165.889 Y12.451 Z1.195 A308.9993 B18.3983 
N193 X165.879 Y12.607 Z0.996 A308.9868 B18.3976 
N194 X165.869 Y12.762 Z0.797 A308.9742 B18.3969 
N195 X165.858 Y12.918 Z0.597 A308.9617 B18.3963 
N196 X165.848 Y13.074 Z0.398 A308.9491 B18.3956 
N197 X165.838 Y13.230 Z0.198 A308.9366 B18.3950 
N198 X165.828 Y13.386 Z-0.001 A308.9240 B18.3943 
N199 X165.818 Y13.542 Z-0.201 A308.9115 B18.3937 
N200 X165.808 Y13.697 Z-0.400 A308.8990 B18.3930 
N201 X165.798 Y13.853 Z-0.600 A308.8864 B18.3923 
N202 X165.788 Y14.009 Z-0.799 A308.8739 B18.3917 
N203 X165.778 Y14.165 Z-0.998 A308.8613 B18.3910 
N204 X165.768 Y14.321 Z-1.198 A308.8488 B18.3903 
N205 X165.758 Y14.476 Z-1.397 A308.8362 B18.3897 
N206 X165.748 Y14.632 Z-1.597 A308.8237 B18.3890 
N207 X165.737 Y14.788 Z-1.796 A308.8112 B18.3883 
N208 X165.723 Y14.944 Z-1.995 A308.7988 B18.3874 
N209 X165.710 Y15.100 Z-2.195 A308.7864 B18.3866 
N210 X165.696 Y15.255 Z-2.394 A308.7740 B18.3857 
N211 X165.683 Y15.411 Z-2.593 A308.7616 B18.3848 
N212 X165.669 Y15.567 Z-2.793 A308.7492 B18.3840 
N213 X165.656 Y15.722 Z-2.992 A308.7368 B18.3831 
N214 X165.642 Y15.878 Z-3.191 A308.7244 B18.3822 
N215 X165.629 Y16.034 Z-3.391 A308.7120 B18.3813 
N216 X165.616 Y16.190 Z-3.590 A308.6996 B18.3805 
N217 X165.602 Y16.345 Z-3.789 A308.6872 B18.3796 
N218 X165.589 Y16.501 Z-3.989 A308.6748 B18.3787 
N219 X165.575 Y16.657 Z-4.188 A308.6624 B18.3779 
N220 X165.562 Y16.812 Z-4.387 A308.6500 B18.3770 
N221 X165.548 Y16.968 Z-4.587 A308.6376 B18.3761 
N222 X165.530 Y17.183 Z-4.862 
N223 X164.999 Y23.331 Z-12.731 
N224 G00 X177.073 Y62.002 Z16.574 
RAPORT("T44444","Slot Finishing:152 End")
N226 ;trailer : concat=None
; points cnt = 160
N227 MSG (" --- GROUPED OF SUBPROGRAM --- ")
N228 FGROUP()
N229 TRAFOOF
N10 ; PROGRAM NAME: 4444451
N11 ; ORDER       : 44444
N12 ; OPER. NAME  : Slot Finishing:153
N13 ; OPER. DESCR.: finishing root chamfer BETE SFSE
N14 ; OPER. TYPE  : slotMillFinish
N15 ; GEO. OPTION : 1
N16 ; MACHINE     : SH_HX151_24_SIM840D
N17 ;             : STARRAG_HECKERT_5axis_finish_milling_machine
N18 ; CONTROL     : SINUMERIK 840D
N19 ; created:   2022-11-03 13:38:26.531060
;-------DODATKOWE DANE-------------------
; PROGRAMISTA : Mariusz Malec
; PARTID      : 139T004654P1015_-
;  ap         : 5.0
;  ae         : 1.0
;  lean_angle : 0.0
;  rad_Offset : 2.0
;  fin_Offset : 1.0
;----------------------------------------
N20 ;----------------------------------------
RAPORT("T44444","Slot Finishing:153")
N21 TRAFOOF
N22 D0
N23 G0 G90 G94 Z260.0
N24 STOPRE
N25 M9 ; chlodziwo wyl
N26 ; --- Slot Finishing:153 - finishing root chamfer BETE SFSE ---
N28 ;ToolChange : concat=None ,current_tdmid=None, PP.tdmId=956976
N29 TRAFOOF
N30 D0
N31 G0 G54 Z270.0
N32 S6366 M03
N33 STOPRE
N34 TOL(0.01,1,1)
N35 G0  A309.5338
N36 TRAORI
N37 G54 D1
N38 D1 
N39 TRANS  X=R18 B=R39
STOPRE
E_ZDARZ=300006
;ACS_FINISH_ROOT_BETE=7756976
STOPRE
N40 ; DELTA A > 40.1
N41 TRAFOOF
N42 STOPRE
N43 G0 G53 D0 Z265.000
N44 G1 G53 A309.5338 F10000
N45 TRAORI
N46 G54 D1
N47 TRANS  X=R18 B=R39
N48 G00 X178.367 Y36.965 Z48.620 A309.5338 B18.4094 
N49 M342 ; chlodziwo woda
N50 X166.271 Y-1.241 Z18.721 
N51 G01 X166.209 Y4.915 Z10.841 F763 
N52 X166.207 Y5.069 Z10.644 
N53 X166.206 Y5.223 Z10.447 
N54 X166.204 Y5.377 Z10.250 
N55 X166.202 Y5.531 Z10.053 
N56 X166.200 Y5.746 Z9.777 
N57 X166.199 Y5.902 Z9.577 A309.5214 B18.4093 
N58 X166.197 Y6.058 Z9.378 A309.5091 B18.4092 
N59 X166.196 Y6.214 Z9.178 A309.4967 B18.4091 
N60 X166.194 Y6.370 Z8.978 A309.4844 B18.4090 
N61 X166.192 Y6.526 Z8.779 A309.4720 B18.4089 
N62 X166.191 Y6.682 Z8.579 A309.4597 B18.4088 
N63 X166.189 Y6.838 Z8.379 A309.4473 B18.4087 
N64 X166.188 Y6.994 Z8.179 A309.4350 B18.4086 
N65 X166.186 Y7.150 Z7.980 A309.4226 B18.4085 
N66 X166.184 Y7.306 Z7.780 A309.4103 B18.4084 
N67 X166.183 Y7.462 Z7.580 A309.3979 B18.4083 
N68 X166.181 Y7.618 Z7.381 A309.3856 B18.4082 
N69 X166.180 Y7.774 Z7.181 A309.3732 B18.4081 
N70 X166.178 Y7.930 Z6.981 A309.3609 B18.4080 
N71 X166.177 Y8.086 Z6.782 A309.3485 B18.4079 
N72 X166.175 Y8.242 Z6.582 A309.3362 B18.4078 
N73 X166.173 Y8.398 Z6.382 A309.3238 B18.4077 
N74 X166.172 Y8.554 Z6.183 A309.3115 B18.4076 
N75 X166.170 Y8.710 Z5.983 A309.2991 B18.4075 
N76 X166.169 Y8.866 Z5.783 A309.2867 B18.4074 
N77 X166.167 Y9.022 Z5.583 A309.2744 B18.4072 
N78 X166.166 Y9.178 Z5.384 A309.2620 B18.4071 
N79 X166.159 Y9.334 Z5.184 A309.2495 B18.4067 
N80 X166.153 Y9.490 Z4.985 A309.2370 B18.4063 
N81 X166.147 Y9.646 Z4.785 A309.2245 B18.4059 
N82 X166.141 Y9.802 Z4.585 A309.2120 B18.4055 
N83 X166.135 Y9.958 Z4.386 A309.1995 B18.4052 
N84 X166.129 Y10.114 Z4.186 A309.1870 B18.4048 
N85 X166.123 Y10.270 Z3.986 A309.1745 B18.4044 
N86 X166.116 Y10.426 Z3.787 A309.1620 B18.4040 
N87 X166.110 Y10.582 Z3.587 A309.1495 B18.4036 
N88 X166.104 Y10.738 Z3.387 A309.1370 B18.4032 
N89 X166.098 Y10.894 Z3.188 A309.1245 B18.4027 
N90 X166.092 Y11.050 Z2.988 A309.1119 B18.4023 
N91 X166.086 Y11.206 Z2.789 A309.0994 B18.4019 
N92 X166.080 Y11.362 Z2.589 A309.0869 B18.4015 
N93 X166.074 Y11.518 Z2.389 A309.0744 B18.4011 
N94 X166.067 Y11.674 Z2.190 A309.0619 B18.4007 
N95 X166.061 Y11.830 Z1.990 A309.0494 B18.4003 
N96 X166.055 Y11.986 Z1.790 A309.0369 B18.3999 
N97 X166.049 Y12.142 Z1.591 A309.0244 B18.3995 
N98 X166.040 Y12.298 Z1.391 A309.0118 B18.3989 
N99 X166.030 Y12.454 Z1.192 A308.9993 B18.3983 
N100 X166.020 Y12.610 Z0.992 A308.9868 B18.3976 
N101 X166.010 Y12.766 Z0.793 A308.9742 B18.3969 
N102 X166.000 Y12.921 Z0.593 A308.9617 B18.3963 
N103 X165.990 Y13.077 Z0.393 A308.9491 B18.3956 
N104 X165.980 Y13.233 Z0.194 A308.9366 B18.3950 
N105 X165.970 Y13.389 Z-0.006 A308.9240 B18.3943 
N106 X165.959 Y13.545 Z-0.205 A308.9115 B18.3937 
N107 X165.949 Y13.701 Z-0.405 A308.8990 B18.3930 
N108 X165.939 Y13.857 Z-0.604 A308.8864 B18.3923 
N109 X165.929 Y14.013 Z-0.804 A308.8739 B18.3917 
N110 X165.919 Y14.169 Z-1.003 A308.8613 B18.3910 
N111 X165.909 Y14.325 Z-1.203 A308.8488 B18.3903 
N112 X165.899 Y14.480 Z-1.402 A308.8362 B18.3897 
N113 X165.889 Y14.636 Z-1.602 A308.8237 B18.3890 
N114 X165.878 Y14.792 Z-1.801 A308.8112 B18.3883 
N115 X165.864 Y14.948 Z-2.001 A308.7988 B18.3874 
N116 X165.851 Y15.104 Z-2.200 A308.7864 B18.3866 
N117 X165.838 Y15.260 Z-2.400 A308.7740 B18.3857 
N118 X165.824 Y15.415 Z-2.599 A308.7616 B18.3848 
N119 X165.811 Y15.571 Z-2.798 A308.7492 B18.3840 
N120 X165.797 Y15.727 Z-2.998 A308.7368 B18.3831 
N121 X165.784 Y15.883 Z-3.197 A308.7244 B18.3822 
N122 X165.770 Y16.039 Z-3.397 A308.7120 B18.3813 
N123 X165.757 Y16.194 Z-3.596 A308.6996 B18.3805 
N124 X165.743 Y16.350 Z-3.796 A308.6872 B18.3796 
N125 X165.730 Y16.506 Z-3.995 A308.6748 B18.3787 
N126 X165.716 Y16.662 Z-4.194 A308.6624 B18.3779 
N127 X165.703 Y16.818 Z-4.394 A308.6500 B18.3770 
N128 X165.689 Y16.973 Z-4.593 A308.6376 B18.3761 
N129 X165.671 Y17.189 Z-4.869 
N130 X165.140 Y23.336 Z-12.738 
N131 G00 X177.215 Y62.007 Z16.567 
RAPORT("T44444","Slot Finishing:153 End")
N133 ;trailer : concat=None
; points cnt = 80
N134 MSG (" --- GROUPED OF SUBPROGRAM --- ")
N135 FGROUP()
N136 TRAFOOF
N10 ; PROGRAM NAME: 4444451
N11 ; ORDER       : 44444
N12 ; OPER. NAME  : Slot Finishing:154
N13 ; OPER. DESCR.: finishing root chamfer FSFSE
N14 ; OPER. TYPE  : slotMillFinish
N15 ; GEO. OPTION : 3
N16 ; MACHINE     : SH_HX151_24_SIM840D
N17 ;             : STARRAG_HECKERT_5axis_finish_milling_machine
N18 ; CONTROL     : SINUMERIK 840D
N19 ; created:   2022-11-03 13:38:33.945226
;-------DODATKOWE DANE-------------------
; PROGRAMISTA : Mariusz Malec
; PARTID      : 139T004654P1015_-
;  ap         : 100.0
;  ae         : 1.502828854
;  lean_angle : 0.0
;  rad_Offset : 2.0
;  fin_Offset : -0.5
;----------------------------------------
N20 ;----------------------------------------
RAPORT("T44444","Slot Finishing:154")
N21 TRAFOOF
N22 D0
N23 G0 G90 G94 Z260.0
N24 STOPRE
N25 M9 ; chlodziwo wyl
N26 ; --- Slot Finishing:154 - finishing root chamfer FSFSE ---
N28 ;ToolChange : concat=None ,current_tdmid=None, PP.tdmId=956976
N29 TRAFOOF
N30 D0
N31 G0 G54 Z270.0
N32 S6366 M03
N33 STOPRE
N34 TOL(0.01,1,1)
N35 G0  A310.0680
N36 TRAORI
N37 G54 D1
N38 D1 
N39 TRANS  X=R19
STOPRE
E_ZDARZ=300008
;ACS_FINISH_ROOT_FRONT_CHAMFER=7756976
STOPRE
N40 ; DELTA A > 40.1
N41 TRAFOOF
N42 STOPRE
N43 G0 G53 D0 Z265.000
N44 G1 G53 A310.0680 F10000
N45 TRAORI
N46 G54 D1
N47 TRANS  X=R19
N48 G00 X147.542 Y32.844 Z58.240 A310.0680 B18.3937 
N49 M342 ; chlodziwo woda
N50 X135.456 Y-5.082 Z27.982 
N51 G01 X135.859 Y1.069 Z20.109 F763 
N52 X135.869 Y1.223 Z19.912 
N53 X135.879 Y1.377 Z19.715 
N54 X135.889 Y1.530 Z19.518 
N55 X135.899 Y1.684 Z19.321 
N56 X135.913 Y1.900 Z19.046 
N57 X135.923 Y2.056 Z18.845 A310.0542 B18.3944 
N58 X135.933 Y2.213 Z18.645 A310.0404 B18.3951 
N59 X135.943 Y2.369 Z18.445 A310.0266 B18.3958 
N60 X135.953 Y2.526 Z18.244 A310.0128 B18.3965 
N61 X135.962 Y2.682 Z18.044 A309.9990 B18.3972 
N62 X135.971 Y2.839 Z17.844 A309.9852 B18.3979 
N63 X135.980 Y2.995 Z17.643 A309.9714 B18.3985 
N64 X135.988 Y3.152 Z17.443 A309.9576 B18.3991 
N65 X135.997 Y3.308 Z17.243 A309.9438 B18.3997 
N66 X136.005 Y3.465 Z17.042 A309.9300 B18.4003 
N67 X136.012 Y3.621 Z16.842 A309.9162 B18.4009 
N68 X136.020 Y3.778 Z16.641 A309.9024 B18.4014 
N69 X136.027 Y3.934 Z16.441 A309.8885 B18.4020 
N70 X136.034 Y4.091 Z16.241 A309.8747 B18.4025 
N71 X136.041 Y4.247 Z16.040 A309.8609 B18.4030 
N72 X136.048 Y4.404 Z15.840 A309.8471 B18.4035 
N73 X136.054 Y4.561 Z15.640 A309.8332 B18.4039 
N74 X136.060 Y4.717 Z15.439 A309.8194 B18.4044 
N75 X136.066 Y4.874 Z15.239 A309.8055 B18.4048 
N76 X136.071 Y5.030 Z15.038 A309.7917 B18.4052 
N77 X136.077 Y5.187 Z14.838 A309.7778 B18.4056 
N78 X136.082 Y5.343 Z14.637 A309.7640 B18.4059 
N79 X136.086 Y5.500 Z14.437 A309.7501 B18.4063 
N80 X136.091 Y5.657 Z14.237 A309.7363 B18.4066 
N81 X136.095 Y5.813 Z14.036 A309.7224 B18.4069 
N82 X136.099 Y5.970 Z13.836 A309.7085 B18.4072 
N83 X136.103 Y6.126 Z13.635 A309.6946 B18.4075 
N84 X136.107 Y6.283 Z13.435 A309.6808 B18.4078 
N85 X136.110 Y6.440 Z13.234 A309.6669 B18.4080 
N86 X136.113 Y6.596 Z13.034 A309.6530 B18.4082 
N87 X136.116 Y6.753 Z12.833 A309.6391 B18.4084 
N88 X136.118 Y6.909 Z12.633 A309.6252 B18.4086 
N89 X136.121 Y7.066 Z12.433 A309.6114 B18.4088 
N90 X136.123 Y7.223 Z12.232 A309.5975 B18.4090 
N91 X136.125 Y7.379 Z12.032 A309.5836 B18.4091 
N92 X136.126 Y7.536 Z11.831 A309.5697 B18.4092 
N93 X136.128 Y7.693 Z11.631 A309.5558 B18.4093 
N94 X136.129 Y7.849 Z11.430 A309.5419 B18.4094 
N95 X136.130 Y8.006 Z11.230 A309.5279 B18.4094 
N96 X136.130 Y8.162 Z11.029 A309.5140 B18.4095 
N97 X136.130 Y8.319 Z10.829 A309.5001 B18.4095 
N98 X136.131 Y8.476 Z10.628 A309.4862 B18.4095 
N99 X136.130 Y8.632 Z10.428 A309.4723 B18.4095 
N100 X136.130 Y8.789 Z10.227 A309.4584 B18.4095 
N101 X136.129 Y8.946 Z10.027 A309.4444 B18.4094 
N102 X136.128 Y9.102 Z9.827 A309.4305 B18.4094 
N103 X136.127 Y9.259 Z9.626 A309.4166 B18.4093 
N104 X136.126 Y9.415 Z9.426 A309.4026 B18.4092 
N105 X136.124 Y9.572 Z9.225 A309.3887 B18.4090 
N106 X136.122 Y9.729 Z9.025 A309.3747 B18.4089 
N107 X136.120 Y9.885 Z8.824 A309.3608 B18.4088 
N108 X136.118 Y10.042 Z8.624 A309.3469 B18.4086 
N109 X136.115 Y10.198 Z8.423 A309.3329 B18.4084 
N110 X136.112 Y10.355 Z8.223 A309.3190 B18.4082 
N111 X136.109 Y10.512 Z8.022 A309.3050 B18.4079 
N112 X136.106 Y10.668 Z7.822 A309.2910 B18.4077 
N113 X136.102 Y10.825 Z7.622 A309.2771 B18.4074 
N114 X136.098 Y10.981 Z7.421 A309.2631 B18.4072 
N115 X136.094 Y11.138 Z7.221 A309.2491 B18.4069 
N116 X136.090 Y11.295 Z7.020 A309.2352 B18.4065 
N117 X136.085 Y11.451 Z6.820 A309.2212 B18.4062 
N118 X136.080 Y11.608 Z6.619 A309.2072 B18.4058 
N119 X136.075 Y11.764 Z6.419 A309.1933 B18.4055 
N120 X136.070 Y11.921 Z6.219 A309.1793 B18.4051 
N121 X136.064 Y12.078 Z6.018 A309.1653 B18.4047 
N122 X136.058 Y12.234 Z5.818 A309.1513 B18.4042 
N123 X136.052 Y12.391 Z5.617 A309.1373 B18.4038 
N124 X136.046 Y12.547 Z5.417 A309.1233 B18.4033 
N125 X136.039 Y12.704 Z5.216 A309.1093 B18.4028 
N126 X136.032 Y12.860 Z5.016 A309.0953 B18.4023 
N127 X136.025 Y13.017 Z4.816 A309.0813 B18.4018 
N128 X136.018 Y13.174 Z4.615 A309.0673 B18.4013 
N129 X136.010 Y13.330 Z4.415 A309.0533 B18.4007 
N130 X136.003 Y13.487 Z4.215 A309.0393 B18.4002 
N131 X135.994 Y13.643 Z4.014 A309.0253 B18.3996 
N132 X135.986 Y13.800 Z3.814 A309.0113 B18.3990 
N133 X135.978 Y13.956 Z3.614 A308.9973 B18.3983 
N134 X135.969 Y14.113 Z3.413 A308.9833 B18.3977 
N135 X135.960 Y14.269 Z3.213 A308.9693 B18.3970 
N136 X135.950 Y14.426 Z3.013 A308.9552 B18.3963 
N137 X135.941 Y14.582 Z2.812 A308.9412 B18.3956 
N138 X135.931 Y14.739 Z2.612 A308.9272 B18.3949 
N139 X135.921 Y14.895 Z2.412 A308.9132 B18.3942 
N140 X135.910 Y15.052 Z2.211 A308.8991 B18.3934 
N141 X135.900 Y15.208 Z2.011 A308.8851 B18.3927 
N142 X135.889 Y15.365 Z1.811 A308.8711 B18.3919 
N143 X135.878 Y15.521 Z1.610 A308.8570 B18.3911 
N144 X135.867 Y15.678 Z1.410 A308.8430 B18.3902 
N145 X135.855 Y15.834 Z1.210 A308.8289 B18.3894 
N146 X135.843 Y15.991 Z1.010 A308.8149 B18.3885 
N147 X135.831 Y16.147 Z0.809 A308.8009 B18.3877 
N148 X135.819 Y16.304 Z0.609 A308.7868 B18.3868 
N149 X135.806 Y16.460 Z0.409 A308.7728 B18.3858 
N150 X135.794 Y16.616 Z0.209 A308.7587 B18.3849 
N151 X135.781 Y16.773 Z0.009 A308.7446 B18.3840 
N152 X135.767 Y16.929 Z-0.192 A308.7306 B18.3830 
N153 X135.754 Y17.086 Z-0.392 A308.7165 B18.3820 
N154 X135.740 Y17.242 Z-0.592 A308.7025 B18.3810 
N155 X135.726 Y17.398 Z-0.792 A308.6884 B18.3800 
N156 X135.712 Y17.555 Z-0.992 A308.6743 B18.3789 
N157 X135.697 Y17.711 Z-1.192 A308.6603 B18.3779 
N158 X135.682 Y17.867 Z-1.393 A308.6462 B18.3768 
N159 X135.667 Y18.024 Z-1.593 A308.6321 B18.3757 
N160 X135.652 Y18.180 Z-1.793 A308.6180 B18.3746 
N161 X135.636 Y18.336 Z-1.993 A308.6040 B18.3734 
N162 X135.621 Y18.493 Z-2.193 A308.5899 B18.3723 
N163 X135.605 Y18.649 Z-2.393 A308.5758 B18.3711 
N164 X135.588 Y18.805 Z-2.593 A308.5617 B18.3699 
N165 X135.572 Y18.962 Z-2.793 A308.5476 B18.3687 
N166 X135.555 Y19.118 Z-2.993 A308.5336 B18.3675 
N167 X135.538 Y19.274 Z-3.193 A308.5195 B18.3663 
N168 X135.521 Y19.431 Z-3.393 A308.5054 B18.3650 
N169 X135.503 Y19.587 Z-3.593 A308.4913 B18.3637 
N170 X135.486 Y19.743 Z-3.793 A308.4772 B18.3624 
N171 X135.468 Y19.899 Z-3.993 A308.4631 B18.3611 
N172 X135.449 Y20.055 Z-4.193 A308.4490 B18.3598 
N173 X135.431 Y20.212 Z-4.393 A308.4349 B18.3584 
N174 X135.412 Y20.368 Z-4.593 A308.4208 B18.3571 
N175 X135.393 Y20.524 Z-4.793 A308.4067 B18.3557 
N176 X135.374 Y20.680 Z-4.993 A308.3926 B18.3543 
N177 X135.354 Y20.836 Z-5.192 A308.3785 B18.3528 
N178 X135.335 Y20.993 Z-5.392 A308.3644 B18.3514 
N179 X135.315 Y21.149 Z-5.592 A308.3503 B18.3500 
N180 X135.294 Y21.305 Z-5.792 A308.3361 B18.3485 
N181 X135.274 Y21.461 Z-5.992 A308.3220 B18.3470 
N182 X135.253 Y21.617 Z-6.192 A308.3079 B18.3455 
N183 X135.232 Y21.773 Z-6.391 A308.2938 B18.3439 
N184 X135.211 Y21.929 Z-6.591 A308.2797 B18.3424 
N185 X135.189 Y22.085 Z-6.791 A308.2656 B18.3408 
N186 X135.168 Y22.241 Z-6.991 A308.2514 B18.3392 
N187 X135.146 Y22.397 Z-7.190 A308.2373 B18.3376 
N188 X135.124 Y22.553 Z-7.390 A308.2232 B18.3360 
N189 X135.101 Y22.709 Z-7.590 A308.2091 B18.3344 
N190 X135.078 Y22.865 Z-7.789 A308.1949 B18.3327 
N191 X135.055 Y23.021 Z-7.989 A308.1808 B18.3311 
N192 X135.032 Y23.177 Z-8.189 A308.1667 B18.3294 
N193 X135.009 Y23.333 Z-8.388 A308.1525 B18.3276 
N194 X134.985 Y23.489 Z-8.588 A308.1384 B18.3259 
N195 X134.961 Y23.645 Z-8.787 A308.1243 B18.3242 
N196 X134.937 Y23.801 Z-8.987 A308.1101 B18.3224 
N197 X134.913 Y23.957 Z-9.186 A308.0960 B18.3206 
N198 X134.888 Y24.113 Z-9.386 A308.0818 B18.3188 
N199 X134.854 Y24.327 Z-9.661 
N200 X133.887 Y30.455 Z-17.504 
N201 G00 X139.907 Y49.933 Z-3.034 
N202 X141.499 Y12.597 Z42.108 A310.0680 B18.3937 
N203 X135.456 Y-6.366 Z26.979 
N204 G01 X135.859 Y-0.215 Z19.106 F763 
N205 X135.869 Y-0.061 Z18.909 
N206 X135.879 Y0.093 Z18.712 
N207 X135.889 Y0.247 Z18.515 
N208 X135.899 Y0.401 Z18.318 
N209 X135.913 Y0.616 Z18.043 
N210 X135.923 Y0.772 Z17.842 A310.0542 B18.3944 
N211 X135.933 Y0.929 Z17.642 A310.0404 B18.3951 
N212 X135.943 Y1.085 Z17.442 A310.0266 B18.3958 
N213 X135.953 Y1.242 Z17.241 A310.0128 B18.3965 
N214 X135.962 Y1.398 Z17.041 A309.9990 B18.3972 
N215 X135.971 Y1.555 Z16.841 A309.9852 B18.3979 
N216 X135.980 Y1.711 Z16.640 A309.9714 B18.3985 
N217 X135.988 Y1.868 Z16.440 A309.9576 B18.3991 
N218 X135.997 Y2.024 Z16.240 A309.9438 B18.3997 
N219 X136.005 Y2.181 Z16.039 A309.9300 B18.4003 
N220 X136.012 Y2.338 Z15.839 A309.9162 B18.4009 
N221 X136.020 Y2.494 Z15.639 A309.9024 B18.4014 
N222 X136.027 Y2.651 Z15.438 A309.8885 B18.4020 
N223 X136.034 Y2.807 Z15.238 A309.8747 B18.4025 
N224 X136.041 Y2.964 Z15.037 A309.8609 B18.4030 
N225 X136.048 Y3.120 Z14.837 A309.8471 B18.4035 
N226 X136.054 Y3.277 Z14.637 A309.8332 B18.4039 
N227 X136.060 Y3.433 Z14.436 A309.8194 B18.4044 
N228 X136.066 Y3.590 Z14.236 A309.8055 B18.4048 
N229 X136.071 Y3.747 Z14.035 A309.7917 B18.4052 
N230 X136.077 Y3.903 Z13.835 A309.7778 B18.4056 
N231 X136.082 Y4.060 Z13.635 A309.7640 B18.4059 
N232 X136.086 Y4.216 Z13.434 A309.7501 B18.4063 
N233 X136.091 Y4.373 Z13.234 A309.7363 B18.4066 
N234 X136.095 Y4.530 Z13.033 A309.7224 B18.4069 
N235 X136.099 Y4.686 Z12.833 A309.7085 B18.4072 
N236 X136.103 Y4.843 Z12.632 A309.6946 B18.4075 
N237 X136.107 Y4.999 Z12.432 A309.6808 B18.4078 
N238 X136.110 Y5.156 Z12.231 A309.6669 B18.4080 
N239 X136.113 Y5.313 Z12.031 A309.6530 B18.4082 
N240 X136.116 Y5.469 Z11.831 A309.6391 B18.4084 
N241 X136.118 Y5.626 Z11.630 A309.6252 B18.4086 
N242 X136.121 Y5.782 Z11.430 A309.6114 B18.4088 
N243 X136.123 Y5.939 Z11.229 A309.5975 B18.4090 
N244 X136.125 Y6.096 Z11.029 A309.5836 B18.4091 
N245 X136.126 Y6.252 Z10.828 A309.5697 B18.4092 
N246 X136.128 Y6.409 Z10.628 A309.5558 B18.4093 
N247 X136.129 Y6.566 Z10.427 A309.5419 B18.4094 
N248 X136.130 Y6.722 Z10.227 A309.5279 B18.4094 
N249 X136.130 Y6.879 Z10.026 A309.5140 B18.4095 
N250 X136.130 Y7.035 Z9.826 A309.5001 B18.4095 
N251 X136.131 Y7.192 Z9.625 A309.4862 B18.4095 
N252 X136.130 Y7.349 Z9.425 A309.4723 B18.4095 
N253 X136.130 Y7.505 Z9.225 A309.4584 B18.4095 
N254 X136.129 Y7.662 Z9.024 A309.4444 B18.4094 
N255 X136.128 Y7.818 Z8.824 A309.4305 B18.4094 
N256 X136.127 Y7.975 Z8.623 A309.4166 B18.4093 
N257 X136.126 Y8.132 Z8.423 A309.4026 B18.4092 
N258 X136.124 Y8.288 Z8.222 A309.3887 B18.4090 
N259 X136.122 Y8.445 Z8.022 A309.3747 B18.4089 
N260 X136.120 Y8.602 Z7.821 A309.3608 B18.4088 
N261 X136.118 Y8.758 Z7.621 A309.3469 B18.4086 
N262 X136.115 Y8.915 Z7.420 A309.3329 B18.4084 
N263 X136.112 Y9.071 Z7.220 A309.3190 B18.4082 
N264 X136.109 Y9.228 Z7.020 A309.3050 B18.4079 
N265 X136.106 Y9.385 Z6.819 A309.2910 B18.4077 
N266 X136.102 Y9.541 Z6.619 A309.2771 B18.4074 
N267 X136.098 Y9.698 Z6.418 A309.2631 B18.4072 
N268 X136.094 Y9.854 Z6.218 A309.2491 B18.4069 
N269 X136.090 Y10.011 Z6.017 A309.2352 B18.4065 
N270 X136.085 Y10.168 Z5.817 A309.2212 B18.4062 
N271 X136.080 Y10.324 Z5.616 A309.2072 B18.4058 
N272 X136.075 Y10.481 Z5.416 A309.1933 B18.4055 
N273 X136.070 Y10.637 Z5.216 A309.1793 B18.4051 
N274 X136.064 Y10.794 Z5.015 A309.1653 B18.4047 
N275 X136.058 Y10.950 Z4.815 A309.1513 B18.4042 
N276 X136.052 Y11.107 Z4.614 A309.1373 B18.4038 
N277 X136.046 Y11.264 Z4.414 A309.1233 B18.4033 
N278 X136.039 Y11.420 Z4.214 A309.1093 B18.4028 
N279 X136.032 Y11.577 Z4.013 A309.0953 B18.4023 
N280 X136.025 Y11.733 Z3.813 A309.0813 B18.4018 
N281 X136.018 Y11.890 Z3.612 A309.0673 B18.4013 
N282 X136.010 Y12.046 Z3.412 A309.0533 B18.4007 
N283 X136.003 Y12.203 Z3.212 A309.0393 B18.4002 
N284 X135.994 Y12.360 Z3.011 A309.0253 B18.3996 
N285 X135.986 Y12.516 Z2.811 A309.0113 B18.3990 
N286 X135.978 Y12.673 Z2.611 A308.9973 B18.3983 
N287 X135.969 Y12.829 Z2.410 A308.9833 B18.3977 
N288 X135.960 Y12.986 Z2.210 A308.9693 B18.3970 
N289 X135.950 Y13.142 Z2.010 A308.9552 B18.3963 
N290 X135.941 Y13.299 Z1.809 A308.9412 B18.3956 
N291 X135.931 Y13.455 Z1.609 A308.9272 B18.3949 
N292 X135.921 Y13.612 Z1.409 A308.9132 B18.3942 
N293 X135.910 Y13.768 Z1.208 A308.8991 B18.3934 
N294 X135.900 Y13.925 Z1.008 A308.8851 B18.3927 
N295 X135.889 Y14.081 Z0.808 A308.8711 B18.3919 
N296 X135.878 Y14.238 Z0.608 A308.8570 B18.3911 
N297 X135.867 Y14.394 Z0.407 A308.8430 B18.3902 
N298 X135.855 Y14.551 Z0.207 A308.8289 B18.3894 
N299 X135.843 Y14.707 Z0.007 A308.8149 B18.3885 
N300 X135.831 Y14.863 Z-0.193 A308.8009 B18.3877 
N301 X135.819 Y15.020 Z-0.394 A308.7868 B18.3868 
N302 X135.806 Y15.176 Z-0.594 A308.7728 B18.3858 
N303 X135.794 Y15.333 Z-0.794 A308.7587 B18.3849 
N304 X135.781 Y15.489 Z-0.994 A308.7446 B18.3840 
N305 X135.767 Y15.646 Z-1.195 A308.7306 B18.3830 
N306 X135.754 Y15.802 Z-1.395 A308.7165 B18.3820 
N307 X135.740 Y15.958 Z-1.595 A308.7025 B18.3810 
N308 X135.726 Y16.115 Z-1.795 A308.6884 B18.3800 
N309 X135.712 Y16.271 Z-1.995 A308.6743 B18.3789 
N310 X135.697 Y16.427 Z-2.195 A308.6603 B18.3779 
N311 X135.682 Y16.584 Z-2.395 A308.6462 B18.3768 
N312 X135.667 Y16.740 Z-2.596 A308.6321 B18.3757 
N313 X135.652 Y16.896 Z-2.796 A308.6180 B18.3746 
N314 X135.636 Y17.053 Z-2.996 A308.6040 B18.3734 
N315 X135.621 Y17.209 Z-3.196 A308.5899 B18.3723 
N316 X135.605 Y17.365 Z-3.396 A308.5758 B18.3711 
N317 X135.588 Y17.522 Z-3.596 A308.5617 B18.3699 
N318 X135.572 Y17.678 Z-3.796 A308.5476 B18.3687 
N319 X135.555 Y17.834 Z-3.996 A308.5336 B18.3675 
N320 X135.538 Y17.991 Z-4.196 A308.5195 B18.3663 
N321 X135.521 Y18.147 Z-4.396 A308.5054 B18.3650 
N322 X135.503 Y18.303 Z-4.596 A308.4913 B18.3637 
N323 X135.486 Y18.459 Z-4.796 A308.4772 B18.3624 
N324 X135.468 Y18.616 Z-4.996 A308.4631 B18.3611 
N325 X135.449 Y18.772 Z-5.196 A308.4490 B18.3598 
N326 X135.431 Y18.928 Z-5.396 A308.4349 B18.3584 
N327 X135.412 Y19.084 Z-5.596 A308.4208 B18.3571 
N328 X135.393 Y19.240 Z-5.796 A308.4067 B18.3557 
N329 X135.374 Y19.397 Z-5.996 A308.3926 B18.3543 
N330 X135.354 Y19.553 Z-6.195 A308.3785 B18.3528 
N331 X135.335 Y19.709 Z-6.395 A308.3644 B18.3514 
N332 X135.315 Y19.865 Z-6.595 A308.3503 B18.3500 
N333 X135.294 Y20.021 Z-6.795 A308.3361 B18.3485 
N334 X135.274 Y20.177 Z-6.995 A308.3220 B18.3470 
N335 X135.253 Y20.333 Z-7.195 A308.3079 B18.3455 
N336 X135.232 Y20.489 Z-7.394 A308.2938 B18.3439 
N337 X135.211 Y20.646 Z-7.594 A308.2797 B18.3424 
N338 X135.189 Y20.802 Z-7.794 A308.2656 B18.3408 
N339 X135.168 Y20.958 Z-7.994 A308.2514 B18.3392 
N340 X135.146 Y21.114 Z-8.193 A308.2373 B18.3376 
N341 X135.124 Y21.270 Z-8.393 A308.2232 B18.3360 
N342 X135.101 Y21.426 Z-8.593 A308.2091 B18.3344 
N343 X135.078 Y21.582 Z-8.792 A308.1949 B18.3327 
N344 X135.055 Y21.738 Z-8.992 A308.1808 B18.3311 
N345 X135.032 Y21.894 Z-9.192 A308.1667 B18.3294 
N346 X135.009 Y22.050 Z-9.391 A308.1525 B18.3276 
N347 X134.985 Y22.206 Z-9.591 A308.1384 B18.3259 
N348 X134.961 Y22.361 Z-9.790 A308.1243 B18.3242 
N349 X134.937 Y22.517 Z-9.990 A308.1101 B18.3224 
N350 X134.913 Y22.673 Z-10.189 A308.0960 B18.3206 
N351 X134.888 Y22.829 Z-10.389 A308.0818 B18.3188 
N352 X134.854 Y23.044 Z-10.663 
N353 X133.887 Y29.172 Z-18.507 
N354 G00 X139.907 Y48.649 Z-4.037 
N355 X141.499 Y11.313 Z41.105 A310.0680 B18.3937 
N356 X135.456 Y-7.650 Z25.977 
N357 G01 X135.859 Y-1.498 Z18.103 F763 
N358 X135.869 Y-1.345 Z17.906 
N359 X135.879 Y-1.191 Z17.709 
N360 X135.889 Y-1.037 Z17.512 
N361 X135.899 Y-0.883 Z17.315 
N362 X135.913 Y-0.668 Z17.040 
N363 X135.923 Y-0.511 Z16.839 A310.0542 B18.3944 
N364 X135.933 Y-0.355 Z16.639 A310.0404 B18.3951 
N365 X135.943 Y-0.198 Z16.439 A310.0266 B18.3958 
N366 X135.953 Y-0.042 Z16.239 A310.0128 B18.3965 
N367 X135.962 Y0.115 Z16.038 A309.9990 B18.3972 
N368 X135.971 Y0.271 Z15.838 A309.9852 B18.3979 
N369 X135.980 Y0.428 Z15.638 A309.9714 B18.3985 
N370 X135.988 Y0.584 Z15.437 A309.9576 B18.3991 
N371 X135.997 Y0.741 Z15.237 A309.9438 B18.3997 
N372 X136.005 Y0.897 Z15.036 A309.9300 B18.4003 
N373 X136.012 Y1.054 Z14.836 A309.9162 B18.4009 
N374 X136.020 Y1.210 Z14.636 A309.9024 B18.4014 
N375 X136.027 Y1.367 Z14.435 A309.8885 B18.4020 
N376 X136.034 Y1.524 Z14.235 A309.8747 B18.4025 
N377 X136.041 Y1.680 Z14.035 A309.8609 B18.4030 
N378 X136.048 Y1.837 Z13.834 A309.8471 B18.4035 
N379 X136.054 Y1.993 Z13.634 A309.8332 B18.4039 
N380 X136.060 Y2.150 Z13.433 A309.8194 B18.4044 
N381 X136.066 Y2.306 Z13.233 A309.8055 B18.4048 
N382 X136.071 Y2.463 Z13.032 A309.7917 B18.4052 
N383 X136.077 Y2.620 Z12.832 A309.7778 B18.4056 
N384 X136.082 Y2.776 Z12.632 A309.7640 B18.4059 
N385 X136.086 Y2.933 Z12.431 A309.7501 B18.4063 
N386 X136.091 Y3.089 Z12.231 A309.7363 B18.4066 
N387 X136.095 Y3.246 Z12.030 A309.7224 B18.4069 
N388 X136.099 Y3.402 Z11.830 A309.7085 B18.4072 
N389 X136.103 Y3.559 Z11.629 A309.6946 B18.4075 
N390 X136.107 Y3.716 Z11.429 A309.6808 B18.4078 
N391 X136.110 Y3.872 Z11.229 A309.6669 B18.4080 
N392 X136.113 Y4.029 Z11.028 A309.6530 B18.4082 
N393 X136.116 Y4.186 Z10.828 A309.6391 B18.4084 
N394 X136.118 Y4.342 Z10.627 A309.6252 B18.4086 
N395 X136.121 Y4.499 Z10.427 A309.6114 B18.4088 
N396 X136.123 Y4.655 Z10.226 A309.5975 B18.4090 
N397 X136.125 Y4.812 Z10.026 A309.5836 B18.4091 
N398 X136.126 Y4.969 Z9.825 A309.5697 B18.4092 
N399 X136.128 Y5.125 Z9.625 A309.5558 B18.4093 
N400 X136.129 Y5.282 Z9.424 A309.5419 B18.4094 
N401 X136.130 Y5.438 Z9.224 A309.5279 B18.4094 
N402 X136.130 Y5.595 Z9.023 A309.5140 B18.4095 
N403 X136.130 Y5.752 Z8.823 A309.5001 B18.4095 
N404 X136.131 Y5.908 Z8.623 A309.4862 B18.4095 
N405 X136.130 Y6.065 Z8.422 A309.4723 B18.4095 
N406 X136.130 Y6.222 Z8.222 A309.4584 B18.4095 
N407 X136.129 Y6.378 Z8.021 A309.4444 B18.4094 
N408 X136.128 Y6.535 Z7.821 A309.4305 B18.4094 
N409 X136.127 Y6.691 Z7.620 A309.4166 B18.4093 
N410 X136.126 Y6.848 Z7.420 A309.4026 B18.4092 
N411 X136.124 Y7.005 Z7.219 A309.3887 B18.4090 
N412 X136.122 Y7.161 Z7.019 A309.3747 B18.4089 
N413 X136.120 Y7.318 Z6.818 A309.3608 B18.4088 
N414 X136.118 Y7.474 Z6.618 A309.3469 B18.4086 
N415 X136.115 Y7.631 Z6.417 A309.3329 B18.4084 
N416 X136.112 Y7.788 Z6.217 A309.3190 B18.4082 
N417 X136.109 Y7.944 Z6.017 A309.3050 B18.4079 
N418 X136.106 Y8.101 Z5.816 A309.2910 B18.4077 
N419 X136.102 Y8.258 Z5.616 A309.2771 B18.4074 
N420 X136.098 Y8.414 Z5.415 A309.2631 B18.4072 
N421 X136.094 Y8.571 Z5.215 A309.2491 B18.4069 
N422 X136.090 Y8.727 Z5.014 A309.2352 B18.4065 
N423 X136.085 Y8.884 Z4.814 A309.2212 B18.4062 
N424 X136.080 Y9.040 Z4.614 A309.2072 B18.4058 
N425 X136.075 Y9.197 Z4.413 A309.1933 B18.4055 
N426 X136.070 Y9.354 Z4.213 A309.1793 B18.4051 
N427 X136.064 Y9.510 Z4.012 A309.1653 B18.4047 
N428 X136.058 Y9.667 Z3.812 A309.1513 B18.4042 
N429 X136.052 Y9.823 Z3.611 A309.1373 B18.4038 
N430 X136.046 Y9.980 Z3.411 A309.1233 B18.4033 
N431 X136.039 Y10.137 Z3.211 A309.1093 B18.4028 
N432 X136.032 Y10.293 Z3.010 A309.0953 B18.4023 
N433 X136.025 Y10.450 Z2.810 A309.0813 B18.4018 
N434 X136.018 Y10.606 Z2.609 A309.0673 B18.4013 
N435 X136.010 Y10.763 Z2.409 A309.0533 B18.4007 
N436 X136.003 Y10.919 Z2.209 A309.0393 B18.4002 
N437 X135.994 Y11.076 Z2.008 A309.0253 B18.3996 
N438 X135.986 Y11.232 Z1.808 A309.0113 B18.3990 
N439 X135.978 Y11.389 Z1.608 A308.9973 B18.3983 
N440 X135.969 Y11.545 Z1.407 A308.9833 B18.3977 
N441 X135.960 Y11.702 Z1.207 A308.9693 B18.3970 
N442 X135.950 Y11.858 Z1.007 A308.9552 B18.3963 
N443 X135.941 Y12.015 Z0.806 A308.9412 B18.3956 
N444 X135.931 Y12.171 Z0.606 A308.9272 B18.3949 
N445 X135.921 Y12.328 Z0.406 A308.9132 B18.3942 
N446 X135.910 Y12.484 Z0.205 A308.8991 B18.3934 
N447 X135.900 Y12.641 Z0.005 A308.8851 B18.3927 
N448 X135.889 Y12.797 Z-0.195 A308.8711 B18.3919 
N449 X135.878 Y12.954 Z-0.395 A308.8570 B18.3911 
N450 X135.867 Y13.110 Z-0.596 A308.8430 B18.3902 
N451 X135.855 Y13.267 Z-0.796 A308.8289 B18.3894 
N452 X135.843 Y13.423 Z-0.996 A308.8149 B18.3885 
N453 X135.831 Y13.580 Z-1.196 A308.8009 B18.3877 
N454 X135.819 Y13.736 Z-1.397 A308.7868 B18.3868 
N455 X135.806 Y13.893 Z-1.597 A308.7728 B18.3858 
N456 X135.794 Y14.049 Z-1.797 A308.7587 B18.3849 
N457 X135.781 Y14.205 Z-1.997 A308.7446 B18.3840 
N458 X135.767 Y14.362 Z-2.197 A308.7306 B18.3830 
N459 X135.754 Y14.518 Z-2.398 A308.7165 B18.3820 
N460 X135.740 Y14.675 Z-2.598 A308.7025 B18.3810 
N461 X135.726 Y14.831 Z-2.798 A308.6884 B18.3800 
N462 X135.712 Y14.987 Z-2.998 A308.6743 B18.3789 
N463 X135.697 Y15.144 Z-3.198 A308.6603 B18.3779 
N464 X135.682 Y15.300 Z-3.398 A308.6462 B18.3768 
N465 X135.667 Y15.456 Z-3.598 A308.6321 B18.3757 
N466 X135.652 Y15.613 Z-3.799 A308.6180 B18.3746 
N467 X135.636 Y15.769 Z-3.999 A308.6040 B18.3734 
N468 X135.621 Y15.925 Z-4.199 A308.5899 B18.3723 
N469 X135.605 Y16.082 Z-4.399 A308.5758 B18.3711 
N470 X135.588 Y16.238 Z-4.599 A308.5617 B18.3699 
N471 X135.572 Y16.394 Z-4.799 A308.5476 B18.3687 
N472 X135.555 Y16.551 Z-4.999 A308.5336 B18.3675 
N473 X135.538 Y16.707 Z-5.199 A308.5195 B18.3663 
N474 X135.521 Y16.863 Z-5.399 A308.5054 B18.3650 
N475 X135.503 Y17.019 Z-5.599 A308.4913 B18.3637 
N476 X135.486 Y17.176 Z-5.799 A308.4772 B18.3624 
N477 X135.468 Y17.332 Z-5.999 A308.4631 B18.3611 
N478 X135.449 Y17.488 Z-6.199 A308.4490 B18.3598 
N479 X135.431 Y17.644 Z-6.399 A308.4349 B18.3584 
N480 X135.412 Y17.801 Z-6.599 A308.4208 B18.3571 
N481 X135.393 Y17.957 Z-6.799 A308.4067 B18.3557 
N482 X135.374 Y18.113 Z-6.998 A308.3926 B18.3543 
N483 X135.354 Y18.269 Z-7.198 A308.3785 B18.3528 
N484 X135.335 Y18.425 Z-7.398 A308.3644 B18.3514 
N485 X135.315 Y18.581 Z-7.598 A308.3503 B18.3500 
N486 X135.294 Y18.737 Z-7.798 A308.3361 B18.3485 
N487 X135.274 Y18.894 Z-7.998 A308.3220 B18.3470 
N488 X135.253 Y19.050 Z-8.197 A308.3079 B18.3455 
N489 X135.232 Y19.206 Z-8.397 A308.2938 B18.3439 
N490 X135.211 Y19.362 Z-8.597 A308.2797 B18.3424 
N491 X135.189 Y19.518 Z-8.797 A308.2656 B18.3408 
N492 X135.168 Y19.674 Z-8.996 A308.2514 B18.3392 
N493 X135.146 Y19.830 Z-9.196 A308.2373 B18.3376 
N494 X135.124 Y19.986 Z-9.396 A308.2232 B18.3360 
N495 X135.101 Y20.142 Z-9.596 A308.2091 B18.3344 
N496 X135.078 Y20.298 Z-9.795 A308.1949 B18.3327 
N497 X135.055 Y20.454 Z-9.995 A308.1808 B18.3311 
N498 X135.032 Y20.610 Z-10.195 A308.1667 B18.3294 
N499 X135.009 Y20.766 Z-10.394 A308.1525 B18.3276 
N500 X134.985 Y20.922 Z-10.594 A308.1384 B18.3259 
N501 X134.961 Y21.078 Z-10.793 A308.1243 B18.3242 
N502 X134.937 Y21.234 Z-10.993 A308.1101 B18.3224 
N503 X134.913 Y21.390 Z-11.192 A308.0960 B18.3206 
N504 X134.888 Y21.546 Z-11.392 A308.0818 B18.3188 
N505 X134.854 Y21.760 Z-11.666 
N506 X133.887 Y27.888 Z-19.509 
N507 G00 X145.926 Y66.844 Z9.431 
RAPORT("T44444","Slot Finishing:154 End")
N509 ;trailer : concat=None
; points cnt = 450
N510 MSG (" --- GROUPED OF SUBPROGRAM --- ")
N511 FGROUP()
N512 TRAFOOF
N10 ; PROGRAM NAME: 4444451
N11 ; ORDER       : 44444
N12 ; OPER. NAME  : Slot Finishing:155
N13 ; OPER. DESCR.: Finishing slot
N14 ; OPER. TYPE  : slotMillFinish
N15 ; GEO. OPTION : 3
N16 ; MACHINE     : SH_HX151_24_SIM840D
N17 ;             : STARRAG_HECKERT_5axis_finish_milling_machine
N18 ; CONTROL     : SINUMERIK 840D
N19 ; created:   2022-11-03 13:38:39.670883
;-------DODATKOWE DANE-------------------
; PROGRAMISTA : Mariusz Malec
; PARTID      : 139T004654P1015_-
;  ap         : 100.0
;  ae         : 2.0
;  lean_angle : 0.0
;  rad_Offset : 2.0
;  fin_Offset : -0.5
;----------------------------------------
N20 ;----------------------------------------
RAPORT("T44444","Slot Finishing:155")
N21 TRAFOOF
N22 D0
N23 G0 G90 G94 Z260.0
N24 STOPRE
N25 M9 ; chlodziwo wyl
N26 ; --- Slot Finishing:155 - Finishing slot ---
N28 ;ToolChange : concat=None ,current_tdmid=None, PP.tdmId=956976
N29 TRAFOOF
N30 D0
N31 G0 G54 Z270.0
N32 S6366 M03
N33 STOPRE
N34 TOL(0.01,1,1)
N35 G0  A310.0680
N36 TRAORI
N37 G54 D1
N38 D1 
N39 TRANS  X=R19
STOPRE
E_ZDARZ=300008
;ACS_FINISH_ROOT_FRONT_CHAMFER=7756976
STOPRE
N40 ; DELTA A > 40.1
N41 TRAFOOF
N42 STOPRE
N43 G0 G53 D0 Z265.000
N44 G1 G53 A310.0680 F10000
N45 TRAORI
N46 G54 D1
N47 TRANS  X=R19
N48 G00 X147.542 Y29.942 Z55.973 A310.0680 B18.3937 
N49 M342 ; chlodziwo woda
N50 X135.456 Y-7.984 Z25.715 
N51 G01 X135.859 Y-1.833 Z17.842 F763 
N52 X135.869 Y-1.679 Z17.645 
N53 X135.879 Y-1.525 Z17.448 
N54 X135.889 Y-1.371 Z17.251 
N55 X135.899 Y-1.217 Z17.054 
N56 X135.913 Y-1.002 Z16.779 
N57 X135.923 Y-0.846 Z16.578 A310.0542 B18.3944 
N58 X135.933 Y-0.689 Z16.378 A310.0404 B18.3951 
N59 X135.943 Y-0.533 Z16.178 A310.0266 B18.3958 
N60 X135.953 Y-0.376 Z15.977 A310.0128 B18.3965 
N61 X135.962 Y-0.220 Z15.777 A309.9990 B18.3972 
N62 X135.971 Y-0.063 Z15.577 A309.9852 B18.3979 
N63 X135.980 Y0.093 Z15.376 A309.9714 B18.3985 
N64 X135.988 Y0.250 Z15.176 A309.9576 B18.3991 
N65 X135.997 Y0.406 Z14.976 A309.9438 B18.3997 
N66 X136.005 Y0.563 Z14.775 A309.9300 B18.4003 
N67 X136.012 Y0.720 Z14.575 A309.9162 B18.4009 
N68 X136.020 Y0.876 Z14.374 A309.9024 B18.4014 
N69 X136.027 Y1.033 Z14.174 A309.8885 B18.4020 
N70 X136.034 Y1.189 Z13.974 A309.8747 B18.4025 
N71 X136.041 Y1.346 Z13.773 A309.8609 B18.4030 
N72 X136.048 Y1.502 Z13.573 A309.8471 B18.4035 
N73 X136.054 Y1.659 Z13.373 A309.8332 B18.4039 
N74 X136.060 Y1.815 Z13.172 A309.8194 B18.4044 
N75 X136.066 Y1.972 Z12.972 A309.8055 B18.4048 
N76 X136.071 Y2.129 Z12.771 A309.7917 B18.4052 
N77 X136.077 Y2.285 Z12.571 A309.7778 B18.4056 
N78 X136.082 Y2.442 Z12.370 A309.7640 B18.4059 
N79 X136.086 Y2.598 Z12.170 A309.7501 B18.4063 
N80 X136.091 Y2.755 Z11.970 A309.7363 B18.4066 
N81 X136.095 Y2.912 Z11.769 A309.7224 B18.4069 
N82 X136.099 Y3.068 Z11.569 A309.7085 B18.4072 
N83 X136.103 Y3.225 Z11.368 A309.6946 B18.4075 
N84 X136.107 Y3.381 Z11.168 A309.6808 B18.4078 
N85 X136.110 Y3.538 Z10.967 A309.6669 B18.4080 
N86 X136.113 Y3.695 Z10.767 A309.6530 B18.4082 
N87 X136.116 Y3.851 Z10.566 A309.6391 B18.4084 
N88 X136.118 Y4.008 Z10.366 A309.6252 B18.4086 
N89 X136.121 Y4.164 Z10.166 A309.6114 B18.4088 
N90 X136.123 Y4.321 Z9.965 A309.5975 B18.4090 
N91 X136.125 Y4.478 Z9.765 A309.5836 B18.4091 
N92 X136.126 Y4.634 Z9.564 A309.5697 B18.4092 
N93 X136.128 Y4.791 Z9.364 A309.5558 B18.4093 
N94 X136.129 Y4.947 Z9.163 A309.5419 B18.4094 
N95 X136.130 Y5.104 Z8.963 A309.5279 B18.4094 
N96 X136.130 Y5.261 Z8.762 A309.5140 B18.4095 
N97 X136.130 Y5.417 Z8.562 A309.5001 B18.4095 
N98 X136.131 Y5.574 Z8.361 A309.4862 B18.4095 
N99 X136.130 Y5.731 Z8.161 A309.4723 B18.4095 
N100 X136.130 Y5.887 Z7.960 A309.4584 B18.4095 
N101 X136.129 Y6.044 Z7.760 A309.4444 B18.4094 
N102 X136.128 Y6.200 Z7.560 A309.4305 B18.4094 
N103 X136.127 Y6.357 Z7.359 A309.4166 B18.4093 
N104 X136.126 Y6.514 Z7.159 A309.4026 B18.4092 
N105 X136.124 Y6.670 Z6.958 A309.3887 B18.4090 
N106 X136.122 Y6.827 Z6.758 A309.3747 B18.4089 
N107 X136.120 Y6.984 Z6.557 A309.3608 B18.4088 
N108 X136.118 Y7.140 Z6.357 A309.3469 B18.4086 
N109 X136.115 Y7.297 Z6.156 A309.3329 B18.4084 
N110 X136.112 Y7.453 Z5.956 A309.3190 B18.4082 
N111 X136.109 Y7.610 Z5.755 A309.3050 B18.4079 
N112 X136.106 Y7.767 Z5.555 A309.2910 B18.4077 
N113 X136.102 Y7.923 Z5.354 A309.2771 B18.4074 
N114 X136.098 Y8.080 Z5.154 A309.2631 B18.4072 
N115 X136.094 Y8.236 Z4.954 A309.2491 B18.4069 
N116 X136.090 Y8.393 Z4.753 A309.2352 B18.4065 
N117 X136.085 Y8.550 Z4.553 A309.2212 B18.4062 
N118 X136.080 Y8.706 Z4.352 A309.2072 B18.4058 
N119 X136.075 Y8.863 Z4.152 A309.1933 B18.4055 
N120 X136.070 Y9.019 Z3.951 A309.1793 B18.4051 
N121 X136.064 Y9.176 Z3.751 A309.1653 B18.4047 
N122 X136.058 Y9.332 Z3.551 A309.1513 B18.4042 
N123 X136.052 Y9.489 Z3.350 A309.1373 B18.4038 
N124 X136.046 Y9.646 Z3.150 A309.1233 B18.4033 
N125 X136.039 Y9.802 Z2.949 A309.1093 B18.4028 
N126 X136.032 Y9.959 Z2.749 A309.0953 B18.4023 
N127 X136.025 Y10.115 Z2.549 A309.0813 B18.4018 
N128 X136.018 Y10.272 Z2.348 A309.0673 B18.4013 
N129 X136.010 Y10.428 Z2.148 A309.0533 B18.4007 
N130 X136.003 Y10.585 Z1.948 A309.0393 B18.4002 
N131 X135.994 Y10.742 Z1.747 A309.0253 B18.3996 
N132 X135.986 Y10.898 Z1.547 A309.0113 B18.3990 
N133 X135.978 Y11.055 Z1.346 A308.9973 B18.3983 
N134 X135.969 Y11.211 Z1.146 A308.9833 B18.3977 
N135 X135.960 Y11.368 Z0.946 A308.9693 B18.3970 
N136 X135.950 Y11.524 Z0.745 A308.9552 B18.3963 
N137 X135.941 Y11.681 Z0.545 A308.9412 B18.3956 
N138 X135.931 Y11.837 Z0.345 A308.9272 B18.3949 
N139 X135.921 Y11.994 Z0.145 A308.9132 B18.3942 
N140 X135.910 Y12.150 Z-0.056 A308.8991 B18.3934 
N141 X135.900 Y12.307 Z-0.256 A308.8851 B18.3927 
N142 X135.889 Y12.463 Z-0.456 A308.8711 B18.3919 
N143 X135.878 Y12.620 Z-0.657 A308.8570 B18.3911 
N144 X135.867 Y12.776 Z-0.857 A308.8430 B18.3902 
N145 X135.855 Y12.933 Z-1.057 A308.8289 B18.3894 
N146 X135.843 Y13.089 Z-1.257 A308.8149 B18.3885 
N147 X135.831 Y13.245 Z-1.458 A308.8009 B18.3877 
N148 X135.819 Y13.402 Z-1.658 A308.7868 B18.3868 
N149 X135.806 Y13.558 Z-1.858 A308.7728 B18.3858 
N150 X135.794 Y13.715 Z-2.058 A308.7587 B18.3849 
N151 X135.781 Y13.871 Z-2.258 A308.7446 B18.3840 
N152 X135.767 Y14.028 Z-2.459 A308.7306 B18.3830 
N153 X135.754 Y14.184 Z-2.659 A308.7165 B18.3820 
N154 X135.740 Y14.340 Z-2.859 A308.7025 B18.3810 
N155 X135.726 Y14.497 Z-3.059 A308.6884 B18.3800 
N156 X135.712 Y14.653 Z-3.259 A308.6743 B18.3789 
N157 X135.697 Y14.809 Z-3.459 A308.6603 B18.3779 
N158 X135.682 Y14.966 Z-3.660 A308.6462 B18.3768 
N159 X135.667 Y15.122 Z-3.860 A308.6321 B18.3757 
N160 X135.652 Y15.279 Z-4.060 A308.6180 B18.3746 
N161 X135.636 Y15.435 Z-4.260 A308.6040 B18.3734 
N162 X135.621 Y15.591 Z-4.460 A308.5899 B18.3723 
N163 X135.605 Y15.747 Z-4.660 A308.5758 B18.3711 
N164 X135.588 Y15.904 Z-4.860 A308.5617 B18.3699 
N165 X135.572 Y16.060 Z-5.060 A308.5476 B18.3687 
N166 X135.555 Y16.216 Z-5.260 A308.5336 B18.3675 
N167 X135.538 Y16.373 Z-5.460 A308.5195 B18.3663 
N168 X135.521 Y16.529 Z-5.660 A308.5054 B18.3650 
N169 X135.503 Y16.685 Z-5.860 A308.4913 B18.3637 
N170 X135.486 Y16.841 Z-6.060 A308.4772 B18.3624 
N171 X135.468 Y16.998 Z-6.260 A308.4631 B18.3611 
N172 X135.449 Y17.154 Z-6.460 A308.4490 B18.3598 
N173 X135.431 Y17.310 Z-6.660 A308.4349 B18.3584 
N174 X135.412 Y17.466 Z-6.860 A308.4208 B18.3571 
N175 X135.393 Y17.622 Z-7.060 A308.4067 B18.3557 
N176 X135.374 Y17.779 Z-7.260 A308.3926 B18.3543 
N177 X135.354 Y17.935 Z-7.460 A308.3785 B18.3528 
N178 X135.335 Y18.091 Z-7.659 A308.3644 B18.3514 
N179 X135.315 Y18.247 Z-7.859 A308.3503 B18.3500 
N180 X135.294 Y18.403 Z-8.059 A308.3361 B18.3485 
N181 X135.274 Y18.559 Z-8.259 A308.3220 B18.3470 
N182 X135.253 Y18.715 Z-8.459 A308.3079 B18.3455 
N183 X135.232 Y18.871 Z-8.658 A308.2938 B18.3439 
N184 X135.211 Y19.028 Z-8.858 A308.2797 B18.3424 
N185 X135.189 Y19.184 Z-9.058 A308.2656 B18.3408 
N186 X135.168 Y19.340 Z-9.258 A308.2514 B18.3392 
N187 X135.146 Y19.496 Z-9.457 A308.2373 B18.3376 
N188 X135.124 Y19.652 Z-9.657 A308.2232 B18.3360 
N189 X135.101 Y19.808 Z-9.857 A308.2091 B18.3344 
N190 X135.078 Y19.964 Z-10.056 A308.1949 B18.3327 
N191 X135.055 Y20.120 Z-10.256 A308.1808 B18.3311 
N192 X135.032 Y20.276 Z-10.456 A308.1667 B18.3294 
N193 X135.009 Y20.432 Z-10.655 A308.1525 B18.3276 
N194 X134.985 Y20.588 Z-10.855 A308.1384 B18.3259 
N195 X134.961 Y20.744 Z-11.054 A308.1243 B18.3242 
N196 X134.937 Y20.899 Z-11.254 A308.1101 B18.3224 
N197 X134.913 Y21.055 Z-11.454 A308.0960 B18.3206 
N198 X134.888 Y21.211 Z-11.653 A308.0818 B18.3188 
N199 X134.854 Y21.426 Z-11.928 
N200 X133.887 Y27.554 Z-19.771 
N201 G00 X145.926 Y66.509 Z9.169 
RAPORT("T44444","Slot Finishing:155 End")
N203 ;trailer : concat=None
; points cnt = 150
N204 MSG (" --- GROUPED OF SUBPROGRAM --- ")
N205 FGROUP()
N206 TRAFOOF
N10 ; PROGRAM NAME: 4444451
N11 ; ORDER       : 44444
N12 ; OPER. NAME  : Slot Finishing:156
N13 ; OPER. DESCR.: semi finish and finishing root chamfer BETE SFSA
N14 ; OPER. TYPE  : slotMillFinish
N15 ; GEO. OPTION : 1
N16 ; MACHINE     : SH_HX151_24_SIM840D
N17 ;             : STARRAG_HECKERT_5axis_finish_milling_machine
N18 ; CONTROL     : SINUMERIK 840D
N19 ; created:   2022-11-03 13:38:44.362560
;-------DODATKOWE DANE-------------------
; PROGRAMISTA : Mariusz Malec
; PARTID      : 139T004654P1015_-
;  ap         : 5.0
;  ae         : 0.5
;  lean_angle : 0.0
;  rad_Offset : 2.0
;  fin_Offset : 1.0
;----------------------------------------
N20 ;----------------------------------------
RAPORT("T44444","Slot Finishing:156")
N21 TRAFOOF
N22 D0
N23 G0 G90 G94 Z260.0
N24 STOPRE
N25 M9 ; chlodziwo wyl
N26 ; --- Slot Finishing:156 - semi finish and finishing root chamfer BETE SFSA ---
N28 ;ToolChange : concat=None ,current_tdmid=None, PP.tdmId=956976
N29 TRAFOOF
N30 D0
N31 G0 G54 Z270.0
N32 S6366 M03
N33 STOPRE
N34 TOL(0.01,1,1)
N35 G0  A129.5583
N36 TRAORI
N37 G54 D2
N38 D2 
N39 TRANS  X=R20 B=R38
STOPRE
E_ZDARZ=300006
;ACS_FINISH_ROOT_BETA=7756976
STOPRE
N40 ; DELTA A > 40.1
N41 TRAFOOF
N42 STOPRE
N43 G0 G53 D0 Z265.000
N44 G1 G53 A129.5583 F10000
N45 TRAORI
N46 G54 D2
N47 TRANS  X=R20 B=R38
N48 G00 X177.567 Y-39.277 Z-42.991 A129.5583 B18.4093 
N49 M342 ; chlodziwo woda
N50 X165.471 Y-1.084 Z-13.076 
N51 G01 X165.426 Y-7.240 Z-5.196 F763 
N52 X165.425 Y-7.394 Z-4.999 
N53 X165.424 Y-7.548 Z-4.802 
N54 X165.423 Y-7.702 Z-4.605 
N55 X165.422 Y-7.856 Z-4.408 
N56 X165.420 Y-8.071 Z-4.132 
N57 X165.419 Y-8.228 Z-3.931 A129.5459 B18.4092 
N58 X165.418 Y-8.385 Z-3.730 A129.5334 B18.4091 
N59 X165.417 Y-8.542 Z-3.529 A129.5210 B18.4091 
N60 X165.416 Y-8.699 Z-3.328 A129.5085 B18.4090 
N61 X165.415 Y-8.856 Z-3.127 A129.4961 B18.4089 
N62 X165.413 Y-9.013 Z-2.926 A129.4836 B18.4089 
N63 X165.412 Y-9.170 Z-2.725 A129.4711 B18.4088 
N64 X165.411 Y-9.327 Z-2.524 A129.4587 B18.4087 
N65 X165.410 Y-9.484 Z-2.323 A129.4462 B18.4086 
N66 X165.409 Y-9.641 Z-2.123 A129.4338 B18.4086 
N67 X165.408 Y-9.798 Z-1.922 A129.4213 B18.4085 
N68 X165.407 Y-9.955 Z-1.721 A129.4089 B18.4084 
N69 X165.405 Y-10.112 Z-1.520 A129.3964 B18.4083 
N70 X165.404 Y-10.269 Z-1.319 A129.3839 B18.4083 
N71 X165.403 Y-10.426 Z-1.118 A129.3715 B18.4082 
N72 X165.402 Y-10.583 Z-0.917 A129.3590 B18.4081 
N73 X165.401 Y-10.740 Z-0.716 A129.3466 B18.4080 
N74 X165.400 Y-10.897 Z-0.515 A129.3341 B18.4079 
N75 X165.398 Y-11.054 Z-0.314 A129.3217 B18.4079 
N76 X165.397 Y-11.211 Z-0.113 A129.3092 B18.4078 
N77 X165.396 Y-11.368 Z0.088 A129.2967 B18.4077 
N78 X165.394 Y-11.525 Z0.289 A129.2843 B18.4076 
N79 X165.388 Y-11.682 Z0.490 A129.2716 B18.4072 
N80 X165.383 Y-11.839 Z0.690 A129.2590 B18.4068 
N81 X165.377 Y-11.996 Z0.891 A129.2464 B18.4064 
N82 X165.371 Y-12.153 Z1.092 A129.2338 B18.4061 
N83 X165.366 Y-12.310 Z1.293 A129.2212 B18.4057 
N84 X165.360 Y-12.467 Z1.494 A129.2086 B18.4053 
N85 X165.354 Y-12.624 Z1.695 A129.1960 B18.4049 
N86 X165.348 Y-12.781 Z1.896 A129.1833 B18.4046 
N87 X165.343 Y-12.938 Z2.097 A129.1707 B18.4042 
N88 X165.337 Y-13.095 Z2.297 A129.1581 B18.4038 
N89 X165.331 Y-13.251 Z2.498 A129.1455 B18.4034 
N90 X165.325 Y-13.408 Z2.699 A129.1329 B18.4031 
N91 X165.320 Y-13.565 Z2.900 A129.1203 B18.4027 
N92 X165.314 Y-13.722 Z3.101 A129.1076 B18.4023 
N93 X165.308 Y-13.879 Z3.302 A129.0950 B18.4019 
N94 X165.302 Y-14.036 Z3.503 A129.0824 B18.4015 
N95 X165.297 Y-14.193 Z3.704 A129.0698 B18.4012 
N96 X165.291 Y-14.350 Z3.905 A129.0572 B18.4008 
N97 X165.285 Y-14.507 Z4.105 A129.0446 B18.4004 
N98 X165.275 Y-14.664 Z4.306 A129.0319 B18.3997 
N99 X165.266 Y-14.821 Z4.507 A129.0193 B18.3991 
N100 X165.256 Y-14.978 Z4.708 A129.0066 B18.3985 
N101 X165.246 Y-15.135 Z4.909 A128.9940 B18.3978 
N102 X165.237 Y-15.291 Z5.109 A128.9813 B18.3972 
N103 X165.227 Y-15.448 Z5.310 A128.9687 B18.3966 
N104 X165.217 Y-15.605 Z5.511 A128.9560 B18.3959 
N105 X165.208 Y-15.762 Z5.712 A128.9434 B18.3953 
N106 X165.198 Y-15.919 Z5.912 A128.9307 B18.3947 
N107 X165.188 Y-16.076 Z6.113 A128.9180 B18.3940 
N108 X165.178 Y-16.233 Z6.314 A128.9054 B18.3934 
N109 X165.169 Y-16.390 Z6.515 A128.8927 B18.3928 
N110 X165.159 Y-16.546 Z6.716 A128.8801 B18.3921 
N111 X165.149 Y-16.703 Z6.916 A128.8674 B18.3915 
N112 X165.140 Y-16.860 Z7.117 A128.8548 B18.3908 
N113 X165.130 Y-17.017 Z7.318 A128.8421 B18.3902 
N114 X165.117 Y-17.174 Z7.519 A128.8296 B18.3894 
N115 X165.104 Y-17.331 Z7.719 A128.8171 B18.3885 
N116 X165.091 Y-17.487 Z7.920 A128.8046 B18.3877 
N117 X165.078 Y-17.644 Z8.121 A128.7921 B18.3868 
N118 X165.065 Y-17.801 Z8.321 A128.7796 B18.3860 
N119 X165.052 Y-17.958 Z8.522 A128.7671 B18.3852 
N120 X165.039 Y-18.115 Z8.723 A128.7546 B18.3843 
N121 X165.026 Y-18.271 Z8.923 A128.7421 B18.3835 
N122 X165.013 Y-18.428 Z9.124 A128.7296 B18.3826 
N123 X165.000 Y-18.585 Z9.325 A128.7171 B18.3818 
N124 X164.987 Y-18.742 Z9.525 A128.7046 B18.3809 
N125 X164.974 Y-18.898 Z9.726 A128.6921 B18.3801 
N126 X164.961 Y-19.055 Z9.927 A128.6796 B18.3792 
N127 X164.948 Y-19.212 Z10.127 A128.6671 B18.3784 
N128 X164.930 Y-19.427 Z10.403 
N129 X164.418 Y-25.576 Z18.273 
N130 G00 X170.456 Y-44.903 Z3.611 
N131 X172.156 Y-20.179 Z-28.036 A129.5583 B18.4093 
N132 X166.108 Y-1.082 Z-13.078 
N133 G01 X166.063 Y-7.238 Z-5.198 F763 
N134 X166.062 Y-7.392 Z-5.001 
N135 X166.061 Y-7.546 Z-4.804 
N136 X166.059 Y-7.700 Z-4.607 
N137 X166.058 Y-7.854 Z-4.410 
N138 X166.057 Y-8.069 Z-4.134 
N139 X166.056 Y-8.227 Z-3.933 A129.5459 B18.4092 
N140 X166.054 Y-8.384 Z-3.732 A129.5334 B18.4091 
N141 X166.053 Y-8.541 Z-3.530 A129.5210 B18.4091 
N142 X166.052 Y-8.699 Z-3.329 A129.5085 B18.4090 
N143 X166.051 Y-8.856 Z-3.127 A129.4961 B18.4089 
N144 X166.050 Y-9.013 Z-2.926 A129.4836 B18.4089 
N145 X166.049 Y-9.171 Z-2.725 A129.4711 B18.4088 
N146 X166.047 Y-9.328 Z-2.523 A129.4587 B18.4087 
N147 X166.046 Y-9.485 Z-2.322 A129.4462 B18.4086 
N148 X166.045 Y-9.643 Z-2.121 A129.4338 B18.4086 
N149 X166.044 Y-9.800 Z-1.919 A129.4213 B18.4085 
N150 X166.043 Y-9.957 Z-1.718 A129.4089 B18.4084 
N151 X166.042 Y-10.115 Z-1.517 A129.3964 B18.4083 
N152 X166.041 Y-10.272 Z-1.315 A129.3839 B18.4083 
N153 X166.039 Y-10.429 Z-1.114 A129.3715 B18.4082 
N154 X166.038 Y-10.587 Z-0.912 A129.3590 B18.4081 
N155 X166.037 Y-10.744 Z-0.711 A129.3466 B18.4080 
N156 X166.036 Y-10.901 Z-0.510 A129.3341 B18.4079 
N157 X166.035 Y-11.059 Z-0.308 A129.3217 B18.4079 
N158 X166.034 Y-11.216 Z-0.107 A129.3092 B18.4078 
N159 X166.033 Y-11.373 Z0.094 A129.2967 B18.4077 
N160 X166.031 Y-11.531 Z0.296 A129.2843 B18.4076 
N161 X166.025 Y-11.688 Z0.497 A129.2716 B18.4072 
N162 X166.019 Y-11.845 Z0.698 A129.2590 B18.4068 
N163 X166.013 Y-12.003 Z0.900 A129.2464 B18.4064 
N164 X166.008 Y-12.160 Z1.101 A129.2338 B18.4061 
N165 X166.002 Y-12.317 Z1.302 A129.2212 B18.4057 
N166 X165.996 Y-12.474 Z1.504 A129.2086 B18.4053 
N167 X165.990 Y-12.632 Z1.705 A129.1960 B18.4049 
N168 X165.985 Y-12.789 Z1.906 A129.1833 B18.4046 
N169 X165.979 Y-12.946 Z2.108 A129.1707 B18.4042 
N170 X165.973 Y-13.104 Z2.309 A129.1581 B18.4038 
N171 X165.967 Y-13.261 Z2.510 A129.1455 B18.4034 
N172 X165.962 Y-13.418 Z2.712 A129.1329 B18.4031 
N173 X165.956 Y-13.575 Z2.913 A129.1203 B18.4027 
N174 X165.950 Y-13.733 Z3.114 A129.1076 B18.4023 
N175 X165.944 Y-13.890 Z3.316 A129.0950 B18.4019 
N176 X165.939 Y-14.047 Z3.517 A129.0824 B18.4015 
N177 X165.933 Y-14.205 Z3.718 A129.0698 B18.4012 
N178 X165.927 Y-14.362 Z3.920 A129.0572 B18.4008 
N179 X165.921 Y-14.519 Z4.121 A129.0446 B18.4004 
N180 X165.911 Y-14.676 Z4.322 A129.0319 B18.3997 
N181 X165.902 Y-14.834 Z4.523 A129.0193 B18.3991 
N182 X165.892 Y-14.991 Z4.725 A129.0066 B18.3985 
N183 X165.882 Y-15.148 Z4.926 A128.9940 B18.3978 
N184 X165.873 Y-15.305 Z5.127 A128.9813 B18.3972 
N185 X165.863 Y-15.462 Z5.328 A128.9687 B18.3966 
N186 X165.853 Y-15.620 Z5.529 A128.9560 B18.3959 
N187 X165.843 Y-15.777 Z5.731 A128.9434 B18.3953 
N188 X165.834 Y-15.934 Z5.932 A128.9307 B18.3947 
N189 X165.824 Y-16.091 Z6.133 A128.9181 B18.3940 
N190 X165.814 Y-16.249 Z6.334 A128.9054 B18.3934 
N191 X165.805 Y-16.406 Z6.536 A128.8927 B18.3928 
N192 X165.795 Y-16.563 Z6.737 A128.8801 B18.3921 
N193 X165.785 Y-16.720 Z6.938 A128.8674 B18.3915 
N194 X165.776 Y-16.877 Z7.139 A128.8548 B18.3908 
N195 X165.766 Y-17.035 Z7.341 A128.8421 B18.3902 
N196 X165.753 Y-17.192 Z7.542 A128.8296 B18.3894 
N197 X165.740 Y-17.349 Z7.743 A128.8171 B18.3885 
N198 X165.727 Y-17.506 Z7.944 A128.8046 B18.3877 
N199 X165.714 Y-17.663 Z8.145 A128.7921 B18.3868 
N200 X165.701 Y-17.820 Z8.346 A128.7796 B18.3860 
N201 X165.688 Y-17.977 Z8.547 A128.7671 B18.3852 
N202 X165.674 Y-18.134 Z8.748 A128.7546 B18.3843 
N203 X165.661 Y-18.292 Z8.949 A128.7421 B18.3835 
N204 X165.648 Y-18.449 Z9.151 A128.7296 B18.3826 
N205 X165.635 Y-18.606 Z9.352 A128.7171 B18.3818 
N206 X165.622 Y-18.763 Z9.553 A128.7046 B18.3809 
N207 X165.609 Y-18.920 Z9.754 A128.6921 B18.3801 
N208 X165.596 Y-19.077 Z9.955 A128.6796 B18.3792 
N209 X165.583 Y-19.234 Z10.156 A128.6671 B18.3784 
N210 X165.565 Y-19.450 Z10.431 
N211 X165.053 Y-25.598 Z18.301 
N212 G00 X177.130 Y-64.254 Z-11.023 
RAPORT("T44444","Slot Finishing:156 End")
N214 ;trailer : concat=None
; points cnt = 158
N215 MSG (" --- GROUPED OF SUBPROGRAM --- ")
N216 FGROUP()
N217 TRAFOOF
N10 ; PROGRAM NAME: 4444451
N11 ; ORDER       : 44444
N12 ; OPER. NAME  : Slot Finishing:157
N13 ; OPER. DESCR.: finishing root chamfer BETE SFSA
N14 ; OPER. TYPE  : slotMillFinish
N15 ; GEO. OPTION : 1
N16 ; MACHINE     : SH_HX151_24_SIM840D
N17 ;             : STARRAG_HECKERT_5axis_finish_milling_machine
N18 ; CONTROL     : SINUMERIK 840D
N19 ; created:   2022-11-03 13:38:49.050187
;-------DODATKOWE DANE-------------------
; PROGRAMISTA : Mariusz Malec
; PARTID      : 139T004654P1015_-
;  ap         : 5.0
;  ae         : 1.0
;  lean_angle : 0.0
;  rad_Offset : 2.0
;  fin_Offset : 1.0
;----------------------------------------
N20 ;----------------------------------------
RAPORT("T44444","Slot Finishing:157")
N21 TRAFOOF
N22 D0
N23 G0 G90 G94 Z260.0
N24 STOPRE
N25 M9 ; chlodziwo wyl
N26 ; --- Slot Finishing:157 - finishing root chamfer BETE SFSA ---
N28 ;ToolChange : concat=None ,current_tdmid=None, PP.tdmId=956976
N29 TRAFOOF
N30 D0
N31 G0 G54 Z270.0
N32 S6366 M03
N33 STOPRE
N34 TOL(0.01,1,1)
N35 G0  A129.5583
N36 TRAORI
N37 G54 D2
N38 D2 
N39 TRANS  X=R20 B=R38
STOPRE
E_ZDARZ=300006
;ACS_FINISH_ROOT_BETA=7756976
STOPRE
N40 ; DELTA A > 40.1
N41 TRAFOOF
N42 STOPRE
N43 G0 G53 D0 Z265.000
N44 G1 G53 A129.5583 F10000
N45 TRAORI
N46 G54 D2
N47 TRANS  X=R20 B=R38
N48 G00 X178.345 Y-39.275 Z-42.994 A129.5583 B18.4093 
N49 M342 ; chlodziwo woda
N50 X166.249 Y-1.081 Z-13.079 
N51 G01 X166.204 Y-7.238 Z-5.199 F763 
N52 X166.203 Y-7.392 Z-5.002 
N53 X166.202 Y-7.546 Z-4.805 
N54 X166.201 Y-7.700 Z-4.608 
N55 X166.200 Y-7.854 Z-4.411 
N56 X166.198 Y-8.069 Z-4.135 
N57 X166.197 Y-8.226 Z-3.933 A129.5459 B18.4092 
N58 X166.196 Y-8.384 Z-3.732 A129.5334 B18.4091 
N59 X166.195 Y-8.541 Z-3.530 A129.5210 B18.4091 
N60 X166.194 Y-8.699 Z-3.329 A129.5085 B18.4090 
N61 X166.192 Y-8.856 Z-3.128 A129.4961 B18.4089 
N62 X166.191 Y-9.013 Z-2.926 A129.4836 B18.4089 
N63 X166.190 Y-9.171 Z-2.725 A129.4711 B18.4088 
N64 X166.189 Y-9.328 Z-2.523 A129.4587 B18.4087 
N65 X166.188 Y-9.486 Z-2.322 A129.4462 B18.4086 
N66 X166.187 Y-9.643 Z-2.120 A129.4338 B18.4086 
N67 X166.185 Y-9.800 Z-1.919 A129.4213 B18.4085 
N68 X166.184 Y-9.958 Z-1.717 A129.4089 B18.4084 
N69 X166.183 Y-10.115 Z-1.516 A129.3964 B18.4083 
N70 X166.182 Y-10.273 Z-1.314 A129.3839 B18.4083 
N71 X166.181 Y-10.430 Z-1.113 A129.3715 B18.4082 
N72 X166.180 Y-10.588 Z-0.911 A129.3590 B18.4081 
N73 X166.179 Y-10.745 Z-0.710 A129.3466 B18.4080 
N74 X166.177 Y-10.902 Z-0.508 A129.3341 B18.4079 
N75 X166.176 Y-11.060 Z-0.307 A129.3217 B18.4079 
N76 X166.175 Y-11.217 Z-0.106 A129.3092 B18.4078 
N77 X166.174 Y-11.375 Z0.096 A129.2967 B18.4077 
N78 X166.172 Y-11.532 Z0.297 A129.2843 B18.4076 
N79 X166.166 Y-11.689 Z0.499 A129.2716 B18.4072 
N80 X166.160 Y-11.847 Z0.700 A129.2590 B18.4068 
N81 X166.155 Y-12.004 Z0.902 A129.2464 B18.4064 
N82 X166.149 Y-12.161 Z1.103 A129.2338 B18.4061 
N83 X166.143 Y-12.319 Z1.304 A129.2212 B18.4057 
N84 X166.137 Y-12.476 Z1.506 A129.2086 B18.4053 
N85 X166.132 Y-12.633 Z1.707 A129.1960 B18.4049 
N86 X166.126 Y-12.791 Z1.909 A129.1833 B18.4046 
N87 X166.120 Y-12.948 Z2.110 A129.1707 B18.4042 
N88 X166.114 Y-13.106 Z2.312 A129.1581 B18.4038 
N89 X166.109 Y-13.263 Z2.513 A129.1455 B18.4034 
N90 X166.103 Y-13.420 Z2.714 A129.1329 B18.4031 
N91 X166.097 Y-13.578 Z2.916 A129.1203 B18.4027 
N92 X166.091 Y-13.735 Z3.117 A129.1076 B18.4023 
N93 X166.086 Y-13.892 Z3.319 A129.0950 B18.4019 
N94 X166.080 Y-14.050 Z3.520 A129.0824 B18.4015 
N95 X166.074 Y-14.207 Z3.722 A129.0698 B18.4012 
N96 X166.068 Y-14.365 Z3.923 A129.0572 B18.4008 
N97 X166.062 Y-14.522 Z4.124 A129.0446 B18.4004 
N98 X166.053 Y-14.679 Z4.326 A129.0319 B18.3997 
N99 X166.043 Y-14.836 Z4.527 A129.0193 B18.3991 
N100 X166.033 Y-14.994 Z4.728 A129.0066 B18.3985 
N101 X166.024 Y-15.151 Z4.930 A128.9940 B18.3978 
N102 X166.014 Y-15.308 Z5.131 A128.9813 B18.3972 
N103 X166.004 Y-15.466 Z5.332 A128.9687 B18.3966 
N104 X165.994 Y-15.623 Z5.534 A128.9560 B18.3959 
N105 X165.985 Y-15.780 Z5.735 A128.9434 B18.3953 
N106 X165.975 Y-15.937 Z5.936 A128.9307 B18.3947 
N107 X165.965 Y-16.095 Z6.138 A128.9181 B18.3940 
N108 X165.956 Y-16.252 Z6.339 A128.9054 B18.3934 
N109 X165.946 Y-16.409 Z6.540 A128.8927 B18.3928 
N110 X165.936 Y-16.567 Z6.742 A128.8801 B18.3921 
N111 X165.926 Y-16.724 Z6.943 A128.8674 B18.3915 
N112 X165.917 Y-16.881 Z7.144 A128.8548 B18.3908 
N113 X165.907 Y-17.039 Z7.346 A128.8421 B18.3902 
N114 X165.894 Y-17.196 Z7.547 A128.8296 B18.3894 
N115 X165.881 Y-17.353 Z7.748 A128.8171 B18.3885 
N116 X165.868 Y-17.510 Z7.949 A128.8046 B18.3877 
N117 X165.855 Y-17.667 Z8.150 A128.7921 B18.3868 
N118 X165.842 Y-17.825 Z8.352 A128.7796 B18.3860 
N119 X165.829 Y-17.982 Z8.553 A128.7671 B18.3852 
N120 X165.816 Y-18.139 Z8.754 A128.7546 B18.3843 
N121 X165.803 Y-18.296 Z8.955 A128.7421 B18.3835 
N122 X165.790 Y-18.453 Z9.156 A128.7296 B18.3826 
N123 X165.776 Y-18.611 Z9.358 A128.7171 B18.3818 
N124 X165.763 Y-18.768 Z9.559 A128.7046 B18.3809 
N125 X165.750 Y-18.925 Z9.760 A128.6921 B18.3801 
N126 X165.737 Y-19.082 Z9.961 A128.6796 B18.3792 
N127 X165.724 Y-19.239 Z10.162 A128.6671 B18.3784 
N128 X165.706 Y-19.455 Z10.438 
N129 X165.194 Y-25.603 Z18.308 
N130 G00 X177.271 Y-64.259 Z-11.017 
RAPORT("T44444","Slot Finishing:157 End")
N132 ;trailer : concat=None
; points cnt = 79
N133 MSG (" --- GROUPED OF SUBPROGRAM --- ")
N134 FGROUP()
N135 TRAFOOF
N10 ; PROGRAM NAME: 4444451
N11 ; ORDER       : 44444
N12 ; OPER. NAME  : Slot Finishing:158
N13 ; OPER. DESCR.: finishing root chamfer FSFSA
N14 ; OPER. TYPE  : slotMillFinish
N15 ; GEO. OPTION : 3
N16 ; MACHINE     : SH_HX151_24_SIM840D
N17 ;             : STARRAG_HECKERT_5axis_finish_milling_machine
N18 ; CONTROL     : SINUMERIK 840D
N19 ; created:   2022-11-03 13:38:57.090974
;-------DODATKOWE DANE-------------------
; PROGRAMISTA : Mariusz Malec
; PARTID      : 139T004654P1015_-
;  ap         : 100.0
;  ae         : 1.502828854
;  lean_angle : 0.0
;  rad_Offset : 2.0
;  fin_Offset : -0.5
;----------------------------------------
N20 ;----------------------------------------
RAPORT("T44444","Slot Finishing:158")
N21 TRAFOOF
N22 D0
N23 G0 G90 G94 Z260.0
N24 STOPRE
N25 M9 ; chlodziwo wyl
N26 ; --- Slot Finishing:158 - finishing root chamfer FSFSA ---
N28 ;ToolChange : concat=None ,current_tdmid=None, PP.tdmId=956976
N29 TRAFOOF
N30 D0
N31 G0 G54 Z270.0
N32 S6366 M03
N33 STOPRE
N34 TOL(0.01,1,1)
N35 G0  A129.9984
N36 TRAORI
N37 G54 D2
N38 D2 
N39 TRANS  X=R21
STOPRE
E_ZDARZ=300008
;ACS_FINISH_ROOT_FRONT_CHAMFER=7756976
STOPRE
N40 ; DELTA A > 40.1
N41 TRAFOOF
N42 STOPRE
N43 G0 G53 D0 Z265.000
N44 G1 G53 A129.9984 F10000
N45 TRAORI
N46 G54 D2
N47 TRANS  X=R21
N48 G00 X147.649 Y-36.299 Z-51.148 A129.9984 B18.3973 
N49 M342 ; chlodziwo woda
N50 X135.561 Y1.664 Z-20.938 
N51 G01 X135.915 Y-4.489 Z-13.062 F763 
N52 X135.923 Y-4.643 Z-12.865 
N53 X135.932 Y-4.797 Z-12.669 
N54 X135.941 Y-4.950 Z-12.472 
N55 X135.950 Y-5.104 Z-12.275 
N56 X135.962 Y-5.320 Z-11.999 
N57 X135.971 Y-5.476 Z-11.799 A129.9846 B18.3979 
N58 X135.980 Y-5.633 Z-11.599 A129.9708 B18.3985 
N59 X135.989 Y-5.789 Z-11.398 A129.9570 B18.3992 
N60 X135.997 Y-5.945 Z-11.198 A129.9432 B18.3998 
N61 X136.005 Y-6.102 Z-10.998 A129.9294 B18.4004 
N62 X136.013 Y-6.258 Z-10.797 A129.9156 B18.4009 
N63 X136.020 Y-6.415 Z-10.597 A129.9018 B18.4015 
N64 X136.027 Y-6.571 Z-10.397 A129.8879 B18.4020 
N65 X136.034 Y-6.728 Z-10.196 A129.8741 B18.4025 
N66 X136.041 Y-6.884 Z-9.996 A129.8603 B18.4030 
N67 X136.048 Y-7.041 Z-9.796 A129.8465 B18.4035 
N68 X136.054 Y-7.198 Z-9.595 A129.8326 B18.4039 
N69 X136.060 Y-7.354 Z-9.395 A129.8188 B18.4044 
N70 X136.066 Y-7.511 Z-9.195 A129.8049 B18.4048 
N71 X136.071 Y-7.667 Z-8.994 A129.7911 B18.4052 
N72 X136.077 Y-7.824 Z-8.794 A129.7773 B18.4056 
N73 X136.082 Y-7.980 Z-8.594 A129.7634 B18.4060 
N74 X136.087 Y-8.137 Z-8.393 A129.7495 B18.4063 
N75 X136.091 Y-8.293 Z-8.193 A129.7357 B18.4066 
N76 X136.095 Y-8.450 Z-7.993 A129.7218 B18.4070 
N77 X136.099 Y-8.606 Z-7.792 A129.7080 B18.4072 
N78 X136.103 Y-8.763 Z-7.592 A129.6941 B18.4075 
N79 X136.107 Y-8.919 Z-7.391 A129.6802 B18.4078 
N80 X136.110 Y-9.076 Z-7.191 A129.6664 B18.4080 
N81 X136.113 Y-9.233 Z-6.991 A129.6525 B18.4082 
N82 X136.116 Y-9.389 Z-6.790 A129.6386 B18.4085 
N83 X136.119 Y-9.546 Z-6.590 A129.6247 B18.4086 
N84 X136.121 Y-9.702 Z-6.390 A129.6108 B18.4088 
N85 X136.123 Y-9.859 Z-6.189 A129.5969 B18.4090 
N86 X136.125 Y-10.015 Z-5.989 A129.5830 B18.4091 
N87 X136.126 Y-10.172 Z-5.788 A129.5692 B18.4092 
N88 X136.128 Y-10.328 Z-5.588 A129.5553 B18.4093 
N89 X136.129 Y-10.485 Z-5.388 A129.5414 B18.4094 
N90 X136.130 Y-10.642 Z-5.187 A129.5275 B18.4094 
N91 X136.130 Y-10.798 Z-4.987 A129.5135 B18.4095 
N92 X136.130 Y-10.955 Z-4.786 A129.4996 B18.4095 
N93 X136.131 Y-11.111 Z-4.586 A129.4857 B18.4095 
N94 X136.130 Y-11.268 Z-4.386 A129.4718 B18.4095 
N95 X136.130 Y-11.424 Z-4.185 A129.4579 B18.4095 
N96 X136.129 Y-11.581 Z-3.985 A129.4440 B18.4094 
N97 X136.128 Y-11.738 Z-3.784 A129.4300 B18.4094 
N98 X136.127 Y-11.894 Z-3.584 A129.4161 B18.4093 
N99 X136.126 Y-12.051 Z-3.384 A129.4022 B18.4092 
N100 X136.124 Y-12.207 Z-3.183 A129.3882 B18.4090 
N101 X136.122 Y-12.364 Z-2.983 A129.3743 B18.4089 
N102 X136.120 Y-12.520 Z-2.782 A129.3604 B18.4087 
N103 X136.118 Y-12.677 Z-2.582 A129.3464 B18.4086 
N104 X136.115 Y-12.834 Z-2.382 A129.3325 B18.4084 
N105 X136.112 Y-12.990 Z-2.181 A129.3185 B18.4082 
N106 X136.109 Y-13.147 Z-1.981 A129.3046 B18.4079 
N107 X136.106 Y-13.303 Z-1.780 A129.2906 B18.4077 
N108 X136.102 Y-13.460 Z-1.580 A129.2767 B18.4074 
N109 X136.098 Y-13.616 Z-1.380 A129.2627 B18.4071 
N110 X136.094 Y-13.773 Z-1.179 A129.2487 B18.4068 
N111 X136.090 Y-13.929 Z-0.979 A129.2348 B18.4065 
N112 X136.085 Y-14.086 Z-0.779 A129.2208 B18.4062 
N113 X136.080 Y-14.242 Z-0.578 A129.2068 B18.4058 
N114 X136.075 Y-14.399 Z-0.378 A129.1929 B18.4055 
N115 X136.070 Y-14.556 Z-0.178 A129.1789 B18.4051 
N116 X136.064 Y-14.712 Z0.023 A129.1649 B18.4047 
N117 X136.058 Y-14.869 Z0.223 A129.1509 B18.4042 
N118 X136.052 Y-15.025 Z0.423 A129.1369 B18.4038 
N119 X136.046 Y-15.182 Z0.624 A129.1230 B18.4033 
N120 X136.039 Y-15.338 Z0.824 A129.1090 B18.4028 
N121 X136.032 Y-15.495 Z1.024 A129.0950 B18.4023 
N122 X136.025 Y-15.651 Z1.225 A129.0810 B18.4018 
N123 X136.018 Y-15.808 Z1.425 A129.0670 B18.4013 
N124 X136.010 Y-15.964 Z1.625 A129.0530 B18.4007 
N125 X136.002 Y-16.121 Z1.826 A129.0390 B18.4001 
N126 X135.994 Y-16.277 Z2.026 A129.0250 B18.3996 
N127 X135.986 Y-16.434 Z2.226 A129.0110 B18.3989 
N128 X135.977 Y-16.590 Z2.427 A128.9970 B18.3983 
N129 X135.969 Y-16.747 Z2.627 A128.9830 B18.3977 
N130 X135.959 Y-16.903 Z2.827 A128.9689 B18.3970 
N131 X135.950 Y-17.060 Z3.027 A128.9549 B18.3963 
N132 X135.941 Y-17.216 Z3.228 A128.9409 B18.3956 
N133 X135.931 Y-17.372 Z3.428 A128.9269 B18.3949 
N134 X135.921 Y-17.529 Z3.628 A128.9129 B18.3942 
N135 X135.910 Y-17.685 Z3.828 A128.8988 B18.3934 
N136 X135.900 Y-17.842 Z4.029 A128.8848 B18.3927 
N137 X135.889 Y-17.998 Z4.229 A128.8708 B18.3919 
N138 X135.878 Y-18.155 Z4.429 A128.8567 B18.3911 
N139 X135.867 Y-18.311 Z4.629 A128.8427 B18.3902 
N140 X135.855 Y-18.467 Z4.829 A128.8287 B18.3894 
N141 X135.843 Y-18.624 Z5.030 A128.8146 B18.3885 
N142 X135.831 Y-18.780 Z5.230 A128.8006 B18.3876 
N143 X135.819 Y-18.937 Z5.430 A128.7866 B18.3867 
N144 X135.806 Y-19.093 Z5.630 A128.7725 B18.3858 
N145 X135.793 Y-19.249 Z5.830 A128.7585 B18.3849 
N146 X135.780 Y-19.406 Z6.030 A128.7444 B18.3839 
N147 X135.767 Y-19.562 Z6.230 A128.7304 B18.3830 
N148 X135.754 Y-19.718 Z6.431 A128.7163 B18.3820 
N149 X135.740 Y-19.875 Z6.631 A128.7022 B18.3810 
N150 X135.726 Y-20.031 Z6.831 A128.6882 B18.3799 
N151 X135.711 Y-20.187 Z7.031 A128.6741 B18.3789 
N152 X135.697 Y-20.344 Z7.231 A128.6601 B18.3778 
N153 X135.682 Y-20.500 Z7.431 A128.6460 B18.3768 
N154 X135.667 Y-20.656 Z7.631 A128.6319 B18.3757 
N155 X135.652 Y-20.813 Z7.831 A128.6178 B18.3746 
N156 X135.636 Y-20.969 Z8.031 A128.6038 B18.3734 
N157 X135.620 Y-21.125 Z8.231 A128.5897 B18.3723 
N158 X135.604 Y-21.281 Z8.431 A128.5756 B18.3711 
N159 X135.588 Y-21.438 Z8.631 A128.5615 B18.3699 
N160 X135.572 Y-21.594 Z8.831 A128.5475 B18.3687 
N161 X135.555 Y-21.750 Z9.031 A128.5334 B18.3675 
N162 X135.538 Y-21.906 Z9.231 A128.5193 B18.3662 
N163 X135.521 Y-22.063 Z9.431 A128.5052 B18.3650 
N164 X135.503 Y-22.219 Z9.631 A128.4911 B18.3637 
N165 X135.485 Y-22.375 Z9.831 A128.4770 B18.3624 
N166 X135.467 Y-22.531 Z10.031 A128.4629 B18.3611 
N167 X135.449 Y-22.687 Z10.231 A128.4489 B18.3598 
N168 X135.431 Y-22.843 Z10.430 A128.4348 B18.3584 
N169 X135.412 Y-23.000 Z10.630 A128.4207 B18.3570 
N170 X135.393 Y-23.156 Z10.830 A128.4066 B18.3557 
N171 X135.374 Y-23.312 Z11.030 A128.3925 B18.3543 
N172 X135.354 Y-23.468 Z11.230 A128.3784 B18.3528 
N173 X135.334 Y-23.624 Z11.429 A128.3643 B18.3514 
N174 X135.315 Y-23.780 Z11.629 A128.3501 B18.3499 
N175 X135.294 Y-23.936 Z11.829 A128.3360 B18.3485 
N176 X135.274 Y-24.092 Z12.029 A128.3219 B18.3470 
N177 X135.253 Y-24.248 Z12.228 A128.3078 B18.3455 
N178 X135.232 Y-24.404 Z12.428 A128.2937 B18.3439 
N179 X135.211 Y-24.560 Z12.628 A128.2796 B18.3424 
N180 X135.189 Y-24.716 Z12.828 A128.2655 B18.3408 
N181 X135.168 Y-24.872 Z13.027 A128.2514 B18.3392 
N182 X135.146 Y-25.028 Z13.227 A128.2372 B18.3376 
N183 X135.124 Y-25.184 Z13.427 A128.2231 B18.3360 
N184 X135.101 Y-25.340 Z13.626 A128.2090 B18.3344 
N185 X135.078 Y-25.496 Z13.826 A128.1949 B18.3327 
N186 X135.055 Y-25.652 Z14.025 A128.1807 B18.3310 
N187 X135.032 Y-25.808 Z14.225 A128.1666 B18.3293 
N188 X135.009 Y-25.964 Z14.424 A128.1525 B18.3276 
N189 X134.985 Y-26.120 Z14.624 A128.1384 B18.3259 
N190 X134.961 Y-26.276 Z14.823 A128.1242 B18.3242 
N191 X134.937 Y-26.432 Z15.023 A128.1101 B18.3224 
N192 X134.913 Y-26.588 Z15.222 A128.0960 B18.3206 
N193 X134.888 Y-26.743 Z15.422 A128.0818 B18.3188 
N194 X134.863 Y-26.899 Z15.621 A128.0677 B18.3170 
N195 X134.838 Y-27.055 Z15.821 A128.0535 B18.3152 
N196 X134.812 Y-27.211 Z16.020 A128.0394 B18.3133 
N197 X134.787 Y-27.367 Z16.219 A128.0252 B18.3114 
N198 X134.752 Y-27.581 Z16.494 
N199 X133.746 Y-33.706 Z24.334 
N200 G00 X139.763 Y-53.199 Z9.882 
N201 X141.605 Y-16.034 Z-35.040 A129.9984 B18.3973 
N202 X135.561 Y2.947 Z-19.935 
N203 G01 X135.915 Y-3.205 Z-12.059 F763 
N204 X135.923 Y-3.359 Z-11.863 
N205 X135.932 Y-3.513 Z-11.666 
N206 X135.941 Y-3.667 Z-11.469 
N207 X135.950 Y-3.821 Z-11.272 
N208 X135.962 Y-4.036 Z-10.996 
N209 X135.971 Y-4.192 Z-10.796 A129.9846 B18.3979 
N210 X135.980 Y-4.349 Z-10.596 A129.9708 B18.3985 
N211 X135.989 Y-4.505 Z-10.395 A129.9570 B18.3992 
N212 X135.997 Y-4.662 Z-10.195 A129.9432 B18.3998 
N213 X136.005 Y-4.818 Z-9.995 A129.9294 B18.4004 
N214 X136.013 Y-4.975 Z-9.795 A129.9156 B18.4009 
N215 X136.020 Y-5.131 Z-9.594 A129.9018 B18.4015 
N216 X136.027 Y-5.288 Z-9.394 A129.8879 B18.4020 
N217 X136.034 Y-5.444 Z-9.194 A129.8741 B18.4025 
N218 X136.041 Y-5.601 Z-8.993 A129.8603 B18.4030 
N219 X136.048 Y-5.757 Z-8.793 A129.8465 B18.4035 
N220 X136.054 Y-5.914 Z-8.593 A129.8326 B18.4039 
N221 X136.060 Y-6.070 Z-8.392 A129.8188 B18.4044 
N222 X136.066 Y-6.227 Z-8.192 A129.8049 B18.4048 
N223 X136.071 Y-6.383 Z-7.992 A129.7911 B18.4052 
N224 X136.077 Y-6.540 Z-7.791 A129.7773 B18.4056 
N225 X136.082 Y-6.696 Z-7.591 A129.7634 B18.4060 
N226 X136.087 Y-6.853 Z-7.390 A129.7495 B18.4063 
N227 X136.091 Y-7.010 Z-7.190 A129.7357 B18.4066 
N228 X136.095 Y-7.166 Z-6.990 A129.7218 B18.4070 
N229 X136.099 Y-7.323 Z-6.789 A129.7080 B18.4072 
N230 X136.103 Y-7.479 Z-6.589 A129.6941 B18.4075 
N231 X136.107 Y-7.636 Z-6.389 A129.6802 B18.4078 
N232 X136.110 Y-7.792 Z-6.188 A129.6664 B18.4080 
N233 X136.113 Y-7.949 Z-5.988 A129.6525 B18.4082 
N234 X136.116 Y-8.105 Z-5.787 A129.6386 B18.4085 
N235 X136.119 Y-8.262 Z-5.587 A129.6247 B18.4086 
N236 X136.121 Y-8.419 Z-5.387 A129.6108 B18.4088 
N237 X136.123 Y-8.575 Z-5.186 A129.5969 B18.4090 
N238 X136.125 Y-8.732 Z-4.986 A129.5830 B18.4091 
N239 X136.126 Y-8.888 Z-4.785 A129.5692 B18.4092 
N240 X136.128 Y-9.045 Z-4.585 A129.5553 B18.4093 
N241 X136.129 Y-9.201 Z-4.385 A129.5414 B18.4094 
N242 X136.130 Y-9.358 Z-4.184 A129.5275 B18.4094 
N243 X136.130 Y-9.514 Z-3.984 A129.5135 B18.4095 
N244 X136.130 Y-9.671 Z-3.783 A129.4996 B18.4095 
N245 X136.131 Y-9.828 Z-3.583 A129.4857 B18.4095 
N246 X136.130 Y-9.984 Z-3.383 A129.4718 B18.4095 
N247 X136.130 Y-10.141 Z-3.182 A129.4579 B18.4095 
N248 X136.129 Y-10.297 Z-2.982 A129.4440 B18.4094 
N249 X136.128 Y-10.454 Z-2.781 A129.4300 B18.4094 
N250 X136.127 Y-10.610 Z-2.581 A129.4161 B18.4093 
N251 X136.126 Y-10.767 Z-2.381 A129.4022 B18.4092 
N252 X136.124 Y-10.924 Z-2.180 A129.3882 B18.4090 
N253 X136.122 Y-11.080 Z-1.980 A129.3743 B18.4089 
N254 X136.120 Y-11.237 Z-1.780 A129.3604 B18.4087 
N255 X136.118 Y-11.393 Z-1.579 A129.3464 B18.4086 
N256 X136.115 Y-11.550 Z-1.379 A129.3325 B18.4084 
N257 X136.112 Y-11.706 Z-1.178 A129.3185 B18.4082 
N258 X136.109 Y-11.863 Z-0.978 A129.3046 B18.4079 
N259 X136.106 Y-12.019 Z-0.778 A129.2906 B18.4077 
N260 X136.102 Y-12.176 Z-0.577 A129.2767 B18.4074 
N261 X136.098 Y-12.333 Z-0.377 A129.2627 B18.4071 
N262 X136.094 Y-12.489 Z-0.176 A129.2487 B18.4068 
N263 X136.090 Y-12.646 Z0.024 A129.2348 B18.4065 
N264 X136.085 Y-12.802 Z0.224 A129.2208 B18.4062 
N265 X136.080 Y-12.959 Z0.425 A129.2068 B18.4058 
N266 X136.075 Y-13.115 Z0.625 A129.1929 B18.4055 
N267 X136.070 Y-13.272 Z0.825 A129.1789 B18.4051 
N268 X136.064 Y-13.428 Z1.026 A129.1649 B18.4047 
N269 X136.058 Y-13.585 Z1.226 A129.1509 B18.4042 
N270 X136.052 Y-13.741 Z1.426 A129.1369 B18.4038 
N271 X136.046 Y-13.898 Z1.627 A129.1230 B18.4033 
N272 X136.039 Y-14.054 Z1.827 A129.1090 B18.4028 
N273 X136.032 Y-14.211 Z2.027 A129.0950 B18.4023 
N274 X136.025 Y-14.367 Z2.228 A129.0810 B18.4018 
N275 X136.018 Y-14.524 Z2.428 A129.0670 B18.4013 
N276 X136.010 Y-14.680 Z2.628 A129.0530 B18.4007 
N277 X136.002 Y-14.837 Z2.829 A129.0390 B18.4001 
N278 X135.994 Y-14.993 Z3.029 A129.0250 B18.3996 
N279 X135.986 Y-15.150 Z3.229 A129.0110 B18.3989 
N280 X135.977 Y-15.306 Z3.430 A128.9970 B18.3983 
N281 X135.969 Y-15.463 Z3.630 A128.9830 B18.3977 
N282 X135.959 Y-15.619 Z3.830 A128.9689 B18.3970 
N283 X135.950 Y-15.776 Z4.030 A128.9549 B18.3963 
N284 X135.941 Y-15.932 Z4.231 A128.9409 B18.3956 
N285 X135.931 Y-16.089 Z4.431 A128.9269 B18.3949 
N286 X135.921 Y-16.245 Z4.631 A128.9129 B18.3942 
N287 X135.910 Y-16.402 Z4.831 A128.8988 B18.3934 
N288 X135.900 Y-16.558 Z5.032 A128.8848 B18.3927 
N289 X135.889 Y-16.714 Z5.232 A128.8708 B18.3919 
N290 X135.878 Y-16.871 Z5.432 A128.8567 B18.3911 
N291 X135.867 Y-17.027 Z5.632 A128.8427 B18.3902 
N292 X135.855 Y-17.184 Z5.832 A128.8287 B18.3894 
N293 X135.843 Y-17.340 Z6.033 A128.8146 B18.3885 
N294 X135.831 Y-17.497 Z6.233 A128.8006 B18.3876 
N295 X135.819 Y-17.653 Z6.433 A128.7866 B18.3867 
N296 X135.806 Y-17.809 Z6.633 A128.7725 B18.3858 
N297 X135.793 Y-17.966 Z6.833 A128.7585 B18.3849 
N298 X135.780 Y-18.122 Z7.033 A128.7444 B18.3839 
N299 X135.767 Y-18.278 Z7.233 A128.7304 B18.3830 
N300 X135.754 Y-18.435 Z7.434 A128.7163 B18.3820 
N301 X135.740 Y-18.591 Z7.634 A128.7022 B18.3810 
N302 X135.726 Y-18.747 Z7.834 A128.6882 B18.3799 
N303 X135.711 Y-18.904 Z8.034 A128.6741 B18.3789 
N304 X135.697 Y-19.060 Z8.234 A128.6601 B18.3778 
N305 X135.682 Y-19.216 Z8.434 A128.6460 B18.3768 
N306 X135.667 Y-19.373 Z8.634 A128.6319 B18.3757 
N307 X135.652 Y-19.529 Z8.834 A128.6178 B18.3746 
N308 X135.636 Y-19.685 Z9.034 A128.6038 B18.3734 
N309 X135.620 Y-19.841 Z9.234 A128.5897 B18.3723 
N310 X135.604 Y-19.998 Z9.434 A128.5756 B18.3711 
N311 X135.588 Y-20.154 Z9.634 A128.5615 B18.3699 
N312 X135.572 Y-20.310 Z9.834 A128.5475 B18.3687 
N313 X135.555 Y-20.466 Z10.034 A128.5334 B18.3675 
N314 X135.538 Y-20.623 Z10.234 A128.5193 B18.3662 
N315 X135.521 Y-20.779 Z10.434 A128.5052 B18.3650 
N316 X135.503 Y-20.935 Z10.634 A128.4911 B18.3637 
N317 X135.485 Y-21.091 Z10.834 A128.4770 B18.3624 
N318 X135.467 Y-21.247 Z11.034 A128.4629 B18.3611 
N319 X135.449 Y-21.404 Z11.233 A128.4489 B18.3598 
N320 X135.431 Y-21.560 Z11.433 A128.4348 B18.3584 
N321 X135.412 Y-21.716 Z11.633 A128.4207 B18.3570 
N322 X135.393 Y-21.872 Z11.833 A128.4066 B18.3557 
N323 X135.374 Y-22.028 Z12.033 A128.3925 B18.3543 
N324 X135.354 Y-22.184 Z12.233 A128.3784 B18.3528 
N325 X135.334 Y-22.340 Z12.432 A128.3643 B18.3514 
N326 X135.315 Y-22.496 Z12.632 A128.3501 B18.3499 
N327 X135.294 Y-22.653 Z12.832 A128.3360 B18.3485 
N328 X135.274 Y-22.809 Z13.032 A128.3219 B18.3470 
N329 X135.253 Y-22.965 Z13.231 A128.3078 B18.3455 
N330 X135.232 Y-23.121 Z13.431 A128.2937 B18.3439 
N331 X135.211 Y-23.277 Z13.631 A128.2796 B18.3424 
N332 X135.189 Y-23.433 Z13.831 A128.2655 B18.3408 
N333 X135.168 Y-23.589 Z14.030 A128.2514 B18.3392 
N334 X135.146 Y-23.745 Z14.230 A128.2372 B18.3376 
N335 X135.124 Y-23.901 Z14.429 A128.2231 B18.3360 
N336 X135.101 Y-24.057 Z14.629 A128.2090 B18.3344 
N337 X135.078 Y-24.213 Z14.829 A128.1949 B18.3327 
N338 X135.055 Y-24.369 Z15.028 A128.1807 B18.3310 
N339 X135.032 Y-24.524 Z15.228 A128.1666 B18.3293 
N340 X135.009 Y-24.680 Z15.427 A128.1525 B18.3276 
N341 X134.985 Y-24.836 Z15.627 A128.1384 B18.3259 
N342 X134.961 Y-24.992 Z15.826 A128.1242 B18.3242 
N343 X134.937 Y-25.148 Z16.026 A128.1101 B18.3224 
N344 X134.913 Y-25.304 Z16.225 A128.0960 B18.3206 
N345 X134.888 Y-25.460 Z16.425 A128.0818 B18.3188 
N346 X134.863 Y-25.615 Z16.624 A128.0677 B18.3170 
N347 X134.838 Y-25.771 Z16.824 A128.0535 B18.3152 
N348 X134.812 Y-25.927 Z17.023 A128.0394 B18.3133 
N349 X134.787 Y-26.083 Z17.222 A128.0252 B18.3114 
N350 X134.752 Y-26.297 Z17.497 
N351 X133.746 Y-32.423 Z25.337 
N352 G00 X139.763 Y-51.915 Z10.885 
N353 X141.605 Y-14.750 Z-34.037 A129.9984 B18.3973 
N354 X135.561 Y4.231 Z-18.932 
N355 G01 X135.915 Y-1.922 Z-11.057 F763 
N356 X135.923 Y-2.075 Z-10.860 
N357 X135.932 Y-2.229 Z-10.663 
N358 X135.941 Y-2.383 Z-10.466 
N359 X135.950 Y-2.537 Z-10.269 
N360 X135.962 Y-2.752 Z-9.993 
N361 X135.971 Y-2.909 Z-9.793 A129.9846 B18.3979 
N362 X135.980 Y-3.065 Z-9.593 A129.9708 B18.3985 
N363 X135.989 Y-3.222 Z-9.393 A129.9570 B18.3992 
N364 X135.997 Y-3.378 Z-9.192 A129.9432 B18.3998 
N365 X136.005 Y-3.535 Z-8.992 A129.9294 B18.4004 
N366 X136.013 Y-3.691 Z-8.792 A129.9156 B18.4009 
N367 X136.020 Y-3.848 Z-8.591 A129.9018 B18.4015 
N368 X136.027 Y-4.004 Z-8.391 A129.8879 B18.4020 
N369 X136.034 Y-4.161 Z-8.191 A129.8741 B18.4025 
N370 X136.041 Y-4.317 Z-7.990 A129.8603 B18.4030 
N371 X136.048 Y-4.474 Z-7.790 A129.8465 B18.4035 
N372 X136.054 Y-4.630 Z-7.590 A129.8326 B18.4039 
N373 X136.060 Y-4.787 Z-7.389 A129.8188 B18.4044 
N374 X136.066 Y-4.943 Z-7.189 A129.8049 B18.4048 
N375 X136.071 Y-5.100 Z-6.989 A129.7911 B18.4052 
N376 X136.077 Y-5.256 Z-6.788 A129.7773 B18.4056 
N377 X136.082 Y-5.413 Z-6.588 A129.7634 B18.4060 
N378 X136.087 Y-5.569 Z-6.388 A129.7495 B18.4063 
N379 X136.091 Y-5.726 Z-6.187 A129.7357 B18.4066 
N380 X136.095 Y-5.882 Z-5.987 A129.7218 B18.4070 
N381 X136.099 Y-6.039 Z-5.786 A129.7080 B18.4072 
N382 X136.103 Y-6.196 Z-5.586 A129.6941 B18.4075 
N383 X136.107 Y-6.352 Z-5.386 A129.6802 B18.4078 
N384 X136.110 Y-6.509 Z-5.185 A129.6664 B18.4080 
N385 X136.113 Y-6.665 Z-4.985 A129.6525 B18.4082 
N386 X136.116 Y-6.822 Z-4.785 A129.6386 B18.4085 
N387 X136.119 Y-6.978 Z-4.584 A129.6247 B18.4086 
N388 X136.121 Y-7.135 Z-4.384 A129.6108 B18.4088 
N389 X136.123 Y-7.291 Z-4.183 A129.5969 B18.4090 
N390 X136.125 Y-7.448 Z-3.983 A129.5830 B18.4091 
N391 X136.126 Y-7.605 Z-3.783 A129.5692 B18.4092 
N392 X136.128 Y-7.761 Z-3.582 A129.5553 B18.4093 
N393 X136.129 Y-7.918 Z-3.382 A129.5414 B18.4094 
N394 X136.130 Y-8.074 Z-3.181 A129.5275 B18.4094 
N395 X136.130 Y-8.231 Z-2.981 A129.5135 B18.4095 
N396 X136.130 Y-8.387 Z-2.781 A129.4996 B18.4095 
N397 X136.131 Y-8.544 Z-2.580 A129.4857 B18.4095 
N398 X136.130 Y-8.700 Z-2.380 A129.4718 B18.4095 
N399 X136.130 Y-8.857 Z-2.179 A129.4579 B18.4095 
N400 X136.129 Y-9.014 Z-1.979 A129.4440 B18.4094 
N401 X136.128 Y-9.170 Z-1.779 A129.4300 B18.4094 
N402 X136.127 Y-9.327 Z-1.578 A129.4161 B18.4093 
N403 X136.126 Y-9.483 Z-1.378 A129.4022 B18.4092 
N404 X136.124 Y-9.640 Z-1.177 A129.3882 B18.4090 
N405 X136.122 Y-9.796 Z-0.977 A129.3743 B18.4089 
N406 X136.120 Y-9.953 Z-0.777 A129.3604 B18.4087 
N407 X136.118 Y-10.110 Z-0.576 A129.3464 B18.4086 
N408 X136.115 Y-10.266 Z-0.376 A129.3325 B18.4084 
N409 X136.112 Y-10.423 Z-0.175 A129.3185 B18.4082 
N410 X136.109 Y-10.579 Z0.025 A129.3046 B18.4079 
N411 X136.106 Y-10.736 Z0.225 A129.2906 B18.4077 
N412 X136.102 Y-10.892 Z0.426 A129.2767 B18.4074 
N413 X136.098 Y-11.049 Z0.626 A129.2627 B18.4071 
N414 X136.094 Y-11.205 Z0.826 A129.2487 B18.4068 
N415 X136.090 Y-11.362 Z1.027 A129.2348 B18.4065 
N416 X136.085 Y-11.519 Z1.227 A129.2208 B18.4062 
N417 X136.080 Y-11.675 Z1.428 A129.2068 B18.4058 
N418 X136.075 Y-11.832 Z1.628 A129.1929 B18.4055 
N419 X136.070 Y-11.988 Z1.828 A129.1789 B18.4051 
N420 X136.064 Y-12.145 Z2.029 A129.1649 B18.4047 
N421 X136.058 Y-12.301 Z2.229 A129.1509 B18.4042 
N422 X136.052 Y-12.458 Z2.429 A129.1369 B18.4038 
N423 X136.046 Y-12.614 Z2.630 A129.1230 B18.4033 
N424 X136.039 Y-12.771 Z2.830 A129.1090 B18.4028 
N425 X136.032 Y-12.927 Z3.030 A129.0950 B18.4023 
N426 X136.025 Y-13.084 Z3.231 A129.0810 B18.4018 
N427 X136.018 Y-13.240 Z3.431 A129.0670 B18.4013 
N428 X136.010 Y-13.397 Z3.631 A129.0530 B18.4007 
N429 X136.002 Y-13.553 Z3.832 A129.0390 B18.4001 
N430 X135.994 Y-13.710 Z4.032 A129.0250 B18.3996 
N431 X135.986 Y-13.866 Z4.232 A129.0110 B18.3989 
N432 X135.977 Y-14.023 Z4.432 A128.9970 B18.3983 
N433 X135.969 Y-14.179 Z4.633 A128.9830 B18.3977 
N434 X135.959 Y-14.336 Z4.833 A128.9689 B18.3970 
N435 X135.950 Y-14.492 Z5.033 A128.9549 B18.3963 
N436 X135.941 Y-14.649 Z5.233 A128.9409 B18.3956 
N437 X135.931 Y-14.805 Z5.434 A128.9269 B18.3949 
N438 X135.921 Y-14.962 Z5.634 A128.9129 B18.3942 
N439 X135.910 Y-15.118 Z5.834 A128.8988 B18.3934 
N440 X135.900 Y-15.274 Z6.034 A128.8848 B18.3927 
N441 X135.889 Y-15.431 Z6.235 A128.8708 B18.3919 
N442 X135.878 Y-15.587 Z6.435 A128.8567 B18.3911 
N443 X135.867 Y-15.744 Z6.635 A128.8427 B18.3902 
N444 X135.855 Y-15.900 Z6.835 A128.8287 B18.3894 
N445 X135.843 Y-16.056 Z7.035 A128.8146 B18.3885 
N446 X135.831 Y-16.213 Z7.236 A128.8006 B18.3876 
N447 X135.819 Y-16.369 Z7.436 A128.7866 B18.3867 
N448 X135.806 Y-16.526 Z7.636 A128.7725 B18.3858 
N449 X135.793 Y-16.682 Z7.836 A128.7585 B18.3849 
N450 X135.780 Y-16.838 Z8.036 A128.7444 B18.3839 
N451 X135.767 Y-16.995 Z8.236 A128.7304 B18.3830 
N452 X135.754 Y-17.151 Z8.436 A128.7163 B18.3820 
N453 X135.740 Y-17.307 Z8.637 A128.7022 B18.3810 
N454 X135.726 Y-17.464 Z8.837 A128.6882 B18.3799 
N455 X135.711 Y-17.620 Z9.037 A128.6741 B18.3789 
N456 X135.697 Y-17.776 Z9.237 A128.6601 B18.3778 
N457 X135.682 Y-17.933 Z9.437 A128.6460 B18.3768 
N458 X135.667 Y-18.089 Z9.637 A128.6319 B18.3757 
N459 X135.652 Y-18.245 Z9.837 A128.6178 B18.3746 
N460 X135.636 Y-18.402 Z10.037 A128.6038 B18.3734 
N461 X135.620 Y-18.558 Z10.237 A128.5897 B18.3723 
N462 X135.604 Y-18.714 Z10.437 A128.5756 B18.3711 
N463 X135.588 Y-18.870 Z10.637 A128.5615 B18.3699 
N464 X135.572 Y-19.027 Z10.837 A128.5475 B18.3687 
N465 X135.555 Y-19.183 Z11.037 A128.5334 B18.3675 
N466 X135.538 Y-19.339 Z11.237 A128.5193 B18.3662 
N467 X135.521 Y-19.495 Z11.437 A128.5052 B18.3650 
N468 X135.503 Y-19.651 Z11.637 A128.4911 B18.3637 
N469 X135.485 Y-19.808 Z11.837 A128.4770 B18.3624 
N470 X135.467 Y-19.964 Z12.036 A128.4629 B18.3611 
N471 X135.449 Y-20.120 Z12.236 A128.4489 B18.3598 
N472 X135.431 Y-20.276 Z12.436 A128.4348 B18.3584 
N473 X135.412 Y-20.432 Z12.636 A128.4207 B18.3570 
N474 X135.393 Y-20.588 Z12.836 A128.4066 B18.3557 
N475 X135.374 Y-20.745 Z13.036 A128.3925 B18.3543 
N476 X135.354 Y-20.901 Z13.236 A128.3784 B18.3528 
N477 X135.334 Y-21.057 Z13.435 A128.3643 B18.3514 
N478 X135.315 Y-21.213 Z13.635 A128.3501 B18.3499 
N479 X135.294 Y-21.369 Z13.835 A128.3360 B18.3485 
N480 X135.274 Y-21.525 Z14.035 A128.3219 B18.3470 
N481 X135.253 Y-21.681 Z14.234 A128.3078 B18.3455 
N482 X135.232 Y-21.837 Z14.434 A128.2937 B18.3439 
N483 X135.211 Y-21.993 Z14.634 A128.2796 B18.3424 
N484 X135.189 Y-22.149 Z14.833 A128.2655 B18.3408 
N485 X135.168 Y-22.305 Z15.033 A128.2514 B18.3392 
N486 X135.146 Y-22.461 Z15.233 A128.2372 B18.3376 
N487 X135.124 Y-22.617 Z15.432 A128.2231 B18.3360 
N488 X135.101 Y-22.773 Z15.632 A128.2090 B18.3344 
N489 X135.078 Y-22.929 Z15.832 A128.1949 B18.3327 
N490 X135.055 Y-23.085 Z16.031 A128.1807 B18.3310 
N491 X135.032 Y-23.241 Z16.231 A128.1666 B18.3293 
N492 X135.009 Y-23.397 Z16.430 A128.1525 B18.3276 
N493 X134.985 Y-23.553 Z16.630 A128.1384 B18.3259 
N494 X134.961 Y-23.708 Z16.829 A128.1242 B18.3242 
N495 X134.937 Y-23.864 Z17.029 A128.1101 B18.3224 
N496 X134.913 Y-24.020 Z17.228 A128.0960 B18.3206 
N497 X134.888 Y-24.176 Z17.428 A128.0818 B18.3188 
N498 X134.863 Y-24.332 Z17.627 A128.0677 B18.3170 
N499 X134.838 Y-24.488 Z17.827 A128.0535 B18.3152 
N500 X134.812 Y-24.643 Z18.026 A128.0394 B18.3133 
N501 X134.787 Y-24.799 Z18.225 A128.0252 B18.3114 
N502 X134.752 Y-25.014 Z18.500 
N503 X133.746 Y-31.139 Z26.340 
N504 G00 X145.780 Y-70.124 Z-2.563 
RAPORT("T44444","Slot Finishing:158 End")
N506 ;trailer : concat=None
; points cnt = 447
N507 MSG (" --- GROUPED OF SUBPROGRAM --- ")
N508 FGROUP()
N509 TRAFOOF
N10 ; PROGRAM NAME: 4444451
N11 ; ORDER       : 44444
N12 ; OPER. NAME  : Slot Finishing:159
N13 ; OPER. DESCR.: finishing root chamfer FSFSA
N14 ; OPER. TYPE  : slotMillFinish
N15 ; GEO. OPTION : 3
N16 ; MACHINE     : SH_HX151_24_SIM840D
N17 ;             : STARRAG_HECKERT_5axis_finish_milling_machine
N18 ; CONTROL     : SINUMERIK 840D
N19 ; created:   2022-11-03 13:39:03.162638
;-------DODATKOWE DANE-------------------
; PROGRAMISTA : Mariusz Malec
; PARTID      : 139T004654P1015_-
;  ap         : 100.0
;  ae         : 2.0
;  lean_angle : 0.0
;  rad_Offset : 2.0
;  fin_Offset : -0.5
;----------------------------------------
N20 ;----------------------------------------
RAPORT("T44444","Slot Finishing:159")
N21 TRAFOOF
N22 D0
N23 G0 G90 G94 Z260.0
N24 STOPRE
N25 M9 ; chlodziwo wyl
N26 ; --- Slot Finishing:159 - finishing root chamfer FSFSA ---
N28 ;ToolChange : concat=None ,current_tdmid=None, PP.tdmId=956976
N29 TRAFOOF
N30 D0
N31 G0 G54 Z270.0
N32 S6366 M03
N33 STOPRE
N34 TOL(0.01,1,1)
N35 G0  A129.9984
N36 TRAORI
N37 G54 D2
N38 D2 
N39 TRANS  X=R21
STOPRE
E_ZDARZ=300008
;ACS_FINISH_ROOT_FRONT_CHAMFER=7756976
STOPRE
N40 ; DELTA A > 40.1
N41 TRAFOOF
N42 STOPRE
N43 G0 G53 D0 Z265.000
N44 G1 G53 A129.9984 F10000
N45 TRAORI
N46 G54 D2
N47 TRANS  X=R21
N48 G00 X147.649 Y-33.398 Z-48.881 A129.9984 B18.3973 
N49 M342 ; chlodziwo woda
N50 X135.561 Y4.565 Z-18.671 
N51 G01 X135.915 Y-1.587 Z-10.795 F763 
N52 X135.923 Y-1.741 Z-10.598 
N53 X135.932 Y-1.895 Z-10.402 
N54 X135.941 Y-2.049 Z-10.205 
N55 X135.950 Y-2.203 Z-10.008 
N56 X135.962 Y-2.418 Z-9.732 
N57 X135.971 Y-2.574 Z-9.532 A129.9846 B18.3979 
N58 X135.980 Y-2.731 Z-9.332 A129.9708 B18.3985 
N59 X135.989 Y-2.887 Z-9.131 A129.9570 B18.3992 
N60 X135.997 Y-3.044 Z-8.931 A129.9432 B18.3998 
N61 X136.005 Y-3.200 Z-8.731 A129.9294 B18.4004 
N62 X136.013 Y-3.357 Z-8.530 A129.9156 B18.4009 
N63 X136.020 Y-3.513 Z-8.330 A129.9018 B18.4015 
N64 X136.027 Y-3.670 Z-8.130 A129.8879 B18.4020 
N65 X136.034 Y-3.826 Z-7.929 A129.8741 B18.4025 
N66 X136.041 Y-3.983 Z-7.729 A129.8603 B18.4030 
N67 X136.048 Y-4.139 Z-7.529 A129.8465 B18.4035 
N68 X136.054 Y-4.296 Z-7.328 A129.8326 B18.4039 
N69 X136.060 Y-4.452 Z-7.128 A129.8188 B18.4044 
N70 X136.066 Y-4.609 Z-6.928 A129.8049 B18.4048 
N71 X136.071 Y-4.765 Z-6.727 A129.7911 B18.4052 
N72 X136.077 Y-4.922 Z-6.527 A129.7773 B18.4056 
N73 X136.082 Y-5.078 Z-6.327 A129.7634 B18.4060 
N74 X136.087 Y-5.235 Z-6.126 A129.7495 B18.4063 
N75 X136.091 Y-5.392 Z-5.926 A129.7357 B18.4066 
N76 X136.095 Y-5.548 Z-5.726 A129.7218 B18.4070 
N77 X136.099 Y-5.705 Z-5.525 A129.7080 B18.4072 
N78 X136.103 Y-5.861 Z-5.325 A129.6941 B18.4075 
N79 X136.107 Y-6.018 Z-5.124 A129.6802 B18.4078 
N80 X136.110 Y-6.174 Z-4.924 A129.6664 B18.4080 
N81 X136.113 Y-6.331 Z-4.724 A129.6525 B18.4082 
N82 X136.116 Y-6.487 Z-4.523 A129.6386 B18.4085 
N83 X136.119 Y-6.644 Z-4.323 A129.6247 B18.4086 
N84 X136.121 Y-6.801 Z-4.123 A129.6108 B18.4088 
N85 X136.123 Y-6.957 Z-3.922 A129.5969 B18.4090 
N86 X136.125 Y-7.114 Z-3.722 A129.5830 B18.4091 
N87 X136.126 Y-7.270 Z-3.521 A129.5692 B18.4092 
N88 X136.128 Y-7.427 Z-3.321 A129.5553 B18.4093 
N89 X136.129 Y-7.583 Z-3.121 A129.5414 B18.4094 
N90 X136.130 Y-7.740 Z-2.920 A129.5275 B18.4094 
N91 X136.130 Y-7.896 Z-2.720 A129.5135 B18.4095 
N92 X136.130 Y-8.053 Z-2.519 A129.4996 B18.4095 
N93 X136.131 Y-8.210 Z-2.319 A129.4857 B18.4095 
N94 X136.130 Y-8.366 Z-2.119 A129.4718 B18.4095 
N95 X136.130 Y-8.523 Z-1.918 A129.4579 B18.4095 
N96 X136.129 Y-8.679 Z-1.718 A129.4440 B18.4094 
N97 X136.128 Y-8.836 Z-1.517 A129.4300 B18.4094 
N98 X136.127 Y-8.992 Z-1.317 A129.4161 B18.4093 
N99 X136.126 Y-9.149 Z-1.117 A129.4022 B18.4092 
N100 X136.124 Y-9.306 Z-0.916 A129.3882 B18.4090 
N101 X136.122 Y-9.462 Z-0.716 A129.3743 B18.4089 
N102 X136.120 Y-9.619 Z-0.515 A129.3604 B18.4087 
N103 X136.118 Y-9.775 Z-0.315 A129.3464 B18.4086 
N104 X136.115 Y-9.932 Z-0.115 A129.3325 B18.4084 
N105 X136.112 Y-10.088 Z0.086 A129.3185 B18.4082 
N106 X136.109 Y-10.245 Z0.286 A129.3046 B18.4079 
N107 X136.106 Y-10.401 Z0.487 A129.2906 B18.4077 
N108 X136.102 Y-10.558 Z0.687 A129.2767 B18.4074 
N109 X136.098 Y-10.715 Z0.887 A129.2627 B18.4071 
N110 X136.094 Y-10.871 Z1.088 A129.2487 B18.4068 
N111 X136.090 Y-11.028 Z1.288 A129.2348 B18.4065 
N112 X136.085 Y-11.184 Z1.488 A129.2208 B18.4062 
N113 X136.080 Y-11.341 Z1.689 A129.2068 B18.4058 
N114 X136.075 Y-11.497 Z1.889 A129.1929 B18.4055 
N115 X136.070 Y-11.654 Z2.089 A129.1789 B18.4051 
N116 X136.064 Y-11.810 Z2.290 A129.1649 B18.4047 
N117 X136.058 Y-11.967 Z2.490 A129.1509 B18.4042 
N118 X136.052 Y-12.123 Z2.691 A129.1369 B18.4038 
N119 X136.046 Y-12.280 Z2.891 A129.1230 B18.4033 
N120 X136.039 Y-12.436 Z3.091 A129.1090 B18.4028 
N121 X136.032 Y-12.593 Z3.292 A129.0950 B18.4023 
N122 X136.025 Y-12.749 Z3.492 A129.0810 B18.4018 
N123 X136.018 Y-12.906 Z3.692 A129.0670 B18.4013 
N124 X136.010 Y-13.062 Z3.892 A129.0530 B18.4007 
N125 X136.002 Y-13.219 Z4.093 A129.0390 B18.4001 
N126 X135.994 Y-13.375 Z4.293 A129.0250 B18.3996 
N127 X135.986 Y-13.532 Z4.493 A129.0110 B18.3989 
N128 X135.977 Y-13.688 Z4.694 A128.9970 B18.3983 
N129 X135.969 Y-13.845 Z4.894 A128.9830 B18.3977 
N130 X135.959 Y-14.001 Z5.094 A128.9689 B18.3970 
N131 X135.950 Y-14.158 Z5.294 A128.9549 B18.3963 
N132 X135.941 Y-14.314 Z5.495 A128.9409 B18.3956 
N133 X135.931 Y-14.471 Z5.695 A128.9269 B18.3949 
N134 X135.921 Y-14.627 Z5.895 A128.9129 B18.3942 
N135 X135.910 Y-14.784 Z6.095 A128.8988 B18.3934 
N136 X135.900 Y-14.940 Z6.296 A128.8848 B18.3927 
N137 X135.889 Y-15.096 Z6.496 A128.8708 B18.3919 
N138 X135.878 Y-15.253 Z6.696 A128.8567 B18.3911 
N139 X135.867 Y-15.409 Z6.896 A128.8427 B18.3902 
N140 X135.855 Y-15.566 Z7.096 A128.8287 B18.3894 
N141 X135.843 Y-15.722 Z7.297 A128.8146 B18.3885 
N142 X135.831 Y-15.879 Z7.497 A128.8006 B18.3876 
N143 X135.819 Y-16.035 Z7.697 A128.7866 B18.3867 
N144 X135.806 Y-16.191 Z7.897 A128.7725 B18.3858 
N145 X135.793 Y-16.348 Z8.097 A128.7585 B18.3849 
N146 X135.780 Y-16.504 Z8.297 A128.7444 B18.3839 
N147 X135.767 Y-16.660 Z8.498 A128.7304 B18.3830 
N148 X135.754 Y-16.817 Z8.698 A128.7163 B18.3820 
N149 X135.740 Y-16.973 Z8.898 A128.7022 B18.3810 
N150 X135.726 Y-17.129 Z9.098 A128.6882 B18.3799 
N151 X135.711 Y-17.286 Z9.298 A128.6741 B18.3789 
N152 X135.697 Y-17.442 Z9.498 A128.6601 B18.3778 
N153 X135.682 Y-17.598 Z9.698 A128.6460 B18.3768 
N154 X135.667 Y-17.755 Z9.898 A128.6319 B18.3757 
N155 X135.652 Y-17.911 Z10.098 A128.6178 B18.3746 
N156 X135.636 Y-18.067 Z10.298 A128.6038 B18.3734 
N157 X135.620 Y-18.223 Z10.498 A128.5897 B18.3723 
N158 X135.604 Y-18.380 Z10.698 A128.5756 B18.3711 
N159 X135.588 Y-18.536 Z10.898 A128.5615 B18.3699 
N160 X135.572 Y-18.692 Z11.098 A128.5475 B18.3687 
N161 X135.555 Y-18.848 Z11.298 A128.5334 B18.3675 
N162 X135.538 Y-19.005 Z11.498 A128.5193 B18.3662 
N163 X135.521 Y-19.161 Z11.698 A128.5052 B18.3650 
N164 X135.503 Y-19.317 Z11.898 A128.4911 B18.3637 
N165 X135.485 Y-19.473 Z12.098 A128.4770 B18.3624 
N166 X135.467 Y-19.629 Z12.298 A128.4629 B18.3611 
N167 X135.449 Y-19.786 Z12.498 A128.4489 B18.3598 
N168 X135.431 Y-19.942 Z12.697 A128.4348 B18.3584 
N169 X135.412 Y-20.098 Z12.897 A128.4207 B18.3570 
N170 X135.393 Y-20.254 Z13.097 A128.4066 B18.3557 
N171 X135.374 Y-20.410 Z13.297 A128.3925 B18.3543 
N172 X135.354 Y-20.566 Z13.497 A128.3784 B18.3528 
N173 X135.334 Y-20.722 Z13.697 A128.3643 B18.3514 
N174 X135.315 Y-20.878 Z13.896 A128.3501 B18.3499 
N175 X135.294 Y-21.035 Z14.096 A128.3360 B18.3485 
N176 X135.274 Y-21.191 Z14.296 A128.3219 B18.3470 
N177 X135.253 Y-21.347 Z14.496 A128.3078 B18.3455 
N178 X135.232 Y-21.503 Z14.695 A128.2937 B18.3439 
N179 X135.211 Y-21.659 Z14.895 A128.2796 B18.3424 
N180 X135.189 Y-21.815 Z15.095 A128.2655 B18.3408 
N181 X135.168 Y-21.971 Z15.294 A128.2514 B18.3392 
N182 X135.146 Y-22.127 Z15.494 A128.2372 B18.3376 
N183 X135.124 Y-22.283 Z15.694 A128.2231 B18.3360 
N184 X135.101 Y-22.439 Z15.893 A128.2090 B18.3344 
N185 X135.078 Y-22.595 Z16.093 A128.1949 B18.3327 
N186 X135.055 Y-22.751 Z16.292 A128.1807 B18.3310 
N187 X135.032 Y-22.906 Z16.492 A128.1666 B18.3293 
N188 X135.009 Y-23.062 Z16.692 A128.1525 B18.3276 
N189 X134.985 Y-23.218 Z16.891 A128.1384 B18.3259 
N190 X134.961 Y-23.374 Z17.091 A128.1242 B18.3242 
N191 X134.937 Y-23.530 Z17.290 A128.1101 B18.3224 
N192 X134.913 Y-23.686 Z17.490 A128.0960 B18.3206 
N193 X134.888 Y-23.842 Z17.689 A128.0818 B18.3188 
N194 X134.863 Y-23.998 Z17.888 A128.0677 B18.3170 
N195 X134.838 Y-24.153 Z18.088 A128.0535 B18.3152 
N196 X134.812 Y-24.309 Z18.287 A128.0394 B18.3133 
N197 X134.787 Y-24.465 Z18.487 A128.0252 B18.3114 
N198 X134.752 Y-24.679 Z18.761 
N199 X133.746 Y-30.805 Z26.601 
N200 G00 X145.780 Y-69.789 Z-2.302 
RAPORT("T44444","Slot Finishing:159 End")
N202 ;trailer : concat=None
; points cnt = 149
N203 M9 ; chlodziwo wyl.
N204 M9 ; chlodziwo wyl.
N205 MSG (" --- KONIEC PROGRAMU --- ")
N206 TRANS
N207 G54
N208 FGROUP()
N209 TRAFOOF
N210 STOPRE
N211 G0 G53 D0 Z290.0 M9 M5
N212 G0 G53 Y150 A0 B0
N213 M17
