N10 ; PROGRAM NAME: 4444441
N11 ; ORDER       : 44444
N12 ; OPER. NAME  : Side Milling:118
N13 ; OPER. DESCR.: Side Milling/HHU zgr
N14 ; OPER. TYPE  : sideMill
N15 ; GEO. OPTION : 3
N16 ; MACHINE     : SH_HX151_24_SIM840D
N17 ;             : STARRAG_HECKERT_5axis_finish_milling_machine
N18 ; CONTROL     : SINUMERIK 840D
N19 ; created:   2022-11-03 13:35:51.213562
;-------DODATKOWE DANE-------------------
; PROGRAMISTA : Mariusz Malec
; PARTID      : 139T004654P1015_-
;  ap         : 16.0
;  ae         : 5.6
;  lean_angle : 0.0
;  fin_offset : 0.2
;----------------------------------------
N20 ;----------------------------------------
RAPORT("T44444","Side Milling:118")
N21 TRAFOOF
N22 D0
N23 G90 G94
N24 STOPRE
N25 M9 ; chlodziwo wyl
N26 ; --- Side Milling:118 - Side Milling/HHU zgr ---
N28 ;ToolChange : concat=None ,current_tdmid=None, PP.tdmId=940728
N29 MSG(" TLID=940728 D=7.0 R=2.4 Ang=0.0 Len=111.0 ")
N30 TRAFOOF
N31 D0
N32 G0 G53 Z290 B0
N33 G0 X200
N34 G0 Y150
N35 T="7740728"
N36 G0 X500
RAPORT("T44444","ToolChangeStart 7740728")
N37 M6
RAPORT("T44444","ToolChangeEnd")
N38 ; (Preloading tool)
N39 T="7740643"
N40 G0 X200
N41 STOPRE
N42 S7730 M03
N43 STOPRE
N44 TOL(0.1,1,1)
N45 G0 X152.428 A308.0000
N46 TRAORI
N47 G54 D1
N48 D1 
STOPRE
E_ZDARZ=500002
;ACS_ROUGH_SLOT=7740728
STOPRE
N49 ; DELTA A > 40.1
N50 TRAFOOF
N51 STOPRE
N52 G0 G53 D0 Z265.000
N53 G1 G53 A308.0000 F10000
N54 TRAORI
N55 G54 D1
N56 TRANS 
N57 G00 X152.428 Y74.745 Z13.842 A308.0000 B0.0000 
N58 M342 ; chlodziwo woda
N59 X152.428 Y35.344 Z-16.941 
N60 G01 X152.465 Y32.609 Z-18.459 F579 
N61 X152.575 Y29.540 Z-19.059 
N62 X152.745 Y26.439 Z-18.683 
N63 X152.959 Y23.608 Z-17.367 
N64 ;NTE
N65 D1 
N66 G01 G41 X153.197 Y21.326 Z-15.241 F579
N67 X153.197 Y21.326 Z-15.241 
N68 X153.212 Y21.203 Z-15.084 
N69 X153.228 Y21.080 Z-14.927 
N70 X153.243 Y20.957 Z-14.769 
N71 X153.258 Y20.835 Z-14.612 
N72 X153.274 Y20.712 Z-14.455 
N73 X153.289 Y20.592 Z-14.302 
N74 X153.304 Y20.473 Z-14.150 
N75 X153.319 Y20.354 Z-13.997 
N76 X153.334 Y20.234 Z-13.844 
N77 X153.349 Y20.115 Z-13.691 
N78 X153.364 Y19.996 Z-13.539 
N79 X153.379 Y19.876 Z-13.386 
N80 X153.394 Y19.757 Z-13.233 
N81 X153.408 Y19.638 Z-13.080 
N82 X153.423 Y19.518 Z-12.927 
N83 X153.438 Y19.399 Z-12.775 
N84 X153.453 Y19.279 Z-12.622 
N85 X153.468 Y19.160 Z-12.469 
N86 X153.483 Y19.041 Z-12.316 
N87 X153.498 Y18.921 Z-12.164 
N88 X153.513 Y18.802 Z-12.011 
N89 X153.528 Y18.683 Z-11.858 
N90 X153.543 Y18.563 Z-11.705 
N91 X153.558 Y18.445 Z-11.554 
N92 X153.573 Y18.327 Z-11.403 
N93 X153.587 Y18.209 Z-11.252 
N94 X153.602 Y18.091 Z-11.101 
N95 X153.617 Y17.973 Z-10.950 
N96 X153.632 Y17.855 Z-10.798 
N97 X153.647 Y17.737 Z-10.647 
N98 X153.661 Y17.619 Z-10.496 
N99 X153.676 Y17.500 Z-10.345 
N100 X153.691 Y17.382 Z-10.194 
N101 X153.706 Y17.264 Z-10.043 
N102 X153.721 Y17.146 Z-9.891 
N103 X153.735 Y17.028 Z-9.740 
N104 X153.750 Y16.910 Z-9.589 
N105 X153.765 Y16.792 Z-9.438 
N106 X153.780 Y16.674 Z-9.287 
N107 X153.795 Y16.556 Z-9.136 
N108 X153.809 Y16.438 Z-8.985 
N109 X153.824 Y16.320 Z-8.833 
N110 X153.839 Y16.201 Z-8.682 
N111 X153.854 Y16.083 Z-8.531 
N112 X153.869 Y15.965 Z-8.380 
N113 X153.883 Y15.847 Z-8.229 
N114 X153.898 Y15.729 Z-8.078 
N115 X153.912 Y15.611 Z-7.926 
N116 X153.923 Y15.493 Z-7.775 
N117 X153.934 Y15.374 Z-7.624 
N118 X153.945 Y15.256 Z-7.472 
N119 X153.956 Y15.138 Z-7.321 
N120 X153.968 Y15.020 Z-7.170 
N121 X153.979 Y14.901 Z-7.018 
N122 X153.990 Y14.783 Z-6.867 
N123 X154.001 Y14.665 Z-6.716 
N124 X154.012 Y14.547 Z-6.564 
N125 X154.023 Y14.428 Z-6.413 
N126 X154.035 Y14.310 Z-6.262 
N127 X154.046 Y14.192 Z-6.110 
N128 X154.057 Y14.074 Z-5.959 
N129 X154.068 Y13.955 Z-5.808 
N130 X154.079 Y13.837 Z-5.656 
N131 X154.090 Y13.719 Z-5.505 
N132 X154.102 Y13.601 Z-5.353 
N133 X154.113 Y13.482 Z-5.202 
N134 X154.124 Y13.364 Z-5.051 
N135 X154.135 Y13.246 Z-4.899 
N136 X154.146 Y13.128 Z-4.748 
N137 X154.157 Y13.009 Z-4.597 
N138 X154.169 Y12.891 Z-4.445 
N139 X154.180 Y12.773 Z-4.294 
N140 X154.191 Y12.655 Z-4.143 
N141 X154.202 Y12.537 Z-3.991 
N142 X154.213 Y12.418 Z-3.840 
N143 X154.225 Y12.300 Z-3.689 
N144 X154.236 Y12.182 Z-3.537 
N145 X154.246 Y12.064 Z-3.386 
N146 X154.254 Y11.945 Z-3.234 
N147 X154.262 Y11.827 Z-3.083 
N148 X154.270 Y11.708 Z-2.932 
N149 X154.278 Y11.590 Z-2.780 
N150 X154.286 Y11.472 Z-2.629 
N151 X154.294 Y11.353 Z-2.477 
N152 X154.302 Y11.235 Z-2.326 
N153 X154.310 Y11.117 Z-2.174 
N154 X154.318 Y10.998 Z-2.023 
N155 X154.326 Y10.880 Z-1.871 
N156 X154.334 Y10.762 Z-1.720 
N157 X154.342 Y10.643 Z-1.568 
N158 X154.350 Y10.525 Z-1.417 
N159 X154.358 Y10.407 Z-1.265 
N160 X154.366 Y10.288 Z-1.114 
N161 X154.373 Y10.170 Z-0.962 
N162 X154.381 Y10.052 Z-0.811 
N163 X154.389 Y9.933 Z-0.659 
N164 X154.396 Y9.815 Z-0.508 
N165 X154.401 Y9.697 Z-0.356 
N166 X154.406 Y9.578 Z-0.205 
N167 X154.412 Y9.460 Z-0.053 
N168 X154.417 Y9.341 Z0.098 
N169 X154.422 Y9.223 Z0.250 
N170 X154.427 Y9.105 Z0.401 
N171 X154.433 Y8.986 Z0.553 
N172 X154.438 Y8.868 Z0.704 
N173 X154.443 Y8.749 Z0.856 
N174 X154.448 Y8.631 Z1.008 
N175 X154.454 Y8.513 Z1.159 
N176 X154.459 Y8.394 Z1.311 
N177 X154.464 Y8.276 Z1.462 
N178 X154.469 Y8.157 Z1.614 
N179 X154.474 Y8.039 Z1.765 
N180 X154.480 Y7.921 Z1.917 
N181 X154.485 Y7.802 Z2.068 
N182 X154.490 Y7.684 Z2.220 
N183 X154.495 Y7.565 Z2.372 
N184 X154.501 Y7.447 Z2.523 
N185 X154.506 Y7.329 Z2.675 
N186 X154.510 Y7.210 Z2.826 
N187 X154.512 Y7.092 Z2.978 
N188 X154.514 Y6.973 Z3.129 
N189 X154.516 Y6.855 Z3.281 
N190 X154.518 Y6.736 Z3.433 
N191 X154.520 Y6.618 Z3.584 
N192 X154.522 Y6.499 Z3.736 
N193 X154.524 Y6.381 Z3.887 
N194 X154.526 Y6.263 Z4.039 
N195 X154.528 Y6.144 Z4.191 
N196 X154.530 Y6.026 Z4.342 
N197 X154.532 Y5.907 Z4.494 
N198 X154.534 Y5.789 Z4.645 
N199 X154.537 Y5.670 Z4.797 
N200 X154.539 Y5.552 Z4.948 
N201 X154.541 Y5.434 Z5.100 
N202 X154.543 Y5.315 Z5.252 
N203 X154.545 Y5.197 Z5.403 
N204 X154.547 Y5.078 Z5.555 
N205 X154.549 Y4.960 Z5.706 
N206 X154.551 Y4.841 Z5.858 
N207 X154.553 Y4.723 Z6.010 
N208 X154.555 Y4.604 Z6.161 
N209 X154.557 Y4.486 Z6.313 
N210 X154.559 Y4.368 Z6.464 
N211 X154.561 Y4.249 Z6.616 
N212 X154.562 Y4.131 Z6.768 
N213 X154.560 Y4.012 Z6.919 
N214 X154.559 Y3.894 Z7.071 
N215 X154.557 Y3.775 Z7.222 
N216 X154.556 Y3.657 Z7.374 
N217 X154.555 Y3.538 Z7.526 
N218 X154.553 Y3.420 Z7.677 
N219 X154.552 Y3.302 Z7.829 
N220 X154.550 Y3.183 Z7.980 
N221 X154.549 Y3.065 Z8.132 
N222 X154.548 Y2.946 Z8.284 
N223 X154.546 Y2.828 Z8.435 
N224 X154.545 Y2.709 Z8.587 
N225 X154.543 Y2.591 Z8.738 
N226 X154.542 Y2.472 Z8.890 
N227 X154.540 Y2.354 Z9.042 
N228 X154.539 Y2.236 Z9.193 
N229 X154.538 Y2.117 Z9.345 
N230 X154.536 Y1.999 Z9.496 
N231 X154.535 Y1.880 Z9.648 
N232 X154.533 Y1.762 Z9.800 
N233 X154.532 Y1.643 Z9.951 
N234 X154.530 Y1.525 Z10.103 
N235 X154.529 Y1.407 Z10.254 
N236 X154.528 Y1.288 Z10.406 
N237 X154.526 Y1.170 Z10.558 
N238 X154.525 Y1.051 Z10.709 
N239 X154.523 Y0.931 Z10.862 
N240 X154.522 Y0.812 Z11.016 
N241 X154.520 Y0.692 Z11.169 
N242 X154.519 Y0.572 Z11.322 
N243 X154.518 Y0.453 Z11.475 
N244 X154.516 Y0.333 Z11.629 
N245 X154.515 Y0.213 Z11.782 
N246 X154.513 Y0.094 Z11.935 
N247 X154.512 Y-0.026 Z12.088 
N248 X154.510 Y-0.146 Z12.241 
N249 X154.509 Y-0.266 Z12.395 
N250 X154.508 Y-0.385 Z12.548 
N251 X154.506 Y-0.505 Z12.701 
N252 X154.505 Y-0.625 Z12.854 
N253 X154.503 Y-0.744 Z13.008 
N254 X154.502 Y-0.864 Z13.161 
N255 X154.500 Y-0.984 Z13.314 
N256 X154.499 Y-1.104 Z13.467 
N257 G40 X154.496 Y-1.236 Z13.636 F707
N258 X154.496 Y-1.236 Z13.636 
N259 X154.491 Y-1.423 Z13.875 F1093 
N260 X154.484 Y-1.719 Z14.254 F1737 
N261 X154.474 Y-2.161 Z14.820 F2380 
N262 X154.467 Y-2.712 Z15.526 F2766 
N263 X154.467 Y-3.318 Z16.302 F2894 
N264 X154.480 Y-3.911 Z17.061 
N265 X154.509 Y-4.504 Z17.820 
N266 X154.563 Y-5.097 Z18.578 
N267 X154.646 Y-5.688 Z19.335 
N268 X154.769 Y-6.276 Z20.088 
N269 X154.952 Y-6.858 Z20.833 
N270 X155.379 Y-7.284 Z21.378 
N271 X155.560 Y-6.708 Z20.640 
N272 X155.621 Y-6.106 Z19.870 
N273 X155.654 Y-5.513 Z19.111 F2766 
N274 X155.673 Y-4.964 Z18.408 F2380 
N275 X155.685 Y-4.507 Z17.823 F1737 
N276 X155.692 Y-4.201 Z17.431 F1093 
N277 X155.695 Y-4.017 Z17.197 F707 
N278 ;NNTE
N279 D2 
N280 G01 G41 X155.698 Y-3.900 Z17.047 F579
N281 X155.698 Y-3.900 Z17.047 F579 
N282 X155.702 Y-3.777 Z16.889 
N283 X155.707 Y-3.654 Z16.732 
N284 X155.711 Y-3.531 Z16.574 
N285 X155.715 Y-3.408 Z16.416 
N286 X155.720 Y-3.285 Z16.259 
N287 X155.724 Y-3.165 Z16.106 
N288 X155.728 Y-3.045 Z15.952 
N289 X155.732 Y-2.926 Z15.799 
N290 X155.736 Y-2.806 Z15.646 
N291 X155.740 Y-2.686 Z15.493 
N292 X155.744 Y-2.567 Z15.340 
N293 X155.749 Y-2.447 Z15.186 
N294 X155.753 Y-2.327 Z15.033 
N295 X155.757 Y-2.207 Z14.880 
N296 X155.761 Y-2.088 Z14.727 
N297 X155.765 Y-1.968 Z14.574 
N298 X155.769 Y-1.848 Z14.421 
N299 X155.774 Y-1.729 Z14.267 
N300 X155.778 Y-1.609 Z14.114 
N301 X155.782 Y-1.489 Z13.961 
N302 X155.786 Y-1.370 Z13.808 
N303 X155.790 Y-1.250 Z13.655 
N304 X155.794 Y-1.130 Z13.501 
N305 X155.799 Y-1.011 Z13.349 
N306 X155.803 Y-0.892 Z13.197 
N307 X155.807 Y-0.773 Z13.044 
N308 X155.811 Y-0.654 Z12.892 
N309 X155.815 Y-0.535 Z12.739 
N310 X155.819 Y-0.416 Z12.587 
N311 X155.823 Y-0.297 Z12.434 
N312 X155.828 Y-0.178 Z12.282 
N313 X155.832 Y-0.058 Z12.129 
N314 X155.836 Y0.061 Z11.977 
N315 X155.840 Y0.180 Z11.825 
N316 X155.844 Y0.299 Z11.672 
N317 X155.848 Y0.418 Z11.520 
N318 X155.852 Y0.537 Z11.367 
N319 X155.857 Y0.656 Z11.215 
N320 X155.861 Y0.775 Z11.062 
N321 X155.865 Y0.894 Z10.910 
N322 X155.869 Y1.013 Z10.757 
N323 X155.873 Y1.133 Z10.605 
N324 X155.877 Y1.252 Z10.453 
N325 X155.881 Y1.371 Z10.300 
N326 X155.886 Y1.490 Z10.148 
N327 X155.887 Y1.609 Z9.995 
N328 X155.888 Y1.728 Z9.843 
N329 X155.889 Y1.847 Z9.690 
N330 X155.889 Y1.966 Z9.538 
N331 X155.890 Y2.085 Z9.385 
N332 X155.891 Y2.205 Z9.233 
N333 X155.892 Y2.324 Z9.080 
N334 X155.893 Y2.443 Z8.928 
N335 X155.894 Y2.562 Z8.775 
N336 X155.895 Y2.681 Z8.623 
N337 X155.895 Y2.800 Z8.471 
N338 X155.896 Y2.919 Z8.318 
N339 X155.897 Y3.038 Z8.166 
N340 X155.898 Y3.158 Z8.013 
N341 X155.899 Y3.277 Z7.861 
N342 X155.900 Y3.396 Z7.708 
N343 X155.900 Y3.515 Z7.556 
N344 X155.901 Y3.634 Z7.403 
N345 X155.902 Y3.753 Z7.251 
N346 X155.903 Y3.872 Z7.098 
N347 X155.904 Y3.991 Z6.946 
N348 X155.905 Y4.111 Z6.793 
N349 X155.906 Y4.230 Z6.641 
N350 X155.906 Y4.349 Z6.488 
N351 X155.907 Y4.468 Z6.336 
N352 X155.908 Y4.587 Z6.183 
N353 X155.909 Y4.706 Z6.031 
N354 X155.908 Y4.825 Z5.878 
N355 X155.905 Y4.944 Z5.726 
N356 X155.902 Y5.064 Z5.574 
N357 X155.900 Y5.183 Z5.421 
N358 X155.897 Y5.302 Z5.269 
N359 X155.894 Y5.421 Z5.116 
N360 X155.892 Y5.540 Z4.964 
N361 X155.889 Y5.659 Z4.811 
N362 X155.887 Y5.778 Z4.659 
N363 X155.884 Y5.897 Z4.506 
N364 X155.881 Y6.016 Z4.354 
N365 X155.879 Y6.136 Z4.201 
N366 X155.876 Y6.255 Z4.049 
N367 X155.873 Y6.374 Z3.897 
N368 X155.871 Y6.493 Z3.744 
N369 X155.868 Y6.612 Z3.592 
N370 X155.865 Y6.731 Z3.439 
N371 X155.863 Y6.850 Z3.287 
N372 X155.860 Y6.969 Z3.134 
N373 X155.858 Y7.089 Z2.982 
N374 X155.855 Y7.208 Z2.829 
N375 X155.852 Y7.327 Z2.677 
N376 X155.850 Y7.446 Z2.524 
N377 X155.847 Y7.565 Z2.372 
N378 X155.844 Y7.684 Z2.219 
N379 X155.840 Y7.803 Z2.067 
N380 X155.834 Y7.922 Z1.915 
N381 X155.829 Y8.041 Z1.762 
N382 X155.823 Y8.160 Z1.610 
N383 X155.817 Y8.280 Z1.457 
N384 X155.812 Y8.399 Z1.305 
N385 X155.806 Y8.518 Z1.153 
N386 X155.801 Y8.637 Z1.000 
N387 X155.795 Y8.756 Z0.848 
N388 X155.789 Y8.875 Z0.695 
N389 X155.784 Y8.994 Z0.543 
N390 X155.778 Y9.113 Z0.390 
N391 X155.773 Y9.232 Z0.238 
N392 X155.767 Y9.351 Z0.086 
N393 X155.761 Y9.470 Z-0.067 
N394 X155.756 Y9.589 Z-0.219 
N395 X155.750 Y9.708 Z-0.372 
N396 X155.745 Y9.827 Z-0.524 
N397 X155.739 Y9.947 Z-0.676 
N398 X155.733 Y10.066 Z-0.829 
N399 X155.724 Y10.185 Z-0.981 
N400 X155.715 Y10.304 Z-1.133 
N401 X155.706 Y10.423 Z-1.286 
N402 X155.697 Y10.542 Z-1.438 
N403 X155.688 Y10.661 Z-1.590 
N404 X155.680 Y10.780 Z-1.743 
N405 X155.671 Y10.899 Z-1.895 
N406 X155.662 Y11.018 Z-2.047 
N407 X155.653 Y11.137 Z-2.200 
N408 X155.644 Y11.256 Z-2.352 
N409 X155.635 Y11.375 Z-2.504 
N410 X155.626 Y11.494 Z-2.657 
N411 X155.618 Y11.613 Z-2.809 
N412 X155.609 Y11.732 Z-2.961 
N413 X155.600 Y11.851 Z-3.113 
N414 X155.591 Y11.970 Z-3.266 
N415 X155.582 Y12.089 Z-3.418 
N416 X155.573 Y12.208 Z-3.570 
N417 X155.565 Y12.327 Z-3.723 
N418 X155.556 Y12.446 Z-3.875 
N419 X155.547 Y12.565 Z-4.027 
N420 X155.538 Y12.684 Z-4.180 
N421 X155.529 Y12.803 Z-4.332 
N422 X155.520 Y12.922 Z-4.484 
N423 X155.511 Y13.041 Z-4.637 
N424 X155.503 Y13.160 Z-4.789 
N425 X155.494 Y13.279 Z-4.941 
N426 X155.485 Y13.398 Z-5.094 
N427 X155.476 Y13.517 Z-5.246 
N428 X155.464 Y13.636 Z-5.398 
N429 X155.452 Y13.754 Z-5.550 
N430 X155.440 Y13.873 Z-5.702 
N431 X155.427 Y13.992 Z-5.855 
N432 X155.415 Y14.111 Z-6.007 
N433 X155.403 Y14.230 Z-6.159 
N434 X155.390 Y14.349 Z-6.311 
N435 X155.378 Y14.468 Z-6.463 
N436 X155.366 Y14.587 Z-6.615 
N437 X155.353 Y14.706 Z-6.768 
N438 X155.341 Y14.824 Z-6.920 
N439 X155.329 Y14.943 Z-7.072 
N440 X155.316 Y15.062 Z-7.224 
N441 X155.304 Y15.181 Z-7.376 
N442 X155.292 Y15.300 Z-7.528 
N443 X155.279 Y15.419 Z-7.681 
N444 X155.267 Y15.538 Z-7.833 
N445 X155.255 Y15.657 Z-7.985 
N446 X155.242 Y15.775 Z-8.137 
N447 X155.230 Y15.894 Z-8.289 
N448 X155.218 Y16.013 Z-8.441 
N449 X155.205 Y16.132 Z-8.594 
N450 X155.193 Y16.251 Z-8.746 
N451 X155.181 Y16.371 Z-8.899 
N452 X155.168 Y16.490 Z-9.052 
N453 X155.156 Y16.609 Z-9.204 
N454 X155.143 Y16.729 Z-9.357 
N455 X155.131 Y16.848 Z-9.510 
N456 X155.119 Y16.968 Z-9.663 
N457 X155.106 Y17.087 Z-9.816 
N458 X155.094 Y17.207 Z-9.969 
N459 X155.081 Y17.326 Z-10.122 
N460 X155.069 Y17.446 Z-10.275 
N461 X155.057 Y17.565 Z-10.428 
N462 X155.044 Y17.685 Z-10.581 
N463 X155.032 Y17.804 Z-10.734 
N464 X155.019 Y17.924 Z-10.887 
N465 X155.007 Y18.043 Z-11.039 
N466 X154.995 Y18.163 Z-11.192 
N467 X154.982 Y18.282 Z-11.345 
N468 X154.970 Y18.401 Z-11.498 
N469 G40 X154.333 Y24.546 Z-19.362 F579
N470 X154.333 Y24.546 Z-19.362 
N471 G00 X154.333 Y63.946 Z11.421 
RAPORT("T44444","Side Milling:118 End")
N473 ;trailer : concat=None
; points cnt = 403
N474 MSG (" --- GROUPED OF SUBPROGRAM --- ")
N475 FGROUP()
N476 TRAFOOF
N10 ; PROGRAM NAME: 4444441
N11 ; ORDER       : 44444
N12 ; OPER. NAME  : Side Milling:119
N13 ; OPER. DESCR.: HHU rough milling NGA
N14 ; OPER. TYPE  : sideMill
N15 ; GEO. OPTION : 3
N16 ; MACHINE     : SH_HX151_24_SIM840D
N17 ;             : STARRAG_HECKERT_5axis_finish_milling_machine
N18 ; CONTROL     : SINUMERIK 840D
N19 ; created:   2022-11-03 13:35:54.475680
;-------DODATKOWE DANE-------------------
; PROGRAMISTA : Mariusz Malec
; PARTID      : 139T004654P1015_-
;  ap         : 16.0
;  ae         : 5.6
;  lean_angle : 0.0
;  fin_offset : 0.2
;----------------------------------------
N20 ;----------------------------------------
RAPORT("T44444","Side Milling:119")
N21 TRAFOOF
N22 D0
N23 G0 G90 G94 Z260.0
N24 STOPRE
N25 M9 ; chlodziwo wyl
N26 ; --- Side Milling:119 - HHU rough milling NGA ---
N28 ;ToolChange : concat=None ,current_tdmid=None, PP.tdmId=940728
N29 TRAFOOF
N30 D0
N31 G0 G54 Z270.0
N32 S7730 M03
N33 STOPRE
N34 TOL(0.1,1,1)
N35 G0  A128.0000
N36 TRAORI
N37 G54 D3
N38 D3 
STOPRE
E_ZDARZ=500002
;ACS_ROUGH_SLOT=7740728
STOPRE
N39 ; DELTA A > 40.1
N40 TRAFOOF
N41 STOPRE
N42 G0 G53 D0 Z265.000
N43 G1 G53 A128.0000 F10000
N44 TRAORI
N45 G54 D3
N46 TRANS 
N47 G00 X152.344 Y-77.754 Z-7.321 A128.0000 B0.0000 
N48 M342 ; chlodziwo woda
N49 X152.344 Y-38.353 Z23.462 
N50 G01 X152.382 Y-35.618 Z24.980 F579 
N51 X152.495 Y-32.550 Z25.580 
N52 X152.669 Y-29.448 Z25.204 
N53 X152.890 Y-26.618 Z23.889 
N54 ;NTA
N55 D3 
N56 G01 G41 X153.134 Y-24.336 Z21.763 F579
N57 X153.134 Y-24.336 Z21.763 
N58 X153.150 Y-24.213 Z21.606 
N59 X153.166 Y-24.091 Z21.449 
N60 X153.181 Y-23.968 Z21.292 
N61 X153.197 Y-23.845 Z21.135 
N62 X153.213 Y-23.722 Z20.977 
N63 X153.228 Y-23.603 Z20.825 
N64 X153.244 Y-23.484 Z20.672 
N65 X153.259 Y-23.364 Z20.519 
N66 X153.274 Y-23.245 Z20.366 
N67 X153.290 Y-23.126 Z20.214 
N68 X153.305 Y-23.006 Z20.061 
N69 X153.321 Y-22.887 Z19.908 
N70 X153.336 Y-22.768 Z19.755 
N71 X153.351 Y-22.648 Z19.603 
N72 X153.367 Y-22.529 Z19.450 
N73 X153.382 Y-22.410 Z19.297 
N74 X153.397 Y-22.290 Z19.144 
N75 X153.413 Y-22.171 Z18.992 
N76 X153.428 Y-22.052 Z18.839 
N77 X153.443 Y-21.932 Z18.686 
N78 X153.459 Y-21.813 Z18.533 
N79 X153.474 Y-21.694 Z18.381 
N80 X153.490 Y-21.574 Z18.228 
N81 X153.505 Y-21.456 Z18.077 
N82 X153.520 Y-21.338 Z17.926 
N83 X153.535 Y-21.220 Z17.775 
N84 X153.550 Y-21.102 Z17.624 
N85 X153.566 Y-20.984 Z17.473 
N86 X153.581 Y-20.866 Z17.321 
N87 X153.596 Y-20.748 Z17.170 
N88 X153.611 Y-20.630 Z17.019 
N89 X153.626 Y-20.512 Z16.868 
N90 X153.642 Y-20.394 Z16.717 
N91 X153.657 Y-20.276 Z16.566 
N92 X153.672 Y-20.158 Z16.415 
N93 X153.687 Y-20.040 Z16.264 
N94 X153.702 Y-19.921 Z16.113 
N95 X153.718 Y-19.803 Z15.961 
N96 X153.733 Y-19.685 Z15.810 
N97 X153.748 Y-19.567 Z15.659 
N98 X153.763 Y-19.449 Z15.508 
N99 X153.778 Y-19.331 Z15.357 
N100 X153.794 Y-19.213 Z15.206 
N101 X153.809 Y-19.095 Z15.055 
N102 X153.824 Y-18.977 Z14.904 
N103 X153.839 Y-18.859 Z14.753 
N104 X153.854 Y-18.741 Z14.602 
N105 X153.869 Y-18.623 Z14.450 
N106 X153.881 Y-18.505 Z14.299 
N107 X153.893 Y-18.386 Z14.148 
N108 X153.904 Y-18.268 Z13.997 
N109 X153.916 Y-18.150 Z13.845 
N110 X153.927 Y-18.032 Z13.694 
N111 X153.939 Y-17.914 Z13.543 
N112 X153.950 Y-17.795 Z13.391 
N113 X153.962 Y-17.677 Z13.240 
N114 X153.973 Y-17.559 Z13.089 
N115 X153.985 Y-17.441 Z12.937 
N116 X153.996 Y-17.323 Z12.786 
N117 X154.008 Y-17.204 Z12.635 
N118 X154.019 Y-17.086 Z12.484 
N119 X154.031 Y-16.968 Z12.332 
N120 X154.042 Y-16.850 Z12.181 
N121 X154.054 Y-16.732 Z12.030 
N122 X154.066 Y-16.613 Z11.878 
N123 X154.077 Y-16.495 Z11.727 
N124 X154.089 Y-16.377 Z11.576 
N125 X154.100 Y-16.259 Z11.424 
N126 X154.112 Y-16.140 Z11.273 
N127 X154.123 Y-16.022 Z11.122 
N128 X154.135 Y-15.904 Z10.971 
N129 X154.146 Y-15.786 Z10.819 
N130 X154.158 Y-15.668 Z10.668 
N131 X154.169 Y-15.549 Z10.517 
N132 X154.181 Y-15.431 Z10.365 
N133 X154.192 Y-15.313 Z10.214 
N134 X154.204 Y-15.195 Z10.063 
N135 X154.216 Y-15.077 Z9.911 
N136 X154.225 Y-14.958 Z9.760 
N137 X154.234 Y-14.840 Z9.609 
N138 X154.242 Y-14.722 Z9.457 
N139 X154.250 Y-14.603 Z9.306 
N140 X154.258 Y-14.485 Z9.154 
N141 X154.267 Y-14.367 Z9.003 
N142 X154.275 Y-14.248 Z8.851 
N143 X154.283 Y-14.130 Z8.700 
N144 X154.292 Y-14.012 Z8.549 
N145 X154.300 Y-13.893 Z8.397 
N146 X154.308 Y-13.775 Z8.246 
N147 X154.316 Y-13.657 Z8.094 
N148 X154.325 Y-13.539 Z7.943 
N149 X154.333 Y-13.420 Z7.791 
N150 X154.341 Y-13.302 Z7.640 
N151 X154.350 Y-13.184 Z7.489 
N152 X154.358 Y-13.065 Z7.337 
N153 X154.366 Y-12.947 Z7.186 
N154 X154.374 Y-12.829 Z7.034 
N155 X154.380 Y-12.710 Z6.883 
N156 X154.386 Y-12.592 Z6.731 
N157 X154.391 Y-12.474 Z6.580 
N158 X154.397 Y-12.355 Z6.428 
N159 X154.403 Y-12.237 Z6.277 
N160 X154.408 Y-12.118 Z6.125 
N161 X154.414 Y-12.000 Z5.974 
N162 X154.419 Y-11.882 Z5.822 
N163 X154.425 Y-11.763 Z5.671 
N164 X154.431 Y-11.645 Z5.519 
N165 X154.436 Y-11.527 Z5.368 
N166 X154.442 Y-11.408 Z5.216 
N167 X154.447 Y-11.290 Z5.065 
N168 X154.453 Y-11.171 Z4.913 
N169 X154.459 Y-11.053 Z4.762 
N170 X154.464 Y-10.935 Z4.610 
N171 X154.470 Y-10.816 Z4.459 
N172 X154.476 Y-10.698 Z4.307 
N173 X154.481 Y-10.580 Z4.156 
N174 X154.487 Y-10.461 Z4.004 
N175 X154.492 Y-10.343 Z3.853 
N176 X154.498 Y-10.224 Z3.701 
N177 X154.500 Y-10.106 Z3.549 
N178 X154.502 Y-9.988 Z3.398 
N179 X154.505 Y-9.869 Z3.246 
N180 X154.507 Y-9.751 Z3.095 
N181 X154.510 Y-9.632 Z2.943 
N182 X154.512 Y-9.514 Z2.792 
N183 X154.515 Y-9.396 Z2.640 
N184 X154.517 Y-9.277 Z2.489 
N185 X154.520 Y-9.159 Z2.337 
N186 X154.522 Y-9.040 Z2.185 
N187 X154.525 Y-8.922 Z2.034 
N188 X154.527 Y-8.804 Z1.882 
N189 X154.530 Y-8.685 Z1.731 
N190 X154.532 Y-8.567 Z1.579 
N191 X154.535 Y-8.448 Z1.428 
N192 X154.537 Y-8.330 Z1.276 
N193 X154.540 Y-8.211 Z1.124 
N194 X154.542 Y-8.093 Z0.973 
N195 X154.545 Y-7.975 Z0.821 
N196 X154.547 Y-7.856 Z0.670 
N197 X154.550 Y-7.738 Z0.518 
N198 X154.552 Y-7.619 Z0.367 
N199 X154.554 Y-7.501 Z0.215 
N200 X154.557 Y-7.383 Z0.064 
N201 X154.559 Y-7.264 Z-0.088 
N202 X154.560 Y-7.146 Z-0.240 
N203 X154.559 Y-7.027 Z-0.391 
N204 X154.558 Y-6.909 Z-0.543 
N205 X154.557 Y-6.790 Z-0.694 
N206 X154.556 Y-6.672 Z-0.846 
N207 X154.555 Y-6.554 Z-0.997 
N208 X154.554 Y-6.435 Z-1.149 
N209 X154.553 Y-6.317 Z-1.301 
N210 X154.552 Y-6.198 Z-1.452 
N211 X154.551 Y-6.080 Z-1.604 
N212 X154.550 Y-5.962 Z-1.755 
N213 X154.549 Y-5.843 Z-1.907 
N214 X154.548 Y-5.725 Z-2.058 
N215 X154.547 Y-5.606 Z-2.210 
N216 X154.546 Y-5.488 Z-2.362 
N217 X154.545 Y-5.369 Z-2.513 
N218 X154.544 Y-5.251 Z-2.665 
N219 X154.543 Y-5.133 Z-2.816 
N220 X154.542 Y-5.014 Z-2.968 
N221 X154.541 Y-4.896 Z-3.119 
N222 X154.540 Y-4.777 Z-3.271 
N223 X154.539 Y-4.659 Z-3.423 
N224 X154.538 Y-4.540 Z-3.574 
N225 X154.537 Y-4.422 Z-3.726 
N226 X154.536 Y-4.304 Z-3.877 
N227 X154.535 Y-4.185 Z-4.029 
N228 X154.534 Y-4.067 Z-4.180 
N229 X154.533 Y-3.947 Z-4.334 
N230 X154.532 Y-3.827 Z-4.487 
N231 X154.531 Y-3.708 Z-4.640 
N232 X154.530 Y-3.588 Z-4.793 
N233 X154.529 Y-3.468 Z-4.947 
N234 X154.528 Y-3.348 Z-5.100 
N235 X154.527 Y-3.229 Z-5.253 
N236 X154.526 Y-3.109 Z-5.406 
N237 X154.525 Y-2.989 Z-5.559 
N238 X154.524 Y-2.870 Z-5.713 
N239 X154.523 Y-2.750 Z-5.866 
N240 X154.522 Y-2.630 Z-6.019 
N241 X154.522 Y-2.511 Z-6.172 
N242 X154.521 Y-2.391 Z-6.326 
N243 X154.520 Y-2.271 Z-6.479 
N244 X154.519 Y-2.151 Z-6.632 
N245 X154.518 Y-2.032 Z-6.785 
N246 X154.517 Y-1.912 Z-6.938 
N247 G40 X154.514 Y-1.783 Z-7.103 F702
N248 X154.514 Y-1.783 Z-7.103 
N249 X154.509 Y-1.603 Z-7.334 F1071 
N250 X154.503 Y-1.321 Z-7.695 F1686 
N251 X154.494 Y-0.903 Z-8.230 F2301 
N252 X154.487 Y-0.382 Z-8.897 F2670 
N253 X154.486 Y0.190 Z-9.629 F2793 
N254 X154.496 Y0.761 Z-10.359 
N255 X154.519 Y1.331 Z-11.089 
N256 X154.561 Y1.901 Z-11.819 
N257 X154.626 Y2.470 Z-12.547 
N258 X154.720 Y3.038 Z-13.274 
N259 X154.850 Y3.603 Z-13.997 
N260 X155.036 Y4.161 Z-14.712 
N261 X155.452 Y4.464 Z-15.100 
N262 X155.586 Y3.905 Z-14.384 
N263 X155.638 Y3.324 Z-13.641 
N264 X155.665 Y2.762 Z-12.921 F2670 
N265 X155.681 Y2.253 Z-12.269 F2301 
N266 X155.691 Y1.825 Z-11.722 F1686 
N267 X155.696 Y1.526 Z-11.339 F1071 
N268 X155.699 Y1.338 Z-11.098 F702 
N269 ;NNTA
N270 D4 
N271 G01 G41 X155.702 Y1.218 Z-10.944 F579
N272 X155.702 Y1.218 Z-10.944 F579 
N273 X155.706 Y1.095 Z-10.787 
N274 X155.710 Y0.972 Z-10.629 
N275 X155.715 Y0.848 Z-10.472 
N276 X155.719 Y0.725 Z-10.314 
N277 X155.723 Y0.602 Z-10.157 
N278 X155.727 Y0.483 Z-10.003 
N279 X155.731 Y0.363 Z-9.850 
N280 X155.735 Y0.243 Z-9.697 
N281 X155.740 Y0.124 Z-9.544 
N282 X155.744 Y0.004 Z-9.391 
N283 X155.748 Y-0.116 Z-9.237 
N284 X155.752 Y-0.236 Z-9.084 
N285 X155.756 Y-0.355 Z-8.931 
N286 X155.760 Y-0.475 Z-8.778 
N287 X155.764 Y-0.595 Z-8.625 
N288 X155.768 Y-0.714 Z-8.471 
N289 X155.772 Y-0.834 Z-8.318 
N290 X155.776 Y-0.954 Z-8.165 
N291 X155.780 Y-1.073 Z-8.012 
N292 X155.785 Y-1.193 Z-7.859 
N293 X155.789 Y-1.313 Z-7.706 
N294 X155.793 Y-1.432 Z-7.552 
N295 X155.797 Y-1.552 Z-7.399 
N296 X155.801 Y-1.671 Z-7.247 
N297 X155.805 Y-1.790 Z-7.094 
N298 X155.809 Y-1.909 Z-6.942 
N299 X155.813 Y-2.028 Z-6.789 
N300 X155.817 Y-2.148 Z-6.637 
N301 X155.821 Y-2.267 Z-6.485 
N302 X155.825 Y-2.386 Z-6.332 
N303 X155.829 Y-2.505 Z-6.180 
N304 X155.834 Y-2.624 Z-6.027 
N305 X155.838 Y-2.743 Z-5.875 
N306 X155.842 Y-2.862 Z-5.722 
N307 X155.846 Y-2.981 Z-5.570 
N308 X155.850 Y-3.100 Z-5.418 
N309 X155.854 Y-3.219 Z-5.265 
N310 X155.858 Y-3.338 Z-5.113 
N311 X155.862 Y-3.457 Z-4.960 
N312 X155.866 Y-3.577 Z-4.808 
N313 X155.870 Y-3.696 Z-4.655 
N314 X155.874 Y-3.815 Z-4.503 
N315 X155.878 Y-3.934 Z-4.351 
N316 X155.882 Y-4.053 Z-4.198 
N317 X155.887 Y-4.172 Z-4.046 
N318 X155.888 Y-4.291 Z-3.893 
N319 X155.889 Y-4.410 Z-3.741 
N320 X155.890 Y-4.529 Z-3.588 
N321 X155.891 Y-4.648 Z-3.436 
N322 X155.891 Y-4.768 Z-3.284 
N323 X155.892 Y-4.887 Z-3.131 
N324 X155.893 Y-5.006 Z-2.979 
N325 X155.894 Y-5.125 Z-2.826 
N326 X155.894 Y-5.244 Z-2.674 
N327 X155.895 Y-5.363 Z-2.521 
N328 X155.896 Y-5.482 Z-2.369 
N329 X155.897 Y-5.601 Z-2.216 
N330 X155.897 Y-5.720 Z-2.064 
N331 X155.898 Y-5.840 Z-1.911 
N332 X155.899 Y-5.959 Z-1.759 
N333 X155.900 Y-6.078 Z-1.606 
N334 X155.901 Y-6.197 Z-1.454 
N335 X155.901 Y-6.316 Z-1.302 
N336 X155.902 Y-6.435 Z-1.149 
N337 X155.903 Y-6.554 Z-0.997 
N338 X155.904 Y-6.673 Z-0.844 
N339 X155.904 Y-6.792 Z-0.692 
N340 X155.905 Y-6.912 Z-0.539 
N341 X155.906 Y-7.031 Z-0.387 
N342 X155.907 Y-7.150 Z-0.234 
N343 X155.907 Y-7.269 Z-0.082 
N344 X155.908 Y-7.388 Z0.071 
N345 X155.907 Y-7.507 Z0.223 
N346 X155.905 Y-7.626 Z0.375 
N347 X155.902 Y-7.745 Z0.528 
N348 X155.899 Y-7.864 Z0.680 
N349 X155.897 Y-7.984 Z0.833 
N350 X155.894 Y-8.103 Z0.985 
N351 X155.891 Y-8.222 Z1.138 
N352 X155.888 Y-8.341 Z1.290 
N353 X155.886 Y-8.460 Z1.443 
N354 X155.883 Y-8.579 Z1.595 
N355 X155.880 Y-8.698 Z1.747 
N356 X155.878 Y-8.817 Z1.900 
N357 X155.875 Y-8.936 Z2.052 
N358 X155.872 Y-9.055 Z2.205 
N359 X155.870 Y-9.175 Z2.357 
N360 X155.867 Y-9.294 Z2.510 
N361 X155.864 Y-9.413 Z2.662 
N362 X155.861 Y-9.532 Z2.815 
N363 X155.859 Y-9.651 Z2.967 
N364 X155.856 Y-9.770 Z3.119 
N365 X155.853 Y-9.889 Z3.272 
N366 X155.851 Y-10.008 Z3.424 
N367 X155.848 Y-10.127 Z3.577 
N368 X155.845 Y-10.246 Z3.729 
N369 X155.843 Y-10.366 Z3.882 
N370 X155.838 Y-10.485 Z4.034 
N371 X155.832 Y-10.604 Z4.186 
N372 X155.827 Y-10.723 Z4.339 
N373 X155.821 Y-10.842 Z4.491 
N374 X155.815 Y-10.961 Z4.644 
N375 X155.810 Y-11.080 Z4.796 
N376 X155.804 Y-11.199 Z4.948 
N377 X155.798 Y-11.318 Z5.101 
N378 X155.793 Y-11.437 Z5.253 
N379 X155.787 Y-11.556 Z5.406 
N380 X155.781 Y-11.675 Z5.558 
N381 X155.776 Y-11.794 Z5.710 
N382 X155.770 Y-11.913 Z5.863 
N383 X155.764 Y-12.032 Z6.015 
N384 X155.759 Y-12.152 Z6.168 
N385 X155.753 Y-12.271 Z6.320 
N386 X155.747 Y-12.390 Z6.472 
N387 X155.742 Y-12.509 Z6.625 
N388 X155.736 Y-12.628 Z6.777 
N389 X155.730 Y-12.747 Z6.930 
N390 X155.721 Y-12.866 Z7.082 
N391 X155.712 Y-12.985 Z7.234 
N392 X155.703 Y-13.104 Z7.386 
N393 X155.694 Y-13.223 Z7.539 
N394 X155.685 Y-13.342 Z7.691 
N395 X155.676 Y-13.461 Z7.843 
N396 X155.667 Y-13.580 Z7.996 
N397 X155.658 Y-13.699 Z8.148 
N398 X155.650 Y-13.818 Z8.300 
N399 X155.641 Y-13.937 Z8.452 
N400 X155.632 Y-14.056 Z8.605 
N401 X155.623 Y-14.175 Z8.757 
N402 X155.614 Y-14.294 Z8.909 
N403 X155.605 Y-14.413 Z9.062 
N404 X155.596 Y-14.532 Z9.214 
N405 X155.587 Y-14.651 Z9.366 
N406 X155.578 Y-14.770 Z9.519 
N407 X155.569 Y-14.889 Z9.671 
N408 X155.561 Y-15.008 Z9.823 
N409 X155.552 Y-15.127 Z9.975 
N410 X155.543 Y-15.246 Z10.128 
N411 X155.534 Y-15.365 Z10.280 
N412 X155.525 Y-15.484 Z10.432 
N413 X155.516 Y-15.603 Z10.585 
N414 X155.507 Y-15.722 Z10.737 
N415 X155.498 Y-15.841 Z10.889 
N416 X155.489 Y-15.959 Z11.042 
N417 X155.480 Y-16.078 Z11.194 
N418 X155.472 Y-16.197 Z11.346 
N419 X155.460 Y-16.316 Z11.498 
N420 X155.447 Y-16.435 Z11.650 
N421 X155.435 Y-16.554 Z11.803 
N422 X155.422 Y-16.673 Z11.955 
N423 X155.410 Y-16.792 Z12.107 
N424 X155.398 Y-16.911 Z12.259 
N425 X155.385 Y-17.030 Z12.411 
N426 X155.373 Y-17.148 Z12.563 
N427 X155.361 Y-17.267 Z12.715 
N428 X155.348 Y-17.386 Z12.868 
N429 X155.336 Y-17.505 Z13.020 
N430 X155.323 Y-17.624 Z13.172 
N431 X155.311 Y-17.743 Z13.324 
N432 X155.299 Y-17.862 Z13.476 
N433 X155.286 Y-17.981 Z13.628 
N434 X155.274 Y-18.099 Z13.780 
N435 X155.261 Y-18.218 Z13.933 
N436 X155.249 Y-18.337 Z14.085 
N437 X155.237 Y-18.456 Z14.237 
N438 X155.224 Y-18.575 Z14.389 
N439 X155.212 Y-18.694 Z14.541 
N440 X155.200 Y-18.813 Z14.693 
N441 X155.187 Y-18.931 Z14.845 
N442 X155.175 Y-19.051 Z14.998 
N443 X155.162 Y-19.170 Z15.151 
N444 X155.150 Y-19.290 Z15.304 
N445 X155.137 Y-19.409 Z15.457 
N446 X155.125 Y-19.529 Z15.610 
N447 X155.112 Y-19.648 Z15.763 
N448 X155.100 Y-19.768 Z15.916 
N449 X155.088 Y-19.887 Z16.069 
N450 X155.075 Y-20.007 Z16.222 
N451 X155.063 Y-20.126 Z16.375 
N452 X155.050 Y-20.246 Z16.527 
N453 X155.038 Y-20.365 Z16.680 
N454 X155.025 Y-20.485 Z16.833 
N455 X155.013 Y-20.604 Z16.986 
N456 X155.000 Y-20.723 Z17.139 
N457 X154.988 Y-20.843 Z17.292 
N458 X154.976 Y-20.962 Z17.445 
N459 X154.963 Y-21.082 Z17.598 
N460 G40 X154.323 Y-27.226 Z25.462 F579
N461 X154.323 Y-27.226 Z25.462 
N462 G00 X154.323 Y-66.626 Z-5.321 
RAPORT("T44444","Side Milling:119 End")
N464 ;trailer : concat=None
; points cnt = 404
N465 M9 ; chlodziwo wyl.
N466 M9 ; chlodziwo wyl.
N467 MSG (" --- KONIEC PROGRAMU --- ")
N468 TRANS
N469 G54
N470 FGROUP()
N471 TRAFOOF
N472 STOPRE
N473 G0 G53 D0 Z290.0 M9 M5
N474 G0 G53 Y150 A0 B0
N475 M17
