N10 ; PROGRAM NAME: 4444452
N11 ; ORDER       : 44444
N12 ; OPER. NAME  : Side Milling:160
N13 ; OPER. DESCR.: Side Milling/BH wk
N14 ; OPER. TYPE  : sideMill
N15 ; GEO. OPTION : 1
N16 ; MACHINE     : SH_HX151_24_SIM840D
N17 ;             : STARRAG_HECKERT_5axis_finish_milling_machine
N18 ; CONTROL     : SINUMERIK 840D
N19 ; created:   2022-11-03 13:39:07.764189
;-------DODATKOWE DANE-------------------
; PROGRAMISTA : Mariusz Malec
; PARTID      : 139T004654P1015_-
;  ap         : 0.05
;  ae         : 6.0
;  lean_angle : 0.0
;  fin_offset : 0.0
;----------------------------------------
N20 ;----------------------------------------
RAPORT("T44444","Side Milling:160")
N21 TRAFOOF
N22 D0
N23 G90 G94
N24 STOPRE
N25 M9 ; chlodziwo wyl
N26 ; --- Side Milling:160 - Side Milling/BH wk ---
N28 ;ToolChange : concat=None ,current_tdmid=None, PP.tdmId=940732
N29 MSG(" TLID=940732 D=16.0 R=2.0 Ang=0.0 Len=124.0 ")
N30 TRAFOOF
N31 D0
N32 G0 G53 Z290 B0
N33 G0 X200
N34 G0 Y150
N35 T="7740732"
N36 G0 X500
RAPORT("T44444","ToolChangeStart 7740732")
N37 M6
RAPORT("T44444","ToolChangeEnd")
N38 ; (Preloading tool)
N39 T="7757773"
N40 G0 X200
N41 STOPRE
N42 S4973 M03
N43 STOPRE
N44 TOL(0.1,1,1)
N45 G0 X161.610 A308.0000
N46 TRAORI
N47 G54 D1
N48 D1 
STOPRE
E_ZDARZ=300004
;ACS_FINISH_BH_C5=7740732
STOPRE
N49 ; DELTA A > 40.1
N50 TRAFOOF
N51 STOPRE
N52 G0 G53 D0 Z265.000
N53 G1 G53 A308.0000 F10000
N54 TRAORI
N55 G54 D1
N56 TRANS 
N57 G00 X161.610 Y36.730 Z48.611 A308.0000 B0.0000 
N58 M342 ; chlodziwo woda
N59 X161.610 Y-2.670 Z17.828 
N60 ;FSHE - BH od wlotu
N61 G01 G41 X161.602 Y2.255 Z11.523 F994
N62 G01 X161.602 Y2.255 Z11.523 F994 
N63 X161.602 Y2.460 Z11.261 
N64 X161.601 Y2.666 Z10.998 
N65 X161.601 Y2.871 Z10.735 
N66 X161.600 Y3.117 Z10.420 
N67 X161.600 Y3.363 Z10.105 
N68 X161.600 Y3.569 Z9.842 
N69 X161.599 Y3.774 Z9.579 
N70 X161.599 Y3.980 Z9.316 
N71 X161.599 Y4.185 Z9.053 
N72 X161.598 Y4.391 Z8.790 
N73 X161.598 Y4.596 Z8.527 
N74 X161.598 Y4.802 Z8.264 
N75 X161.597 Y5.007 Z8.001 
N76 X161.597 Y5.213 Z7.738 
N77 X161.596 Y5.418 Z7.475 
N78 X161.596 Y5.624 Z7.212 
N79 X161.596 Y5.829 Z6.949 
N80 X161.595 Y6.035 Z6.686 
N81 X161.595 Y6.240 Z6.423 
N82 X161.595 Y6.446 Z6.160 
N83 X161.594 Y6.651 Z5.897 
N84 X161.594 Y6.857 Z5.634 
N85 X161.594 Y7.062 Z5.371 
N86 X161.587 Y7.267 Z5.108 
N87 X161.580 Y7.473 Z4.845 
N88 X161.573 Y7.678 Z4.582 
N89 X161.566 Y7.884 Z4.319 
N90 X161.559 Y8.089 Z4.056 
N91 X161.552 Y8.295 Z3.793 
N92 X161.545 Y8.500 Z3.530 
N93 X161.538 Y8.706 Z3.267 
N94 X161.531 Y8.911 Z3.004 
N95 X161.524 Y9.116 Z2.741 
N96 X161.517 Y9.322 Z2.478 
N97 X161.510 Y9.527 Z2.215 
N98 X161.504 Y9.733 Z1.952 
N99 X161.497 Y9.938 Z1.689 
N100 X161.490 Y10.144 Z1.427 
N101 X161.482 Y10.349 Z1.164 
N102 X161.469 Y10.554 Z0.901 
N103 X161.457 Y10.760 Z0.638 
N104 X161.444 Y10.965 Z0.375 
N105 X161.432 Y11.170 Z0.112 
N106 X161.419 Y11.376 Z-0.151 
N107 X161.407 Y11.581 Z-0.413 
N108 X161.394 Y11.787 Z-0.676 
N109 X161.381 Y11.992 Z-0.939 
N110 X161.369 Y12.197 Z-1.202 
N111 X161.356 Y12.403 Z-1.465 
N112 X161.344 Y12.608 Z-1.728 
N113 X161.331 Y12.813 Z-1.990 
N114 X161.318 Y13.019 Z-2.253 
N115 X161.301 Y13.224 Z-2.516 
N116 X161.284 Y13.429 Z-2.778 
N117 X161.266 Y13.634 Z-3.041 
N118 X161.249 Y13.839 Z-3.304 
N119 X161.232 Y14.045 Z-3.566 
N120 X161.215 Y14.250 Z-3.829 
N121 X161.197 Y14.455 Z-4.092 
N122 X161.180 Y14.660 Z-4.354 
N123 X161.163 Y14.865 Z-4.617 
N124 X161.146 Y15.071 Z-4.880 
N125 X161.128 Y15.276 Z-5.142 
N126 X161.108 Y15.522 Z-5.457 
N127 X161.087 Y15.768 Z-5.772 
N128 G40 X160.674 Y20.686 Z-12.068 F994
N129 X160.674 Y20.686 Z-12.068 
N130 G00 X160.674 Y32.507 Z-2.833 
N131 X161.610 Y9.111 Z27.032 
N132 X161.610 Y-2.710 Z17.797 
N133 ;FSHE - BH od wlotu
N134 G01 G41 X161.602 Y2.216 Z11.493 F994
N135 G01 X161.602 Y2.216 Z11.493 F994 
N136 X161.602 Y2.421 Z11.230 
N137 X161.601 Y2.626 Z10.967 
N138 X161.601 Y2.831 Z10.705 
N139 X161.600 Y3.078 Z10.389 
N140 X161.600 Y3.324 Z10.074 
N141 X161.600 Y3.529 Z9.811 
N142 X161.599 Y3.735 Z9.548 
N143 X161.599 Y3.940 Z9.285 
N144 X161.599 Y4.146 Z9.022 
N145 X161.598 Y4.351 Z8.759 
N146 X161.598 Y4.557 Z8.496 
N147 X161.598 Y4.762 Z8.233 
N148 X161.597 Y4.968 Z7.970 
N149 X161.597 Y5.173 Z7.707 
N150 X161.596 Y5.379 Z7.444 
N151 X161.596 Y5.584 Z7.181 
N152 X161.596 Y5.790 Z6.918 
N153 X161.595 Y5.995 Z6.655 
N154 X161.595 Y6.201 Z6.392 
N155 X161.595 Y6.406 Z6.129 
N156 X161.594 Y6.612 Z5.866 
N157 X161.594 Y6.817 Z5.603 
N158 X161.594 Y7.023 Z5.340 
N159 X161.587 Y7.228 Z5.077 
N160 X161.580 Y7.434 Z4.814 
N161 X161.573 Y7.639 Z4.551 
N162 X161.566 Y7.844 Z4.288 
N163 X161.559 Y8.050 Z4.025 
N164 X161.552 Y8.255 Z3.762 
N165 X161.545 Y8.461 Z3.499 
N166 X161.538 Y8.666 Z3.236 
N167 X161.531 Y8.872 Z2.973 
N168 X161.524 Y9.077 Z2.710 
N169 X161.517 Y9.283 Z2.448 
N170 X161.510 Y9.488 Z2.185 
N171 X161.504 Y9.693 Z1.922 
N172 X161.497 Y9.899 Z1.659 
N173 X161.490 Y10.104 Z1.396 
N174 X161.482 Y10.310 Z1.133 
N175 X161.469 Y10.515 Z0.870 
N176 X161.457 Y10.720 Z0.607 
N177 X161.444 Y10.926 Z0.344 
N178 X161.432 Y11.131 Z0.081 
N179 X161.419 Y11.336 Z-0.181 
N180 X161.407 Y11.542 Z-0.444 
N181 X161.394 Y11.747 Z-0.707 
N182 X161.381 Y11.952 Z-0.970 
N183 X161.369 Y12.158 Z-1.233 
N184 X161.356 Y12.363 Z-1.495 
N185 X161.344 Y12.568 Z-1.758 
N186 X161.331 Y12.774 Z-2.021 
N187 X161.318 Y12.979 Z-2.284 
N188 X161.301 Y13.184 Z-2.547 
N189 X161.284 Y13.390 Z-2.809 
N190 X161.266 Y13.595 Z-3.072 
N191 X161.249 Y13.800 Z-3.335 
N192 X161.232 Y14.005 Z-3.597 
N193 X161.215 Y14.210 Z-3.860 
N194 X161.197 Y14.416 Z-4.123 
N195 X161.180 Y14.621 Z-4.385 
N196 X161.163 Y14.826 Z-4.648 
N197 X161.146 Y15.031 Z-4.911 
N198 X161.128 Y15.236 Z-5.173 
N199 X161.108 Y15.482 Z-5.488 
N200 X161.087 Y15.728 Z-5.803 
N201 G40 X160.674 Y20.647 Z-12.098 F994
N202 X160.674 Y20.647 Z-12.098 
N203 G00 X160.674 Y32.467 Z-2.863 
RAPORT("T44444","Side Milling:160 End")
N205 ;trailer : concat=None
; points cnt = 134
N206 MSG (" --- GROUPED OF SUBPROGRAM --- ")
N207 FGROUP()
N208 TRAFOOF
N10 ; PROGRAM NAME: 4444452
N11 ; ORDER       : 44444
N12 ; OPER. NAME  : Side Milling:161
N13 ; OPER. DESCR.: BH Chamfer Finish milling MFBBE
N14 ; OPER. TYPE  : sideMill
N15 ; GEO. OPTION : 1
N16 ; MACHINE     : SH_HX151_24_SIM840D
N17 ;             : STARRAG_HECKERT_5axis_finish_milling_machine
N18 ; CONTROL     : SINUMERIK 840D
N19 ; created:   2022-11-03 13:39:13.702260
;-------DODATKOWE DANE-------------------
; PROGRAMISTA : Mariusz Malec
; PARTID      : 139T004654P1015_-
;  ap         : 0.05
;  ae         : 6.0
;  lean_angle : 0.0
;  fin_offset : 0.0
;----------------------------------------
N20 ;----------------------------------------
RAPORT("T44444","Side Milling:161")
N21 TRAFOOF
N22 D0
N23 G0 G90 G94 Z260.0
N24 STOPRE
N25 M9 ; chlodziwo wyl
N26 ; --- Side Milling:161 - BH Chamfer Finish milling MFBBE ---
N28 ;ToolChange : concat=None ,current_tdmid=None, PP.tdmId=940732
N29 TRAFOOF
N30 D0
N31 G0 G54 Z270.0
N32 S4973 M03
N33 STOPRE
N34 TOL(0.1,1,1)
N35 G0  A313.3777
N36 TRAORI
N37 G54 D3
N38 D3 
STOPRE
E_ZDARZ=300004
;ACS_FINISH_BH_C5=7740732
STOPRE
N39 ; DELTA A > 40.1
N40 TRAFOOF
N41 STOPRE
N42 G0 G53 D0 Z265.000
N43 G1 G53 A313.3777 F10000
N44 TRAORI
N45 G54 D3
N46 TRANS 
N47 G00 X161.613 Y26.745 Z57.687 A313.3777 B0.0000 
N48 M342 ; chlodziwo woda
N49 X161.613 Y-9.597 Z23.347 
N50 ;MFBBE - faza na BH od wlotu
N51 G01 G41 X161.613 Y-4.103 Z17.532 F994
N52 G01 X161.613 Y-4.103 Z17.532 F994 
N53 X161.613 Y-3.874 Z17.290 
N54 X161.613 Y-3.645 Z17.048 
N55 X161.613 Y-3.416 Z16.805 
N56 X161.613 Y-3.187 Z16.563 
N57 X161.613 Y-2.958 Z16.321 
N58 X161.613 Y-2.729 Z16.079 
N59 X161.613 Y-2.500 Z15.836 
N60 X161.613 Y-2.271 Z15.594 
N61 X161.613 Y-2.042 Z15.352 
N62 X161.613 Y-1.813 Z15.109 
N63 X161.613 Y-1.585 Z14.867 
N64 X161.613 Y-1.356 Z14.625 
N65 X161.613 Y-1.127 Z14.383 
N66 X161.613 Y-0.898 Z14.140 
N67 X161.613 Y-0.669 Z13.898 
N68 X161.613 Y-0.440 Z13.656 
N69 X161.613 Y-0.211 Z13.414 
N70 X161.613 Y0.018 Z13.171 
N71 X161.613 Y0.247 Z12.929 
N72 X161.613 Y0.476 Z12.687 
N73 X161.613 Y0.705 Z12.444 
N74 X161.613 Y0.934 Z12.202 
N75 X161.613 Y1.163 Z11.960 
N76 X161.613 Y1.392 Z11.718 
N77 X161.613 Y1.621 Z11.475 
N78 X161.613 Y1.849 Z11.233 
N79 X161.613 Y2.078 Z10.991 
N80 X161.613 Y2.305 Z10.751 
N81 X161.613 Y2.532 Z10.511 
N82 X161.613 Y2.758 Z10.271 
N83 X161.613 Y2.985 Z10.031 
N84 X161.613 Y3.212 Z9.791 
N85 X161.613 Y3.438 Z9.551 
N86 X161.613 Y3.665 Z9.311 
N87 X161.613 Y3.892 Z9.072 
N88 X161.613 Y4.119 Z8.832 
N89 X161.613 Y4.345 Z8.592 
N90 X161.613 Y4.572 Z8.352 
N91 X161.613 Y4.799 Z8.112 
N92 X161.613 Y5.025 Z7.872 
N93 X161.613 Y5.252 Z7.632 
N94 X161.613 Y5.479 Z7.392 
N95 X161.613 Y5.698 Z7.160 
N96 X161.613 Y5.918 Z6.927 
N97 X161.613 Y6.138 Z6.695 
N98 X161.613 Y6.358 Z6.462 
N99 X161.613 Y6.577 Z6.229 
N100 G40 X161.613 Y7.264 Z5.503 F994
N101 X161.613 Y7.264 Z5.503 
N102 G00 X161.613 Y18.167 Z15.805 
RAPORT("T44444","Side Milling:161 End")
N104 ;trailer : concat=None
; points cnt = 49
N105 MSG (" --- GROUPED OF SUBPROGRAM --- ")
N106 FGROUP()
N107 TRAFOOF
N10 ; PROGRAM NAME: 4444452
N11 ; ORDER       : 44444
N12 ; OPER. NAME  : Side Milling:162
N13 ; OPER. DESCR.: BH Finish milling FSHA
N14 ; OPER. TYPE  : sideMill
N15 ; GEO. OPTION : 1
N16 ; MACHINE     : SH_HX151_24_SIM840D
N17 ;             : STARRAG_HECKERT_5axis_finish_milling_machine
N18 ; CONTROL     : SINUMERIK 840D
N19 ; created:   2022-11-03 13:39:17.037075
;-------DODATKOWE DANE-------------------
; PROGRAMISTA : Mariusz Malec
; PARTID      : 139T004654P1015_-
;  ap         : 0.05
;  ae         : 6.0
;  lean_angle : 0.0
;  fin_offset : 0.0
;----------------------------------------
N20 ;----------------------------------------
RAPORT("T44444","Side Milling:162")
N21 TRAFOOF
N22 D0
N23 G0 G90 G94 Z260.0
N24 STOPRE
N25 M9 ; chlodziwo wyl
N26 ; --- Side Milling:162 - BH Finish milling FSHA ---
N28 ;ToolChange : concat=None ,current_tdmid=None, PP.tdmId=940732
N29 TRAFOOF
N30 D0
N31 G0 G54 Z270.0
N32 S4973 M03
N33 STOPRE
N34 TOL(0.1,1,1)
N35 G0  A128.0000
N36 TRAORI
N37 G54 D2
N38 D2 
STOPRE
E_ZDARZ=300004
;ACS_FINISH_BH_C5=7740732
STOPRE
N39 ; DELTA A > 40.1
N40 TRAFOOF
N41 STOPRE
N42 G0 G53 D0 Z265.000
N43 G1 G53 A128.0000 F10000
N44 TRAORI
N45 G54 D2
N46 TRANS 
N47 G00 X161.590 Y-39.073 Z-42.943 A128.0000 B0.0000 
N48 M342 ; chlodziwo woda
N49 X161.590 Y0.328 Z-12.160 
N50 ;FSHA - BH od wylotu
N51 G01 G41 X161.594 Y-4.598 Z-5.856 F994
N52 G01 X161.594 Y-4.598 Z-5.856 F994 
N53 X161.594 Y-4.803 Z-5.594 
N54 X161.595 Y-5.008 Z-5.331 
N55 X161.595 Y-5.213 Z-5.068 
N56 X161.595 Y-5.460 Z-4.753 
N57 X161.595 Y-5.706 Z-4.438 
N58 X161.595 Y-5.909 Z-4.178 
N59 X161.596 Y-6.111 Z-3.919 
N60 X161.596 Y-6.314 Z-3.659 
N61 X161.596 Y-6.517 Z-3.399 
N62 X161.596 Y-6.720 Z-3.140 
N63 X161.596 Y-6.923 Z-2.880 
N64 X161.596 Y-7.126 Z-2.620 
N65 X161.597 Y-7.328 Z-2.361 
N66 X161.597 Y-7.531 Z-2.101 
N67 X161.597 Y-7.734 Z-1.842 
N68 X161.597 Y-7.937 Z-1.582 
N69 X161.597 Y-8.140 Z-1.322 
N70 X161.597 Y-8.343 Z-1.063 
N71 X161.598 Y-8.545 Z-0.803 
N72 X161.598 Y-8.748 Z-0.544 
N73 X161.598 Y-8.951 Z-0.284 
N74 X161.598 Y-9.154 Z-0.024 
N75 X161.598 Y-9.357 Z0.235 
N76 X161.594 Y-9.560 Z0.495 
N77 X161.588 Y-9.762 Z0.754 
N78 X161.582 Y-9.965 Z1.014 
N79 X161.575 Y-10.168 Z1.274 
N80 X161.569 Y-10.371 Z1.533 
N81 X161.562 Y-10.574 Z1.793 
N82 X161.556 Y-10.776 Z2.052 
N83 X161.550 Y-10.979 Z2.312 
N84 X161.543 Y-11.182 Z2.571 
N85 X161.537 Y-11.385 Z2.831 
N86 X161.530 Y-11.588 Z3.091 
N87 X161.524 Y-11.790 Z3.350 
N88 X161.518 Y-11.993 Z3.610 
N89 X161.511 Y-12.196 Z3.869 
N90 X161.505 Y-12.399 Z4.129 
N91 X161.498 Y-12.602 Z4.388 
N92 X161.490 Y-12.804 Z4.648 
N93 X161.478 Y-13.007 Z4.907 
N94 X161.466 Y-13.210 Z5.167 
N95 X161.454 Y-13.412 Z5.426 
N96 X161.442 Y-13.615 Z5.686 
N97 X161.430 Y-13.818 Z5.945 
N98 X161.418 Y-14.021 Z6.205 
N99 X161.406 Y-14.223 Z6.464 
N100 X161.394 Y-14.426 Z6.723 
N101 X161.382 Y-14.629 Z6.983 
N102 X161.370 Y-14.831 Z7.242 
N103 X161.358 Y-15.034 Z7.502 
N104 X161.346 Y-15.237 Z7.761 
N105 X161.333 Y-15.439 Z8.021 
N106 X161.317 Y-15.642 Z8.280 
N107 X161.300 Y-15.845 Z8.539 
N108 X161.284 Y-16.047 Z8.798 
N109 X161.267 Y-16.250 Z9.058 
N110 X161.250 Y-16.452 Z9.317 
N111 X161.234 Y-16.655 Z9.576 
N112 X161.217 Y-16.857 Z9.836 
N113 X161.201 Y-17.060 Z10.095 
N114 X161.184 Y-17.263 Z10.354 
N115 X161.167 Y-17.465 Z10.613 
N116 X161.151 Y-17.668 Z10.873 
N117 X161.131 Y-17.914 Z11.188 
N118 X161.111 Y-18.160 Z11.502 
N119 G40 X160.708 Y-23.079 Z17.798 F994
N120 X160.708 Y-23.079 Z17.798 
N121 G00 X160.708 Y-34.899 Z8.564 
N122 X161.590 Y-11.453 Z-21.364 
N123 X161.590 Y0.367 Z-12.130 
N124 ;FSHA - BH od wylotu
N125 G01 G41 X161.594 Y-4.558 Z-5.825 F994
N126 G01 X161.594 Y-4.558 Z-5.825 F994 
N127 X161.594 Y-4.763 Z-5.563 
N128 X161.595 Y-4.969 Z-5.300 
N129 X161.595 Y-5.174 Z-5.037 
N130 X161.595 Y-5.420 Z-4.722 
N131 X161.595 Y-5.666 Z-4.407 
N132 X161.595 Y-5.869 Z-4.147 
N133 X161.596 Y-6.072 Z-3.888 
N134 X161.596 Y-6.275 Z-3.628 
N135 X161.596 Y-6.478 Z-3.369 
N136 X161.596 Y-6.681 Z-3.109 
N137 X161.596 Y-6.883 Z-2.849 
N138 X161.596 Y-7.086 Z-2.590 
N139 X161.597 Y-7.289 Z-2.330 
N140 X161.597 Y-7.492 Z-2.070 
N141 X161.597 Y-7.695 Z-1.811 
N142 X161.597 Y-7.898 Z-1.551 
N143 X161.597 Y-8.100 Z-1.292 
N144 X161.597 Y-8.303 Z-1.032 
N145 X161.598 Y-8.506 Z-0.772 
N146 X161.598 Y-8.709 Z-0.513 
N147 X161.598 Y-8.912 Z-0.253 
N148 X161.598 Y-9.115 Z0.006 
N149 X161.598 Y-9.317 Z0.266 
N150 X161.594 Y-9.520 Z0.526 
N151 X161.588 Y-9.723 Z0.785 
N152 X161.582 Y-9.926 Z1.045 
N153 X161.575 Y-10.129 Z1.304 
N154 X161.569 Y-10.331 Z1.564 
N155 X161.562 Y-10.534 Z1.823 
N156 X161.556 Y-10.737 Z2.083 
N157 X161.550 Y-10.940 Z2.343 
N158 X161.543 Y-11.143 Z2.602 
N159 X161.537 Y-11.345 Z2.862 
N160 X161.530 Y-11.548 Z3.121 
N161 X161.524 Y-11.751 Z3.381 
N162 X161.518 Y-11.954 Z3.640 
N163 X161.511 Y-12.157 Z3.900 
N164 X161.505 Y-12.359 Z4.160 
N165 X161.498 Y-12.562 Z4.419 
N166 X161.490 Y-12.765 Z4.679 
N167 X161.478 Y-12.968 Z4.938 
N168 X161.466 Y-13.170 Z5.198 
N169 X161.454 Y-13.373 Z5.457 
N170 X161.442 Y-13.576 Z5.716 
N171 X161.430 Y-13.778 Z5.976 
N172 X161.418 Y-13.981 Z6.235 
N173 X161.406 Y-14.184 Z6.495 
N174 X161.394 Y-14.387 Z6.754 
N175 X161.382 Y-14.589 Z7.014 
N176 X161.370 Y-14.792 Z7.273 
N177 X161.358 Y-14.995 Z7.533 
N178 X161.346 Y-15.197 Z7.792 
N179 X161.333 Y-15.400 Z8.051 
N180 X161.317 Y-15.603 Z8.311 
N181 X161.300 Y-15.805 Z8.570 
N182 X161.284 Y-16.008 Z8.829 
N183 X161.267 Y-16.210 Z9.089 
N184 X161.250 Y-16.413 Z9.348 
N185 X161.234 Y-16.615 Z9.607 
N186 X161.217 Y-16.818 Z9.866 
N187 X161.201 Y-17.021 Z10.126 
N188 X161.184 Y-17.223 Z10.385 
N189 X161.167 Y-17.426 Z10.644 
N190 X161.151 Y-17.628 Z10.904 
N191 X161.131 Y-17.874 Z11.218 
N192 X161.111 Y-18.120 Z11.533 
N193 G40 X160.708 Y-23.039 Z17.829 F994
N194 X160.708 Y-23.039 Z17.829 
N195 G00 X160.708 Y-34.859 Z8.594 
RAPORT("T44444","Side Milling:162 End")
N197 ;trailer : concat=None
; points cnt = 136
N198 MSG (" --- GROUPED OF SUBPROGRAM --- ")
N199 FGROUP()
N200 TRAFOOF
N10 ; PROGRAM NAME: 4444452
N11 ; ORDER       : 44444
N12 ; OPER. NAME  : Side Milling:163
N13 ; OPER. DESCR.: BH Chamfer Finish milling MFBBA
N14 ; OPER. TYPE  : sideMill
N15 ; GEO. OPTION : 1
N16 ; MACHINE     : SH_HX151_24_SIM840D
N17 ;             : STARRAG_HECKERT_5axis_finish_milling_machine
N18 ; CONTROL     : SINUMERIK 840D
N19 ; created:   2022-11-03 13:39:20.461991
;-------DODATKOWE DANE-------------------
; PROGRAMISTA : Mariusz Malec
; PARTID      : 139T004654P1015_-
;  ap         : 0.05
;  ae         : 6.0
;  lean_angle : 0.0
;  fin_offset : 0.0
;----------------------------------------
N20 ;----------------------------------------
RAPORT("T44444","Side Milling:163")
N21 TRAFOOF
N22 D0
N23 G0 G90 G94 Z260.0
N24 STOPRE
N25 M9 ; chlodziwo wyl
N26 ; --- Side Milling:163 - BH Chamfer Finish milling MFBBA ---
N28 ;ToolChange : concat=None ,current_tdmid=None, PP.tdmId=940732
N29 TRAFOOF
N30 D0
N31 G0 G54 Z270.0
N32 S4973 M03
N33 STOPRE
N34 TOL(0.1,1,1)
N35 G0  A133.3777
N36 TRAORI
N37 G54 D4
N38 D4 
STOPRE
E_ZDARZ=300004
;ACS_FINISH_BH_C5=7740732
STOPRE
N39 ; DELTA A > 40.1
N40 TRAFOOF
N41 STOPRE
N42 G0 G53 D0 Z265.000
N43 G1 G53 A133.3777 F10000
N44 TRAORI
N45 G54 D4
N46 TRANS 
N47 G00 X161.613 Y-29.144 Z-51.962 A133.3777 B0.0000 
N48 M342 ; chlodziwo woda
N49 X161.613 Y7.198 Z-17.622 
N50 ;MFBBA - faza na BH od wylotu
N51 G01 G41 X161.613 Y1.704 Z-11.807 F994
N52 G01 X161.613 Y1.704 Z-11.807 F994 
N53 X161.613 Y1.475 Z-11.565 
N54 X161.613 Y1.246 Z-11.322 
N55 X161.613 Y1.017 Z-11.080 
N56 X161.613 Y0.788 Z-10.838 
N57 X161.613 Y0.559 Z-10.595 
N58 X161.613 Y0.330 Z-10.353 
N59 X161.613 Y0.101 Z-10.111 
N60 X161.613 Y-0.127 Z-9.869 
N61 X161.613 Y-0.356 Z-9.626 
N62 X161.613 Y-0.585 Z-9.384 
N63 X161.613 Y-0.814 Z-9.142 
N64 X161.613 Y-1.043 Z-8.899 
N65 X161.613 Y-1.272 Z-8.657 
N66 X161.613 Y-1.501 Z-8.415 
N67 X161.613 Y-1.730 Z-8.173 
N68 X161.613 Y-1.959 Z-7.930 
N69 X161.613 Y-2.188 Z-7.688 
N70 X161.613 Y-2.417 Z-7.446 
N71 X161.613 Y-2.646 Z-7.203 
N72 X161.613 Y-2.875 Z-6.961 
N73 X161.613 Y-3.104 Z-6.719 
N74 X161.613 Y-3.333 Z-6.477 
N75 X161.613 Y-3.561 Z-6.234 
N76 X161.613 Y-3.790 Z-5.992 
N77 X161.613 Y-4.019 Z-5.750 
N78 X161.613 Y-4.248 Z-5.508 
N79 X161.613 Y-4.477 Z-5.265 
N80 X161.613 Y-4.700 Z-5.030 
N81 X161.613 Y-4.922 Z-4.794 
N82 X161.613 Y-5.145 Z-4.559 
N83 X161.613 Y-5.367 Z-4.323 
N84 X161.613 Y-5.590 Z-4.088 
N85 X161.613 Y-5.812 Z-3.852 
N86 X161.613 Y-6.035 Z-3.617 
N87 X161.613 Y-6.257 Z-3.381 
N88 X161.613 Y-6.480 Z-3.146 
N89 X161.613 Y-6.702 Z-2.910 
N90 X161.613 Y-6.925 Z-2.675 
N91 X161.613 Y-7.147 Z-2.439 
N92 X161.613 Y-7.370 Z-2.204 
N93 X161.613 Y-7.593 Z-1.968 
N94 X161.613 Y-7.815 Z-1.733 
N95 X161.613 Y-8.035 Z-1.500 
N96 X161.613 Y-8.255 Z-1.268 
N97 X161.613 Y-8.474 Z-1.035 
N98 X161.613 Y-8.694 Z-0.802 
N99 X161.613 Y-8.914 Z-0.570 
N100 G40 X161.613 Y-9.601 Z0.157 F994
N101 X161.613 Y-9.601 Z0.157 
N102 G00 X161.613 Y-20.503 Z-10.145 
RAPORT("T44444","Side Milling:163 End")
N104 ;trailer : concat=None
; points cnt = 49
N105 M9 ; chlodziwo wyl.
N106 M9 ; chlodziwo wyl.
N107 MSG (" --- KONIEC PROGRAMU --- ")
N108 TRANS
N109 G54
N110 FGROUP()
N111 TRAFOOF
N112 STOPRE
N113 G0 G53 D0 Z290.0 M9 M5
N114 G0 G53 Y150 A0 B0
N115 M17
