N10 ; PROGRAM NAME: 4444447
N11 ; ORDER       : 44444
N12 ; OPER. NAME  : Side Milling:130
N13 ; OPER. DESCR.: Side Milling/HHU wk
N14 ; OPER. TYPE  : sideMill
N15 ; GEO. OPTION : 3
N16 ; MACHINE     : SH_HX151_24_SIM840D
N17 ;             : STARRAG_HECKERT_5axis_finish_milling_machine
N18 ; CONTROL     : SINUMERIK 840D
N19 ; created:   2022-11-03 13:36:22.825259
;-------DODATKOWE DANE-------------------
; PROGRAMISTA : Mariusz Malec
; PARTID      : 139T004654P1015_-
;  ap         : 19.0
;  ae         : 6.4
;  lean_angle : 0.0
;  fin_offset : 0.0
;----------------------------------------
N20 ;----------------------------------------
RAPORT("T44444","Side Milling:130")
N21 TRAFOOF
N22 D0
N23 G90 G94
N24 STOPRE
N25 M9 ; chlodziwo wyl
N26 ; --- Side Milling:130 - Side Milling/HHU wk ---
N28 ;ToolChange : concat=None ,current_tdmid=None, PP.tdmId=940729
N29 MSG(" TLID=940729 D=8.0 R=2.0 Ang=0.0 Len=111.0 ")
N30 TRAFOOF
N31 D0
N32 G0 G53 Z290 B0
N33 G0 X200
N34 G0 Y150
N35 T="7740729"
N36 G0 X500
RAPORT("T44444","ToolChangeStart 7740729")
N37 M6
RAPORT("T44444","ToolChangeEnd")
N38 ; (Preloading tool)
N39 T="7740661"
N40 G0 X200
N41 STOPRE
N42 S3978 M03
N43 STOPRE
N44 TOL(0.1,1,1)
N45 G0 X153.560 A308.0000
N46 TRAORI
N47 G54 D1
N48 D1 
STOPRE
E_ZDARZ=300010
;ACS_FINISH_SLOT=7740729
STOPRE
N49 ; DELTA A > 40.1
N50 TRAFOOF
N51 STOPRE
N52 G0 G53 D0 Z265.000
N53 G1 G53 A308.0000 F10000
N54 TRAORI
N55 G54 D1
N56 TRANS 
N57 G00 X153.560 Y71.190 Z18.067 A308.0000 B0.0000 
N58 M342 ; chlodziwo woda
N59 X153.560 Y31.789 Z-12.716 
N60 G01 X153.586 Y29.053 Z-14.233 F318 
N61 X153.659 Y25.983 Z-14.832 
N62 X153.773 Y22.880 Z-14.453 
N63 X153.917 Y20.046 Z-13.133 
N64 ;NTE SemiFinishing
N65 D1 
N66 G01 G41 X154.077 Y17.761 Z-11.003 F318
N67 X154.077 Y17.761 Z-11.003 
N68 X154.083 Y17.692 Z-10.915 
N69 X154.089 Y17.624 Z-10.828 
N70 X154.094 Y17.556 Z-10.741 
N71 X154.100 Y17.487 Z-10.653 
N72 X154.106 Y17.419 Z-10.566 
N73 X154.112 Y17.351 Z-10.478 
N74 X154.117 Y17.283 Z-10.391 
N75 X154.123 Y17.214 Z-10.303 
N76 X154.129 Y17.146 Z-10.216 
N77 X154.134 Y17.081 Z-10.133 
N78 X154.140 Y17.016 Z-10.050 
N79 X154.145 Y16.952 Z-9.967 
N80 X154.151 Y16.887 Z-9.885 
N81 X154.156 Y16.822 Z-9.802 
N82 X154.161 Y16.758 Z-9.719 
N83 X154.167 Y16.693 Z-9.636 
N84 X154.172 Y16.628 Z-9.553 
N85 X154.178 Y16.563 Z-9.470 
N86 X154.183 Y16.499 Z-9.388 
N87 X154.189 Y16.434 Z-9.305 
N88 X154.194 Y16.369 Z-9.222 
N89 X154.200 Y16.305 Z-9.139 
N90 X154.205 Y16.240 Z-9.056 
N91 X154.210 Y16.175 Z-8.973 
N92 X154.216 Y16.110 Z-8.891 
N93 X154.221 Y16.046 Z-8.808 
N94 X154.227 Y15.981 Z-8.725 
N95 X154.232 Y15.916 Z-8.642 
N96 X154.238 Y15.851 Z-8.559 
N97 X154.243 Y15.787 Z-8.476 
N98 X154.248 Y15.722 Z-8.394 
N99 X154.254 Y15.657 Z-8.311 
N100 X154.259 Y15.593 Z-8.228 
N101 X154.265 Y15.528 Z-8.145 
N102 X154.270 Y15.463 Z-8.062 
N103 X154.276 Y15.398 Z-7.979 
N104 X154.281 Y15.334 Z-7.896 
N105 X154.287 Y15.269 Z-7.814 
N106 X154.292 Y15.204 Z-7.731 
N107 X154.297 Y15.140 Z-7.648 
N108 X154.303 Y15.075 Z-7.565 
N109 X154.308 Y15.010 Z-7.482 
N110 X154.314 Y14.945 Z-7.399 
N111 X154.319 Y14.881 Z-7.317 
N112 X154.325 Y14.816 Z-7.234 
N113 X154.330 Y14.751 Z-7.151 
N114 X154.336 Y14.687 Z-7.068 
N115 X154.341 Y14.621 Z-6.985 
N116 X154.346 Y14.556 Z-6.901 
N117 X154.352 Y14.491 Z-6.818 
N118 X154.357 Y14.426 Z-6.734 
N119 X154.363 Y14.360 Z-6.651 
N120 X154.368 Y14.295 Z-6.567 
N121 X154.374 Y14.230 Z-6.484 
N122 X154.379 Y14.165 Z-6.400 
N123 X154.385 Y14.100 Z-6.317 
N124 X154.390 Y14.034 Z-6.233 
N125 X154.396 Y13.969 Z-6.150 
N126 X154.401 Y13.904 Z-6.066 
N127 X154.407 Y13.839 Z-5.983 
N128 X154.412 Y13.774 Z-5.900 
N129 X154.418 Y13.708 Z-5.816 
N130 X154.423 Y13.643 Z-5.733 
N131 X154.429 Y13.578 Z-5.649 
N132 X154.434 Y13.513 Z-5.566 
N133 X154.440 Y13.447 Z-5.482 
N134 X154.445 Y13.382 Z-5.399 
N135 X154.451 Y13.317 Z-5.315 
N136 X154.456 Y13.252 Z-5.232 
N137 X154.462 Y13.187 Z-5.148 
N138 X154.467 Y13.121 Z-5.065 
N139 X154.473 Y13.056 Z-4.981 
N140 X154.478 Y12.991 Z-4.898 
N141 X154.484 Y12.926 Z-4.814 
N142 X154.489 Y12.861 Z-4.731 
N143 X154.495 Y12.795 Z-4.648 
N144 X154.500 Y12.730 Z-4.564 
N145 X154.505 Y12.665 Z-4.481 
N146 X154.511 Y12.600 Z-4.397 
N147 X154.516 Y12.534 Z-4.314 
N148 X154.522 Y12.469 Z-4.230 
N149 X154.527 Y12.404 Z-4.147 
N150 X154.533 Y12.339 Z-4.063 
N151 X154.538 Y12.274 Z-3.980 
N152 X154.544 Y12.208 Z-3.896 
N153 X154.549 Y12.143 Z-3.813 
N154 X154.555 Y12.078 Z-3.729 
N155 X154.560 Y12.013 Z-3.646 
N156 X154.566 Y11.948 Z-3.562 
N157 X154.571 Y11.882 Z-3.479 
N158 X154.577 Y11.817 Z-3.395 
N159 X154.582 Y11.752 Z-3.312 
N160 X154.588 Y11.687 Z-3.229 
N161 X154.593 Y11.622 Z-3.145 
N162 X154.599 Y11.556 Z-3.062 
N163 X154.604 Y11.491 Z-2.978 
N164 X154.610 Y11.426 Z-2.895 
N165 X154.615 Y11.361 Z-2.811 
N166 X154.621 Y11.295 Z-2.728 
N167 X154.626 Y11.230 Z-2.644 
N168 X154.632 Y11.165 Z-2.561 
N169 X154.637 Y11.100 Z-2.477 
N170 X154.643 Y11.035 Z-2.394 
N171 X154.648 Y10.969 Z-2.310 
N172 X154.653 Y10.904 Z-2.227 
N173 X154.659 Y10.839 Z-2.143 
N174 X154.664 Y10.774 Z-2.060 
N175 X154.670 Y10.709 Z-1.976 
N176 X154.675 Y10.643 Z-1.893 
N177 X154.681 Y10.578 Z-1.810 
N178 X154.685 Y10.513 Z-1.726 
N179 X154.688 Y10.448 Z-1.642 
N180 X154.692 Y10.382 Z-1.559 
N181 X154.695 Y10.317 Z-1.475 
N182 X154.698 Y10.252 Z-1.392 
N183 X154.702 Y10.187 Z-1.308 
N184 X154.705 Y10.121 Z-1.225 
N185 X154.709 Y10.056 Z-1.141 
N186 X154.712 Y9.991 Z-1.058 
N187 X154.715 Y9.925 Z-0.974 
N188 X154.719 Y9.860 Z-0.891 
N189 X154.722 Y9.795 Z-0.807 
N190 X154.726 Y9.730 Z-0.724 
N191 X154.729 Y9.664 Z-0.640 
N192 X154.732 Y9.599 Z-0.557 
N193 X154.736 Y9.534 Z-0.473 
N194 X154.739 Y9.469 Z-0.389 
N195 X154.742 Y9.403 Z-0.306 
N196 X154.746 Y9.338 Z-0.222 
N197 X154.749 Y9.273 Z-0.139 
N198 X154.753 Y9.208 Z-0.055 
N199 X154.756 Y9.142 Z0.028 
N200 X154.759 Y9.077 Z0.112 
N201 X154.763 Y9.012 Z0.195 
N202 X154.766 Y8.946 Z0.279 
N203 X154.770 Y8.881 Z0.362 
N204 X154.773 Y8.816 Z0.446 
N205 X154.776 Y8.751 Z0.529 
N206 X154.780 Y8.685 Z0.613 
N207 X154.783 Y8.620 Z0.697 
N208 X154.787 Y8.555 Z0.780 
N209 X154.790 Y8.490 Z0.864 
N210 X154.793 Y8.424 Z0.947 
N211 X154.797 Y8.359 Z1.031 
N212 X154.800 Y8.294 Z1.114 
N213 X154.803 Y8.228 Z1.198 
N214 X154.807 Y8.163 Z1.281 
N215 X154.810 Y8.098 Z1.365 
N216 X154.814 Y8.033 Z1.448 
N217 X154.817 Y7.967 Z1.532 
N218 X154.820 Y7.902 Z1.615 
N219 X154.822 Y7.837 Z1.699 
N220 X154.824 Y7.772 Z1.783 
N221 X154.825 Y7.706 Z1.866 
N222 X154.827 Y7.641 Z1.950 
N223 X154.829 Y7.576 Z2.033 
N224 X154.830 Y7.510 Z2.117 
N225 X154.832 Y7.445 Z2.200 
N226 X154.833 Y7.380 Z2.284 
N227 X154.835 Y7.315 Z2.368 
N228 X154.836 Y7.249 Z2.451 
N229 X154.838 Y7.184 Z2.535 
N230 X154.839 Y7.119 Z2.618 
N231 X154.841 Y7.053 Z2.702 
N232 X154.843 Y6.988 Z2.785 
N233 X154.844 Y6.923 Z2.869 
N234 X154.846 Y6.857 Z2.953 
N235 X154.847 Y6.792 Z3.036 
N236 X154.849 Y6.727 Z3.120 
N237 X154.850 Y6.662 Z3.203 
N238 X154.852 Y6.596 Z3.287 
N239 X154.854 Y6.531 Z3.370 
N240 X154.855 Y6.466 Z3.454 
N241 X154.857 Y6.400 Z3.538 
N242 X154.858 Y6.335 Z3.621 
N243 X154.860 Y6.270 Z3.705 
N244 X154.861 Y6.205 Z3.788 
N245 X154.863 Y6.139 Z3.872 
N246 X154.864 Y6.074 Z3.955 
N247 X154.866 Y6.009 Z4.039 
N248 X154.868 Y5.943 Z4.123 
N249 X154.869 Y5.878 Z4.206 
N250 X154.871 Y5.813 Z4.290 
N251 X154.872 Y5.747 Z4.373 
N252 X154.874 Y5.682 Z4.457 
N253 X154.875 Y5.617 Z4.540 
N254 X154.877 Y5.552 Z4.624 
N255 X154.879 Y5.486 Z4.708 
N256 X154.880 Y5.421 Z4.791 
N257 X154.882 Y5.356 Z4.875 
N258 X154.883 Y5.290 Z4.958 
N259 X154.885 Y5.225 Z5.042 
N260 X154.886 Y5.160 Z5.125 
N261 X154.888 Y5.095 Z5.209 
N262 X154.889 Y5.029 Z5.293 
N263 X154.891 Y4.964 Z5.376 
N264 X154.893 Y4.899 Z5.460 
N265 X154.894 Y4.833 Z5.543 
N266 X154.896 Y4.768 Z5.627 
N267 X154.897 Y4.703 Z5.710 
N268 X154.899 Y4.637 Z5.794 
N269 X154.900 Y4.573 Z5.877 
N270 X154.902 Y4.508 Z5.960 
N271 X154.904 Y4.443 Z6.043 
N272 X154.905 Y4.378 Z6.126 
N273 X154.907 Y4.314 Z6.209 
N274 X154.908 Y4.249 Z6.292 
N275 X154.910 Y4.184 Z6.375 
N276 X154.911 Y4.119 Z6.458 
N277 X154.913 Y4.054 Z6.541 
N278 X154.914 Y3.990 Z6.623 
N279 X154.916 Y3.925 Z6.706 
N280 X154.917 Y3.860 Z6.789 
N281 X154.919 Y3.795 Z6.872 
N282 X154.921 Y3.730 Z6.955 
N283 X154.922 Y3.666 Z7.038 
N284 X154.924 Y3.601 Z7.121 
N285 X154.925 Y3.536 Z7.204 
N286 X154.927 Y3.471 Z7.287 
N287 X154.928 Y3.406 Z7.370 
N288 X154.930 Y3.342 Z7.453 
N289 X154.931 Y3.277 Z7.536 
N290 X154.933 Y3.212 Z7.619 
N291 X154.935 Y3.147 Z7.702 
N292 X154.936 Y3.082 Z7.785 
N293 X154.938 Y3.018 Z7.868 
N294 X154.939 Y2.953 Z7.950 
N295 X154.941 Y2.888 Z8.033 
N296 X154.942 Y2.823 Z8.116 
N297 X154.944 Y2.758 Z8.199 
N298 X154.945 Y2.694 Z8.282 
N299 X154.947 Y2.629 Z8.365 
N300 X154.948 Y2.564 Z8.448 
N301 X154.950 Y2.499 Z8.531 
N302 X154.952 Y2.434 Z8.614 
N303 X154.953 Y2.370 Z8.697 
N304 X154.955 Y2.305 Z8.780 
N305 X154.956 Y2.240 Z8.863 
N306 X154.958 Y2.175 Z8.946 
N307 G40 X154.959 Y2.110 Z9.030 F417
N308 X154.959 Y2.110 Z9.030 
N309 X154.960 Y2.007 Z9.161 F715 
N310 X154.962 Y1.831 Z9.386 F1163 
N311 X154.964 Y1.583 Z9.704 F1461 
N312 X154.968 Y1.298 Z10.069 F1561 
N313 X154.972 Y0.979 Z10.477 
N314 X154.977 Y0.660 Z10.885 
N315 X154.983 Y0.341 Z11.293 
N316 X154.990 Y0.022 Z11.702 
N317 X154.999 Y-0.297 Z12.110 
N318 X155.010 Y-0.616 Z12.518 
N319 X155.023 Y-0.935 Z12.926 
N320 X155.040 Y-1.253 Z13.334 
N321 X155.059 Y-1.572 Z13.742 
N322 X155.082 Y-1.891 Z14.150 
N323 X155.109 Y-2.209 Z14.557 
N324 X155.141 Y-2.527 Z14.965 
N325 X155.179 Y-2.846 Z15.372 
N326 X155.223 Y-3.163 Z15.779 
N327 X155.276 Y-3.481 Z16.185 
N328 X155.343 Y-3.797 Z16.589 
N329 X155.461 Y-4.106 Z16.986 
N330 X155.567 Y-3.825 Z16.625 
N331 X155.587 Y-3.517 Z16.231 
N332 X155.596 Y-3.191 Z15.814 
N333 X155.599 Y-2.851 Z15.379 
N334 X155.599 Y-2.550 Z14.994 
N335 X155.597 Y-2.249 Z14.609 
N336 X155.594 Y-1.936 Z14.207 
N337 X155.589 Y-1.607 Z13.787 
N338 X155.584 Y-1.298 Z13.392 F1461 
N339 X155.579 Y-1.025 Z13.041 F1163 
N340 X155.576 Y-0.854 Z12.822 F715 
N341 X155.575 Y-0.767 Z12.712 F417 
N342 ;NNTE SemiFinishing
N343 D2 
N344 G01 G41 X155.575 Y-0.720 Z12.651 F318
N345 X155.575 Y-0.720 Z12.651 F318 
N346 X155.574 Y-0.652 Z12.564 
N347 X155.574 Y-0.583 Z12.476 
N348 X155.574 Y-0.515 Z12.389 
N349 X155.574 Y-0.446 Z12.301 
N350 X155.573 Y-0.378 Z12.213 
N351 X155.573 Y-0.309 Z12.126 
N352 X155.573 Y-0.241 Z12.038 
N353 X155.573 Y-0.173 Z11.951 
N354 X155.573 Y-0.104 Z11.863 
N355 X155.572 Y-0.039 Z11.780 
N356 X155.572 Y0.025 Z11.697 
N357 X155.572 Y0.090 Z11.614 
N358 X155.572 Y0.155 Z11.531 
N359 X155.571 Y0.220 Z11.448 
N360 X155.571 Y0.285 Z11.366 
N361 X155.571 Y0.349 Z11.283 
N362 X155.571 Y0.414 Z11.200 
N363 X155.570 Y0.479 Z11.117 
N364 X155.570 Y0.544 Z11.034 
N365 X155.570 Y0.609 Z10.951 
N366 X155.570 Y0.673 Z10.868 
N367 X155.570 Y0.738 Z10.785 
N368 X155.569 Y0.803 Z10.702 
N369 X155.569 Y0.868 Z10.619 
N370 X155.569 Y0.933 Z10.536 
N371 X155.569 Y0.997 Z10.453 
N372 X155.568 Y1.062 Z10.370 
N373 X155.568 Y1.127 Z10.287 
N374 X155.568 Y1.192 Z10.204 
N375 X155.568 Y1.257 Z10.121 
N376 X155.568 Y1.321 Z10.038 
N377 X155.567 Y1.386 Z9.955 
N378 X155.567 Y1.451 Z9.872 
N379 X155.567 Y1.516 Z9.790 
N380 X155.567 Y1.581 Z9.707 
N381 X155.566 Y1.646 Z9.624 
N382 X155.566 Y1.710 Z9.541 
N383 X155.566 Y1.775 Z9.458 
N384 X155.566 Y1.840 Z9.375 
N385 X155.566 Y1.905 Z9.292 
N386 X155.565 Y1.970 Z9.209 
N387 X155.565 Y2.034 Z9.126 
N388 X155.565 Y2.099 Z9.043 
N389 X155.565 Y2.164 Z8.960 
N390 X155.564 Y2.229 Z8.877 
N391 X155.564 Y2.294 Z8.794 
N392 X155.564 Y2.358 Z8.711 
N393 X155.564 Y2.423 Z8.628 
N394 X155.563 Y2.489 Z8.545 
N395 X155.563 Y2.554 Z8.461 
N396 X155.563 Y2.619 Z8.378 
N397 X155.563 Y2.684 Z8.295 
N398 X155.563 Y2.749 Z8.211 
N399 X155.562 Y2.814 Z8.128 
N400 X155.562 Y2.879 Z8.045 
N401 X155.562 Y2.944 Z7.961 
N402 X155.562 Y3.009 Z7.878 
N403 X155.561 Y3.074 Z7.795 
N404 X155.561 Y3.140 Z7.711 
N405 X155.561 Y3.205 Z7.628 
N406 X155.561 Y3.270 Z7.545 
N407 X155.561 Y3.335 Z7.461 
N408 X155.560 Y3.400 Z7.378 
N409 X155.560 Y3.465 Z7.295 
N410 X155.560 Y3.530 Z7.211 
N411 X155.560 Y3.595 Z7.128 
N412 X155.559 Y3.660 Z7.045 
N413 X155.559 Y3.725 Z6.962 
N414 X155.559 Y3.790 Z6.878 
N415 X155.559 Y3.856 Z6.795 
N416 X155.559 Y3.921 Z6.712 
N417 X155.558 Y3.986 Z6.628 
N418 X155.558 Y4.051 Z6.545 
N419 X155.558 Y4.116 Z6.462 
N420 X155.558 Y4.181 Z6.378 
N421 X155.557 Y4.246 Z6.295 
N422 X155.557 Y4.311 Z6.212 
N423 X155.557 Y4.376 Z6.128 
N424 X155.557 Y4.441 Z6.045 
N425 X155.556 Y4.507 Z5.962 
N426 X155.556 Y4.572 Z5.878 
N427 X155.556 Y4.637 Z5.795 
N428 X155.556 Y4.702 Z5.712 
N429 X155.556 Y4.767 Z5.628 
N430 X155.555 Y4.832 Z5.545 
N431 X155.555 Y4.897 Z5.462 
N432 X155.555 Y4.962 Z5.379 
N433 X155.555 Y5.027 Z5.295 
N434 X155.554 Y5.092 Z5.212 
N435 X155.554 Y5.157 Z5.129 
N436 X155.554 Y5.223 Z5.045 
N437 X155.554 Y5.288 Z4.962 
N438 X155.554 Y5.353 Z4.879 
N439 X155.553 Y5.418 Z4.795 
N440 X155.553 Y5.483 Z4.712 
N441 X155.553 Y5.548 Z4.629 
N442 X155.553 Y5.613 Z4.545 
N443 X155.552 Y5.678 Z4.462 
N444 X155.552 Y5.743 Z4.379 
N445 X155.552 Y5.808 Z4.295 
N446 X155.551 Y5.873 Z4.212 
N447 X155.548 Y5.939 Z4.129 
N448 X155.546 Y6.004 Z4.045 
N449 X155.544 Y6.069 Z3.962 
N450 X155.542 Y6.134 Z3.879 
N451 X155.540 Y6.199 Z3.796 
N452 X155.538 Y6.264 Z3.712 
N453 X155.536 Y6.329 Z3.629 
N454 X155.534 Y6.394 Z3.546 
N455 X155.531 Y6.459 Z3.462 
N456 X155.529 Y6.524 Z3.379 
N457 X155.527 Y6.589 Z3.296 
N458 X155.525 Y6.654 Z3.212 
N459 X155.523 Y6.720 Z3.129 
N460 X155.521 Y6.785 Z3.046 
N461 X155.519 Y6.850 Z2.963 
N462 X155.516 Y6.915 Z2.879 
N463 X155.514 Y6.980 Z2.796 
N464 X155.512 Y7.045 Z2.713 
N465 X155.510 Y7.110 Z2.629 
N466 X155.508 Y7.175 Z2.546 
N467 X155.506 Y7.240 Z2.463 
N468 X155.504 Y7.305 Z2.379 
N469 X155.501 Y7.370 Z2.296 
N470 X155.499 Y7.435 Z2.213 
N471 X155.497 Y7.501 Z2.130 
N472 X155.495 Y7.566 Z2.046 
N473 X155.493 Y7.631 Z1.963 
N474 X155.491 Y7.696 Z1.880 
N475 X155.489 Y7.761 Z1.796 
N476 X155.486 Y7.826 Z1.713 
N477 X155.484 Y7.891 Z1.630 
N478 X155.482 Y7.956 Z1.546 
N479 X155.480 Y8.021 Z1.463 
N480 X155.478 Y8.086 Z1.380 
N481 X155.476 Y8.151 Z1.297 
N482 X155.474 Y8.216 Z1.213 
N483 X155.472 Y8.281 Z1.130 
N484 X155.469 Y8.347 Z1.047 
N485 X155.467 Y8.412 Z0.963 
N486 X155.465 Y8.477 Z0.880 
N487 X155.463 Y8.542 Z0.797 
N488 X155.460 Y8.607 Z0.713 
N489 X155.456 Y8.672 Z0.630 
N490 X155.452 Y8.737 Z0.547 
N491 X155.448 Y8.802 Z0.464 
N492 X155.444 Y8.867 Z0.380 
N493 X155.440 Y8.932 Z0.297 
N494 X155.435 Y8.997 Z0.214 
N495 X155.431 Y9.062 Z0.131 
N496 X155.427 Y9.127 Z0.047 
N497 X155.423 Y9.192 Z-0.036 
N498 X155.419 Y9.257 Z-0.119 
N499 X155.415 Y9.322 Z-0.202 
N500 X155.411 Y9.387 Z-0.286 
N501 X155.406 Y9.452 Z-0.369 
N502 X155.402 Y9.518 Z-0.452 
N503 X155.398 Y9.583 Z-0.535 
N504 X155.394 Y9.648 Z-0.619 
N505 X155.390 Y9.713 Z-0.702 
N506 X155.386 Y9.778 Z-0.785 
N507 X155.381 Y9.843 Z-0.868 
N508 X155.377 Y9.908 Z-0.952 
N509 X155.373 Y9.973 Z-1.035 
N510 X155.369 Y10.038 Z-1.118 
N511 X155.365 Y10.103 Z-1.201 
N512 X155.361 Y10.168 Z-1.285 
N513 X155.356 Y10.233 Z-1.368 
N514 X155.352 Y10.298 Z-1.451 
N515 X155.348 Y10.363 Z-1.534 
N516 X155.344 Y10.428 Z-1.618 
N517 X155.340 Y10.493 Z-1.701 
N518 X155.336 Y10.558 Z-1.784 
N519 X155.331 Y10.623 Z-1.867 
N520 X155.327 Y10.688 Z-1.951 
N521 X155.323 Y10.753 Z-2.034 
N522 X155.319 Y10.818 Z-2.117 
N523 X155.315 Y10.883 Z-2.200 
N524 X155.311 Y10.948 Z-2.284 
N525 X155.306 Y11.014 Z-2.367 
N526 X155.302 Y11.079 Z-2.450 
N527 X155.298 Y11.144 Z-2.533 
N528 X155.294 Y11.209 Z-2.617 
N529 X155.290 Y11.274 Z-2.700 
N530 X155.286 Y11.339 Z-2.783 
N531 X155.281 Y11.404 Z-2.866 
N532 X155.277 Y11.469 Z-2.950 
N533 X155.273 Y11.534 Z-3.033 
N534 X155.269 Y11.599 Z-3.116 
N535 X155.265 Y11.664 Z-3.199 
N536 X155.261 Y11.729 Z-3.283 
N537 X155.257 Y11.794 Z-3.366 
N538 X155.252 Y11.859 Z-3.449 
N539 X155.248 Y11.924 Z-3.532 
N540 X155.244 Y11.989 Z-3.616 
N541 X155.240 Y12.054 Z-3.699 
N542 X155.236 Y12.119 Z-3.782 
N543 X155.232 Y12.184 Z-3.865 
N544 X155.227 Y12.249 Z-3.949 
N545 X155.223 Y12.314 Z-4.032 
N546 X155.219 Y12.379 Z-4.115 
N547 X155.215 Y12.445 Z-4.198 
N548 X155.211 Y12.509 Z-4.281 
N549 X155.207 Y12.574 Z-4.364 
N550 X155.202 Y12.639 Z-4.447 
N551 X155.198 Y12.704 Z-4.530 
N552 X155.194 Y12.768 Z-4.613 
N553 X155.190 Y12.833 Z-4.696 
N554 X155.186 Y12.898 Z-4.779 
N555 X155.182 Y12.963 Z-4.862 
N556 X155.178 Y13.027 Z-4.944 
N557 X155.173 Y13.092 Z-5.027 
N558 X155.169 Y13.157 Z-5.110 
N559 X155.165 Y13.222 Z-5.193 
N560 X155.161 Y13.286 Z-5.276 
N561 X155.157 Y13.351 Z-5.359 
N562 X155.153 Y13.416 Z-5.442 
N563 X155.149 Y13.481 Z-5.525 
N564 X155.144 Y13.545 Z-5.607 
N565 X155.140 Y13.610 Z-5.690 
N566 X155.136 Y13.675 Z-5.773 
N567 X155.132 Y13.740 Z-5.856 
N568 X155.128 Y13.804 Z-5.939 
N569 X155.124 Y13.869 Z-6.022 
N570 X155.120 Y13.934 Z-6.105 
N571 X155.115 Y13.999 Z-6.188 
N572 X155.111 Y14.063 Z-6.271 
N573 X155.107 Y14.128 Z-6.353 
N574 X155.103 Y14.193 Z-6.436 
N575 X155.099 Y14.258 Z-6.519 
N576 X155.095 Y14.322 Z-6.602 
N577 X155.091 Y14.387 Z-6.685 
N578 X155.086 Y14.452 Z-6.768 
N579 X155.082 Y14.517 Z-6.851 
N580 X155.078 Y14.581 Z-6.934 
N581 X155.074 Y14.646 Z-7.017 
N582 X155.070 Y14.711 Z-7.099 
N583 X155.066 Y14.776 Z-7.182 
N584 X155.062 Y14.840 Z-7.265 
N585 X155.057 Y14.905 Z-7.348 
N586 G40 X154.664 Y21.057 Z-15.222 F318
N587 X154.664 Y21.057 Z-15.222 
N588 G00 X154.664 Y60.458 Z15.561 
RAPORT("T44444","Side Milling:130 End")
N590 ;trailer : concat=None
; points cnt = 520
N591 MSG (" --- GROUPED OF SUBPROGRAM --- ")
N592 FGROUP()
N593 TRAFOOF
N10 ; PROGRAM NAME: 4444447
N11 ; ORDER       : 44444
N12 ; OPER. NAME  : Side Milling:131
N13 ; OPER. DESCR.: HHU finish milling NGE
N14 ; OPER. TYPE  : sideMill
N15 ; GEO. OPTION : 3
N16 ; MACHINE     : SH_HX151_24_SIM840D
N17 ;             : STARRAG_HECKERT_5axis_finish_milling_machine
N18 ; CONTROL     : SINUMERIK 840D
N19 ; created:   2022-11-03 13:36:27.417872
;-------DODATKOWE DANE-------------------
; PROGRAMISTA : Mariusz Malec
; PARTID      : 139T004654P1015_-
;  ap         : 19.0
;  ae         : 6.4
;  lean_angle : 0.0
;  fin_offset : 0.03
;----------------------------------------
N20 ;----------------------------------------
RAPORT("T44444","Side Milling:131")
N21 TRAFOOF
N22 D0
N23 G0 G90 G94 Z260.0
N24 STOPRE
N25 M9 ; chlodziwo wyl
N26 ; --- Side Milling:131 - HHU finish milling NGE ---
N28 ;ToolChange : concat=None ,current_tdmid=None, PP.tdmId=940729
N29 TRAFOOF
N30 D0
N31 G0 G54 Z270.0
N32 S3978 M03
N33 STOPRE
N34 TOL(0.1,1,1)
N35 G0  A308.0000
N36 TRAORI
N37 G54 D1
N38 D1 
STOPRE
E_ZDARZ=300010
;ACS_FINISH_SLOT=7740729
STOPRE
N39 ; DELTA A > 40.1
N40 TRAFOOF
N41 STOPRE
N42 G0 G53 D0 Z265.000
N43 G1 G53 A308.0000 F10000
N44 TRAORI
N45 G54 D1
N46 TRANS 
N47 G00 X153.381 Y71.207 Z18.093 A308.0000 B0.0000 
N48 M342 ; chlodziwo woda
N49 X153.381 Y31.807 Z-12.690 
N50 G01 X153.411 Y29.071 Z-14.207 F318 
N51 X153.497 Y26.001 Z-14.806 
N52 X153.632 Y22.899 Z-14.428 
N53 X153.802 Y20.066 Z-13.110 
N54 ;NTE Finishing
N55 D1 
N56 G01 G41 X153.991 Y17.782 Z-10.981 F318
N57 X153.991 Y17.782 Z-10.981 
N58 X153.995 Y17.734 Z-10.920 
N59 X154.000 Y17.687 Z-10.860 
N60 X154.005 Y17.640 Z-10.799 
N61 X154.009 Y17.593 Z-10.739 
N62 X154.014 Y17.545 Z-10.678 
N63 X154.019 Y17.498 Z-10.618 
N64 X154.023 Y17.451 Z-10.557 
N65 X154.028 Y17.403 Z-10.497 
N66 X154.033 Y17.356 Z-10.436 
N67 X154.038 Y17.309 Z-10.376 
N68 X154.042 Y17.262 Z-10.315 
N69 X154.047 Y17.214 Z-10.255 
N70 X154.052 Y17.167 Z-10.194 
N71 X154.056 Y17.118 Z-10.131 
N72 X154.061 Y17.069 Z-10.069 
N73 X154.066 Y17.020 Z-10.006 
N74 X154.071 Y16.970 Z-9.943 
N75 X154.076 Y16.921 Z-9.880 
N76 X154.081 Y16.872 Z-9.817 
N77 X154.086 Y16.823 Z-9.754 
N78 X154.091 Y16.774 Z-9.691 
N79 X154.096 Y16.725 Z-9.628 
N80 X154.100 Y16.675 Z-9.565 
N81 X154.105 Y16.626 Z-9.502 
N82 X154.110 Y16.577 Z-9.439 
N83 X154.115 Y16.528 Z-9.376 
N84 X154.120 Y16.479 Z-9.313 
N85 X154.125 Y16.430 Z-9.251 
N86 X154.130 Y16.381 Z-9.188 
N87 X154.135 Y16.331 Z-9.125 
N88 X154.139 Y16.282 Z-9.062 
N89 X154.144 Y16.233 Z-8.999 
N90 X154.149 Y16.184 Z-8.936 
N91 X154.154 Y16.135 Z-8.873 
N92 X154.159 Y16.086 Z-8.810 
N93 X154.164 Y16.036 Z-8.747 
N94 X154.169 Y15.987 Z-8.684 
N95 X154.174 Y15.938 Z-8.621 
N96 X154.178 Y15.889 Z-8.558 
N97 X154.183 Y15.840 Z-8.495 
N98 X154.188 Y15.791 Z-8.432 
N99 X154.193 Y15.741 Z-8.370 
N100 X154.198 Y15.692 Z-8.307 
N101 X154.203 Y15.643 Z-8.244 
N102 X154.208 Y15.594 Z-8.181 
N103 X154.213 Y15.545 Z-8.118 
N104 X154.217 Y15.496 Z-8.055 
N105 X154.222 Y15.446 Z-7.992 
N106 X154.227 Y15.397 Z-7.929 
N107 X154.232 Y15.348 Z-7.866 
N108 X154.237 Y15.299 Z-7.803 
N109 X154.242 Y15.250 Z-7.740 
N110 X154.247 Y15.201 Z-7.677 
N111 X154.252 Y15.151 Z-7.614 
N112 X154.257 Y15.102 Z-7.552 
N113 X154.261 Y15.053 Z-7.489 
N114 X154.266 Y15.004 Z-7.426 
N115 X154.271 Y14.955 Z-7.363 
N116 X154.276 Y14.906 Z-7.300 
N117 X154.281 Y14.857 Z-7.237 
N118 X154.286 Y14.807 Z-7.174 
N119 X154.291 Y14.758 Z-7.111 
N120 X154.296 Y14.709 Z-7.048 
N121 X154.300 Y14.660 Z-6.986 
N122 X154.305 Y14.611 Z-6.923 
N123 X154.310 Y14.562 Z-6.860 
N124 X154.315 Y14.513 Z-6.798 
N125 X154.320 Y14.464 Z-6.735 
N126 X154.325 Y14.415 Z-6.672 
N127 X154.330 Y14.366 Z-6.610 
N128 X154.334 Y14.317 Z-6.547 
N129 X154.339 Y14.268 Z-6.484 
N130 X154.344 Y14.219 Z-6.422 
N131 X154.349 Y14.170 Z-6.359 
N132 X154.354 Y14.121 Z-6.296 
N133 X154.359 Y14.073 Z-6.233 
N134 X154.364 Y14.024 Z-6.171 
N135 X154.368 Y13.975 Z-6.108 
N136 X154.373 Y13.926 Z-6.045 
N137 X154.378 Y13.877 Z-5.983 
N138 X154.383 Y13.828 Z-5.920 
N139 X154.388 Y13.779 Z-5.857 
N140 X154.392 Y13.730 Z-5.795 
N141 X154.397 Y13.681 Z-5.732 
N142 X154.401 Y13.632 Z-5.669 
N143 X154.406 Y13.583 Z-5.607 
N144 X154.411 Y13.534 Z-5.544 
N145 X154.415 Y13.485 Z-5.481 
N146 X154.420 Y13.436 Z-5.419 
N147 X154.424 Y13.387 Z-5.356 
N148 X154.429 Y13.338 Z-5.293 
N149 X154.433 Y13.289 Z-5.231 
N150 X154.437 Y13.240 Z-5.168 
N151 X154.442 Y13.191 Z-5.105 
N152 X154.446 Y13.142 Z-5.043 
N153 X154.450 Y13.093 Z-4.980 
N154 X154.455 Y13.044 Z-4.917 
N155 X154.459 Y12.995 Z-4.854 
N156 X154.463 Y12.946 Z-4.792 
N157 X154.468 Y12.897 Z-4.729 
N158 X154.472 Y12.848 Z-4.666 
N159 X154.476 Y12.799 Z-4.604 
N160 X154.480 Y12.750 Z-4.541 
N161 X154.484 Y12.701 Z-4.478 
N162 X154.488 Y12.652 Z-4.416 
N163 X154.492 Y12.603 Z-4.353 
N164 X154.497 Y12.554 Z-4.290 
N165 X154.501 Y12.505 Z-4.228 
N166 X154.505 Y12.456 Z-4.165 
N167 X154.509 Y12.407 Z-4.102 
N168 X154.513 Y12.358 Z-4.039 
N169 X154.517 Y12.309 Z-3.977 
N170 X154.521 Y12.260 Z-3.914 
N171 X154.525 Y12.211 Z-3.851 
N172 X154.528 Y12.162 Z-3.789 
N173 X154.532 Y12.113 Z-3.726 
N174 X154.536 Y12.064 Z-3.663 
N175 X154.540 Y12.015 Z-3.600 
N176 X154.544 Y11.966 Z-3.538 
N177 X154.548 Y11.917 Z-3.475 
N178 X154.551 Y11.868 Z-3.412 
N179 X154.555 Y11.819 Z-3.350 
N180 X154.559 Y11.770 Z-3.287 
N181 X154.563 Y11.721 Z-3.224 
N182 X154.566 Y11.672 Z-3.161 
N183 X154.570 Y11.623 Z-3.099 
N184 X154.573 Y11.574 Z-3.036 
N185 X154.577 Y11.525 Z-2.973 
N186 X154.581 Y11.476 Z-2.911 
N187 X154.584 Y11.427 Z-2.848 
N188 X154.588 Y11.378 Z-2.785 
N189 X154.591 Y11.329 Z-2.722 
N190 X154.595 Y11.280 Z-2.660 
N191 X154.598 Y11.231 Z-2.597 
N192 X154.602 Y11.182 Z-2.534 
N193 X154.605 Y11.133 Z-2.471 
N194 X154.609 Y11.084 Z-2.409 
N195 X154.612 Y11.035 Z-2.346 
N196 X154.615 Y10.986 Z-2.283 
N197 X154.619 Y10.937 Z-2.221 
N198 X154.622 Y10.888 Z-2.158 
N199 X154.625 Y10.839 Z-2.095 
N200 X154.628 Y10.790 Z-2.032 
N201 X154.632 Y10.741 Z-1.970 
N202 X154.635 Y10.692 Z-1.907 
N203 X154.638 Y10.643 Z-1.844 
N204 X154.642 Y10.594 Z-1.781 
N205 X154.645 Y10.545 Z-1.719 
N206 X154.648 Y10.496 Z-1.656 
N207 X154.651 Y10.447 Z-1.593 
N208 X154.654 Y10.398 Z-1.530 
N209 X154.657 Y10.349 Z-1.468 
N210 X154.660 Y10.300 Z-1.405 
N211 X154.663 Y10.251 Z-1.342 
N212 X154.666 Y10.202 Z-1.280 
N213 X154.669 Y10.153 Z-1.217 
N214 X154.672 Y10.104 Z-1.154 
N215 X154.675 Y10.055 Z-1.091 
N216 X154.678 Y10.006 Z-1.029 
N217 X154.681 Y9.957 Z-0.966 
N218 X154.684 Y9.908 Z-0.903 
N219 X154.686 Y9.859 Z-0.840 
N220 X154.689 Y9.810 Z-0.778 
N221 X154.692 Y9.761 Z-0.715 
N222 X154.695 Y9.712 Z-0.652 
N223 X154.697 Y9.663 Z-0.589 
N224 X154.700 Y9.614 Z-0.527 
N225 X154.703 Y9.565 Z-0.464 
N226 X154.705 Y9.516 Z-0.401 
N227 X154.708 Y9.467 Z-0.338 
N228 X154.711 Y9.418 Z-0.276 
N229 X154.714 Y9.369 Z-0.213 
N230 X154.716 Y9.320 Z-0.150 
N231 X154.719 Y9.271 Z-0.087 
N232 X154.721 Y9.222 Z-0.025 
N233 X154.724 Y9.173 Z0.038 
N234 X154.726 Y9.124 Z0.101 
N235 X154.729 Y9.074 Z0.164 
N236 X154.731 Y9.025 Z0.226 
N237 X154.733 Y8.976 Z0.289 
N238 X154.736 Y8.927 Z0.352 
N239 X154.738 Y8.878 Z0.415 
N240 X154.741 Y8.829 Z0.477 
N241 X154.743 Y8.780 Z0.540 
N242 X154.745 Y8.731 Z0.603 
N243 X154.748 Y8.682 Z0.666 
N244 X154.750 Y8.633 Z0.729 
N245 X154.752 Y8.584 Z0.791 
N246 X154.754 Y8.535 Z0.854 
N247 X154.757 Y8.486 Z0.917 
N248 X154.759 Y8.437 Z0.980 
N249 X154.761 Y8.388 Z1.042 
N250 X154.763 Y8.339 Z1.105 
N251 X154.765 Y8.290 Z1.168 
N252 X154.767 Y8.241 Z1.231 
N253 X154.769 Y8.192 Z1.293 
N254 X154.771 Y8.143 Z1.356 
N255 X154.773 Y8.094 Z1.419 
N256 X154.775 Y8.045 Z1.482 
N257 X154.777 Y7.996 Z1.544 
N258 X154.780 Y7.947 Z1.607 
N259 X154.782 Y7.898 Z1.670 
N260 X154.783 Y7.849 Z1.733 
N261 X154.785 Y7.800 Z1.795 
N262 X154.787 Y7.751 Z1.858 
N263 X154.789 Y7.702 Z1.921 
N264 X154.790 Y7.652 Z1.984 
N265 X154.792 Y7.603 Z2.047 
N266 X154.794 Y7.554 Z2.109 
N267 X154.796 Y7.505 Z2.172 
N268 X154.797 Y7.456 Z2.235 
N269 X154.799 Y7.407 Z2.298 
N270 X154.801 Y7.358 Z2.360 
N271 X154.803 Y7.309 Z2.423 
N272 X154.804 Y7.260 Z2.486 
N273 X154.806 Y7.211 Z2.549 
N274 X154.808 Y7.162 Z2.611 
N275 X154.809 Y7.113 Z2.674 
N276 X154.811 Y7.064 Z2.737 
N277 X154.812 Y7.015 Z2.800 
N278 X154.813 Y6.966 Z2.863 
N279 X154.815 Y6.917 Z2.925 
N280 X154.816 Y6.868 Z2.988 
N281 X154.818 Y6.819 Z3.051 
N282 X154.819 Y6.770 Z3.114 
N283 X154.820 Y6.721 Z3.176 
N284 X154.822 Y6.672 Z3.239 
N285 X154.823 Y6.623 Z3.302 
N286 X154.825 Y6.574 Z3.365 
N287 X154.826 Y6.524 Z3.428 
N288 X154.827 Y6.475 Z3.490 
N289 X154.829 Y6.426 Z3.553 
N290 X154.830 Y6.377 Z3.616 
N291 X154.831 Y6.328 Z3.679 
N292 X154.832 Y6.279 Z3.741 
N293 X154.833 Y6.230 Z3.804 
N294 X154.834 Y6.181 Z3.867 
N295 X154.835 Y6.132 Z3.930 
N296 X154.836 Y6.083 Z3.993 
N297 X154.837 Y6.034 Z4.055 
N298 X154.838 Y5.985 Z4.118 
N299 X154.839 Y5.936 Z4.181 
N300 X154.840 Y5.887 Z4.244 
N301 X154.841 Y5.838 Z4.306 
N302 X154.842 Y5.789 Z4.369 
N303 X154.843 Y5.740 Z4.432 
N304 X154.844 Y5.691 Z4.495 
N305 X154.846 Y5.642 Z4.558 
N306 X154.847 Y5.593 Z4.620 
N307 X154.848 Y5.544 Z4.683 
N308 X154.848 Y5.494 Z4.746 
N309 X154.849 Y5.445 Z4.809 
N310 X154.850 Y5.396 Z4.872 
N311 X154.850 Y5.347 Z4.934 
N312 X154.851 Y5.298 Z4.997 
N313 X154.851 Y5.249 Z5.060 
N314 X154.852 Y5.200 Z5.123 
N315 X154.853 Y5.151 Z5.185 
N316 X154.853 Y5.102 Z5.248 
N317 X154.854 Y5.053 Z5.311 
N318 X154.855 Y5.004 Z5.374 
N319 X154.855 Y4.955 Z5.437 
N320 X154.856 Y4.906 Z5.499 
N321 X154.856 Y4.857 Z5.562 
N322 X154.857 Y4.808 Z5.625 
N323 X154.858 Y4.759 Z5.688 
N324 X154.858 Y4.710 Z5.750 
N325 X154.859 Y4.661 Z5.813 
N326 X154.859 Y4.611 Z5.876 
N327 X154.860 Y4.562 Z5.939 
N328 X154.861 Y4.513 Z6.002 
N329 X154.861 Y4.464 Z6.065 
N330 X154.862 Y4.414 Z6.128 
N331 X154.863 Y4.365 Z6.191 
N332 X154.863 Y4.316 Z6.255 
N333 X154.864 Y4.267 Z6.318 
N334 X154.864 Y4.217 Z6.381 
N335 X154.865 Y4.168 Z6.444 
N336 X154.866 Y4.119 Z6.507 
N337 X154.866 Y4.070 Z6.570 
N338 X154.867 Y4.020 Z6.633 
N339 X154.868 Y3.971 Z6.696 
N340 X154.868 Y3.922 Z6.759 
N341 X154.869 Y3.873 Z6.822 
N342 X154.869 Y3.823 Z6.885 
N343 X154.870 Y3.774 Z6.948 
N344 X154.871 Y3.725 Z7.011 
N345 X154.871 Y3.676 Z7.074 
N346 X154.872 Y3.626 Z7.137 
N347 X154.873 Y3.577 Z7.200 
N348 X154.873 Y3.528 Z7.263 
N349 X154.874 Y3.479 Z7.326 
N350 X154.874 Y3.429 Z7.389 
N351 X154.875 Y3.380 Z7.452 
N352 X154.876 Y3.331 Z7.515 
N353 X154.876 Y3.282 Z7.578 
N354 X154.877 Y3.232 Z7.641 
N355 X154.878 Y3.183 Z7.704 
N356 X154.878 Y3.134 Z7.767 
N357 X154.879 Y3.085 Z7.831 
N358 X154.879 Y3.035 Z7.894 
N359 X154.880 Y2.986 Z7.957 
N360 X154.881 Y2.937 Z8.020 
N361 X154.881 Y2.888 Z8.083 
N362 X154.882 Y2.838 Z8.146 
N363 X154.883 Y2.789 Z8.209 
N364 X154.883 Y2.740 Z8.272 
N365 X154.884 Y2.691 Z8.335 
N366 X154.884 Y2.641 Z8.398 
N367 X154.885 Y2.592 Z8.461 
N368 X154.886 Y2.543 Z8.524 
N369 X154.886 Y2.494 Z8.587 
N370 X154.887 Y2.444 Z8.650 
N371 X154.888 Y2.395 Z8.713 
N372 X154.888 Y2.346 Z8.776 
N373 X154.889 Y2.297 Z8.839 
N374 X154.889 Y2.247 Z8.902 
N375 X154.890 Y2.198 Z8.965 
N376 G40 X154.890 Y2.145 Z9.034 F387
N377 X154.890 Y2.145 Z9.034 
N378 X154.890 Y2.069 Z9.130 F597 
N379 X154.890 Y1.950 Z9.282 F946 
N380 X154.890 Y1.773 Z9.509 F1295 
N381 X154.890 Y1.552 Z9.791 F1504 
N382 X154.890 Y1.310 Z10.102 F1574 
N383 X154.890 Y1.069 Z10.411 
N384 X154.891 Y0.827 Z10.720 
N385 X154.893 Y0.586 Z11.028 
N386 X154.895 Y0.345 Z11.337 
N387 X154.898 Y0.104 Z11.646 
N388 X154.902 Y-0.137 Z11.955 
N389 X154.908 Y-0.379 Z12.263 
N390 X154.915 Y-0.620 Z12.572 
N391 X154.923 Y-0.861 Z12.881 
N392 X154.933 Y-1.102 Z13.189 
N393 X154.946 Y-1.343 Z13.498 
N394 X154.960 Y-1.584 Z13.806 
N395 X154.977 Y-1.825 Z14.115 
N396 X154.997 Y-2.066 Z14.423 
N397 X155.020 Y-2.307 Z14.731 
N398 X155.046 Y-2.548 Z15.039 
N399 X155.076 Y-2.788 Z15.347 
N400 X155.110 Y-3.028 Z15.655 
N401 X155.150 Y-3.268 Z15.962 
N402 X155.196 Y-3.508 Z16.269 
N403 X155.253 Y-3.747 Z16.574 
N404 X155.330 Y-3.983 Z16.877 
N405 X155.487 Y-3.991 Z16.887 
N406 X155.528 Y-3.747 Z16.574 
N407 X155.548 Y-3.518 Z16.282 
N408 X155.561 Y-3.279 Z15.975 
N409 X155.570 Y-3.020 Z15.644 
N410 X155.575 Y-2.773 Z15.328 
N411 X155.578 Y-2.545 Z15.035 
N412 X155.580 Y-2.317 Z14.744 
N413 X155.581 Y-2.084 Z14.446 
N414 X155.581 Y-1.843 Z14.138 
N415 X155.581 Y-1.594 Z13.819 
N416 X155.580 Y-1.335 Z13.487 F1504 
N417 X155.579 Y-1.093 Z13.177 F1295 
N418 X155.578 Y-0.908 Z12.941 F946 
N419 X155.577 Y-0.798 Z12.800 F597 
N420 X155.577 Y-0.735 Z12.719 F387 
N421 ;NNTE Finishing
N422 D2 
N423 G01 G41 X155.577 Y-0.696 Z12.669 F318
N424 X155.577 Y-0.696 Z12.669 F318 
N425 X155.577 Y-0.649 Z12.609 
N426 X155.578 Y-0.601 Z12.548 
N427 X155.578 Y-0.554 Z12.488 
N428 X155.579 Y-0.507 Z12.427 
N429 X155.579 Y-0.459 Z12.366 
N430 X155.579 Y-0.412 Z12.306 
N431 X155.580 Y-0.365 Z12.245 
N432 X155.580 Y-0.317 Z12.184 
N433 X155.581 Y-0.270 Z12.124 
N434 X155.581 Y-0.222 Z12.063 
N435 X155.582 Y-0.175 Z12.003 
N436 X155.582 Y-0.128 Z11.942 
N437 X155.582 Y-0.080 Z11.881 
N438 X155.583 Y-0.031 Z11.818 
N439 X155.583 Y0.018 Z11.755 
N440 X155.584 Y0.067 Z11.692 
N441 X155.584 Y0.117 Z11.629 
N442 X155.584 Y0.166 Z11.566 
N443 X155.585 Y0.215 Z11.503 
N444 X155.585 Y0.264 Z11.440 
N445 X155.586 Y0.314 Z11.377 
N446 X155.586 Y0.363 Z11.314 
N447 X155.587 Y0.412 Z11.251 
N448 X155.587 Y0.461 Z11.188 
N449 X155.588 Y0.511 Z11.125 
N450 X155.588 Y0.560 Z11.062 
N451 X155.588 Y0.609 Z10.999 
N452 X155.589 Y0.658 Z10.936 
N453 X155.589 Y0.708 Z10.873 
N454 X155.590 Y0.757 Z10.810 
N455 X155.590 Y0.806 Z10.747 
N456 X155.591 Y0.855 Z10.684 
N457 X155.591 Y0.905 Z10.621 
N458 X155.591 Y0.954 Z10.558 
N459 X155.592 Y1.003 Z10.494 
N460 X155.592 Y1.052 Z10.431 
N461 X155.593 Y1.102 Z10.368 
N462 X155.593 Y1.151 Z10.305 
N463 X155.594 Y1.200 Z10.242 
N464 X155.594 Y1.249 Z10.179 
N465 X155.594 Y1.299 Z10.116 
N466 X155.595 Y1.348 Z10.053 
N467 X155.595 Y1.397 Z9.990 
N468 X155.596 Y1.446 Z9.927 
N469 X155.596 Y1.496 Z9.864 
N470 X155.597 Y1.545 Z9.801 
N471 X155.597 Y1.594 Z9.738 
N472 X155.597 Y1.643 Z9.675 
N473 X155.598 Y1.693 Z9.612 
N474 X155.598 Y1.742 Z9.549 
N475 X155.599 Y1.791 Z9.486 
N476 X155.599 Y1.840 Z9.423 
N477 X155.600 Y1.890 Z9.360 
N478 X155.600 Y1.939 Z9.297 
N479 X155.600 Y1.988 Z9.234 
N480 X155.601 Y2.037 Z9.171 
N481 X155.601 Y2.087 Z9.108 
N482 X155.602 Y2.136 Z9.045 
N483 X155.602 Y2.185 Z8.982 
N484 X155.603 Y2.234 Z8.918 
N485 X155.603 Y2.284 Z8.855 
N486 X155.604 Y2.333 Z8.792 
N487 X155.604 Y2.382 Z8.729 
N488 X155.604 Y2.431 Z8.667 
N489 X155.605 Y2.480 Z8.604 
N490 X155.605 Y2.529 Z8.541 
N491 X155.606 Y2.578 Z8.479 
N492 X155.606 Y2.627 Z8.416 
N493 X155.607 Y2.676 Z8.353 
N494 X155.607 Y2.725 Z8.291 
N495 X155.607 Y2.774 Z8.228 
N496 X155.608 Y2.823 Z8.165 
N497 X155.608 Y2.872 Z8.102 
N498 X155.609 Y2.921 Z8.040 
N499 X155.609 Y2.970 Z7.977 
N500 X155.610 Y3.019 Z7.914 
N501 X155.610 Y3.068 Z7.852 
N502 X155.610 Y3.117 Z7.789 
N503 X155.611 Y3.166 Z7.726 
N504 X155.611 Y3.215 Z7.664 
N505 X155.612 Y3.264 Z7.601 
N506 X155.612 Y3.313 Z7.538 
N507 X155.612 Y3.362 Z7.475 
N508 X155.612 Y3.411 Z7.413 
N509 X155.612 Y3.460 Z7.350 
N510 X155.612 Y3.509 Z7.287 
N511 X155.612 Y3.558 Z7.225 
N512 X155.612 Y3.607 Z7.162 
N513 X155.612 Y3.656 Z7.099 
N514 X155.612 Y3.705 Z7.037 
N515 X155.612 Y3.754 Z6.974 
N516 X155.612 Y3.803 Z6.911 
N517 X155.612 Y3.852 Z6.849 
N518 X155.612 Y3.901 Z6.786 
N519 X155.612 Y3.950 Z6.723 
N520 X155.612 Y3.999 Z6.660 
N521 X155.612 Y4.048 Z6.598 
N522 X155.612 Y4.097 Z6.535 
N523 X155.612 Y4.146 Z6.472 
N524 X155.612 Y4.195 Z6.410 
N525 X155.611 Y4.244 Z6.347 
N526 X155.611 Y4.293 Z6.284 
N527 X155.611 Y4.342 Z6.222 
N528 X155.610 Y4.391 Z6.159 
N529 X155.610 Y4.440 Z6.096 
N530 X155.609 Y4.488 Z6.034 
N531 X155.609 Y4.537 Z5.971 
N532 X155.609 Y4.586 Z5.908 
N533 X155.608 Y4.635 Z5.845 
N534 X155.608 Y4.684 Z5.783 
N535 X155.607 Y4.733 Z5.720 
N536 X155.607 Y4.782 Z5.657 
N537 X155.607 Y4.831 Z5.595 
N538 X155.606 Y4.880 Z5.532 
N539 X155.606 Y4.929 Z5.469 
N540 X155.605 Y4.978 Z5.407 
N541 X155.605 Y5.027 Z5.344 
N542 X155.604 Y5.076 Z5.281 
N543 X155.604 Y5.125 Z5.218 
N544 X155.603 Y5.174 Z5.156 
N545 X155.602 Y5.223 Z5.093 
N546 X155.601 Y5.272 Z5.030 
N547 X155.600 Y5.321 Z4.968 
N548 X155.600 Y5.370 Z4.905 
N549 X155.599 Y5.419 Z4.842 
N550 X155.598 Y5.468 Z4.780 
N551 X155.597 Y5.517 Z4.717 
N552 X155.597 Y5.566 Z4.654 
N553 X155.596 Y5.615 Z4.592 
N554 X155.595 Y5.664 Z4.529 
N555 X155.594 Y5.713 Z4.466 
N556 X155.593 Y5.762 Z4.403 
N557 X155.593 Y5.811 Z4.341 
N558 X155.592 Y5.860 Z4.278 
N559 X155.591 Y5.909 Z4.215 
N560 X155.590 Y5.958 Z4.153 
N561 X155.588 Y6.007 Z4.090 
N562 X155.587 Y6.056 Z4.027 
N563 X155.586 Y6.105 Z3.965 
N564 X155.585 Y6.154 Z3.902 
N565 X155.584 Y6.203 Z3.839 
N566 X155.583 Y6.252 Z3.777 
N567 X155.581 Y6.301 Z3.714 
N568 X155.580 Y6.350 Z3.651 
N569 X155.579 Y6.399 Z3.589 
N570 X155.578 Y6.448 Z3.526 
N571 X155.577 Y6.497 Z3.463 
N572 X155.576 Y6.546 Z3.400 
N573 X155.575 Y6.595 Z3.338 
N574 X155.573 Y6.644 Z3.275 
N575 X155.572 Y6.693 Z3.212 
N576 X155.570 Y6.742 Z3.150 
N577 X155.569 Y6.791 Z3.087 
N578 X155.567 Y6.839 Z3.024 
N579 X155.566 Y6.888 Z2.962 
N580 X155.564 Y6.937 Z2.899 
N581 X155.563 Y6.986 Z2.836 
N582 X155.561 Y7.035 Z2.774 
N583 X155.560 Y7.084 Z2.711 
N584 X155.558 Y7.133 Z2.648 
N585 X155.557 Y7.182 Z2.586 
N586 X155.555 Y7.231 Z2.523 
N587 X155.554 Y7.280 Z2.460 
N588 X155.552 Y7.329 Z2.398 
N589 X155.551 Y7.378 Z2.335 
N590 X155.549 Y7.427 Z2.272 
N591 X155.547 Y7.476 Z2.209 
N592 X155.545 Y7.525 Z2.147 
N593 X155.544 Y7.574 Z2.084 
N594 X155.542 Y7.623 Z2.021 
N595 X155.540 Y7.672 Z1.959 
N596 X155.538 Y7.721 Z1.896 
N597 X155.536 Y7.770 Z1.833 
N598 X155.534 Y7.819 Z1.771 
N599 X155.533 Y7.868 Z1.708 
N600 X155.531 Y7.917 Z1.645 
N601 X155.529 Y7.966 Z1.583 
N602 X155.527 Y8.015 Z1.520 
N603 X155.525 Y8.064 Z1.457 
N604 X155.523 Y8.113 Z1.395 
N605 X155.521 Y8.162 Z1.332 
N606 X155.519 Y8.211 Z1.269 
N607 X155.517 Y8.260 Z1.207 
N608 X155.515 Y8.309 Z1.144 
N609 X155.512 Y8.358 Z1.081 
N610 X155.510 Y8.407 Z1.019 
N611 X155.508 Y8.456 Z0.956 
N612 X155.506 Y8.504 Z0.893 
N613 X155.504 Y8.553 Z0.831 
N614 X155.502 Y8.602 Z0.768 
N615 X155.500 Y8.651 Z0.705 
N616 X155.497 Y8.700 Z0.643 
N617 X155.495 Y8.749 Z0.580 
N618 X155.493 Y8.798 Z0.517 
N619 X155.490 Y8.847 Z0.455 
N620 X155.488 Y8.896 Z0.392 
N621 X155.485 Y8.945 Z0.329 
N622 X155.483 Y8.994 Z0.267 
N623 X155.481 Y9.043 Z0.204 
N624 X155.478 Y9.092 Z0.141 
N625 X155.476 Y9.141 Z0.079 
N626 X155.474 Y9.190 Z0.016 
N627 X155.471 Y9.239 Z-0.047 
N628 X155.468 Y9.288 Z-0.109 
N629 X155.466 Y9.337 Z-0.172 
N630 X155.463 Y9.386 Z-0.235 
N631 X155.460 Y9.435 Z-0.297 
N632 X155.458 Y9.484 Z-0.360 
N633 X155.455 Y9.533 Z-0.423 
N634 X155.452 Y9.582 Z-0.485 
N635 X155.450 Y9.631 Z-0.548 
N636 X155.447 Y9.679 Z-0.611 
N637 X155.445 Y9.728 Z-0.673 
N638 X155.442 Y9.777 Z-0.736 
N639 X155.439 Y9.826 Z-0.799 
N640 X155.436 Y9.875 Z-0.861 
N641 X155.433 Y9.924 Z-0.924 
N642 X155.430 Y9.973 Z-0.987 
N643 X155.427 Y10.022 Z-1.049 
N644 X155.424 Y10.071 Z-1.112 
N645 X155.422 Y10.120 Z-1.175 
N646 X155.419 Y10.169 Z-1.237 
N647 X155.416 Y10.218 Z-1.300 
N648 X155.413 Y10.267 Z-1.363 
N649 X155.410 Y10.316 Z-1.425 
N650 X155.407 Y10.365 Z-1.488 
N651 X155.404 Y10.414 Z-1.550 
N652 X155.400 Y10.463 Z-1.613 
N653 X155.397 Y10.512 Z-1.676 
N654 X155.394 Y10.561 Z-1.738 
N655 X155.391 Y10.610 Z-1.801 
N656 X155.388 Y10.658 Z-1.864 
N657 X155.385 Y10.707 Z-1.926 
N658 X155.382 Y10.756 Z-1.989 
N659 X155.378 Y10.805 Z-2.052 
N660 X155.375 Y10.854 Z-2.114 
N661 X155.371 Y10.903 Z-2.177 
N662 X155.368 Y10.952 Z-2.240 
N663 X155.364 Y11.001 Z-2.302 
N664 X155.361 Y11.050 Z-2.365 
N665 X155.358 Y11.099 Z-2.427 
N666 X155.354 Y11.148 Z-2.490 
N667 X155.351 Y11.197 Z-2.553 
N668 X155.347 Y11.246 Z-2.615 
N669 X155.344 Y11.295 Z-2.678 
N670 X155.340 Y11.344 Z-2.741 
N671 X155.337 Y11.393 Z-2.803 
N672 X155.334 Y11.441 Z-2.866 
N673 X155.330 Y11.490 Z-2.929 
N674 X155.327 Y11.539 Z-2.991 
N675 X155.323 Y11.588 Z-3.054 
N676 X155.320 Y11.637 Z-3.116 
N677 X155.316 Y11.686 Z-3.179 
N678 X155.312 Y11.735 Z-3.242 
N679 X155.308 Y11.784 Z-3.304 
N680 X155.305 Y11.833 Z-3.367 
N681 X155.301 Y11.882 Z-3.430 
N682 X155.297 Y11.931 Z-3.492 
N683 X155.293 Y11.980 Z-3.555 
N684 X155.289 Y12.029 Z-3.617 
N685 X155.285 Y12.078 Z-3.680 
N686 X155.282 Y12.126 Z-3.743 
N687 X155.278 Y12.175 Z-3.805 
N688 X155.274 Y12.224 Z-3.868 
N689 X155.270 Y12.273 Z-3.931 
N690 X155.266 Y12.322 Z-3.993 
N691 X155.263 Y12.371 Z-4.056 
N692 X155.259 Y12.420 Z-4.118 
N693 X155.255 Y12.469 Z-4.181 
N694 X155.251 Y12.518 Z-4.244 
N695 X155.247 Y12.567 Z-4.307 
N696 X155.243 Y12.617 Z-4.370 
N697 X155.239 Y12.666 Z-4.433 
N698 X155.236 Y12.715 Z-4.496 
N699 X155.232 Y12.764 Z-4.559 
N700 X155.228 Y12.813 Z-4.622 
N701 X155.224 Y12.863 Z-4.685 
N702 X155.220 Y12.912 Z-4.748 
N703 X155.216 Y12.961 Z-4.811 
N704 X155.213 Y13.010 Z-4.874 
N705 X155.209 Y13.059 Z-4.937 
N706 X155.205 Y13.109 Z-5.000 
N707 X155.201 Y13.158 Z-5.063 
N708 X155.197 Y13.207 Z-5.126 
N709 X155.193 Y13.256 Z-5.189 
N710 X155.189 Y13.305 Z-5.251 
N711 X155.186 Y13.354 Z-5.314 
N712 X155.182 Y13.404 Z-5.377 
N713 X155.178 Y13.453 Z-5.440 
N714 X155.174 Y13.502 Z-5.503 
N715 X155.170 Y13.551 Z-5.566 
N716 X155.166 Y13.600 Z-5.629 
N717 X155.162 Y13.650 Z-5.692 
N718 X155.159 Y13.699 Z-5.755 
N719 X155.155 Y13.748 Z-5.818 
N720 X155.151 Y13.797 Z-5.881 
N721 X155.147 Y13.846 Z-5.944 
N722 X155.143 Y13.896 Z-6.007 
N723 X155.139 Y13.945 Z-6.070 
N724 X155.136 Y13.994 Z-6.133 
N725 X155.132 Y14.043 Z-6.196 
N726 X155.128 Y14.092 Z-6.259 
N727 X155.124 Y14.142 Z-6.322 
N728 X155.120 Y14.191 Z-6.385 
N729 X155.116 Y14.240 Z-6.448 
N730 X155.112 Y14.289 Z-6.511 
N731 X155.109 Y14.338 Z-6.574 
N732 X155.105 Y14.388 Z-6.637 
N733 X155.101 Y14.437 Z-6.700 
N734 X155.097 Y14.486 Z-6.763 
N735 X155.093 Y14.535 Z-6.826 
N736 X155.089 Y14.584 Z-6.889 
N737 X155.086 Y14.634 Z-6.952 
N738 X155.082 Y14.683 Z-7.015 
N739 X155.078 Y14.732 Z-7.078 
N740 X155.074 Y14.781 Z-7.141 
N741 X155.070 Y14.830 Z-7.203 
N742 X155.066 Y14.880 Z-7.266 
N743 X155.062 Y14.929 Z-7.329 
N744 G40 X154.581 Y21.078 Z-15.200 F318
N745 X154.581 Y21.078 Z-15.200 
N746 G00 X154.581 Y60.479 Z15.583 
RAPORT("T44444","Side Milling:131 End")
N748 ;trailer : concat=None
; points cnt = 688
N749 MSG (" --- GROUPED OF SUBPROGRAM --- ")
N750 FGROUP()
N751 TRAFOOF
N10 ; PROGRAM NAME: 4444447
N11 ; ORDER       : 44444
N12 ; OPER. NAME  : Side Milling:132
N13 ; OPER. DESCR.: HHU SemiFinish milling NGA
N14 ; OPER. TYPE  : sideMill
N15 ; GEO. OPTION : 3
N16 ; MACHINE     : SH_HX151_24_SIM840D
N17 ;             : STARRAG_HECKERT_5axis_finish_milling_machine
N18 ; CONTROL     : SINUMERIK 840D
N19 ; created:   2022-11-03 13:36:31.549652
;-------DODATKOWE DANE-------------------
; PROGRAMISTA : Mariusz Malec
; PARTID      : 139T004654P1015_-
;  ap         : 19.0
;  ae         : 6.4
;  lean_angle : 0.0
;  fin_offset : 0.0
;----------------------------------------
N20 ;----------------------------------------
RAPORT("T44444","Side Milling:132")
N21 TRAFOOF
N22 D0
N23 G0 G90 G94 Z260.0
N24 STOPRE
N25 M9 ; chlodziwo wyl
N26 ; --- Side Milling:132 - HHU SemiFinish milling NGA ---
N28 ;ToolChange : concat=None ,current_tdmid=None, PP.tdmId=940729
N29 TRAFOOF
N30 D0
N31 G0 G54 Z270.0
N32 S3978 M03
N33 STOPRE
N34 TOL(0.1,1,1)
N35 G0  A128.0000
N36 TRAORI
N37 G54 D3
N38 D3 
STOPRE
E_ZDARZ=300010
;ACS_FINISH_SLOT=7740729
STOPRE
N39 ; DELTA A > 40.1
N40 TRAFOOF
N41 STOPRE
N42 G0 G53 D0 Z265.000
N43 G1 G53 A128.0000 F10000
N44 TRAORI
N45 G54 D3
N46 TRANS 
N47 G00 X153.391 Y-74.197 Z-11.549 A128.0000 B0.0000 
N48 M342 ; chlodziwo woda
N49 X153.391 Y-34.797 Z19.234 
N50 G01 X153.421 Y-32.061 Z20.752 F318 
N51 X153.507 Y-28.991 Z21.351 
N52 X153.640 Y-25.888 Z20.973 
N53 X153.808 Y-23.056 Z19.654 
N54 ;NTA SemiFinishing
N55 D3 
N56 G01 G41 X153.994 Y-20.771 Z17.525 F318
N57 X153.994 Y-20.771 Z17.525 
N58 X154.001 Y-20.703 Z17.438 
N59 X154.007 Y-20.635 Z17.350 
N60 X154.014 Y-20.566 Z17.263 
N61 X154.021 Y-20.498 Z17.176 
N62 X154.028 Y-20.430 Z17.088 
N63 X154.034 Y-20.362 Z17.001 
N64 X154.041 Y-20.293 Z16.913 
N65 X154.048 Y-20.225 Z16.826 
N66 X154.054 Y-20.157 Z16.739 
N67 X154.061 Y-20.092 Z16.656 
N68 X154.067 Y-20.027 Z16.573 
N69 X154.073 Y-19.963 Z16.490 
N70 X154.080 Y-19.898 Z16.407 
N71 X154.086 Y-19.833 Z16.325 
N72 X154.092 Y-19.769 Z16.242 
N73 X154.099 Y-19.704 Z16.159 
N74 X154.105 Y-19.639 Z16.076 
N75 X154.111 Y-19.574 Z15.993 
N76 X154.118 Y-19.510 Z15.911 
N77 X154.124 Y-19.445 Z15.828 
N78 X154.130 Y-19.380 Z15.745 
N79 X154.137 Y-19.316 Z15.662 
N80 X154.143 Y-19.251 Z15.579 
N81 X154.149 Y-19.186 Z15.497 
N82 X154.156 Y-19.122 Z15.414 
N83 X154.162 Y-19.057 Z15.331 
N84 X154.169 Y-18.992 Z15.248 
N85 X154.175 Y-18.928 Z15.165 
N86 X154.181 Y-18.863 Z15.083 
N87 X154.188 Y-18.798 Z15.000 
N88 X154.194 Y-18.734 Z14.917 
N89 X154.200 Y-18.669 Z14.834 
N90 X154.207 Y-18.604 Z14.751 
N91 X154.213 Y-18.539 Z14.669 
N92 X154.219 Y-18.475 Z14.586 
N93 X154.226 Y-18.410 Z14.503 
N94 X154.232 Y-18.345 Z14.420 
N95 X154.238 Y-18.281 Z14.337 
N96 X154.245 Y-18.216 Z14.255 
N97 X154.251 Y-18.151 Z14.172 
N98 X154.257 Y-18.087 Z14.089 
N99 X154.264 Y-18.022 Z14.006 
N100 X154.270 Y-17.957 Z13.923 
N101 X154.276 Y-17.893 Z13.841 
N102 X154.283 Y-17.828 Z13.758 
N103 X154.289 Y-17.763 Z13.675 
N104 X154.295 Y-17.699 Z13.592 
N105 X154.302 Y-17.633 Z13.509 
N106 X154.308 Y-17.568 Z13.425 
N107 X154.315 Y-17.503 Z13.342 
N108 X154.321 Y-17.438 Z13.259 
N109 X154.327 Y-17.373 Z13.175 
N110 X154.334 Y-17.308 Z13.092 
N111 X154.340 Y-17.242 Z13.008 
N112 X154.346 Y-17.177 Z12.925 
N113 X154.353 Y-17.112 Z12.842 
N114 X154.359 Y-17.047 Z12.758 
N115 X154.366 Y-16.982 Z12.675 
N116 X154.372 Y-16.917 Z12.591 
N117 X154.378 Y-16.851 Z12.508 
N118 X154.385 Y-16.786 Z12.425 
N119 X154.391 Y-16.721 Z12.341 
N120 X154.398 Y-16.656 Z12.258 
N121 X154.404 Y-16.591 Z12.174 
N122 X154.410 Y-16.526 Z12.091 
N123 X154.417 Y-16.460 Z12.008 
N124 X154.423 Y-16.395 Z11.924 
N125 X154.430 Y-16.330 Z11.841 
N126 X154.436 Y-16.265 Z11.757 
N127 X154.442 Y-16.200 Z11.674 
N128 X154.449 Y-16.135 Z11.591 
N129 X154.455 Y-16.069 Z11.507 
N130 X154.461 Y-16.004 Z11.424 
N131 X154.468 Y-15.939 Z11.340 
N132 X154.474 Y-15.874 Z11.257 
N133 X154.481 Y-15.809 Z11.174 
N134 X154.487 Y-15.744 Z11.090 
N135 X154.492 Y-15.678 Z11.007 
N136 X154.497 Y-15.613 Z10.923 
N137 X154.502 Y-15.548 Z10.840 
N138 X154.507 Y-15.483 Z10.756 
N139 X154.512 Y-15.418 Z10.673 
N140 X154.517 Y-15.352 Z10.589 
N141 X154.522 Y-15.287 Z10.506 
N142 X154.528 Y-15.222 Z10.422 
N143 X154.533 Y-15.157 Z10.339 
N144 X154.538 Y-15.092 Z10.256 
N145 X154.543 Y-15.026 Z10.172 
N146 X154.548 Y-14.961 Z10.089 
N147 X154.553 Y-14.896 Z10.005 
N148 X154.558 Y-14.831 Z9.922 
N149 X154.563 Y-14.766 Z9.838 
N150 X154.568 Y-14.700 Z9.755 
N151 X154.573 Y-14.635 Z9.671 
N152 X154.579 Y-14.570 Z9.588 
N153 X154.584 Y-14.505 Z9.504 
N154 X154.589 Y-14.440 Z9.421 
N155 X154.594 Y-14.374 Z9.338 
N156 X154.599 Y-14.309 Z9.254 
N157 X154.604 Y-14.244 Z9.171 
N158 X154.609 Y-14.179 Z9.087 
N159 X154.614 Y-14.114 Z9.004 
N160 X154.619 Y-14.048 Z8.920 
N161 X154.625 Y-13.983 Z8.837 
N162 X154.630 Y-13.918 Z8.753 
N163 X154.635 Y-13.853 Z8.670 
N164 X154.640 Y-13.788 Z8.586 
N165 X154.645 Y-13.722 Z8.503 
N166 X154.650 Y-13.657 Z8.419 
N167 X154.655 Y-13.592 Z8.336 
N168 X154.660 Y-13.527 Z8.253 
N169 X154.664 Y-13.461 Z8.169 
N170 X154.667 Y-13.396 Z8.086 
N171 X154.671 Y-13.331 Z8.002 
N172 X154.675 Y-13.266 Z7.919 
N173 X154.678 Y-13.201 Z7.835 
N174 X154.682 Y-13.135 Z7.752 
N175 X154.685 Y-13.070 Z7.668 
N176 X154.689 Y-13.005 Z7.585 
N177 X154.693 Y-12.940 Z7.501 
N178 X154.696 Y-12.874 Z7.418 
N179 X154.700 Y-12.809 Z7.334 
N180 X154.703 Y-12.744 Z7.251 
N181 X154.707 Y-12.679 Z7.167 
N182 X154.711 Y-12.613 Z7.083 
N183 X154.714 Y-12.548 Z7.000 
N184 X154.718 Y-12.483 Z6.916 
N185 X154.721 Y-12.418 Z6.833 
N186 X154.725 Y-12.352 Z6.749 
N187 X154.729 Y-12.287 Z6.666 
N188 X154.732 Y-12.222 Z6.582 
N189 X154.736 Y-12.157 Z6.499 
N190 X154.739 Y-12.091 Z6.415 
N191 X154.743 Y-12.026 Z6.332 
N192 X154.747 Y-11.961 Z6.248 
N193 X154.750 Y-11.896 Z6.165 
N194 X154.754 Y-11.830 Z6.081 
N195 X154.757 Y-11.765 Z5.998 
N196 X154.761 Y-11.700 Z5.914 
N197 X154.765 Y-11.635 Z5.831 
N198 X154.768 Y-11.569 Z5.747 
N199 X154.772 Y-11.504 Z5.664 
N200 X154.775 Y-11.439 Z5.580 
N201 X154.779 Y-11.374 Z5.497 
N202 X154.782 Y-11.309 Z5.413 
N203 X154.786 Y-11.243 Z5.330 
N204 X154.790 Y-11.178 Z5.246 
N205 X154.793 Y-11.113 Z5.163 
N206 X154.797 Y-11.048 Z5.079 
N207 X154.800 Y-10.982 Z4.996 
N208 X154.804 Y-10.917 Z4.912 
N209 X154.807 Y-10.852 Z4.829 
N210 X154.809 Y-10.787 Z4.745 
N211 X154.811 Y-10.721 Z4.662 
N212 X154.813 Y-10.656 Z4.578 
N213 X154.814 Y-10.591 Z4.495 
N214 X154.816 Y-10.525 Z4.411 
N215 X154.818 Y-10.460 Z4.328 
N216 X154.820 Y-10.395 Z4.244 
N217 X154.822 Y-10.330 Z4.160 
N218 X154.823 Y-10.264 Z4.077 
N219 X154.825 Y-10.199 Z3.993 
N220 X154.827 Y-10.134 Z3.910 
N221 X154.829 Y-10.069 Z3.826 
N222 X154.831 Y-10.003 Z3.743 
N223 X154.832 Y-9.938 Z3.659 
N224 X154.834 Y-9.873 Z3.576 
N225 X154.836 Y-9.807 Z3.492 
N226 X154.838 Y-9.742 Z3.409 
N227 X154.839 Y-9.677 Z3.325 
N228 X154.841 Y-9.612 Z3.242 
N229 X154.843 Y-9.546 Z3.158 
N230 X154.845 Y-9.481 Z3.074 
N231 X154.847 Y-9.416 Z2.991 
N232 X154.848 Y-9.351 Z2.907 
N233 X154.850 Y-9.285 Z2.824 
N234 X154.852 Y-9.220 Z2.740 
N235 X154.854 Y-9.155 Z2.657 
N236 X154.856 Y-9.090 Z2.573 
N237 X154.857 Y-9.024 Z2.490 
N238 X154.859 Y-8.959 Z2.406 
N239 X154.861 Y-8.894 Z2.323 
N240 X154.863 Y-8.828 Z2.239 
N241 X154.864 Y-8.763 Z2.155 
N242 X154.866 Y-8.698 Z2.072 
N243 X154.868 Y-8.633 Z1.988 
N244 X154.870 Y-8.567 Z1.905 
N245 X154.872 Y-8.502 Z1.821 
N246 X154.873 Y-8.437 Z1.738 
N247 X154.875 Y-8.372 Z1.654 
N248 X154.877 Y-8.306 Z1.571 
N249 X154.879 Y-8.241 Z1.487 
N250 X154.881 Y-8.176 Z1.404 
N251 X154.882 Y-8.110 Z1.320 
N252 X154.884 Y-8.045 Z1.237 
N253 X154.886 Y-7.980 Z1.153 
N254 X154.888 Y-7.915 Z1.069 
N255 X154.889 Y-7.849 Z0.986 
N256 X154.891 Y-7.784 Z0.902 
N257 X154.893 Y-7.719 Z0.819 
N258 X154.895 Y-7.654 Z0.735 
N259 X154.897 Y-7.589 Z0.652 
N260 X154.898 Y-7.524 Z0.569 
N261 X154.900 Y-7.459 Z0.486 
N262 X154.902 Y-7.394 Z0.404 
N263 X154.904 Y-7.330 Z0.321 
N264 X154.906 Y-7.265 Z0.238 
N265 X154.907 Y-7.200 Z0.155 
N266 X154.909 Y-7.135 Z0.072 
N267 X154.911 Y-7.070 Z-0.011 
N268 X154.913 Y-7.006 Z-0.094 
N269 X154.914 Y-6.941 Z-0.177 
N270 X154.916 Y-6.876 Z-0.260 
N271 X154.918 Y-6.811 Z-0.343 
N272 X154.920 Y-6.746 Z-0.426 
N273 X154.921 Y-6.682 Z-0.509 
N274 X154.923 Y-6.617 Z-0.592 
N275 X154.925 Y-6.552 Z-0.675 
N276 X154.927 Y-6.487 Z-0.758 
N277 X154.929 Y-6.422 Z-0.841 
N278 X154.930 Y-6.358 Z-0.923 
N279 X154.932 Y-6.293 Z-1.006 
N280 X154.934 Y-6.228 Z-1.089 
N281 X154.936 Y-6.163 Z-1.172 
N282 X154.937 Y-6.098 Z-1.255 
N283 X154.939 Y-6.034 Z-1.338 
N284 X154.941 Y-5.969 Z-1.421 
N285 X154.943 Y-5.904 Z-1.504 
N286 X154.945 Y-5.839 Z-1.587 
N287 X154.946 Y-5.774 Z-1.670 
N288 X154.948 Y-5.710 Z-1.753 
N289 X154.950 Y-5.645 Z-1.836 
N290 X154.952 Y-5.580 Z-1.919 
N291 X154.953 Y-5.515 Z-2.002 
N292 X154.955 Y-5.450 Z-2.085 
N293 X154.957 Y-5.386 Z-2.168 
N294 X154.959 Y-5.321 Z-2.250 
N295 X154.960 Y-5.256 Z-2.333 
N296 X154.962 Y-5.191 Z-2.416 
N297 G40 X154.963 Y-5.125 Z-2.501 F419
N298 X154.963 Y-5.125 Z-2.501 
N299 X154.965 Y-5.021 Z-2.635 F722 
N300 X154.967 Y-4.842 Z-2.863 F1177 
N301 X154.970 Y-4.589 Z-3.188 F1480 
N302 X154.974 Y-4.297 Z-3.561 F1581 
N303 X154.978 Y-3.974 Z-3.974 
N304 X154.984 Y-3.651 Z-4.388 
N305 X154.990 Y-3.328 Z-4.801 
N306 X154.998 Y-3.005 Z-5.215 
N307 X155.007 Y-2.682 Z-5.628 
N308 X155.019 Y-2.359 Z-6.042 
N309 X155.033 Y-2.036 Z-6.455 
N310 X155.049 Y-1.713 Z-6.869 
N311 X155.069 Y-1.390 Z-7.282 
N312 X155.092 Y-1.067 Z-7.695 
N313 X155.119 Y-0.744 Z-8.108 
N314 X155.150 Y-0.422 Z-8.521 
N315 X155.187 Y-0.100 Z-8.933 
N316 X155.228 Y0.222 Z-9.346 
N317 X155.277 Y0.544 Z-9.757 
N318 X155.336 Y0.865 Z-10.168 
N319 X155.415 Y1.185 Z-10.577 
N320 X155.564 Y1.217 Z-10.618 
N321 X155.594 Y0.886 Z-10.195 
N322 X155.603 Y0.585 Z-9.810 
N323 X155.607 Y0.242 Z-9.371 
N324 X155.606 Y-0.097 Z-8.937 
N325 X155.604 Y-0.397 Z-8.553 
N326 X155.600 Y-0.701 Z-8.164 
N327 X155.594 Y-1.018 Z-7.757 
N328 X155.589 Y-1.320 Z-7.371 F1480 
N329 X155.583 Y-1.600 Z-7.012 F1177 
N330 X155.579 Y-1.809 Z-6.745 F722 
N331 X155.577 Y-1.914 Z-6.611 F419 
N332 ;NNTA SemiFinishing
N333 D4 
N334 G01 G41 X155.577 Y-1.962 Z-6.549 F318
N335 X155.577 Y-1.962 Z-6.549 F318 
N336 X155.576 Y-2.031 Z-6.461 
N337 X155.576 Y-2.099 Z-6.374 
N338 X155.576 Y-2.168 Z-6.286 
N339 X155.576 Y-2.236 Z-6.199 
N340 X155.575 Y-2.305 Z-6.111 
N341 X155.575 Y-2.373 Z-6.024 
N342 X155.575 Y-2.441 Z-5.936 
N343 X155.575 Y-2.510 Z-5.849 
N344 X155.574 Y-2.578 Z-5.761 
N345 X155.574 Y-2.643 Z-5.678 
N346 X155.574 Y-2.708 Z-5.595 
N347 X155.574 Y-2.773 Z-5.512 
N348 X155.573 Y-2.837 Z-5.429 
N349 X155.573 Y-2.902 Z-5.346 
N350 X155.573 Y-2.967 Z-5.263 
N351 X155.573 Y-3.032 Z-5.180 
N352 X155.572 Y-3.097 Z-5.097 
N353 X155.572 Y-3.161 Z-5.014 
N354 X155.572 Y-3.226 Z-4.932 
N355 X155.571 Y-3.291 Z-4.849 
N356 X155.571 Y-3.356 Z-4.766 
N357 X155.571 Y-3.421 Z-4.683 
N358 X155.571 Y-3.485 Z-4.600 
N359 X155.570 Y-3.550 Z-4.517 
N360 X155.570 Y-3.615 Z-4.434 
N361 X155.570 Y-3.680 Z-4.351 
N362 X155.570 Y-3.745 Z-4.268 
N363 X155.569 Y-3.809 Z-4.185 
N364 X155.569 Y-3.874 Z-4.102 
N365 X155.569 Y-3.939 Z-4.019 
N366 X155.569 Y-4.004 Z-3.936 
N367 X155.568 Y-4.069 Z-3.853 
N368 X155.568 Y-4.133 Z-3.770 
N369 X155.568 Y-4.198 Z-3.687 
N370 X155.568 Y-4.263 Z-3.604 
N371 X155.567 Y-4.328 Z-3.521 
N372 X155.567 Y-4.393 Z-3.438 
N373 X155.567 Y-4.458 Z-3.355 
N374 X155.567 Y-4.522 Z-3.273 
N375 X155.566 Y-4.587 Z-3.190 
N376 X155.566 Y-4.652 Z-3.107 
N377 X155.566 Y-4.717 Z-3.024 
N378 X155.566 Y-4.782 Z-2.941 
N379 X155.565 Y-4.846 Z-2.858 
N380 X155.565 Y-4.911 Z-2.775 
N381 X155.565 Y-4.976 Z-2.692 
N382 X155.565 Y-5.041 Z-2.609 
N383 X155.564 Y-5.106 Z-2.526 
N384 X155.564 Y-5.171 Z-2.442 
N385 X155.564 Y-5.236 Z-2.359 
N386 X155.564 Y-5.301 Z-2.276 
N387 X155.563 Y-5.366 Z-2.192 
N388 X155.563 Y-5.431 Z-2.109 
N389 X155.563 Y-5.496 Z-2.026 
N390 X155.563 Y-5.561 Z-1.943 
N391 X155.562 Y-5.627 Z-1.859 
N392 X155.562 Y-5.692 Z-1.776 
N393 X155.562 Y-5.757 Z-1.693 
N394 X155.562 Y-5.822 Z-1.609 
N395 X155.561 Y-5.887 Z-1.526 
N396 X155.561 Y-5.952 Z-1.443 
N397 X155.561 Y-6.017 Z-1.359 
N398 X155.560 Y-6.082 Z-1.276 
N399 X155.560 Y-6.147 Z-1.193 
N400 X155.560 Y-6.212 Z-1.110 
N401 X155.560 Y-6.277 Z-1.026 
N402 X155.559 Y-6.342 Z-0.943 
N403 X155.559 Y-6.407 Z-0.860 
N404 X155.559 Y-6.473 Z-0.776 
N405 X155.559 Y-6.538 Z-0.693 
N406 X155.558 Y-6.603 Z-0.610 
N407 X155.558 Y-6.668 Z-0.526 
N408 X155.558 Y-6.733 Z-0.443 
N409 X155.558 Y-6.798 Z-0.360 
N410 X155.557 Y-6.863 Z-0.277 
N411 X155.557 Y-6.928 Z-0.193 
N412 X155.557 Y-6.993 Z-0.110 
N413 X155.557 Y-7.058 Z-0.027 
N414 X155.556 Y-7.123 Z0.057 
N415 X155.556 Y-7.188 Z0.140 
N416 X155.556 Y-7.254 Z0.223 
N417 X155.556 Y-7.319 Z0.307 
N418 X155.555 Y-7.384 Z0.390 
N419 X155.555 Y-7.449 Z0.473 
N420 X155.555 Y-7.514 Z0.557 
N421 X155.555 Y-7.579 Z0.640 
N422 X155.554 Y-7.644 Z0.723 
N423 X155.554 Y-7.709 Z0.806 
N424 X155.554 Y-7.774 Z0.890 
N425 X155.554 Y-7.839 Z0.973 
N426 X155.553 Y-7.904 Z1.056 
N427 X155.553 Y-7.969 Z1.140 
N428 X155.553 Y-8.035 Z1.223 
N429 X155.553 Y-8.100 Z1.306 
N430 X155.552 Y-8.165 Z1.390 
N431 X155.552 Y-8.230 Z1.473 
N432 X155.552 Y-8.295 Z1.556 
N433 X155.552 Y-8.360 Z1.639 
N434 X155.551 Y-8.425 Z1.723 
N435 X155.551 Y-8.490 Z1.806 
N436 X155.550 Y-8.555 Z1.889 
N437 X155.547 Y-8.620 Z1.973 
N438 X155.545 Y-8.685 Z2.056 
N439 X155.543 Y-8.750 Z2.139 
N440 X155.541 Y-8.815 Z2.222 
N441 X155.539 Y-8.881 Z2.306 
N442 X155.537 Y-8.946 Z2.389 
N443 X155.534 Y-9.011 Z2.472 
N444 X155.532 Y-9.076 Z2.556 
N445 X155.530 Y-9.141 Z2.639 
N446 X155.528 Y-9.206 Z2.722 
N447 X155.526 Y-9.271 Z2.805 
N448 X155.524 Y-9.336 Z2.889 
N449 X155.521 Y-9.401 Z2.972 
N450 X155.519 Y-9.466 Z3.055 
N451 X155.517 Y-9.531 Z3.139 
N452 X155.515 Y-9.596 Z3.222 
N453 X155.513 Y-9.661 Z3.305 
N454 X155.511 Y-9.726 Z3.388 
N455 X155.508 Y-9.792 Z3.472 
N456 X155.506 Y-9.857 Z3.555 
N457 X155.504 Y-9.922 Z3.638 
N458 X155.502 Y-9.987 Z3.722 
N459 X155.500 Y-10.052 Z3.805 
N460 X155.498 Y-10.117 Z3.888 
N461 X155.495 Y-10.182 Z3.971 
N462 X155.493 Y-10.247 Z4.055 
N463 X155.491 Y-10.312 Z4.138 
N464 X155.489 Y-10.377 Z4.221 
N465 X155.487 Y-10.442 Z4.305 
N466 X155.485 Y-10.507 Z4.388 
N467 X155.482 Y-10.572 Z4.471 
N468 X155.480 Y-10.637 Z4.554 
N469 X155.478 Y-10.702 Z4.638 
N470 X155.476 Y-10.768 Z4.721 
N471 X155.474 Y-10.833 Z4.804 
N472 X155.472 Y-10.898 Z4.888 
N473 X155.469 Y-10.963 Z4.971 
N474 X155.467 Y-11.028 Z5.054 
N475 X155.465 Y-11.093 Z5.137 
N476 X155.463 Y-11.158 Z5.221 
N477 X155.461 Y-11.223 Z5.304 
N478 X155.458 Y-11.288 Z5.387 
N479 X155.454 Y-11.353 Z5.470 
N480 X155.450 Y-11.418 Z5.554 
N481 X155.445 Y-11.483 Z5.637 
N482 X155.441 Y-11.548 Z5.720 
N483 X155.437 Y-11.613 Z5.803 
N484 X155.433 Y-11.678 Z5.887 
N485 X155.429 Y-11.743 Z5.970 
N486 X155.424 Y-11.808 Z6.053 
N487 X155.420 Y-11.873 Z6.136 
N488 X155.416 Y-11.938 Z6.220 
N489 X155.412 Y-12.003 Z6.303 
N490 X155.408 Y-12.068 Z6.386 
N491 X155.404 Y-12.133 Z6.469 
N492 X155.399 Y-12.199 Z6.553 
N493 X155.395 Y-12.264 Z6.636 
N494 X155.391 Y-12.329 Z6.719 
N495 X155.387 Y-12.394 Z6.802 
N496 X155.383 Y-12.459 Z6.886 
N497 X155.378 Y-12.524 Z6.969 
N498 X155.374 Y-12.589 Z7.052 
N499 X155.370 Y-12.654 Z7.135 
N500 X155.366 Y-12.719 Z7.218 
N501 X155.362 Y-12.784 Z7.302 
N502 X155.357 Y-12.849 Z7.385 
N503 X155.353 Y-12.914 Z7.468 
N504 X155.349 Y-12.979 Z7.551 
N505 X155.345 Y-13.044 Z7.635 
N506 X155.341 Y-13.109 Z7.718 
N507 X155.337 Y-13.174 Z7.801 
N508 X155.332 Y-13.239 Z7.884 
N509 X155.328 Y-13.304 Z7.968 
N510 X155.324 Y-13.369 Z8.051 
N511 X155.320 Y-13.434 Z8.134 
N512 X155.316 Y-13.499 Z8.217 
N513 X155.311 Y-13.564 Z8.301 
N514 X155.307 Y-13.629 Z8.384 
N515 X155.303 Y-13.694 Z8.467 
N516 X155.299 Y-13.759 Z8.550 
N517 X155.295 Y-13.824 Z8.633 
N518 X155.290 Y-13.889 Z8.717 
N519 X155.286 Y-13.954 Z8.800 
N520 X155.282 Y-14.019 Z8.883 
N521 X155.278 Y-14.084 Z8.966 
N522 X155.274 Y-14.149 Z9.050 
N523 X155.269 Y-14.215 Z9.133 
N524 X155.265 Y-14.280 Z9.216 
N525 X155.261 Y-14.345 Z9.299 
N526 X155.257 Y-14.410 Z9.383 
N527 X155.253 Y-14.475 Z9.466 
N528 X155.249 Y-14.540 Z9.549 
N529 X155.244 Y-14.605 Z9.632 
N530 X155.240 Y-14.670 Z9.716 
N531 X155.236 Y-14.735 Z9.799 
N532 X155.232 Y-14.800 Z9.882 
N533 X155.228 Y-14.865 Z9.965 
N534 X155.223 Y-14.930 Z10.048 
N535 X155.219 Y-14.995 Z10.132 
N536 X155.215 Y-15.060 Z10.215 
N537 X155.211 Y-15.125 Z10.298 
N538 X155.207 Y-15.190 Z10.381 
N539 X155.202 Y-15.254 Z10.464 
N540 X155.198 Y-15.319 Z10.547 
N541 X155.194 Y-15.384 Z10.630 
N542 X155.190 Y-15.449 Z10.713 
N543 X155.186 Y-15.513 Z10.795 
N544 X155.182 Y-15.578 Z10.878 
N545 X155.177 Y-15.643 Z10.961 
N546 X155.173 Y-15.708 Z11.044 
N547 X155.169 Y-15.772 Z11.127 
N548 X155.165 Y-15.837 Z11.210 
N549 X155.161 Y-15.902 Z11.293 
N550 X155.157 Y-15.967 Z11.376 
N551 X155.152 Y-16.032 Z11.459 
N552 X155.148 Y-16.096 Z11.541 
N553 X155.144 Y-16.161 Z11.624 
N554 X155.140 Y-16.226 Z11.707 
N555 X155.136 Y-16.291 Z11.790 
N556 X155.132 Y-16.355 Z11.873 
N557 X155.127 Y-16.420 Z11.956 
N558 X155.123 Y-16.485 Z12.039 
N559 X155.119 Y-16.550 Z12.122 
N560 X155.115 Y-16.614 Z12.205 
N561 X155.111 Y-16.679 Z12.287 
N562 X155.107 Y-16.744 Z12.370 
N563 X155.102 Y-16.809 Z12.453 
N564 X155.098 Y-16.873 Z12.536 
N565 X155.094 Y-16.938 Z12.619 
N566 X155.090 Y-17.003 Z12.702 
N567 X155.086 Y-17.068 Z12.785 
N568 X155.081 Y-17.132 Z12.868 
N569 X155.077 Y-17.197 Z12.950 
N570 X155.073 Y-17.262 Z13.033 
N571 X155.069 Y-17.327 Z13.116 
N572 X155.065 Y-17.391 Z13.199 
N573 X155.061 Y-17.456 Z13.282 
N574 X155.056 Y-17.521 Z13.365 
N575 X155.052 Y-17.586 Z13.448 
N576 G40 X154.656 Y-23.737 Z21.322 F318
N577 X154.656 Y-23.737 Z21.322 
N578 G00 X154.656 Y-63.138 Z-9.461 
RAPORT("T44444","Side Milling:132 End")
N580 ;trailer : concat=None
; points cnt = 520
N581 MSG (" --- GROUPED OF SUBPROGRAM --- ")
N582 FGROUP()
N583 TRAFOOF
N10 ; PROGRAM NAME: 4444447
N11 ; ORDER       : 44444
N12 ; OPER. NAME  : Side Milling:133
N13 ; OPER. DESCR.: HHU finish milling NGA
N14 ; OPER. TYPE  : sideMill
N15 ; GEO. OPTION : 3
N16 ; MACHINE     : SH_HX151_24_SIM840D
N17 ;             : STARRAG_HECKERT_5axis_finish_milling_machine
N18 ; CONTROL     : SINUMERIK 840D
N19 ; created:   2022-11-03 13:36:35.733660
;-------DODATKOWE DANE-------------------
; PROGRAMISTA : Mariusz Malec
; PARTID      : 139T004654P1015_-
;  ap         : 19.0
;  ae         : 6.4
;  lean_angle : 0.0
;  fin_offset : 0.03
;----------------------------------------
N20 ;----------------------------------------
RAPORT("T44444","Side Milling:133")
N21 TRAFOOF
N22 D0
N23 G0 G90 G94 Z260.0
N24 STOPRE
N25 M9 ; chlodziwo wyl
N26 ; --- Side Milling:133 - HHU finish milling NGA ---
N28 ;ToolChange : concat=None ,current_tdmid=None, PP.tdmId=940729
N29 TRAFOOF
N30 D0
N31 G0 G54 Z270.0
N32 S3978 M03
N33 STOPRE
N34 TOL(0.1,1,1)
N35 G0  A128.0000
N36 TRAORI
N37 G54 D3
N38 D3 
STOPRE
E_ZDARZ=300010
;ACS_FINISH_SLOT=7740729
STOPRE
N39 ; DELTA A > 40.1
N40 TRAFOOF
N41 STOPRE
N42 G0 G53 D0 Z265.000
N43 G1 G53 A128.0000 F10000
N44 TRAORI
N45 G54 D3
N46 TRANS 
N47 G00 X153.287 Y-74.217 Z-11.572 A128.0000 B0.0000 
N48 M342 ; chlodziwo woda
N49 X153.287 Y-34.817 Z19.211 
N50 G01 X153.319 Y-32.081 Z20.729 F318 
N51 X153.410 Y-29.012 Z21.328 
N52 X153.553 Y-25.909 Z20.950 
N53 X153.733 Y-23.077 Z19.633 
N54 ;NTA finishing
N55 D3 
N56 G01 G41 X153.933 Y-20.793 Z17.504 F318
N57 X153.933 Y-20.793 Z17.504 
N58 X153.938 Y-20.746 Z17.444 
N59 X153.943 Y-20.698 Z17.383 
N60 X153.948 Y-20.651 Z17.323 
N61 X153.953 Y-20.604 Z17.262 
N62 X153.958 Y-20.557 Z17.202 
N63 X153.962 Y-20.509 Z17.141 
N64 X153.967 Y-20.462 Z17.081 
N65 X153.972 Y-20.415 Z17.020 
N66 X153.977 Y-20.368 Z16.960 
N67 X153.982 Y-20.320 Z16.899 
N68 X153.987 Y-20.273 Z16.839 
N69 X153.992 Y-20.226 Z16.778 
N70 X153.997 Y-20.178 Z16.718 
N71 X154.002 Y-20.129 Z16.655 
N72 X154.008 Y-20.080 Z16.592 
N73 X154.013 Y-20.031 Z16.529 
N74 X154.018 Y-19.982 Z16.466 
N75 X154.023 Y-19.933 Z16.403 
N76 X154.028 Y-19.884 Z16.340 
N77 X154.033 Y-19.834 Z16.277 
N78 X154.039 Y-19.785 Z16.214 
N79 X154.044 Y-19.736 Z16.151 
N80 X154.049 Y-19.687 Z16.089 
N81 X154.054 Y-19.638 Z16.026 
N82 X154.059 Y-19.589 Z15.963 
N83 X154.064 Y-19.540 Z15.900 
N84 X154.070 Y-19.490 Z15.837 
N85 X154.075 Y-19.441 Z15.774 
N86 X154.080 Y-19.392 Z15.711 
N87 X154.085 Y-19.343 Z15.648 
N88 X154.090 Y-19.294 Z15.585 
N89 X154.095 Y-19.245 Z15.522 
N90 X154.100 Y-19.195 Z15.459 
N91 X154.106 Y-19.146 Z15.397 
N92 X154.111 Y-19.097 Z15.334 
N93 X154.116 Y-19.048 Z15.271 
N94 X154.121 Y-18.999 Z15.208 
N95 X154.126 Y-18.950 Z15.145 
N96 X154.131 Y-18.901 Z15.082 
N97 X154.137 Y-18.851 Z15.019 
N98 X154.142 Y-18.802 Z14.956 
N99 X154.147 Y-18.753 Z14.893 
N100 X154.152 Y-18.704 Z14.830 
N101 X154.157 Y-18.655 Z14.767 
N102 X154.162 Y-18.606 Z14.705 
N103 X154.168 Y-18.557 Z14.642 
N104 X154.173 Y-18.507 Z14.579 
N105 X154.178 Y-18.458 Z14.516 
N106 X154.183 Y-18.409 Z14.453 
N107 X154.188 Y-18.360 Z14.390 
N108 X154.193 Y-18.311 Z14.327 
N109 X154.199 Y-18.262 Z14.264 
N110 X154.204 Y-18.212 Z14.201 
N111 X154.209 Y-18.163 Z14.138 
N112 X154.214 Y-18.114 Z14.075 
N113 X154.219 Y-18.065 Z14.013 
N114 X154.224 Y-18.016 Z13.950 
N115 X154.230 Y-17.967 Z13.887 
N116 X154.235 Y-17.918 Z13.824 
N117 X154.240 Y-17.868 Z13.761 
N118 X154.245 Y-17.819 Z13.698 
N119 X154.250 Y-17.770 Z13.635 
N120 X154.255 Y-17.721 Z13.572 
N121 X154.261 Y-17.672 Z13.510 
N122 X154.266 Y-17.623 Z13.447 
N123 X154.271 Y-17.574 Z13.384 
N124 X154.276 Y-17.525 Z13.322 
N125 X154.281 Y-17.476 Z13.259 
N126 X154.286 Y-17.427 Z13.196 
N127 X154.291 Y-17.378 Z13.134 
N128 X154.297 Y-17.329 Z13.071 
N129 X154.302 Y-17.281 Z13.009 
N130 X154.307 Y-17.232 Z12.946 
N131 X154.312 Y-17.183 Z12.883 
N132 X154.317 Y-17.134 Z12.821 
N133 X154.321 Y-17.085 Z12.758 
N134 X154.326 Y-17.036 Z12.695 
N135 X154.331 Y-16.987 Z12.633 
N136 X154.336 Y-16.938 Z12.570 
N137 X154.341 Y-16.889 Z12.507 
N138 X154.346 Y-16.840 Z12.445 
N139 X154.351 Y-16.791 Z12.382 
N140 X154.356 Y-16.742 Z12.319 
N141 X154.360 Y-16.693 Z12.257 
N142 X154.365 Y-16.644 Z12.194 
N143 X154.370 Y-16.595 Z12.131 
N144 X154.375 Y-16.546 Z12.069 
N145 X154.379 Y-16.497 Z12.006 
N146 X154.384 Y-16.448 Z11.943 
N147 X154.389 Y-16.400 Z11.881 
N148 X154.393 Y-16.351 Z11.818 
N149 X154.398 Y-16.302 Z11.756 
N150 X154.403 Y-16.253 Z11.693 
N151 X154.407 Y-16.204 Z11.630 
N152 X154.411 Y-16.155 Z11.568 
N153 X154.416 Y-16.106 Z11.505 
N154 X154.420 Y-16.057 Z11.442 
N155 X154.425 Y-16.008 Z11.380 
N156 X154.429 Y-15.959 Z11.317 
N157 X154.434 Y-15.910 Z11.254 
N158 X154.438 Y-15.861 Z11.192 
N159 X154.443 Y-15.812 Z11.129 
N160 X154.447 Y-15.763 Z11.066 
N161 X154.451 Y-15.714 Z11.004 
N162 X154.456 Y-15.665 Z10.941 
N163 X154.460 Y-15.616 Z10.878 
N164 X154.464 Y-15.567 Z10.815 
N165 X154.468 Y-15.518 Z10.753 
N166 X154.473 Y-15.469 Z10.690 
N167 X154.477 Y-15.420 Z10.627 
N168 X154.481 Y-15.371 Z10.565 
N169 X154.485 Y-15.322 Z10.502 
N170 X154.489 Y-15.273 Z10.439 
N171 X154.494 Y-15.224 Z10.377 
N172 X154.497 Y-15.175 Z10.314 
N173 X154.501 Y-15.126 Z10.251 
N174 X154.505 Y-15.077 Z10.189 
N175 X154.509 Y-15.028 Z10.126 
N176 X154.513 Y-14.980 Z10.063 
N177 X154.517 Y-14.931 Z10.001 
N178 X154.521 Y-14.882 Z9.938 
N179 X154.525 Y-14.833 Z9.875 
N180 X154.529 Y-14.784 Z9.813 
N181 X154.533 Y-14.735 Z9.750 
N182 X154.537 Y-14.686 Z9.687 
N183 X154.541 Y-14.637 Z9.625 
N184 X154.545 Y-14.588 Z9.562 
N185 X154.548 Y-14.539 Z9.499 
N186 X154.552 Y-14.490 Z9.436 
N187 X154.556 Y-14.441 Z9.374 
N188 X154.559 Y-14.392 Z9.311 
N189 X154.563 Y-14.343 Z9.248 
N190 X154.567 Y-14.294 Z9.186 
N191 X154.571 Y-14.245 Z9.123 
N192 X154.574 Y-14.196 Z9.060 
N193 X154.578 Y-14.147 Z8.998 
N194 X154.582 Y-14.098 Z8.935 
N195 X154.585 Y-14.049 Z8.872 
N196 X154.589 Y-14.000 Z8.809 
N197 X154.592 Y-13.951 Z8.747 
N198 X154.595 Y-13.902 Z8.684 
N199 X154.599 Y-13.853 Z8.621 
N200 X154.602 Y-13.804 Z8.559 
N201 X154.606 Y-13.755 Z8.496 
N202 X154.609 Y-13.706 Z8.433 
N203 X154.613 Y-13.657 Z8.370 
N204 X154.616 Y-13.608 Z8.308 
N205 X154.620 Y-13.559 Z8.245 
N206 X154.623 Y-13.510 Z8.182 
N207 X154.626 Y-13.461 Z8.120 
N208 X154.629 Y-13.412 Z8.057 
N209 X154.632 Y-13.363 Z7.994 
N210 X154.636 Y-13.314 Z7.932 
N211 X154.639 Y-13.265 Z7.869 
N212 X154.642 Y-13.216 Z7.806 
N213 X154.645 Y-13.167 Z7.743 
N214 X154.648 Y-13.118 Z7.681 
N215 X154.651 Y-13.069 Z7.618 
N216 X154.655 Y-13.020 Z7.555 
N217 X154.658 Y-12.971 Z7.493 
N218 X154.661 Y-12.922 Z7.430 
N219 X154.664 Y-12.873 Z7.367 
N220 X154.667 Y-12.824 Z7.304 
N221 X154.669 Y-12.775 Z7.242 
N222 X154.672 Y-12.726 Z7.179 
N223 X154.675 Y-12.677 Z7.116 
N224 X154.678 Y-12.628 Z7.053 
N225 X154.681 Y-12.579 Z6.991 
N226 X154.684 Y-12.530 Z6.928 
N227 X154.687 Y-12.481 Z6.865 
N228 X154.690 Y-12.432 Z6.803 
N229 X154.693 Y-12.383 Z6.740 
N230 X154.695 Y-12.334 Z6.677 
N231 X154.698 Y-12.285 Z6.614 
N232 X154.701 Y-12.236 Z6.552 
N233 X154.703 Y-12.187 Z6.489 
N234 X154.706 Y-12.138 Z6.426 
N235 X154.709 Y-12.089 Z6.363 
N236 X154.711 Y-12.040 Z6.301 
N237 X154.714 Y-11.991 Z6.238 
N238 X154.716 Y-11.942 Z6.175 
N239 X154.719 Y-11.893 Z6.113 
N240 X154.721 Y-11.844 Z6.050 
N241 X154.724 Y-11.795 Z5.987 
N242 X154.727 Y-11.746 Z5.924 
N243 X154.729 Y-11.697 Z5.862 
N244 X154.732 Y-11.648 Z5.799 
N245 X154.734 Y-11.599 Z5.736 
N246 X154.737 Y-11.550 Z5.673 
N247 X154.739 Y-11.501 Z5.611 
N248 X154.741 Y-11.452 Z5.548 
N249 X154.743 Y-11.403 Z5.485 
N250 X154.746 Y-11.354 Z5.422 
N251 X154.748 Y-11.305 Z5.360 
N252 X154.750 Y-11.256 Z5.297 
N253 X154.752 Y-11.207 Z5.234 
N254 X154.755 Y-11.158 Z5.171 
N255 X154.757 Y-11.109 Z5.109 
N256 X154.759 Y-11.060 Z5.046 
N257 X154.761 Y-11.011 Z4.983 
N258 X154.764 Y-10.962 Z4.921 
N259 X154.766 Y-10.913 Z4.858 
N260 X154.768 Y-10.863 Z4.795 
N261 X154.770 Y-10.814 Z4.732 
N262 X154.772 Y-10.765 Z4.670 
N263 X154.774 Y-10.716 Z4.607 
N264 X154.776 Y-10.667 Z4.544 
N265 X154.777 Y-10.618 Z4.481 
N266 X154.779 Y-10.569 Z4.419 
N267 X154.781 Y-10.520 Z4.356 
N268 X154.783 Y-10.471 Z4.293 
N269 X154.785 Y-10.422 Z4.230 
N270 X154.787 Y-10.373 Z4.168 
N271 X154.789 Y-10.324 Z4.105 
N272 X154.791 Y-10.275 Z4.042 
N273 X154.793 Y-10.226 Z3.979 
N274 X154.795 Y-10.177 Z3.917 
N275 X154.797 Y-10.128 Z3.854 
N276 X154.798 Y-10.079 Z3.791 
N277 X154.800 Y-10.030 Z3.728 
N278 X154.801 Y-9.981 Z3.666 
N279 X154.803 Y-9.932 Z3.603 
N280 X154.804 Y-9.883 Z3.540 
N281 X154.806 Y-9.834 Z3.477 
N282 X154.807 Y-9.785 Z3.415 
N283 X154.809 Y-9.736 Z3.352 
N284 X154.811 Y-9.687 Z3.289 
N285 X154.812 Y-9.638 Z3.226 
N286 X154.814 Y-9.589 Z3.164 
N287 X154.815 Y-9.540 Z3.101 
N288 X154.817 Y-9.491 Z3.038 
N289 X154.818 Y-9.442 Z2.975 
N290 X154.820 Y-9.393 Z2.913 
N291 X154.821 Y-9.344 Z2.850 
N292 X154.823 Y-9.295 Z2.787 
N293 X154.824 Y-9.246 Z2.724 
N294 X154.825 Y-9.197 Z2.662 
N295 X154.826 Y-9.148 Z2.599 
N296 X154.827 Y-9.099 Z2.536 
N297 X154.828 Y-9.050 Z2.473 
N298 X154.830 Y-9.000 Z2.411 
N299 X154.831 Y-8.951 Z2.348 
N300 X154.832 Y-8.902 Z2.285 
N301 X154.833 Y-8.853 Z2.222 
N302 X154.834 Y-8.804 Z2.159 
N303 X154.836 Y-8.755 Z2.097 
N304 X154.837 Y-8.706 Z2.034 
N305 X154.838 Y-8.657 Z1.971 
N306 X154.839 Y-8.608 Z1.908 
N307 X154.840 Y-8.559 Z1.846 
N308 X154.841 Y-8.510 Z1.783 
N309 X154.842 Y-8.461 Z1.720 
N310 X154.843 Y-8.412 Z1.657 
N311 X154.844 Y-8.363 Z1.595 
N312 X154.845 Y-8.314 Z1.532 
N313 X154.845 Y-8.265 Z1.469 
N314 X154.846 Y-8.216 Z1.406 
N315 X154.847 Y-8.167 Z1.344 
N316 X154.848 Y-8.118 Z1.281 
N317 X154.848 Y-8.069 Z1.218 
N318 X154.849 Y-8.020 Z1.155 
N319 X154.850 Y-7.971 Z1.093 
N320 X154.851 Y-7.922 Z1.030 
N321 X154.852 Y-7.873 Z0.967 
N322 X154.852 Y-7.824 Z0.904 
N323 X154.853 Y-7.775 Z0.842 
N324 X154.854 Y-7.726 Z0.779 
N325 X154.855 Y-7.677 Z0.716 
N326 X154.856 Y-7.627 Z0.653 
N327 X154.856 Y-7.578 Z0.590 
N328 X154.857 Y-7.529 Z0.527 
N329 X154.858 Y-7.480 Z0.464 
N330 X154.859 Y-7.430 Z0.401 
N331 X154.860 Y-7.381 Z0.338 
N332 X154.860 Y-7.332 Z0.275 
N333 X154.861 Y-7.283 Z0.212 
N334 X154.862 Y-7.233 Z0.149 
N335 X154.863 Y-7.184 Z0.086 
N336 X154.864 Y-7.135 Z0.023 
N337 X154.864 Y-7.086 Z-0.040 
N338 X154.865 Y-7.036 Z-0.103 
N339 X154.866 Y-6.987 Z-0.167 
N340 X154.867 Y-6.938 Z-0.230 
N341 X154.868 Y-6.889 Z-0.293 
N342 X154.868 Y-6.839 Z-0.356 
N343 X154.869 Y-6.790 Z-0.419 
N344 X154.870 Y-6.741 Z-0.482 
N345 X154.871 Y-6.692 Z-0.545 
N346 X154.872 Y-6.642 Z-0.608 
N347 X154.872 Y-6.593 Z-0.671 
N348 X154.873 Y-6.544 Z-0.734 
N349 X154.874 Y-6.495 Z-0.797 
N350 X154.875 Y-6.445 Z-0.860 
N351 X154.876 Y-6.396 Z-0.923 
N352 X154.876 Y-6.347 Z-0.986 
N353 X154.877 Y-6.298 Z-1.049 
N354 X154.878 Y-6.248 Z-1.112 
N355 X154.879 Y-6.199 Z-1.175 
N356 X154.880 Y-6.150 Z-1.238 
N357 X154.880 Y-6.101 Z-1.301 
N358 X154.881 Y-6.051 Z-1.364 
N359 X154.882 Y-6.002 Z-1.427 
N360 X154.883 Y-5.953 Z-1.490 
N361 X154.884 Y-5.904 Z-1.553 
N362 X154.884 Y-5.854 Z-1.616 
N363 X154.885 Y-5.805 Z-1.679 
N364 X154.886 Y-5.756 Z-1.742 
N365 X154.887 Y-5.707 Z-1.806 
N366 X154.888 Y-5.657 Z-1.869 
N367 X154.888 Y-5.608 Z-1.932 
N368 X154.889 Y-5.559 Z-1.995 
N369 X154.890 Y-5.510 Z-2.058 
N370 X154.891 Y-5.460 Z-2.121 
N371 X154.892 Y-5.411 Z-2.184 
N372 X154.892 Y-5.362 Z-2.247 
N373 X154.893 Y-5.313 Z-2.310 
N374 X154.894 Y-5.263 Z-2.373 
N375 X154.895 Y-5.214 Z-2.436 
N376 G40 X154.895 Y-5.160 Z-2.505 F388
N377 X154.895 Y-5.160 Z-2.505 
N378 X154.895 Y-5.084 Z-2.602 F600 
N379 X154.895 Y-4.964 Z-2.756 F954 
N380 X154.895 Y-4.784 Z-2.986 F1307 
N381 X154.895 Y-4.560 Z-3.273 F1519 
N382 X154.896 Y-4.313 Z-3.589 F1590 
N383 X154.897 Y-4.068 Z-3.902 
N384 X154.898 Y-3.824 Z-4.215 
N385 X154.900 Y-3.579 Z-4.529 
N386 X154.902 Y-3.334 Z-4.842 
N387 X154.906 Y-3.090 Z-5.155 
N388 X154.911 Y-2.845 Z-5.468 
N389 X154.916 Y-2.601 Z-5.781 
N390 X154.924 Y-2.356 Z-6.094 
N391 X154.932 Y-2.111 Z-6.407 
N392 X154.943 Y-1.867 Z-6.720 
N393 X154.956 Y-1.622 Z-7.033 
N394 X154.970 Y-1.378 Z-7.346 
N395 X154.988 Y-1.133 Z-7.659 
N396 X155.007 Y-0.889 Z-7.972 
N397 X155.030 Y-0.645 Z-8.285 
N398 X155.056 Y-0.400 Z-8.597 
N399 X155.085 Y-0.156 Z-8.909 
N400 X155.117 Y0.087 Z-9.221 
N401 X155.154 Y0.331 Z-9.533 
N402 X155.196 Y0.574 Z-9.845 
N403 X155.246 Y0.817 Z-10.155 
N404 X155.306 Y1.059 Z-10.465 
N405 X155.401 Y1.296 Z-10.768 
N406 X155.524 Y1.143 Z-10.573 
N407 X155.553 Y0.886 Z-10.244 
N408 X155.567 Y0.659 Z-9.954 
N409 X155.576 Y0.414 Z-9.640 
N410 X155.582 Y0.150 Z-9.301 
N411 X155.585 Y-0.104 Z-8.977 
N412 X155.587 Y-0.334 Z-8.682 
N413 X155.587 Y-0.563 Z-8.389 
N414 X155.587 Y-0.797 Z-8.089 
N415 X155.586 Y-1.039 Z-7.780 
N416 X155.584 Y-1.292 Z-7.455 F1519 
N417 X155.582 Y-1.534 Z-7.146 F1307 
N418 X155.580 Y-1.739 Z-6.884 F954 
N419 X155.579 Y-1.874 Z-6.711 F600 
N420 X155.579 Y-1.946 Z-6.618 F388 
N421 ;NNTA finishing
N422 D4 
N423 G01 G41 X155.579 Y-1.986 Z-6.567 F318
N424 X155.579 Y-1.986 Z-6.567 F318 
N425 X155.579 Y-2.034 Z-6.507 
N426 X155.580 Y-2.081 Z-6.446 
N427 X155.580 Y-2.128 Z-6.385 
N428 X155.581 Y-2.176 Z-6.325 
N429 X155.581 Y-2.223 Z-6.264 
N430 X155.581 Y-2.271 Z-6.203 
N431 X155.582 Y-2.318 Z-6.143 
N432 X155.582 Y-2.365 Z-6.082 
N433 X155.583 Y-2.413 Z-6.022 
N434 X155.583 Y-2.460 Z-5.961 
N435 X155.583 Y-2.507 Z-5.900 
N436 X155.584 Y-2.555 Z-5.840 
N437 X155.584 Y-2.602 Z-5.779 
N438 X155.585 Y-2.651 Z-5.716 
N439 X155.585 Y-2.701 Z-5.653 
N440 X155.585 Y-2.750 Z-5.590 
N441 X155.586 Y-2.799 Z-5.527 
N442 X155.586 Y-2.848 Z-5.464 
N443 X155.587 Y-2.898 Z-5.401 
N444 X155.587 Y-2.947 Z-5.338 
N445 X155.587 Y-2.996 Z-5.275 
N446 X155.588 Y-3.045 Z-5.212 
N447 X155.588 Y-3.095 Z-5.149 
N448 X155.589 Y-3.144 Z-5.086 
N449 X155.589 Y-3.193 Z-5.023 
N450 X155.589 Y-3.242 Z-4.960 
N451 X155.590 Y-3.292 Z-4.897 
N452 X155.590 Y-3.341 Z-4.834 
N453 X155.591 Y-3.390 Z-4.770 
N454 X155.591 Y-3.439 Z-4.707 
N455 X155.592 Y-3.489 Z-4.644 
N456 X155.592 Y-3.538 Z-4.581 
N457 X155.592 Y-3.587 Z-4.518 
N458 X155.593 Y-3.636 Z-4.455 
N459 X155.593 Y-3.686 Z-4.392 
N460 X155.594 Y-3.735 Z-4.329 
N461 X155.594 Y-3.784 Z-4.266 
N462 X155.594 Y-3.833 Z-4.203 
N463 X155.595 Y-3.883 Z-4.140 
N464 X155.595 Y-3.932 Z-4.077 
N465 X155.596 Y-3.981 Z-4.014 
N466 X155.596 Y-4.030 Z-3.951 
N467 X155.596 Y-4.080 Z-3.888 
N468 X155.597 Y-4.129 Z-3.825 
N469 X155.597 Y-4.178 Z-3.762 
N470 X155.598 Y-4.227 Z-3.699 
N471 X155.598 Y-4.277 Z-3.636 
N472 X155.598 Y-4.326 Z-3.573 
N473 X155.599 Y-4.375 Z-3.510 
N474 X155.599 Y-4.424 Z-3.447 
N475 X155.600 Y-4.474 Z-3.384 
N476 X155.600 Y-4.523 Z-3.321 
N477 X155.601 Y-4.572 Z-3.258 
N478 X155.601 Y-4.621 Z-3.194 
N479 X155.601 Y-4.671 Z-3.131 
N480 X155.602 Y-4.720 Z-3.068 
N481 X155.602 Y-4.769 Z-3.005 
N482 X155.603 Y-4.818 Z-2.942 
N483 X155.603 Y-4.868 Z-2.879 
N484 X155.603 Y-4.917 Z-2.816 
N485 X155.604 Y-4.966 Z-2.753 
N486 X155.604 Y-5.015 Z-2.690 
N487 X155.605 Y-5.065 Z-2.627 
N488 X155.605 Y-5.114 Z-2.564 
N489 X155.605 Y-5.163 Z-2.502 
N490 X155.606 Y-5.212 Z-2.439 
N491 X155.606 Y-5.261 Z-2.376 
N492 X155.607 Y-5.310 Z-2.314 
N493 X155.607 Y-5.358 Z-2.251 
N494 X155.607 Y-5.407 Z-2.188 
N495 X155.608 Y-5.456 Z-2.126 
N496 X155.608 Y-5.505 Z-2.063 
N497 X155.609 Y-5.554 Z-2.000 
N498 X155.609 Y-5.603 Z-1.938 
N499 X155.609 Y-5.652 Z-1.875 
N500 X155.610 Y-5.701 Z-1.812 
N501 X155.610 Y-5.750 Z-1.750 
N502 X155.611 Y-5.799 Z-1.687 
N503 X155.611 Y-5.848 Z-1.624 
N504 X155.611 Y-5.897 Z-1.562 
N505 X155.612 Y-5.946 Z-1.499 
N506 X155.612 Y-5.995 Z-1.436 
N507 X155.612 Y-6.044 Z-1.373 
N508 X155.612 Y-6.093 Z-1.311 
N509 X155.612 Y-6.142 Z-1.248 
N510 X155.612 Y-6.191 Z-1.185 
N511 X155.612 Y-6.240 Z-1.123 
N512 X155.612 Y-6.289 Z-1.060 
N513 X155.612 Y-6.338 Z-0.997 
N514 X155.612 Y-6.387 Z-0.935 
N515 X155.612 Y-6.436 Z-0.872 
N516 X155.612 Y-6.485 Z-0.809 
N517 X155.612 Y-6.534 Z-0.747 
N518 X155.612 Y-6.583 Z-0.684 
N519 X155.612 Y-6.632 Z-0.621 
N520 X155.612 Y-6.681 Z-0.559 
N521 X155.612 Y-6.730 Z-0.496 
N522 X155.612 Y-6.779 Z-0.433 
N523 X155.612 Y-6.828 Z-0.371 
N524 X155.611 Y-6.877 Z-0.308 
N525 X155.611 Y-6.926 Z-0.245 
N526 X155.611 Y-6.975 Z-0.183 
N527 X155.610 Y-7.024 Z-0.120 
N528 X155.610 Y-7.073 Z-0.057 
N529 X155.609 Y-7.122 Z0.006 
N530 X155.609 Y-7.170 Z0.068 
N531 X155.609 Y-7.219 Z0.131 
N532 X155.608 Y-7.268 Z0.194 
N533 X155.608 Y-7.317 Z0.256 
N534 X155.607 Y-7.366 Z0.319 
N535 X155.607 Y-7.415 Z0.382 
N536 X155.607 Y-7.464 Z0.444 
N537 X155.606 Y-7.513 Z0.507 
N538 X155.606 Y-7.562 Z0.570 
N539 X155.605 Y-7.611 Z0.632 
N540 X155.605 Y-7.660 Z0.695 
N541 X155.604 Y-7.709 Z0.758 
N542 X155.604 Y-7.758 Z0.820 
N543 X155.603 Y-7.807 Z0.883 
N544 X155.602 Y-7.856 Z0.946 
N545 X155.601 Y-7.905 Z1.008 
N546 X155.600 Y-7.954 Z1.071 
N547 X155.600 Y-8.003 Z1.134 
N548 X155.599 Y-8.052 Z1.196 
N549 X155.598 Y-8.101 Z1.259 
N550 X155.597 Y-8.150 Z1.322 
N551 X155.596 Y-8.199 Z1.385 
N552 X155.596 Y-8.248 Z1.447 
N553 X155.595 Y-8.297 Z1.510 
N554 X155.594 Y-8.346 Z1.573 
N555 X155.593 Y-8.395 Z1.635 
N556 X155.592 Y-8.444 Z1.698 
N557 X155.592 Y-8.493 Z1.761 
N558 X155.591 Y-8.542 Z1.823 
N559 X155.590 Y-8.591 Z1.886 
N560 X155.588 Y-8.640 Z1.949 
N561 X155.587 Y-8.689 Z2.011 
N562 X155.586 Y-8.738 Z2.074 
N563 X155.585 Y-8.787 Z2.137 
N564 X155.584 Y-8.836 Z2.199 
N565 X155.583 Y-8.884 Z2.262 
N566 X155.581 Y-8.933 Z2.325 
N567 X155.580 Y-8.982 Z2.387 
N568 X155.579 Y-9.031 Z2.450 
N569 X155.578 Y-9.080 Z2.513 
N570 X155.577 Y-9.129 Z2.575 
N571 X155.576 Y-9.178 Z2.638 
N572 X155.574 Y-9.227 Z2.701 
N573 X155.573 Y-9.276 Z2.763 
N574 X155.572 Y-9.325 Z2.826 
N575 X155.570 Y-9.374 Z2.889 
N576 X155.569 Y-9.423 Z2.951 
N577 X155.567 Y-9.472 Z3.014 
N578 X155.566 Y-9.521 Z3.077 
N579 X155.564 Y-9.570 Z3.139 
N580 X155.563 Y-9.619 Z3.202 
N581 X155.561 Y-9.668 Z3.265 
N582 X155.560 Y-9.717 Z3.327 
N583 X155.558 Y-9.766 Z3.390 
N584 X155.557 Y-9.815 Z3.453 
N585 X155.555 Y-9.864 Z3.516 
N586 X155.554 Y-9.913 Z3.578 
N587 X155.552 Y-9.962 Z3.641 
N588 X155.551 Y-10.011 Z3.704 
N589 X155.549 Y-10.060 Z3.766 
N590 X155.547 Y-10.109 Z3.829 
N591 X155.545 Y-10.158 Z3.892 
N592 X155.544 Y-10.207 Z3.954 
N593 X155.542 Y-10.255 Z4.017 
N594 X155.540 Y-10.304 Z4.080 
N595 X155.538 Y-10.353 Z4.142 
N596 X155.536 Y-10.402 Z4.205 
N597 X155.534 Y-10.451 Z4.268 
N598 X155.533 Y-10.500 Z4.330 
N599 X155.531 Y-10.549 Z4.393 
N600 X155.529 Y-10.598 Z4.456 
N601 X155.527 Y-10.647 Z4.518 
N602 X155.525 Y-10.696 Z4.581 
N603 X155.523 Y-10.745 Z4.644 
N604 X155.521 Y-10.794 Z4.706 
N605 X155.519 Y-10.843 Z4.769 
N606 X155.517 Y-10.892 Z4.832 
N607 X155.515 Y-10.941 Z4.894 
N608 X155.512 Y-10.990 Z4.957 
N609 X155.510 Y-11.039 Z5.019 
N610 X155.508 Y-11.088 Z5.082 
N611 X155.506 Y-11.137 Z5.145 
N612 X155.504 Y-11.186 Z5.207 
N613 X155.502 Y-11.235 Z5.270 
N614 X155.500 Y-11.284 Z5.333 
N615 X155.497 Y-11.333 Z5.395 
N616 X155.495 Y-11.382 Z5.458 
N617 X155.493 Y-11.430 Z5.521 
N618 X155.490 Y-11.479 Z5.583 
N619 X155.488 Y-11.528 Z5.646 
N620 X155.485 Y-11.577 Z5.709 
N621 X155.483 Y-11.626 Z5.771 
N622 X155.481 Y-11.675 Z5.834 
N623 X155.478 Y-11.724 Z5.897 
N624 X155.476 Y-11.773 Z5.959 
N625 X155.473 Y-11.822 Z6.022 
N626 X155.471 Y-11.871 Z6.085 
N627 X155.468 Y-11.920 Z6.147 
N628 X155.466 Y-11.969 Z6.210 
N629 X155.463 Y-12.018 Z6.273 
N630 X155.460 Y-12.067 Z6.335 
N631 X155.458 Y-12.116 Z6.398 
N632 X155.455 Y-12.165 Z6.461 
N633 X155.452 Y-12.214 Z6.523 
N634 X155.450 Y-12.263 Z6.586 
N635 X155.447 Y-12.312 Z6.648 
N636 X155.444 Y-12.360 Z6.711 
N637 X155.442 Y-12.409 Z6.774 
N638 X155.439 Y-12.458 Z6.836 
N639 X155.436 Y-12.507 Z6.899 
N640 X155.433 Y-12.556 Z6.962 
N641 X155.430 Y-12.605 Z7.024 
N642 X155.427 Y-12.654 Z7.087 
N643 X155.424 Y-12.703 Z7.150 
N644 X155.421 Y-12.752 Z7.212 
N645 X155.419 Y-12.801 Z7.275 
N646 X155.416 Y-12.850 Z7.338 
N647 X155.413 Y-12.899 Z7.400 
N648 X155.410 Y-12.948 Z7.463 
N649 X155.407 Y-12.997 Z7.525 
N650 X155.404 Y-13.046 Z7.588 
N651 X155.400 Y-13.095 Z7.651 
N652 X155.397 Y-13.144 Z7.713 
N653 X155.394 Y-13.192 Z7.776 
N654 X155.391 Y-13.241 Z7.839 
N655 X155.388 Y-13.290 Z7.901 
N656 X155.385 Y-13.339 Z7.964 
N657 X155.382 Y-13.388 Z8.027 
N658 X155.378 Y-13.437 Z8.089 
N659 X155.375 Y-13.486 Z8.152 
N660 X155.371 Y-13.535 Z8.214 
N661 X155.368 Y-13.584 Z8.277 
N662 X155.365 Y-13.633 Z8.340 
N663 X155.361 Y-13.682 Z8.402 
N664 X155.358 Y-13.731 Z8.465 
N665 X155.354 Y-13.780 Z8.528 
N666 X155.351 Y-13.829 Z8.590 
N667 X155.347 Y-13.877 Z8.653 
N668 X155.344 Y-13.926 Z8.715 
N669 X155.340 Y-13.975 Z8.778 
N670 X155.337 Y-14.024 Z8.841 
N671 X155.333 Y-14.073 Z8.903 
N672 X155.330 Y-14.122 Z8.966 
N673 X155.327 Y-14.171 Z9.029 
N674 X155.323 Y-14.220 Z9.091 
N675 X155.320 Y-14.269 Z9.154 
N676 X155.316 Y-14.318 Z9.216 
N677 X155.312 Y-14.367 Z9.279 
N678 X155.309 Y-14.416 Z9.342 
N679 X155.305 Y-14.465 Z9.404 
N680 X155.301 Y-14.514 Z9.467 
N681 X155.297 Y-14.562 Z9.529 
N682 X155.293 Y-14.611 Z9.592 
N683 X155.289 Y-14.660 Z9.655 
N684 X155.285 Y-14.709 Z9.717 
N685 X155.282 Y-14.758 Z9.780 
N686 X155.278 Y-14.807 Z9.843 
N687 X155.274 Y-14.856 Z9.905 
N688 X155.270 Y-14.905 Z9.968 
N689 X155.266 Y-14.954 Z10.030 
N690 X155.262 Y-15.003 Z10.093 
N691 X155.258 Y-15.052 Z10.156 
N692 X155.255 Y-15.101 Z10.218 
N693 X155.251 Y-15.149 Z10.281 
N694 X155.247 Y-15.199 Z10.344 
N695 X155.243 Y-15.248 Z10.407 
N696 X155.239 Y-15.297 Z10.470 
N697 X155.235 Y-15.346 Z10.533 
N698 X155.231 Y-15.395 Z10.596 
N699 X155.228 Y-15.445 Z10.659 
N700 X155.224 Y-15.494 Z10.722 
N701 X155.220 Y-15.543 Z10.785 
N702 X155.216 Y-15.592 Z10.847 
N703 X155.212 Y-15.641 Z10.910 
N704 X155.208 Y-15.691 Z10.973 
N705 X155.204 Y-15.740 Z11.036 
N706 X155.200 Y-15.789 Z11.099 
N707 X155.197 Y-15.838 Z11.162 
N708 X155.193 Y-15.887 Z11.225 
N709 X155.189 Y-15.937 Z11.288 
N710 X155.185 Y-15.986 Z11.351 
N711 X155.181 Y-16.035 Z11.414 
N712 X155.177 Y-16.084 Z11.477 
N713 X155.173 Y-16.133 Z11.540 
N714 X155.170 Y-16.183 Z11.603 
N715 X155.166 Y-16.232 Z11.666 
N716 X155.162 Y-16.281 Z11.729 
N717 X155.158 Y-16.330 Z11.792 
N718 X155.154 Y-16.379 Z11.855 
N719 X155.150 Y-16.428 Z11.918 
N720 X155.146 Y-16.478 Z11.981 
N721 X155.142 Y-16.527 Z12.044 
N722 X155.139 Y-16.576 Z12.107 
N723 X155.135 Y-16.625 Z12.170 
N724 X155.131 Y-16.674 Z12.233 
N725 X155.127 Y-16.724 Z12.296 
N726 X155.123 Y-16.773 Z12.359 
N727 X155.119 Y-16.822 Z12.422 
N728 X155.115 Y-16.871 Z12.485 
N729 X155.111 Y-16.920 Z12.548 
N730 X155.108 Y-16.970 Z12.611 
N731 X155.104 Y-17.019 Z12.674 
N732 X155.100 Y-17.068 Z12.737 
N733 X155.096 Y-17.117 Z12.799 
N734 X155.092 Y-17.166 Z12.862 
N735 X155.088 Y-17.216 Z12.925 
N736 X155.084 Y-17.265 Z12.988 
N737 X155.080 Y-17.314 Z13.051 
N738 X155.077 Y-17.363 Z13.114 
N739 X155.073 Y-17.412 Z13.177 
N740 X155.069 Y-17.462 Z13.240 
N741 X155.065 Y-17.511 Z13.303 
N742 X155.061 Y-17.560 Z13.366 
N743 X155.057 Y-17.609 Z13.429 
N744 G40 X154.573 Y-23.759 Z21.300 F318
N745 X154.573 Y-23.759 Z21.300 
N746 G00 X154.573 Y-63.159 Z-9.483 
RAPORT("T44444","Side Milling:133 End")
N748 ;trailer : concat=None
; points cnt = 688
N749 M9 ; chlodziwo wyl.
N750 M9 ; chlodziwo wyl.
N751 MSG (" --- KONIEC PROGRAMU --- ")
N752 TRANS
N753 G54
N754 FGROUP()
N755 TRAFOOF
N756 STOPRE
N757 G0 G53 D0 Z290.0 M9 M5
N758 G0 G53 Y150 A0 B0
N759 M17
