; PROGRAM NAME: A88888860
; ORDER       : A888888
; OPER. NAME  : Contact Milling:166
; OPER. DESCR.: Contact Milling/podciecie pod ceche
; OPER. TYPE  : contactMill
; GEO. OPTION : 1
; MACHINE     : HSTM_300_SIM840D_Py
;             : HSTM300/500 - HAMUEL: 5-axis milling machine-SIM840D Traori PP_Script
; CONTROL     : SINUMERIK 840D
; created:   2021-12-10 09:06:52.640156
;-------DODATKOWE DANE-------------------
; PROGRAMISTA : Mariusz Malec
; PARTID      : 137T000339P1001_-
;  ap         : 1.0
;  ae         : 5.0
;  lean_angle : 0.01
;  tilt_angle : 0.0
;  fin_offset : -0.15
;----------------------------------------
RAPORT("TA888888","Contact Milling:166")
N10 TRAFOOF
N11 D0
N12 G90 G94
N13 G0 G53 D0 Z550
N14 STOPRE
M9 ; chlodziwo wyl
; --- Contact Milling:166 - Contact Milling/podciecie pod ceche ---
N16 ;ToolChange : concat=None ,current_tdmid=None, PP.tdmId=957453
N17 TRAFOOF
N18 G0 G53 D0 X-200 Y150 Z550 B0
N19 T="7757453"
RAPORT("TA888888","ToolChangeStart 7757453")
N20 M6
RAPORT("TA888888","ToolChangeEnd")
N21 STOPRE
N22 MSG(" TLID=957453 D=5.0 R=0.0 Ang=0.0 Len=109.0 ")
;---> in saveDoc :0:00:01.169906
;---> in saveDoc :0:00:01.148893
N23 S12095 M03
N24 STOPRE
N25 TOL(0.01,1,1)
N26 G0 G53 A0.0000 B-0.0100
N27 TRAORI
N28 G54 D1
N29 D3 
;---> in saveDoc :0:00:01.171829
N30 X-138.507 Y-15.502 Z53.608 A0.0001 B-0.0100 
N31 M342 ; chlodziwo woda
N32 X-138.502 Y-15.502 Z23.608 
N33 G01 X-138.501 Y-15.502 Z17.608 F544 
N34 X-138.550 Y-15.502 Z17.299 
N35 X-138.692 Y-15.502 Z17.020 
N36 X-138.913 Y-15.502 Z16.799 
N37 X-139.192 Y-15.502 Z16.657 
N38 X-139.501 Y-15.502 Z16.608 
N39 X-139.640 Y-15.502 Z16.608 
N40 X-139.778 Y-15.502 Z16.608 F543 
N41 X-139.917 Y-15.502 Z16.608 F544 
N42 X-140.056 Y-15.502 Z16.608 
N43 X-140.195 Y-15.502 Z16.608 
N44 X-140.334 Y-15.502 Z16.608 
N45 X-140.473 Y-15.502 Z16.608 
N46 X-140.612 Y-15.502 Z16.608 
N47 X-140.751 Y-15.502 Z16.608 
N48 X-140.890 Y-15.502 Z16.608 
N49 X-141.028 Y-15.502 Z16.608 
N50 X-141.167 Y-15.502 Z16.608 
N51 X-141.306 Y-15.502 Z16.608 
N52 X-141.445 Y-15.502 Z16.608 
N53 X-141.584 Y-15.502 Z16.608 
N54 X-141.723 Y-15.502 Z16.608 
N55 X-141.862 Y-15.502 Z16.608 
N56 X-142.001 Y-15.502 Z16.608 
N57 X-142.140 Y-15.502 Z16.608 
N58 X-142.278 Y-15.502 Z16.608 
N59 X-142.417 Y-15.502 Z16.608 
N60 X-142.556 Y-15.502 Z16.608 
N61 X-142.695 Y-15.502 Z16.608 
N62 X-142.834 Y-15.502 Z16.608 
N63 X-142.973 Y-15.502 Z16.608 
N64 X-143.112 Y-15.502 Z16.608 
N65 X-143.251 Y-15.502 Z16.608 
N66 X-143.390 Y-15.502 Z16.608 
N67 X-143.528 Y-15.502 Z16.608 
N68 X-143.667 Y-15.502 Z16.608 
N69 X-143.806 Y-15.502 Z16.608 
N70 X-143.945 Y-15.502 Z16.608 
N71 X-144.084 Y-15.502 Z16.608 
N72 X-144.223 Y-15.502 Z16.608 
N73 X-144.362 Y-15.502 Z16.608 
N74 X-144.501 Y-15.502 Z16.608 
N75 X-144.640 Y-15.502 Z16.608 F543 
N76 X-144.778 Y-15.502 Z16.608 F544 
N77 X-144.917 Y-15.502 Z16.608 
N78 X-145.056 Y-15.502 Z16.608 
N79 X-145.195 Y-15.502 Z16.608 
N80 X-145.334 Y-15.502 Z16.608 
N81 X-145.473 Y-15.502 Z16.608 
N82 X-145.612 Y-15.502 Z16.608 
N83 X-145.751 Y-15.502 Z16.608 
N84 X-145.890 Y-15.502 Z16.608 
N85 X-146.028 Y-15.502 Z16.608 
N86 X-146.167 Y-15.502 Z16.608 
N87 X-146.306 Y-15.502 Z16.608 
N88 X-146.445 Y-15.502 Z16.608 
N89 X-146.584 Y-15.502 Z16.608 
N90 X-146.723 Y-15.502 Z16.608 
N91 X-146.862 Y-15.502 Z16.608 
N92 X-147.001 Y-15.502 Z16.608 
N93 X-147.140 Y-15.502 Z16.608 
N94 X-147.278 Y-15.502 Z16.608 F543 
N95 X-147.417 Y-15.502 Z16.608 F544 
N96 X-147.556 Y-15.502 Z16.608 
N97 X-147.695 Y-15.502 Z16.608 
N98 X-147.834 Y-15.502 Z16.608 
N99 X-147.973 Y-15.502 Z16.608 
N100 X-148.112 Y-15.502 Z16.608 
N101 X-148.251 Y-15.502 Z16.608 
N102 X-148.390 Y-15.502 Z16.608 
N103 X-148.528 Y-15.502 Z16.608 
N104 X-148.667 Y-15.502 Z16.608 
N105 X-148.806 Y-15.502 Z16.608 
N106 X-148.945 Y-15.502 Z16.608 
N107 X-149.084 Y-15.502 Z16.608 
N108 X-149.223 Y-15.502 Z16.608 
N109 X-149.362 Y-15.502 Z16.608 
N110 X-149.501 Y-15.502 Z16.608 
N111 X-149.640 Y-15.502 Z16.608 
N112 X-149.778 Y-15.502 Z16.608 
N113 X-149.917 Y-15.502 Z16.608 
N114 X-150.056 Y-15.502 Z16.608 
N115 X-150.195 Y-15.502 Z16.608 
N116 X-150.334 Y-15.502 Z16.608 
N117 X-150.473 Y-15.502 Z16.608 
N118 X-150.612 Y-15.502 Z16.608 
N119 X-150.751 Y-15.502 Z16.608 
N120 X-150.890 Y-15.502 Z16.608 
N121 X-151.028 Y-15.502 Z16.608 
N122 X-151.167 Y-15.502 Z16.608 
N123 X-151.306 Y-15.502 Z16.608 
N124 X-151.445 Y-15.502 Z16.608 
N125 X-151.584 Y-15.502 Z16.608 
N126 X-151.723 Y-15.502 Z16.608 
N127 X-151.862 Y-15.502 Z16.608 
N128 X-152.001 Y-15.502 Z16.608 
N129 X-152.140 Y-15.502 Z16.608 F543 
N130 X-152.278 Y-15.502 Z16.608 F544 
N131 X-152.417 Y-15.502 Z16.608 
N132 X-152.556 Y-15.502 Z16.608 
N133 X-152.695 Y-15.502 Z16.608 
N134 X-152.834 Y-15.502 Z16.608 
N135 X-152.973 Y-15.502 Z16.608 
N136 X-153.112 Y-15.502 Z16.608 
N137 X-153.251 Y-15.502 Z16.608 
N138 X-153.390 Y-15.502 Z16.608 
N139 X-153.528 Y-15.502 Z16.608 
N140 X-153.667 Y-15.502 Z16.608 
N141 X-153.806 Y-15.502 Z16.608 
N142 X-153.945 Y-15.502 Z16.608 
N143 X-154.084 Y-15.502 Z16.608 
N144 X-154.223 Y-15.502 Z16.608 
N145 X-154.362 Y-15.502 Z16.608 
N146 X-154.501 Y-15.502 Z16.608 
N147 X-154.810 Y-15.502 Z16.656 
N148 X-155.088 Y-15.502 Z16.798 
N149 X-155.310 Y-15.502 Z17.020 
N150 X-155.452 Y-15.502 Z17.298 
N151 X-155.501 Y-15.502 Z17.607 
N152 G00 X-155.510 Y-15.502 Z67.607 
RAPORT("TA888888","Contact Milling:166 End")
;trailer : concat=None
; points cnt = 119
N154 M9 ; chlodziwo wyl.
N155 MSG (" --- KONIEC PODPROGRAMU --- ")
N156 FGROUP()
N157 TRAFOOF
N158 STOPRE
N159 G0 G53 D0 Z550.0 M9 M5
N160 G0 G53 Y150 A0 B0
N161 M17
