; PROGRAM NAME: A88888840
; ORDER       : A888888
; OPER. NAME  : Slot Roughing:116
; OPER. DESCR.: roughig slot/BH zgr
; OPER. TYPE  : slotMillRough
; GEO. OPTION : 1
; MACHINE     : HSTM_300_SIM840D_Py
;             : HSTM300/500 - HAMUEL: 5-axis milling machine-SIM840D Traori PP_Script
; CONTROL     : SINUMERIK 840D
; created:   2021-12-10 09:19:40.829385
;-------DODATKOWE DANE-------------------
; PROGRAMISTA : Mariusz Malec
; PARTID      : 137T000339P1001_-
;  ae         : 11.0
;  ap         : 0.15
;  fin_offset : 0.5
;  lean_angle : 0.0
;----------------------------------------
RAPORT("TA888888","Slot Roughing:116")
N10 TRAFOOF
N11 D0
N12 G90 G94
N13 G0 G53 D0 Z550
N14 STOPRE
M9 ; chlodziwo wyl
; --- Slot Roughing:116 - roughig slot/BH zgr ---
N16 ;ToolChange : concat=None ,current_tdmid=None, PP.tdmId=958842
N17 TRAFOOF
N18 G0 G53 D0 X-200 Y150 Z550 B0
N19 T="7758842"
RAPORT("TA888888","ToolChangeStart 7758842")
N20 M6
RAPORT("TA888888","ToolChangeEnd")
N21 STOPRE
N22 MSG(" TLID=958842 D=20.0 R=4.0 Ang=0.0 Len=155.0 ")
;---> in saveDoc :0:00:01.605655
N23 S3183 M03
N24 STOPRE
N25 TOL(0.1,1,1)
N26 G0 G53 A313.0000 B-0.0000
N27 TRAORI
N28 G54 D1
N29 FFWON
N30 COMPOF
N31 STOPRE
N32 D1 
;---> in saveDoc :0:00:01.608668
N33 ; DELTA A > 40.1
N34 TRAFOOF
N35 D1
N36 STOPRE
N37 G00 G54 Z231.000
N38 G01 A313.0000 F10000
N39 TRAORI
N40 G54 D1
N41 STOPRE
N42 TRANS 
N43 G00 X-170.499 Y86.927 Z9.923 A313.0000 
N44 M09 ; chlodziwo wylacz
N45 X-170.499 Y50.360 Z-24.176 
N46 G01 X-171.209 Y43.557 Z-16.881 F1527 
N47 X-171.387 Y41.856 Z-15.058 F763 
N48 X-171.405 Y41.680 Z-14.868 F1017 
N49 X-171.429 Y41.453 Z-14.625 F1272 
N50 X-171.458 Y41.176 Z-14.328 F1527 
N51 X-171.469 Y41.077 Z-14.222 F1527 
N52 X-171.822 Y37.684 Z-10.583 F1527 
N53 X-172.166 Y33.932 Z-6.560 F1527 
N54 X-172.484 Y29.861 Z-2.194 F1527 
N55 X-172.765 Y25.423 Z2.565 F1527 
N56 X-173.002 Y20.325 Z8.032 F1527 
N57 X-173.156 Y14.850 Z13.903 F1527 
N58 X-173.205 Y8.807 Z20.384 F1527 
N59 X-173.144 Y3.515 Z26.059 F1527 
N60 X-173.130 Y2.851 Z26.771 F1527 
N61 X-173.123 Y2.544 Z27.100 F1908 
N62 X-173.115 Y2.169 Z27.502 F2290 
N63 X-173.107 Y1.778 Z27.921 F2356 
N64 X-173.093 Y1.366 Z28.363 F2554 
N65 X-173.069 Y0.909 Z28.853 F2885 
N66 X-173.021 Y0.386 Z29.414 F3348 
N67 X-172.926 Y-0.223 Z30.067 F3910 
N68 X-172.732 Y-0.911 Z30.804 F4373 
N69 X-172.370 Y-1.637 Z31.583 F4703 
N70 X-171.788 Y-2.344 Z32.341 F4902 
N71 X-171.011 Y-2.987 Z33.031 F4968 
N72 X-170.086 Y-3.547 Z33.632 F4968 
N73 X-169.026 Y-4.003 Z34.120 F4898 
N74 X-167.863 Y-4.227 Z34.361 F4690 
N75 X-166.950 Y-3.828 Z33.933 F4342 
N76 X-166.673 Y-3.145 Z33.201 F3856 
N77 X-166.590 Y-2.533 Z32.544 F3230 
N78 X-166.565 Y-2.038 Z32.013 F2500 
N79 X-166.559 Y-1.661 Z31.609 F1875 
N80 X-166.560 Y-1.380 Z31.308 F1388 
N81 X-166.562 Y-1.172 Z31.085 F1041 
N82 X-166.565 Y-1.012 Z30.913 F832 
N83 X-166.567 Y-0.877 Z30.768 F763 
N84 X-166.595 Y0.828 Z28.939 F763 
N85 X-166.598 Y1.005 Z28.750 F1017 
N86 X-166.602 Y1.233 Z28.506 F1272 
N87 X-166.606 Y1.510 Z28.208 F1527 
N88 X-166.715 Y8.129 Z21.111 F1527 
N89 X-166.679 Y14.219 Z14.580 F1527 
N90 X-166.524 Y20.023 Z8.356 F1527 
N91 X-166.295 Y25.014 Z3.003 F1527 
N92 X-166.007 Y29.610 Z-1.925 F1527 
N93 X-165.686 Y33.725 Z-6.338 F1527 
N94 X-165.340 Y37.484 Z-10.368 F1527 
N95 X-164.965 Y41.053 Z-14.196 F1527 
N96 X-164.933 Y41.359 Z-14.524 F1908 
N97 X-164.894 Y41.733 Z-14.926 F2290 
N98 X-164.855 Y42.111 Z-15.331 F2352 
N99 X-164.819 Y42.510 Z-15.759 F2540 
N100 X-164.787 Y42.949 Z-16.231 F2852 
N101 X-164.769 Y43.450 Z-16.769 F3289 
N102 X-164.784 Y44.032 Z-17.395 F3819 
N103 X-164.885 Y44.689 Z-18.105 F4256 
N104 X-165.165 Y45.381 Z-18.860 F4568 
N105 X-165.724 Y46.032 Z-19.579 F4756 
N106 X-166.549 Y46.562 Z-20.178 F4818 
N107 X-167.589 Y46.948 Z-20.629 F4818 
N108 X-168.745 Y47.117 Z-20.850 F4751 
N109 X-169.839 Y46.888 Z-20.642 F4550 
N110 X-170.449 Y46.270 Z-19.998 F4215 
N111 X-170.713 Y45.614 Z-19.301 F3746 
N112 X-170.849 Y45.033 Z-18.680 F3142 
N113 X-170.927 Y44.561 Z-18.175 F2439 
N114 X-170.976 Y44.201 Z-17.790 F1835 
N115 X-171.008 Y43.932 Z-17.501 F1366 
N116 X-171.030 Y43.730 Z-17.285 F1031 
N117 X-171.047 Y43.575 Z-17.118 F830 
N118 X-171.061 Y43.441 Z-16.975 F763 
N119 X-171.238 Y41.741 Z-15.152 F763 
N120 X-171.257 Y41.564 Z-14.963 F1017 
N121 X-171.280 Y41.338 Z-14.719 F1272 
N122 X-171.309 Y41.061 Z-14.422 F1527 
N123 X-171.320 Y40.961 Z-14.315 F1527 
N124 X-171.674 Y37.568 Z-10.677 F1527 
N125 X-172.018 Y33.817 Z-6.655 F1527 
N126 X-172.336 Y29.747 Z-2.290 F1527 
N127 X-172.616 Y25.310 Z2.468 F1527 
N128 X-172.853 Y20.214 Z7.933 F1527 
N129 X-173.007 Y14.740 Z13.803 F1527 
N130 X-173.056 Y8.698 Z20.283 F1527 
N131 X-172.995 Y3.407 Z25.956 F1527 
N132 X-172.981 Y2.738 Z26.674 F1527 
N133 X-172.975 Y2.431 Z27.003 F1908 
N134 X-172.967 Y2.056 Z27.405 F2290 
N135 X-172.958 Y1.667 Z27.822 F2356 
N136 X-172.945 Y1.257 Z28.262 F2553 
N137 X-172.921 Y0.802 Z28.750 F2881 
N138 X-172.875 Y0.282 Z29.308 F3340 
N139 X-172.783 Y-0.323 Z29.957 F3898 
N140 X-172.597 Y-1.007 Z30.690 F4357 
N141 X-172.248 Y-1.730 Z31.465 F4685 
N142 X-171.686 Y-2.438 Z32.224 F4882 
N143 X-170.928 Y-3.084 Z32.917 F4948 
N144 X-170.019 Y-3.650 Z33.524 F4948 
N145 X-168.974 Y-4.111 Z34.019 F4879 
N146 X-167.820 Y-4.336 Z34.260 F4671 
N147 X-166.930 Y-3.923 Z33.817 F4325 
N148 X-166.667 Y-3.242 Z33.087 F3841 
N149 X-166.588 Y-2.634 Z32.434 F3219 
N150 X-166.564 Y-2.141 Z31.906 F2492 
N151 X-166.559 Y-1.766 Z31.504 F1870 
N152 X-166.560 Y-1.487 Z31.205 F1386 
N153 X-166.562 Y-1.280 Z30.982 F1040 
N154 X-166.565 Y-1.121 Z30.811 F832 
N155 X-166.567 Y-0.985 Z30.666 F763 
N156 X-166.595 Y0.720 Z28.838 F763 
N157 X-166.598 Y0.896 Z28.648 F1017 
N158 X-166.602 Y1.124 Z28.405 F1272 
N159 X-166.606 Y1.402 Z28.107 F1527 
N160 X-166.715 Y8.020 Z21.009 F1527 
N161 X-166.679 Y14.110 Z14.478 F1527 
N162 X-166.524 Y19.914 Z8.255 F1527 
N163 X-166.295 Y24.905 Z2.902 F1527 
N164 X-166.007 Y29.501 Z-2.026 F1527 
N165 X-165.686 Y33.617 Z-6.440 F1527 
N166 X-165.340 Y37.375 Z-10.470 F1527 
N167 X-164.965 Y40.944 Z-14.298 F1527 
N168 X-164.933 Y41.250 Z-14.626 F1908 
N169 X-164.894 Y41.625 Z-15.027 F2290 
N170 X-164.855 Y42.001 Z-15.431 F2352 
N171 X-164.819 Y42.398 Z-15.856 F2538 
N172 X-164.787 Y42.835 Z-16.326 F2847 
N173 X-164.767 Y43.333 Z-16.861 F3280 
N174 X-164.780 Y43.910 Z-17.482 F3807 
N175 X-164.874 Y44.562 Z-18.188 F4240 
N176 X-165.138 Y45.252 Z-18.939 F4550 
N177 X-165.674 Y45.904 Z-19.660 F4735 
N178 X-166.478 Y46.441 Z-20.265 F4797 
N179 X-167.504 Y46.834 Z-20.724 F4797 
N180 X-168.650 Y47.003 Z-20.947 F4730 
N181 X-169.729 Y46.763 Z-20.726 F4530 
N182 X-170.316 Y46.140 Z-20.076 F4197 
N183 X-170.571 Y45.486 Z-19.382 F3730 
N184 X-170.703 Y44.909 Z-18.766 F3130 
N185 X-170.780 Y44.440 Z-18.264 F2430 
N186 X-170.828 Y44.082 Z-17.880 F1830 
N187 X-170.860 Y43.814 Z-17.593 F1363 
N188 X-170.882 Y43.614 Z-17.378 F1030 
N189 X-170.899 Y43.459 Z-17.212 F830 
N190 X-170.912 Y43.326 Z-17.070 F763 
N191 X-171.090 Y41.625 Z-15.246 F763 
N192 X-171.108 Y41.449 Z-15.057 F1017 
N193 X-171.132 Y41.222 Z-14.814 F1272 
N194 X-171.161 Y40.945 Z-14.516 F1527 
N195 X-171.172 Y40.845 Z-14.409 F1527 
N196 X-171.526 Y37.453 Z-10.771 F1527 
N197 X-171.870 Y33.703 Z-6.750 F1527 
N198 X-172.187 Y29.633 Z-2.386 F1527 
N199 X-172.467 Y25.198 Z2.370 F1527 
N200 X-172.705 Y20.102 Z7.835 F1527 
N201 X-172.859 Y14.629 Z13.704 F1527 
N202 X-172.908 Y8.588 Z20.182 F1527 
N203 X-172.846 Y3.300 Z25.853 F1527 
N204 X-172.832 Y2.625 Z26.577 F1527 
N205 X-172.826 Y2.318 Z26.906 F1908 
N206 X-172.818 Y1.943 Z27.308 F2290 
N207 X-172.810 Y1.556 Z27.723 F2355 
N208 X-172.796 Y1.147 Z28.162 F2551 
N209 X-172.773 Y0.695 Z28.647 F2876 
N210 X-172.728 Y0.177 Z29.202 F3332 
N211 X-172.639 Y-0.424 Z29.847 F3886 
N212 X-172.461 Y-1.104 Z30.576 F4342 
N213 X-172.126 Y-1.824 Z31.348 F4667 
N214 X-171.583 Y-2.532 Z32.107 F4863 
N215 X-170.845 Y-3.180 Z32.802 F4928 
N216 X-169.951 Y-3.753 Z33.417 F4928 
N217 X-168.921 Y-4.220 Z33.917 F4859 
N218 X-167.776 Y-4.446 Z34.159 F4653 
N219 X-166.911 Y-4.019 Z33.701 F4308 
N220 X-166.662 Y-3.340 Z32.973 F3826 
N221 X-166.586 Y-2.734 Z32.324 F3207 
N222 X-166.564 Y-2.245 Z31.799 F2484 
N223 X-166.559 Y-1.872 Z31.399 F1864 
N224 X-166.560 Y-1.594 Z31.101 F1383 
N225 X-166.562 Y-1.388 Z30.880 F1038 
N226 X-166.565 Y-1.229 Z30.710 F832 
N227 X-166.567 Y-1.094 Z30.565 F763 
N228 X-166.595 Y0.611 Z28.737 F763 
N229 X-166.598 Y0.788 Z28.547 F1017 
N230 X-166.602 Y1.015 Z28.303 F1272 
N231 X-166.606 Y1.293 Z28.005 F1527 
N232 X-166.715 Y7.912 Z20.907 F1527 
N233 X-166.679 Y14.002 Z14.377 F1527 
N234 X-166.524 Y19.805 Z8.153 F1527 
N235 X-166.295 Y24.797 Z2.801 F1527 
N236 X-166.007 Y29.392 Z-2.128 F1527 
N237 X-165.686 Y33.508 Z-6.541 F1527 
N238 X-165.340 Y37.266 Z-10.571 F1527 
N239 X-164.965 Y40.836 Z-14.399 F1527 
N240 X-164.933 Y41.142 Z-14.727 F1908 
N241 X-164.894 Y41.516 Z-15.128 F2290 
N242 X-164.855 Y41.891 Z-15.530 F2351 
N243 X-164.819 Y42.286 Z-15.954 F2536 
N244 X-164.787 Y42.720 Z-16.421 F2842 
N245 X-164.766 Y43.215 Z-16.952 F3272 
N246 X-164.777 Y43.788 Z-17.570 F3794 
N247 X-164.863 Y44.436 Z-18.270 F4224 
N248 X-165.112 Y45.122 Z-19.017 F4531 
N249 X-165.625 Y45.776 Z-19.739 F4715 
N250 X-166.406 Y46.318 Z-20.351 F4776 
N251 X-167.419 Y46.719 Z-20.819 F4776 
N252 X-168.556 Y46.890 Z-21.044 F4710 
N253 X-169.619 Y46.637 Z-20.810 F4511 
N254 X-170.183 Y46.009 Z-20.155 F4179 
N255 X-170.428 Y45.359 Z-19.464 F3715 
N256 X-170.557 Y44.785 Z-18.851 F3118 
N257 X-170.633 Y44.319 Z-18.352 F2421 
N258 X-170.680 Y43.964 Z-17.971 F1824 
N259 X-170.712 Y43.697 Z-17.686 F1360 
N260 X-170.734 Y43.498 Z-17.472 F1028 
N261 X-170.750 Y43.343 Z-17.306 F829 
N262 X-170.764 Y43.210 Z-17.164 F763 
N263 X-170.942 Y41.510 Z-15.340 F763 
N264 X-170.960 Y41.333 Z-15.151 F1017 
N265 X-170.984 Y41.107 Z-14.908 F1272 
N266 X-171.013 Y40.830 Z-14.610 F1527 
N267 X-171.024 Y40.728 Z-14.502 F1527 
N268 X-171.377 Y37.337 Z-10.866 F1527 
N269 X-171.721 Y33.588 Z-6.845 F1527 
N270 X-172.039 Y29.520 Z-2.482 F1527 
N271 X-172.319 Y25.085 Z2.273 F1527 
N272 X-172.556 Y19.991 Z7.737 F1527 
N273 X-172.710 Y14.519 Z13.604 F1527 
N274 X-172.759 Y8.479 Z20.081 F1527 
N275 X-172.698 Y3.193 Z25.750 F1527 
N276 X-172.683 Y2.512 Z26.480 F1527 
N277 X-172.677 Y2.205 Z26.809 F1908 
N278 X-172.669 Y1.830 Z27.211 F2290 
N279 X-172.661 Y1.445 Z27.625 F2355 
N280 X-172.648 Y1.037 Z28.061 F2549 
N281 X-172.625 Y0.587 Z28.544 F2872 
N282 X-172.582 Y0.073 Z29.096 F3324 
N283 X-172.496 Y-0.525 Z29.737 F3874 
N284 X-172.325 Y-1.201 Z30.461 F4326 
N285 X-172.003 Y-1.918 Z31.231 F4650 
N286 X-171.478 Y-2.625 Z31.989 F4844 
N287 X-170.762 Y-3.277 Z32.688 F4908 
N288 X-169.884 Y-3.856 Z33.309 F4908 
N289 X-168.869 Y-4.328 Z33.815 F4840 
N290 X-167.733 Y-4.555 Z34.059 F4634 
N291 X-166.893 Y-4.114 Z33.585 F4292 
N292 X-166.656 Y-3.437 Z32.860 F3812 
N293 X-166.585 Y-2.835 Z32.214 F3195 
N294 X-166.563 Y-2.348 Z31.692 F2476 
N295 X-166.559 Y-1.978 Z31.295 F1859 
N296 X-166.560 Y-1.701 Z30.998 F1380 
N297 X-166.562 Y-1.496 Z30.778 F1037 
N298 X-166.565 Y-1.337 Z30.608 F832 
N299 X-166.567 Y-1.203 Z30.464 F763 
N300 X-166.595 Y0.502 Z28.635 F763 
N301 X-166.598 Y0.679 Z28.446 F1017 
N302 X-166.602 Y0.906 Z28.202 F1272 
N303 X-166.606 Y1.184 Z27.904 F1527 
N304 X-166.715 Y7.804 Z20.805 F1527 
N305 X-166.679 Y13.893 Z14.275 F1527 
N306 X-166.524 Y19.697 Z8.052 F1527 
N307 X-166.295 Y24.688 Z2.699 F1527 
N308 X-166.007 Y29.284 Z-2.229 F1527 
N309 X-165.686 Y33.399 Z-6.642 F1527 
N310 X-165.340 Y37.157 Z-10.673 F1527 
N311 X-164.965 Y40.727 Z-14.500 F1527 
N312 X-164.933 Y41.033 Z-14.829 F1908 
N313 X-164.894 Y41.407 Z-15.230 F2290 
N314 X-164.856 Y41.780 Z-15.630 F2351 
N315 X-164.819 Y42.173 Z-16.052 F2534 
N316 X-164.787 Y42.606 Z-16.516 F2838 
N317 X-164.765 Y43.098 Z-17.044 F3264 
N318 X-164.773 Y43.667 Z-17.657 F3781 
N319 X-164.853 Y44.310 Z-18.352 F4208 
N320 X-165.087 Y44.992 Z-19.096 F4512 
N321 X-165.577 Y45.648 Z-19.819 F4695 
N322 X-166.335 Y46.195 Z-20.436 F4756 
N323 X-167.334 Y46.604 Z-20.913 F4756 
N324 X-168.462 Y46.776 Z-21.140 F4690 
N325 X-169.508 Y46.511 Z-20.893 F4492 
N326 X-170.049 Y45.879 Z-20.233 F4162 
N327 X-170.286 Y45.232 Z-19.546 F3700 
N328 X-170.411 Y44.662 Z-18.936 F3106 
N329 X-170.485 Y44.199 Z-18.441 F2413 
N330 X-170.532 Y43.845 Z-18.062 F1819 
N331 X-170.564 Y43.580 Z-17.778 F1357 
N332 X-170.585 Y43.381 Z-17.565 F1027 
N333 X-170.602 Y43.227 Z-17.399 F829 
N334 X-170.616 Y43.095 Z-17.258 F763 
N335 X-170.793 Y41.394 Z-15.434 F763 
N336 X-170.812 Y41.218 Z-15.245 F1017 
N337 X-170.835 Y40.991 Z-15.002 F1272 
N338 X-170.864 Y40.714 Z-14.705 F1527 
N339 X-170.876 Y40.612 Z-14.595 F1527 
N340 X-171.229 Y37.222 Z-10.960 F1527 
N341 X-171.573 Y33.474 Z-6.940 F1527 
N342 X-171.890 Y29.406 Z-2.578 F1527 
N343 X-172.170 Y24.973 Z2.176 F1527 
N344 X-172.408 Y19.879 Z7.638 F1527 
N345 X-172.562 Y14.409 Z13.504 F1527 
N346 X-172.611 Y8.370 Z19.980 F1527 
N347 X-172.549 Y3.086 Z25.647 F1527 
N348 X-172.535 Y2.399 Z26.383 F1527 
N349 X-172.528 Y2.093 Z26.712 F1908 
N350 X-172.521 Y1.717 Z27.114 F2290 
N351 X-172.512 Y1.333 Z27.526 F2354 
N352 X-172.500 Y0.928 Z27.961 F2547 
N353 X-172.477 Y0.480 Z28.442 F2867 
N354 X-172.435 Y-0.032 Z28.990 F3317 
N355 X-172.353 Y-0.626 Z29.627 F3862 
N356 X-172.188 Y-1.297 Z30.347 F4311 
N357 X-171.880 Y-2.012 Z31.113 F4632 
N358 X-171.374 Y-2.719 Z31.871 F4824 
N359 X-170.677 Y-3.373 Z32.573 F4889 
N360 X-169.815 Y-3.959 Z33.201 F4889 
N361 X-168.816 Y-4.436 Z33.713 F4820 
N362 X-167.690 Y-4.664 Z33.958 F4616 
N363 X-166.875 Y-4.209 Z33.469 F4275 
N364 X-166.651 Y-3.534 Z32.746 F3798 
N365 X-166.583 Y-2.936 Z32.104 F3184 
N366 X-166.563 Y-2.452 Z31.585 F2468 
N367 X-166.559 Y-2.083 Z31.190 F1854 
N368 X-166.560 Y-1.808 Z30.895 F1377 
N369 X-166.562 Y-1.603 Z30.675 F1036 
N370 X-166.565 Y-1.446 Z30.506 F831 
N371 X-166.567 Y-1.311 Z30.362 F763 
N372 X-166.595 Y0.394 Z28.534 F763 
N373 X-166.598 Y0.570 Z28.344 F1017 
N374 X-166.602 Y0.798 Z28.101 F1272 
N375 X-166.606 Y1.075 Z27.803 F1527 
N376 X-166.715 Y7.696 Z20.703 F1527 
N377 X-166.679 Y13.785 Z14.173 F1527 
N378 X-166.524 Y19.588 Z7.950 F1527 
N379 X-166.295 Y24.579 Z2.598 F1527 
N380 X-166.007 Y29.175 Z-2.330 F1527 
N381 X-165.686 Y33.290 Z-6.744 F1527 
N382 X-165.340 Y37.049 Z-10.774 F1527 
N383 X-164.965 Y40.618 Z-14.602 F1527 
N384 X-164.933 Y40.924 Z-14.930 F1908 
N385 X-164.894 Y41.298 Z-15.331 F2290 
N386 X-164.856 Y41.670 Z-15.730 F2350 
N387 X-164.819 Y42.061 Z-16.149 F2531 
N388 X-164.787 Y42.491 Z-16.611 F2833 
N389 X-164.764 Y42.980 Z-17.136 F3256 
N390 X-164.769 Y43.545 Z-17.745 F3769 
N391 X-164.843 Y44.184 Z-18.435 F4191 
N392 X-165.063 Y44.863 Z-19.174 F4493 
N393 X-165.530 Y45.519 Z-19.898 F4674 
N394 X-166.264 Y46.072 Z-20.521 F4735 
N395 X-167.250 Y46.489 Z-21.007 F4735 
N396 X-168.368 Y46.663 Z-21.237 F4669 
N397 X-169.397 Y46.384 Z-20.976 F4472 
N398 X-169.915 Y45.749 Z-20.312 F4144 
N399 X-170.143 Y45.105 Z-19.627 F3684 
N400 X-170.265 Y44.538 Z-19.022 F3094 
N401 X-170.338 Y44.078 Z-18.529 F2404 
N402 X-170.384 Y43.726 Z-18.153 F1813 
N403 X-170.415 Y43.463 Z-17.870 F1354 
N404 X-170.437 Y43.265 Z-17.658 F1026 
N405 X-170.454 Y43.111 Z-17.493 F829 
N406 X-170.467 Y42.980 Z-17.352 F763 
N407 X-170.645 Y41.279 Z-15.528 F763 
N408 X-170.663 Y41.103 Z-15.339 F1017 
N409 X-170.687 Y40.876 Z-15.096 F1272 
N410 X-170.716 Y40.599 Z-14.799 F1527 
N411 X-170.727 Y40.496 Z-14.688 F1527 
N412 X-171.081 Y37.106 Z-11.054 F1527 
N413 X-171.425 Y33.359 Z-7.035 F1527 
N414 X-171.742 Y29.293 Z-2.674 F1527 
N415 X-172.022 Y24.860 Z2.079 F1527 
N416 X-172.259 Y19.768 Z7.540 F1527 
N417 X-172.413 Y14.298 Z13.405 F1527 
N418 X-172.462 Y8.261 Z19.879 F1527 
N419 X-172.400 Y2.978 Z25.544 F1527 
N420 X-172.386 Y2.286 Z26.286 F1527 
N421 X-172.380 Y1.980 Z26.615 F1908 
N422 X-172.372 Y1.604 Z27.017 F2290 
N423 X-172.363 Y1.222 Z27.428 F2354 
N424 X-172.351 Y0.818 Z27.861 F2545 
N425 X-172.329 Y0.372 Z28.339 F2863 
N426 X-172.289 Y-0.137 Z28.885 F3309 
N427 X-172.209 Y-0.727 Z29.518 F3850 
N428 X-172.051 Y-1.395 Z30.233 F4296 
N429 X-171.755 Y-2.105 Z30.996 F4614 
N430 X-171.268 Y-2.812 Z31.754 F4806 
N431 X-170.592 Y-3.468 Z32.457 F4869 
N432 X-169.747 Y-4.061 Z33.093 F4869 
N433 X-168.763 Y-4.545 Z33.611 F4801 
N434 X-167.647 Y-4.773 Z33.856 F4598 
N435 X-166.858 Y-4.304 Z33.353 F4258 
N436 X-166.646 Y-3.632 Z32.632 F3783 
N437 X-166.581 Y-3.037 Z31.995 F3172 
N438 X-166.562 Y-2.555 Z31.478 F2460 
N439 X-166.558 Y-2.189 Z31.085 F1849 
N440 X-166.560 Y-1.915 Z30.792 F1374 
N441 X-166.562 Y-1.711 Z30.573 F1034 
N442 X-166.565 Y-1.554 Z30.404 F831 
N443 X-166.567 Y-1.420 Z30.261 F763 
N444 X-166.595 Y0.285 Z28.433 F763 
N445 X-166.598 Y0.462 Z28.243 F1017 
N446 X-166.602 Y0.689 Z27.999 F1272 
N447 X-166.606 Y0.967 Z27.701 F1527 
N448 X-166.715 Y7.587 Z20.602 F1527 
N449 X-166.679 Y13.677 Z14.072 F1527 
N450 X-166.524 Y19.479 Z7.849 F1527 
N451 X-166.295 Y24.471 Z2.497 F1527 
N452 X-166.007 Y29.066 Z-2.432 F1527 
N453 X-165.686 Y33.182 Z-6.845 F1527 
N454 X-165.340 Y36.940 Z-10.875 F1527 
N455 X-164.965 Y40.509 Z-14.703 F1527 
N456 X-164.933 Y40.816 Z-15.031 F1908 
N457 X-164.894 Y41.190 Z-15.433 F2290 
N458 X-164.851 Y41.607 Z-15.880 F2366 
N459 X-164.811 Y42.052 Z-16.357 F2593 
N460 X-164.776 Y42.551 Z-16.894 F2972 
N461 X-164.760 Y43.133 Z-17.519 F3502 
N462 X-164.796 Y43.813 Z-18.252 F4032 
N463 X-164.969 Y44.563 Z-19.067 F4411 
N464 X-165.413 Y45.312 Z-19.890 F4639 
N465 X-166.195 Y45.949 Z-20.606 F4714 
N466 X-167.165 Y46.374 Z-21.101 F4714 
N467 X-168.273 Y46.549 Z-21.334 F4649 
N468 X-169.284 Y46.257 Z-21.058 F4453 
N469 X-169.781 Y45.619 Z-20.390 F4127 
N470 X-170.001 Y44.978 Z-19.709 F3669 
N471 X-170.119 Y44.415 Z-19.107 F3082 
N472 X-170.191 Y43.957 Z-18.618 F2396 
N473 X-170.237 Y43.608 Z-18.243 F1808 
N474 X-170.267 Y43.345 Z-17.962 F1351 
N475 X-170.289 Y43.149 Z-17.751 F1024 
N476 X-170.305 Y42.995 Z-17.587 F828 
N477 X-170.319 Y42.864 Z-17.446 F763 
N478 X-170.497 Y41.163 Z-15.622 F763 
N479 X-170.515 Y40.987 Z-15.433 F1017 
N480 X-170.539 Y40.760 Z-15.190 F1272 
N481 X-170.568 Y40.483 Z-14.893 F1527 
N482 X-170.579 Y40.379 Z-14.782 F1527 
N483 X-170.932 Y36.991 Z-11.148 F1527 
N484 X-171.276 Y33.244 Z-7.130 F1527 
N485 X-171.593 Y29.179 Z-2.771 F1527 
N486 X-171.873 Y24.748 Z1.981 F1527 
N487 X-172.110 Y19.656 Z7.441 F1527 
N488 X-172.264 Y14.188 Z13.305 F1527 
N489 X-172.313 Y8.152 Z19.778 F1527 
N490 X-172.252 Y2.871 Z25.441 F1527 
N491 X-172.237 Y2.173 Z26.189 F1527 
N492 X-172.231 Y1.866 Z26.519 F1908 
N493 X-172.223 Y1.491 Z26.921 F2290 
N494 X-172.215 Y1.110 Z27.330 F2353 
N495 X-172.203 Y0.708 Z27.761 F2543 
N496 X-172.181 Y0.264 Z28.237 F2859 
N497 X-172.142 Y-0.242 Z28.779 F3301 
N498 X-172.065 Y-0.828 Z29.408 F3839 
N499 X-171.914 Y-1.492 Z30.120 F4281 
N500 X-171.630 Y-2.200 Z30.879 F4597 
N501 X-171.161 Y-2.905 Z31.636 F4787 
N502 X-170.506 Y-3.564 Z32.342 F4850 
N503 X-169.679 Y-4.163 Z32.984 F4850 
N504 X-168.711 Y-4.653 Z33.509 F4782 
N505 X-167.604 Y-4.882 Z33.755 F4580 
N506 X-166.842 Y-4.399 Z33.237 F4242 
N507 X-166.641 Y-3.729 Z32.519 F3769 
N508 X-166.580 Y-3.138 Z31.885 F3161 
N509 X-166.561 Y-2.659 Z31.372 F2452 
N510 X-166.558 Y-2.294 Z30.980 F1844 
N511 X-166.560 Y-2.022 Z30.688 F1371 
N512 X-166.562 Y-1.819 Z30.471 F1033 
N513 X-166.565 Y-1.662 Z30.303 F831 
N514 X-166.567 Y-1.529 Z30.159 F763 
N515 X-166.595 Y0.176 Z28.331 F763 
N516 X-166.598 Y0.353 Z28.142 F1017 
N517 X-166.602 Y0.580 Z27.898 F1272 
N518 X-166.606 Y0.858 Z27.600 F1527 
N519 X-166.715 Y7.479 Z20.500 F1527 
N520 X-166.679 Y13.568 Z13.970 F1527 
N521 X-166.524 Y19.371 Z7.747 F1527 
N522 X-166.295 Y24.362 Z2.395 F1527 
N523 X-166.007 Y28.958 Z-2.533 F1527 
N524 X-165.686 Y33.073 Z-6.946 F1527 
N525 X-165.340 Y36.831 Z-10.977 F1527 
N526 X-164.965 Y40.401 Z-14.804 F1527 
N527 X-164.933 Y40.707 Z-15.133 F1908 
N528 X-164.894 Y41.081 Z-15.534 F2290 
N529 X-164.851 Y41.496 Z-15.980 F2365 
N530 X-164.811 Y41.939 Z-16.454 F2590 
N531 X-164.776 Y42.436 Z-16.988 F2966 
N532 X-164.758 Y43.013 Z-17.609 F3492 
N533 X-164.790 Y43.688 Z-18.337 F4018 
N534 X-164.951 Y44.434 Z-19.145 F4393 
N535 X-165.371 Y45.181 Z-19.967 F4619 
N536 X-166.125 Y45.824 Z-20.690 F4694 
N537 X-167.080 Y46.259 Z-21.195 F4694 
N538 X-168.178 Y46.436 Z-21.430 F4629 
N539 X-169.171 Y46.129 Z-21.140 F4434 
N540 X-169.646 Y45.488 Z-20.469 F4109 
N541 X-169.858 Y44.851 Z-19.791 F3654 
N542 X-169.974 Y44.291 Z-19.193 F3070 
N543 X-170.044 Y43.837 Z-18.707 F2387 
N544 X-170.089 Y43.489 Z-18.334 F1803 
N545 X-170.119 Y43.228 Z-18.055 F1348 
N546 X-170.141 Y43.032 Z-17.844 F1023 
N547 X-170.157 Y42.880 Z-17.681 F828 
N548 X-170.171 Y42.749 Z-17.540 F763 
N549 X-170.348 Y41.048 Z-15.717 F763 
N550 X-170.367 Y40.872 Z-15.527 F1017 
N551 X-170.390 Y40.645 Z-15.284 F1272 
N552 X-170.419 Y40.368 Z-14.987 F1527 
N553 X-170.431 Y40.263 Z-14.875 F1527 
N554 X-170.784 Y36.875 Z-11.242 F1527 
N555 X-171.128 Y33.130 Z-7.225 F1527 
N556 X-171.445 Y29.065 Z-2.867 F1527 
N557 X-171.725 Y24.635 Z1.884 F1527 
N558 X-171.962 Y19.545 Z7.343 F1527 
N559 X-172.116 Y14.078 Z13.206 F1527 
N560 X-172.165 Y8.043 Z19.677 F1527 
N561 X-172.103 Y2.764 Z25.338 F1527 
N562 X-172.088 Y2.060 Z26.093 F1527 
N563 X-172.082 Y1.753 Z26.422 F1908 
N564 X-172.074 Y1.378 Z26.824 F2290 
N565 X-172.066 Y0.998 Z27.232 F2353 
N566 X-172.054 Y0.598 Z27.661 F2541 
N567 X-172.033 Y0.156 Z28.134 F2855 
N568 X-171.995 Y-0.347 Z28.674 F3294 
N569 X-171.922 Y-0.930 Z29.299 F3827 
N570 X-171.777 Y-1.589 Z30.006 F4266 
N571 X-171.505 Y-2.293 Z30.761 F4580 
N572 X-171.054 Y-2.998 Z31.517 F4768 
N573 X-170.420 Y-3.659 Z32.226 F4831 
N574 X-169.609 Y-4.265 Z32.875 F4831 
N575 X-168.658 Y-4.761 Z33.407 F4763 
N576 X-167.561 Y-4.991 Z33.654 F4562 
N577 X-166.826 Y-4.494 Z33.121 F4226 
N578 X-166.636 Y-3.827 Z32.406 F3755 
N579 X-166.578 Y-3.239 Z31.775 F3150 
N580 X-166.561 Y-2.763 Z31.265 F2444 
N581 X-166.558 Y-2.400 Z30.876 F1839 
N582 X-166.560 Y-2.129 Z30.585 F1368 
N583 X-166.562 Y-1.927 Z30.368 F1032 
N584 X-166.565 Y-1.771 Z30.201 F830 
N585 X-166.567 Y-1.638 Z30.058 F763 
N586 X-166.595 Y0.067 Z28.230 F763 
N587 X-166.598 Y0.244 Z28.040 F1017 
N588 X-166.602 Y0.472 Z27.796 F1272 
N589 X-166.606 Y0.749 Z27.498 F1527 
N590 X-166.715 Y7.371 Z20.398 F1527 
N591 X-166.679 Y13.460 Z13.868 F1527 
N592 X-166.524 Y19.262 Z7.646 F1527 
N593 X-166.295 Y24.253 Z2.294 F1527 
N594 X-166.007 Y28.849 Z-2.635 F1527 
N595 X-165.686 Y32.964 Z-7.048 F1527 
N596 X-165.340 Y36.723 Z-11.078 F1527 
N597 X-164.965 Y40.292 Z-14.906 F1527 
N598 X-164.933 Y40.598 Z-15.234 F1908 
N599 X-164.894 Y40.972 Z-15.635 F2290 
N600 X-164.851 Y41.386 Z-16.079 F2364 
N601 X-164.811 Y41.826 Z-16.551 F2588 
N602 X-164.776 Y42.320 Z-17.082 F2960 
N603 X-164.756 Y42.894 Z-17.699 F3482 
N604 X-164.784 Y43.564 Z-18.421 F4003 
N605 X-164.933 Y44.305 Z-19.225 F4376 
N606 X-165.330 Y45.051 Z-20.045 F4599 
N607 X-166.057 Y45.700 Z-20.773 F4674 
N608 X-166.995 Y46.143 Z-21.289 F4674 
N609 X-168.083 Y46.322 Z-21.527 F4609 
N610 X-169.057 Y46.001 Z-21.221 F4415 
N611 X-169.511 Y45.358 Z-20.548 F4092 
N612 X-169.715 Y44.724 Z-19.873 F3639 
N613 X-169.828 Y44.168 Z-19.279 F3058 
N614 X-169.896 Y43.716 Z-18.795 F2379 
N615 X-169.941 Y43.371 Z-18.425 F1797 
N616 X-169.971 Y43.111 Z-18.147 F1345 
N617 X-169.993 Y42.916 Z-17.938 F1022 
N618 X-170.009 Y42.764 Z-17.775 F828 
N619 X-170.022 Y42.633 Z-17.635 F763 
N620 X-170.200 Y40.933 Z-15.811 F763 
N621 X-170.218 Y40.756 Z-15.622 F1017 
N622 X-170.242 Y40.529 Z-15.378 F1272 
N623 X-170.271 Y40.252 Z-15.081 F1527 
N624 X-170.283 Y40.147 Z-14.968 F1527 
N625 X-170.636 Y36.760 Z-11.336 F1527 
N626 X-170.979 Y33.015 Z-7.320 F1527 
N627 X-171.296 Y28.952 Z-2.963 F1527 
N628 X-171.576 Y24.522 Z1.787 F1527 
N629 X-171.813 Y19.433 Z7.244 F1527 
N630 X-171.967 Y13.967 Z13.106 F1527 
N631 X-172.016 Y7.933 Z19.577 F1527 
N632 X-171.955 Y2.656 Z25.235 F1527 
N633 X-171.940 Y1.947 Z25.996 F1527 
N634 X-171.933 Y1.640 Z26.326 F1908 
N635 X-171.925 Y1.265 Z26.728 F2290 
N636 X-171.917 Y0.886 Z27.134 F2352 
N637 X-171.906 Y0.488 Z27.561 F2539 
N638 X-171.885 Y0.048 Z28.032 F2850 
N639 X-171.849 Y-0.452 Z28.569 F3286 
N640 X-171.778 Y-1.031 Z29.190 F3815 
N641 X-171.639 Y-1.687 Z29.893 F4251 
N642 X-171.379 Y-2.388 Z30.645 F4563 
N643 X-170.946 Y-3.092 Z31.399 F4749 
N644 X-170.332 Y-3.754 Z32.110 F4812 
N645 X-169.540 Y-4.366 Z32.766 F4812 
N646 X-168.606 Y-4.869 Z33.305 F4745 
N647 X-167.519 Y-5.099 Z33.552 F4544 
N648 X-166.811 Y-4.589 Z33.005 F4209 
N649 X-166.631 Y-3.925 Z32.293 F3741 
N650 X-166.576 Y-3.340 Z31.666 F3139 
N651 X-166.561 Y-2.867 Z31.158 F2436 
N652 X-166.558 Y-2.506 Z30.771 F1834 
N653 X-166.560 Y-2.236 Z30.482 F1365 
N654 X-166.562 Y-2.035 Z30.266 F1031 
N655 X-166.565 Y-1.879 Z30.099 F830 
N656 X-166.567 Y-1.746 Z29.957 F763 
N657 X-166.595 Y-0.041 Z28.128 F763 
N658 X-166.598 Y0.135 Z27.939 F1017 
N659 X-166.602 Y0.363 Z27.695 F1272 
N660 X-166.606 Y0.641 Z27.397 F1527 
N661 X-166.715 Y7.263 Z20.295 F1527 
N662 X-166.679 Y13.351 Z13.767 F1527 
N663 X-166.524 Y19.153 Z7.545 F1527 
N664 X-166.295 Y24.144 Z2.192 F1527 
N665 X-166.007 Y28.740 Z-2.736 F1527 
N666 X-165.686 Y32.856 Z-7.149 F1527 
N667 X-165.340 Y36.614 Z-11.180 F1527 
N668 X-164.965 Y40.183 Z-15.007 F1527 
N669 X-164.933 Y40.489 Z-15.336 F1908 
N670 X-164.894 Y40.864 Z-15.737 F2290 
N671 X-164.852 Y41.275 Z-16.178 F2364 
N672 X-164.811 Y41.714 Z-16.648 F2585 
N673 X-164.775 Y42.204 Z-17.176 F2955 
N674 X-164.755 Y42.774 Z-17.788 F3471 
N675 X-164.778 Y43.439 Z-18.505 F3988 
N676 X-164.916 Y44.175 Z-19.303 F4357 
N677 X-165.290 Y44.920 Z-20.121 F4579 
N678 X-165.988 Y45.574 Z-20.855 F4653 
N679 X-166.912 Y46.028 Z-21.383 F4653 
N680 X-167.990 Y46.209 Z-21.623 F4588 
N681 X-168.942 Y45.872 Z-21.301 F4396 
N682 X-169.375 Y45.228 Z-20.626 F4074 
N683 X-169.572 Y44.597 Z-19.955 F3624 
N684 X-169.682 Y44.044 Z-19.364 F3045 
N685 X-169.749 Y43.596 Z-18.884 F2370 
N686 X-169.793 Y43.252 Z-18.516 F1792 
N687 X-169.823 Y42.994 Z-18.239 F1342 
N688 X-169.844 Y42.800 Z-18.031 F1020 
N689 X-169.860 Y42.648 Z-17.868 F827 
N690 X-169.874 Y42.518 Z-17.729 F763 
N691 X-170.052 Y40.817 Z-15.905 F763 
N692 X-170.070 Y40.641 Z-15.716 F1017 
N693 X-170.094 Y40.414 Z-15.473 F1272 
N694 X-170.123 Y40.137 Z-15.175 F1527 
N695 X-170.135 Y40.030 Z-15.061 F1527 
N696 X-170.488 Y36.644 Z-11.430 F1527 
N697 X-170.831 Y32.901 Z-7.415 F1527 
N698 X-171.148 Y28.838 Z-3.059 F1527 
N699 X-171.428 Y24.410 Z1.690 F1527 
N700 X-171.665 Y19.322 Z7.146 F1527 
N701 X-171.818 Y13.857 Z13.007 F1527 
N702 X-171.867 Y7.824 Z19.476 F1527 
N703 X-171.806 Y2.549 Z25.132 F1527 
N704 X-171.791 Y1.833 Z25.900 F1527 
N705 X-171.785 Y1.526 Z26.229 F1908 
N706 X-171.777 Y1.151 Z26.631 F2290 
N707 X-171.769 Y0.774 Z27.036 F2352 
N708 X-171.757 Y0.377 Z27.461 F2537 
N709 X-171.737 Y-0.060 Z27.930 F2846 
N710 X-171.702 Y-0.557 Z28.464 F3279 
N711 X-171.634 Y-1.133 Z29.081 F3804 
N712 X-171.501 Y-1.784 Z29.780 F4237 
N713 X-171.252 Y-2.482 Z30.527 F4545 
N714 X-170.837 Y-3.184 Z31.281 F4731 
N715 X-170.244 Y-3.849 Z31.993 F4793 
N716 X-169.470 Y-4.468 Z32.657 F4793 
N717 X-168.553 Y-4.977 Z33.203 F4726 
N718 X-167.476 Y-5.207 Z33.450 F4526 
N719 X-166.796 Y-4.684 Z32.889 F4193 
N720 X-166.627 Y-4.022 Z32.179 F3727 
N721 X-166.575 Y-3.441 Z31.556 F3128 
N722 X-166.560 Y-2.970 Z31.051 F2428 
N723 X-166.558 Y-2.611 Z30.667 F1829 
N724 X-166.560 Y-2.343 Z30.379 F1362 
N725 X-166.562 Y-2.143 Z30.164 F1029 
N726 X-166.565 Y-1.988 Z29.998 F830 
N727 X-166.567 Y-1.855 Z29.855 F763 
N728 X-166.595 Y-0.150 Z28.027 F763 
N729 X-166.598 Y0.027 Z27.837 F1017 
N730 X-166.602 Y0.254 Z27.594 F1272 
N731 X-166.606 Y0.532 Z27.296 F1527 
N732 X-166.715 Y7.155 Z20.193 F1527 
N733 X-166.679 Y13.243 Z13.665 F1527 
N734 X-166.524 Y19.045 Z7.443 F1527 
N735 X-166.295 Y24.036 Z2.091 F1527 
N736 X-166.007 Y28.631 Z-2.837 F1527 
N737 X-165.686 Y32.747 Z-7.251 F1527 
N738 X-165.340 Y36.505 Z-11.281 F1527 
N739 X-164.965 Y40.075 Z-15.109 F1527 
N740 X-164.933 Y40.381 Z-15.437 F1908 
N741 X-164.894 Y40.755 Z-15.838 F2290 
N742 X-164.852 Y41.165 Z-16.278 F2363 
N743 X-164.811 Y41.601 Z-16.746 F2583 
N744 X-164.775 Y42.089 Z-17.270 F2949 
N745 X-164.753 Y42.655 Z-17.879 F3462 
N746 X-164.772 Y43.316 Z-18.591 F3974 
N747 X-164.899 Y44.046 Z-19.383 F4341 
N748 X-165.252 Y44.790 Z-20.199 F4560 
N749 X-165.922 Y45.449 Z-20.938 F4634 
N750 X-166.826 Y45.911 Z-21.476 F4634 
N751 X-167.894 Y46.095 Z-21.720 F4570 
N752 X-168.825 Y45.744 Z-21.383 F4378 
N753 X-169.239 Y45.098 Z-20.705 F4058 
N754 X-169.428 Y44.471 Z-20.038 F3610 
N755 X-169.535 Y43.922 Z-19.451 F3034 
N756 X-169.602 Y43.475 Z-18.973 F2362 
N757 X-169.645 Y43.134 Z-18.607 F1787 
N758 X-169.675 Y42.877 Z-18.332 F1339 
N759 X-169.696 Y42.684 Z-18.124 F1019 
N760 X-169.712 Y42.532 Z-17.962 F827 
N761 X-169.726 Y42.402 Z-17.823 F763 
N762 X-169.903 Y40.702 Z-15.999 F763 
N763 X-169.922 Y40.525 Z-15.810 F1017 
N764 X-169.945 Y40.299 Z-15.567 F1272 
N765 X-169.974 Y40.022 Z-15.270 F1527 
N766 X-169.986 Y39.914 Z-15.154 F1527 
N767 X-170.339 Y36.529 Z-11.524 F1527 
N768 X-170.683 Y32.786 Z-7.510 F1527 
N769 X-170.999 Y28.724 Z-3.155 F1527 
N770 X-171.279 Y24.297 Z1.593 F1527 
N771 X-171.516 Y19.210 Z7.047 F1527 
N772 X-171.670 Y13.746 Z12.907 F1527 
N773 X-171.719 Y7.714 Z19.375 F1527 
N774 X-171.657 Y2.442 Z25.030 F1527 
N775 X-171.642 Y1.720 Z25.804 F1527 
N776 X-171.636 Y1.413 Z26.133 F1908 
N777 X-171.628 Y1.038 Z26.535 F2290 
N778 X-171.620 Y0.662 Z26.938 F2351 
N779 X-171.608 Y0.267 Z27.362 F2535 
N780 X-171.589 Y-0.168 Z27.829 F2842 
N781 X-171.555 Y-0.663 Z28.359 F3271 
N782 X-171.489 Y-1.235 Z28.973 F3793 
N783 X-171.362 Y-1.882 Z29.667 F4222 
N784 X-171.125 Y-2.576 Z30.411 F4529 
N785 X-170.727 Y-3.277 Z31.163 F4713 
N786 X-170.155 Y-3.943 Z31.877 F4774 
N787 X-169.400 Y-4.568 Z32.547 F4774 
N788 X-168.501 Y-5.084 Z33.101 F4708 
N789 X-167.434 Y-5.315 Z33.348 F4509 
N790 X-166.782 Y-4.779 Z32.773 F4177 
N791 X-166.623 Y-4.120 Z32.067 F3713 
N792 X-166.574 Y-3.542 Z31.447 F3117 
N793 X-166.560 Y-3.074 Z30.945 F2420 
N794 X-166.558 Y-2.717 Z30.562 F1824 
N795 X-166.560 Y-2.450 Z30.276 F1360 
N796 X-166.562 Y-2.251 Z30.062 F1028 
N797 X-166.565 Y-2.096 Z29.896 F829 
N798 X-166.567 Y-1.964 Z29.754 F763 
N799 X-166.595 Y-0.259 Z27.926 F763 
N800 X-166.598 Y-0.082 Z27.736 F1017 
N801 X-166.602 Y0.145 Z27.492 F1272 
N802 X-166.606 Y0.423 Z27.194 F1527 
N803 X-166.715 Y7.047 Z20.091 F1527 
N804 X-166.679 Y13.135 Z13.563 F1527 
N805 X-166.524 Y18.936 Z7.342 F1527 
N806 X-166.295 Y23.927 Z1.990 F1527 
N807 X-166.007 Y28.523 Z-2.939 F1527 
N808 X-165.686 Y32.638 Z-7.352 F1527 
N809 X-165.340 Y36.396 Z-11.382 F1527 
N810 X-164.965 Y39.966 Z-15.210 F1527 
N811 X-164.933 Y40.272 Z-15.538 F1908 
N812 X-164.894 Y40.646 Z-15.939 F2290 
N813 X-164.852 Y41.054 Z-16.377 F2363 
N814 X-164.811 Y41.488 Z-16.843 F2580 
N815 X-164.775 Y41.974 Z-17.364 F2943 
N816 X-164.751 Y42.536 Z-17.968 F3451 
N817 X-164.767 Y43.191 Z-18.675 F3960 
N818 X-164.883 Y43.917 Z-19.461 F4323 
N819 X-165.214 Y44.658 Z-20.275 F4540 
N820 X-165.855 Y45.322 Z-21.019 F4613 
N821 X-166.743 Y45.796 Z-21.569 F4613 
N822 X-167.800 Y45.981 Z-21.816 F4549 
N823 X-168.709 Y45.615 Z-21.462 F4358 
N824 X-169.102 Y44.968 Z-20.783 F4040 
N825 X-169.285 Y44.344 Z-20.120 F3595 
N826 X-169.389 Y43.798 Z-19.536 F3022 
N827 X-169.455 Y43.355 Z-19.062 F2354 
N828 X-169.497 Y43.015 Z-18.698 F1781 
N829 X-169.527 Y42.760 Z-18.424 F1336 
N830 X-169.548 Y42.567 Z-18.218 F1018 
N831 X-169.564 Y42.417 Z-18.056 F827 
N832 X-169.577 Y42.287 Z-17.917 F763 
N833 X-169.755 Y40.586 Z-16.093 F763 
N834 X-169.773 Y40.410 Z-15.904 F1017 
N835 X-169.797 Y40.183 Z-15.661 F1272 
N836 X-169.826 Y39.906 Z-15.364 F1527 
N837 X-169.838 Y39.798 Z-15.248 F1527 
N838 X-170.191 Y36.413 Z-11.618 F1527 
N839 X-170.534 Y32.671 Z-7.606 F1527 
N840 X-170.851 Y28.611 Z-3.251 F1527 
N841 X-171.131 Y24.185 Z1.495 F1527 
N842 X-171.367 Y19.099 Z6.949 F1527 
N843 X-171.521 Y13.636 Z12.808 F1527 
N844 X-171.570 Y7.605 Z19.275 F1527 
N845 X-171.509 Y2.335 Z24.927 F1527 
N846 X-171.493 Y1.606 Z25.708 F1527 
N847 X-171.487 Y1.299 Z26.037 F1908 
N848 X-171.479 Y0.924 Z26.439 F2290 
N849 X-171.471 Y0.550 Z26.840 F2351 
N850 X-171.460 Y0.156 Z27.263 F2534 
N851 X-171.441 Y-0.277 Z27.727 F2838 
N852 X-171.408 Y-0.769 Z28.255 F3264 
N853 X-171.345 Y-1.338 Z28.865 F3782 
N854 X-171.223 Y-1.981 Z29.554 F4208 
N855 X-170.997 Y-2.671 Z30.294 F4512 
N856 X-170.616 Y-3.371 Z31.045 F4695 
N857 X-170.065 Y-4.038 Z31.760 F4756 
N858 X-169.329 Y-4.669 Z32.437 F4756 
N859 X-168.448 Y-5.192 Z32.998 F4690 
N860 X-167.392 Y-5.423 Z33.245 F4492 
N861 X-166.769 Y-4.874 Z32.657 F4162 
N862 X-166.618 Y-4.218 Z31.954 F3700 
N863 X-166.572 Y-3.644 Z31.338 F3106 
N864 X-166.559 Y-3.178 Z30.838 F2413 
N865 X-166.558 Y-2.823 Z30.458 F1819 
N866 X-166.560 Y-2.557 Z30.173 F1357 
N867 X-166.562 Y-2.359 Z29.960 F1027 
N868 X-166.565 Y-2.205 Z29.794 F829 
N869 X-166.567 Y-2.072 Z29.653 F763 
N870 X-166.595 Y-0.367 Z27.824 F763 
N871 X-166.598 Y-0.191 Z27.635 F1017 
N872 X-166.602 Y0.037 Z27.391 F1272 
N873 X-166.606 Y0.314 Z27.093 F1527 
N874 X-166.715 Y6.939 Z19.989 F1527 
N875 X-166.679 Y13.026 Z13.461 F1527 
N876 X-166.524 Y18.828 Z7.240 F1527 
N877 X-166.295 Y23.818 Z1.888 F1527 
N878 X-166.007 Y28.414 Z-3.040 F1527 
N879 X-165.686 Y32.529 Z-7.453 F1527 
N880 X-165.340 Y36.288 Z-11.484 F1527 
N881 X-164.965 Y39.857 Z-15.311 F1527 
N882 X-164.933 Y40.163 Z-15.640 F1908 
N883 X-164.894 Y40.537 Z-16.041 F2290 
N884 X-164.852 Y40.944 Z-16.477 F2362 
N885 X-164.812 Y41.376 Z-16.940 F2578 
N886 X-164.775 Y41.859 Z-17.459 F2938 
N887 X-164.750 Y42.417 Z-18.059 F3442 
N888 X-164.762 Y43.068 Z-18.761 F3946 
N889 X-164.868 Y43.788 Z-19.542 F4306 
N890 X-165.178 Y44.528 Z-20.353 F4522 
N891 X-165.791 Y45.196 Z-21.101 F4594 
N892 X-166.656 Y45.679 Z-21.661 F4594 
N893 X-167.703 Y45.867 Z-21.912 F4531 
N894 X-168.590 Y45.486 Z-21.543 F4341 
N895 X-168.965 Y44.839 Z-20.863 F4024 
N896 X-169.141 Y44.218 Z-20.203 F3581 
N897 X-169.243 Y43.676 Z-19.623 F3011 
N898 X-169.307 Y43.235 Z-19.151 F2346 
N899 X-169.350 Y42.897 Z-18.789 F1776 
N900 X-169.379 Y42.643 Z-18.517 F1333 
N901 X-169.400 Y42.451 Z-18.311 F1016 
N902 X-169.416 Y42.301 Z-18.150 F826 
N903 X-169.429 Y42.172 Z-18.011 F763 
N904 X-169.607 Y40.471 Z-16.188 F763 
N905 X-169.625 Y40.295 Z-15.999 F1017 
N906 X-169.649 Y40.068 Z-15.755 F1272 
N907 X-169.678 Y39.791 Z-15.458 F1527 
N908 X-169.690 Y39.681 Z-15.341 F1527 
N909 X-170.043 Y36.298 Z-11.713 F1527 
N910 X-170.386 Y32.557 Z-7.701 F1527 
N911 X-170.703 Y28.497 Z-3.347 F1527 
N912 X-170.982 Y24.072 Z1.398 F1527 
N913 X-171.219 Y18.987 Z6.851 F1527 
N914 X-171.373 Y13.525 Z12.708 F1527 
N915 X-171.421 Y7.495 Z19.175 F1527 
N916 X-171.360 Y2.227 Z24.824 F1527 
N917 X-171.345 Y1.492 Z25.612 F1527 
N918 X-171.338 Y1.186 Z25.941 F1908 
N919 X-171.330 Y0.810 Z26.343 F2290 
N920 X-171.323 Y0.438 Z26.743 F2350 
N921 X-171.311 Y0.046 Z27.163 F2532 
N922 X-171.293 Y-0.385 Z27.626 F2834 
N923 X-171.261 Y-0.875 Z28.150 F3257 
N924 X-171.201 Y-1.440 Z28.756 F3770 
N925 X-171.084 Y-2.079 Z29.442 F4193 
N926 X-170.869 Y-2.765 Z30.178 F4495 
N927 X-170.505 Y-3.463 Z30.926 F4677 
N928 X-169.974 Y-4.132 Z31.643 F4737 
N929 X-169.258 Y-4.770 Z32.327 F4737 
N930 X-168.395 Y-5.300 Z32.896 F4671 
N931 X-167.349 Y-5.530 Z33.142 F4474 
N932 X-166.756 Y-4.969 Z32.541 F4146 
N933 X-166.614 Y-4.316 Z31.841 F3686 
N934 X-166.571 Y-3.745 Z31.228 F3095 
N935 X-166.559 Y-3.282 Z30.732 F2405 
N936 X-166.558 Y-2.929 Z30.353 F1814 
N937 X-166.560 Y-2.665 Z30.070 F1354 
N938 X-166.562 Y-2.467 Z29.858 F1026 
N939 X-166.565 Y-2.313 Z29.693 F829 
N940 X-166.567 Y-2.181 Z29.551 F763 
N941 X-166.595 Y-0.476 Z27.723 F763 
N942 X-166.598 Y-0.299 Z27.533 F1017 
N943 X-166.602 Y-0.072 Z27.290 F1272 
N944 X-166.606 Y0.206 Z26.992 F1527 
N945 X-166.715 Y6.831 Z19.886 F1527 
N946 X-166.679 Y12.918 Z13.359 F1527 
N947 X-166.524 Y18.719 Z7.139 F1527 
N948 X-166.295 Y23.710 Z1.787 F1527 
N949 X-166.007 Y28.305 Z-3.141 F1527 
N950 X-165.686 Y32.421 Z-7.555 F1527 
N951 X-165.340 Y36.179 Z-11.585 F1527 
N952 X-164.965 Y39.748 Z-15.413 F1527 
N953 X-164.933 Y40.055 Z-15.741 F1908 
N954 X-164.894 Y40.429 Z-16.142 F2290 
N955 X-164.852 Y40.833 Z-16.576 F2361 
N956 X-164.812 Y41.263 Z-17.037 F2575 
N957 X-164.775 Y41.743 Z-17.553 F2932 
N958 X-164.748 Y42.298 Z-18.149 F3432 
N959 X-164.756 Y42.944 Z-18.845 F3932 
N960 X-164.854 Y43.659 Z-19.620 F4288 
N961 X-165.142 Y44.396 Z-20.428 F4502 
N962 X-165.726 Y45.068 Z-21.180 F4574 
N963 X-166.574 Y45.563 Z-21.754 F4574 
N964 X-167.610 Y45.753 Z-22.008 F4511 
N965 X-168.471 Y45.356 Z-21.621 F4322 
N966 X-168.828 Y44.709 Z-20.941 F4007 
N967 X-168.998 Y44.092 Z-20.285 F3566 
N968 X-169.097 Y43.552 Z-19.709 F2999 
N969 X-169.160 Y43.114 Z-19.240 F2338 
N970 X-169.202 Y42.779 Z-18.880 F1771 
N971 X-169.231 Y42.526 Z-18.609 F1330 
N972 X-169.251 Y42.335 Z-18.404 F1015 
N973 X-169.267 Y42.185 Z-18.244 F826 
N974 X-169.281 Y42.056 Z-18.106 F763 
N975 X-169.458 Y40.356 Z-16.282 F763 
N976 X-169.477 Y40.179 Z-16.093 F1017 
N977 X-169.500 Y39.953 Z-15.850 F1272 
N978 X-169.529 Y39.675 Z-15.552 F1527 
N979 X-169.542 Y39.565 Z-15.434 F1527 
N980 X-169.894 Y36.182 Z-11.807 F1527 
N981 X-170.237 Y32.442 Z-7.796 F1527 
N982 X-170.554 Y28.384 Z-3.443 F1527 
N983 X-170.834 Y23.959 Z1.301 F1527 
N984 X-171.070 Y18.876 Z6.752 F1527 
N985 X-171.224 Y13.414 Z12.609 F1527 
N986 X-171.273 Y7.386 Z19.074 F1527 
N987 X-171.211 Y2.120 Z24.721 F1527 
N988 X-171.196 Y1.379 Z25.516 F1527 
N989 X-171.189 Y1.072 Z25.845 F1908 
N990 X-171.182 Y0.697 Z26.247 F2290 
N991 X-171.173 Y0.278 Z26.696 F2366 
N992 X-171.159 Y-0.168 Z27.175 F2594 
N993 X-171.136 Y-0.669 Z27.712 F2973 
N994 X-171.090 Y-1.251 Z28.336 F3504 
N995 X-170.995 Y-1.932 Z29.066 F4036 
N996 X-170.803 Y-2.687 Z29.876 F4415 
N997 X-170.444 Y-3.470 Z30.716 F4643 
N998 X-169.882 Y-4.226 Z31.526 F4719 
N999 X-169.186 Y-4.870 Z32.217 F4719 
N1000 X-168.343 Y-5.407 Z32.793 F4654 
N1001 X-167.308 Y-5.637 Z33.039 F4457 
N1002 X-166.743 Y-5.064 Z32.425 F4130 
N1003 X-166.610 Y-4.415 Z31.728 F3673 
N1004 X-166.569 Y-3.846 Z31.119 F3084 
N1005 X-166.558 Y-3.386 Z30.625 F2398 
N1006 X-166.557 Y-3.035 Z30.249 F1809 
N1007 X-166.560 Y-2.772 Z29.967 F1351 
N1008 X-166.562 Y-2.575 Z29.755 F1025 
N1009 X-166.565 Y-2.421 Z29.591 F828 
N1010 X-166.567 Y-2.290 Z29.450 F763 
N1011 X-166.595 Y-0.585 Z27.622 F763 
N1012 X-166.598 Y-0.408 Z27.432 F1017 
N1013 X-166.602 Y-0.181 Z27.188 F1272 
N1014 X-166.606 Y0.097 Z26.890 F1527 
N1015 X-166.715 Y6.724 Z19.784 F1527 
N1016 X-166.679 Y12.810 Z13.257 F1527 
N1017 X-166.524 Y18.610 Z7.037 F1527 
N1018 X-166.295 Y23.601 Z1.685 F1527 
N1019 X-166.007 Y28.197 Z-3.243 F1527 
N1020 X-165.686 Y32.312 Z-7.656 F1527 
N1021 X-165.340 Y36.070 Z-11.686 F1527 
N1022 X-164.965 Y39.640 Z-15.514 F1527 
N1023 X-164.933 Y39.946 Z-15.842 F1908 
N1024 X-164.894 Y40.320 Z-16.244 F2290 
N1025 X-164.852 Y40.723 Z-16.676 F2361 
N1026 X-164.812 Y41.151 Z-17.135 F2573 
N1027 X-164.774 Y41.628 Z-17.647 F2927 
N1028 X-164.747 Y42.179 Z-18.240 F3423 
N1029 X-164.752 Y42.821 Z-18.931 F3918 
N1030 X-164.840 Y43.531 Z-19.701 F4272 
N1031 X-165.109 Y44.265 Z-20.505 F4485 
N1032 X-165.664 Y44.941 Z-21.261 F4555 
N1033 X-166.488 Y45.445 Z-21.845 F4555 
N1034 X-167.513 Y45.639 Z-22.104 F4493 
N1035 X-168.350 Y45.226 Z-21.701 F4305 
N1036 X-168.690 Y44.580 Z-21.021 F3991 
N1037 X-168.854 Y43.966 Z-20.368 F3552 
N1038 X-168.951 Y43.430 Z-19.795 F2988 
N1039 X-169.012 Y42.995 Z-19.329 F2330 
N1040 X-169.054 Y42.661 Z-18.972 F1766 
N1041 X-169.082 Y42.409 Z-18.702 F1327 
N1042 X-169.103 Y42.219 Z-18.498 F1014 
N1043 X-169.119 Y42.070 Z-18.338 F826 
N1044 X-169.132 Y41.941 Z-18.200 F763 
N1045 X-169.310 Y40.240 Z-16.376 F763 
N1046 X-169.328 Y40.064 Z-16.187 F1017 
N1047 X-169.352 Y39.837 Z-15.944 F1272 
N1048 X-169.381 Y39.560 Z-15.647 F1527 
N1049 X-169.393 Y39.449 Z-15.527 F1527 
N1050 X-169.746 Y36.067 Z-11.901 F1527 
N1051 X-170.089 Y32.327 Z-7.891 F1527 
N1052 X-170.406 Y28.270 Z-3.539 F1527 
N1053 X-170.685 Y23.847 Z1.204 F1527 
N1054 X-170.922 Y18.764 Z6.654 F1527 
N1055 X-171.075 Y13.304 Z12.510 F1527 
N1056 X-171.124 Y7.276 Z18.974 F1527 
N1057 X-171.063 Y2.013 Z24.618 F1527 
N1058 X-171.047 Y1.265 Z25.420 F1527 
N1059 X-171.041 Y0.958 Z25.749 F1908 
N1060 X-171.033 Y0.583 Z26.152 F2290 
N1061 X-171.024 Y0.166 Z26.599 F2365 
N1062 X-171.011 Y-0.279 Z27.075 F2591 
N1063 X-170.988 Y-0.777 Z27.609 F2968 
N1064 X-170.944 Y-1.356 Z28.231 F3495 
N1065 X-170.853 Y-2.033 Z28.956 F4023 
N1066 X-170.670 Y-2.783 Z29.761 F4400 
N1067 X-170.328 Y-3.563 Z30.598 F4626 
N1068 X-169.789 Y-4.320 Z31.409 F4701 
N1069 X-169.113 Y-4.970 Z32.106 F4701 
N1070 X-168.290 Y-5.514 Z32.690 F4636 
N1071 X-167.266 Y-5.743 Z32.935 F4441 
N1072 X-166.731 Y-5.160 Z32.309 F4115 
N1073 X-166.607 Y-4.513 Z31.616 F3660 
N1074 X-166.568 Y-3.948 Z31.010 F3074 
N1075 X-166.558 Y-3.490 Z30.519 F2390 
N1076 X-166.557 Y-3.141 Z30.145 F1804 
N1077 X-166.560 Y-2.879 Z29.864 F1349 
N1078 X-166.562 Y-2.683 Z29.653 F1023 
N1079 X-166.565 Y-2.530 Z29.489 F828 
N1080 X-166.567 Y-2.399 Z29.348 F763 
N1081 X-166.595 Y-0.694 Z27.520 F763 
N1082 X-166.598 Y-0.517 Z27.331 F1017 
N1083 X-166.602 Y-0.290 Z27.087 F1272 
N1084 X-166.606 Y-0.012 Z26.789 F1527 
N1085 X-166.715 Y6.616 Z19.681 F1527 
N1086 X-166.679 Y12.702 Z13.155 F1527 
N1087 X-166.524 Y18.502 Z6.936 F1527 
N1088 X-166.295 Y23.492 Z1.584 F1527 
N1089 X-166.007 Y28.088 Z-3.344 F1527 
N1090 X-165.686 Y32.203 Z-7.758 F1527 
N1091 X-165.340 Y35.962 Z-11.788 F1527 
N1092 X-164.965 Y39.531 Z-15.616 F1527 
N1093 X-164.933 Y39.837 Z-15.944 F1908 
N1094 X-164.894 Y40.211 Z-16.345 F2290 
N1095 X-164.853 Y40.613 Z-16.775 F2360 
N1096 X-164.812 Y41.038 Z-17.232 F2571 
N1097 X-164.774 Y41.513 Z-17.741 F2922 
N1098 X-164.746 Y42.060 Z-18.330 F3413 
N1099 X-164.747 Y42.696 Z-19.016 F3904 
N1100 X-164.826 Y43.401 Z-19.780 F4255 
N1101 X-165.076 Y44.132 Z-20.580 F4465 
N1102 X-165.601 Y44.812 Z-21.339 F4536 
N1103 X-166.405 Y45.329 Z-21.937 F4536 
N1104 X-167.418 Y45.524 Z-22.200 F4473 
N1105 X-168.229 Y45.096 Z-21.780 F4286 
N1106 X-168.553 Y44.450 Z-21.100 F3974 
N1107 X-168.710 Y43.840 Z-20.451 F3538 
N1108 X-168.804 Y43.307 Z-19.881 F2977 
N1109 X-168.865 Y42.874 Z-19.418 F2322 
N1110 X-168.906 Y42.542 Z-19.063 F1761 
N1111 X-168.934 Y42.292 Z-18.794 F1324 
N1112 X-168.955 Y42.103 Z-18.591 F1012 
N1113 X-168.971 Y41.954 Z-18.432 F825 
N1114 X-168.984 Y41.826 Z-18.294 F763 
N1115 X-169.162 Y40.125 Z-16.471 F763 
N1116 X-169.180 Y39.949 Z-16.281 F1017 
N1117 X-169.204 Y39.722 Z-16.038 F1272 
N1118 X-169.233 Y39.445 Z-15.741 F1527 
N1119 X-169.245 Y39.333 Z-15.621 F1527 
N1120 X-169.598 Y35.951 Z-11.995 F1527 
N1121 X-169.941 Y32.213 Z-7.986 F1527 
N1122 X-170.257 Y28.156 Z-3.636 F1527 
N1123 X-170.536 Y23.734 Z1.107 F1527 
N1124 X-170.773 Y18.653 Z6.556 F1527 
N1125 X-170.927 Y13.193 Z12.411 F1527 
N1126 X-170.975 Y7.166 Z18.874 F1527 
N1127 X-170.914 Y1.906 Z24.515 F1527 
N1128 X-170.898 Y1.150 Z25.325 F1527 
N1129 X-170.892 Y0.844 Z25.654 F1908 
N1130 X-170.884 Y0.468 Z26.056 F2290 
N1131 X-170.875 Y0.053 Z26.501 F2365 
N1132 X-170.862 Y-0.389 Z26.976 F2589 
N1133 X-170.840 Y-0.885 Z27.507 F2963 
N1134 X-170.798 Y-1.461 Z28.125 F3487 
N1135 X-170.711 Y-2.133 Z28.846 F4010 
N1136 X-170.537 Y-2.879 Z29.646 F4384 
N1137 X-170.212 Y-3.657 Z30.479 F4608 
N1138 X-169.695 Y-4.414 Z31.291 F4683 
N1139 X-169.040 Y-5.070 Z31.996 F4683 
N1140 X-168.237 Y-5.622 Z32.587 F4618 
N1141 X-167.225 Y-5.849 Z32.830 F4424 
N1142 X-166.720 Y-5.255 Z32.193 F4100 
N1143 X-166.603 Y-4.612 Z31.504 F3646 
N1144 X-166.567 Y-4.050 Z30.901 F3063 
N1145 X-166.558 Y-3.594 Z30.413 F2383 
N1146 X-166.557 Y-3.247 Z30.040 F1800 
N1147 X-166.559 Y-2.986 Z29.761 F1346 
N1148 X-166.562 Y-2.791 Z29.551 F1022 
N1149 X-166.565 Y-2.638 Z29.388 F828 
N1150 X-166.567 Y-2.507 Z29.247 F763 
N1151 X-166.595 Y-0.802 Z27.419 F763 
N1152 X-166.598 Y-0.626 Z27.229 F1017 
N1153 X-166.602 Y-0.398 Z26.985 F1272 
N1154 X-166.606 Y-0.120 Z26.687 F1527 
N1155 X-166.715 Y6.509 Z19.579 F1527 
N1156 X-166.679 Y12.594 Z13.053 F1527 
N1157 X-166.524 Y18.393 Z6.834 F1527 
N1158 X-166.295 Y23.384 Z1.482 F1527 
N1159 X-166.007 Y27.979 Z-3.446 F1527 
N1160 X-165.686 Y32.095 Z-7.859 F1527 
N1161 X-165.340 Y35.853 Z-11.889 F1527 
N1162 X-164.965 Y39.422 Z-15.717 F1527 
N1163 X-164.933 Y39.728 Z-16.045 F1908 
N1164 X-164.894 Y40.103 Z-16.446 F2290 
N1165 X-164.853 Y40.502 Z-16.875 F2360 
N1166 X-164.812 Y40.926 Z-17.329 F2568 
N1167 X-164.774 Y41.397 Z-17.836 F2916 
N1168 X-164.745 Y41.941 Z-18.421 F3403 
N1169 X-164.742 Y42.573 Z-19.101 F3890 
N1170 X-164.813 Y43.273 Z-19.860 F4238 
N1171 X-165.045 Y44.001 Z-20.656 F4447 
N1172 X-165.541 Y44.683 Z-21.418 F4517 
N1173 X-166.321 Y45.211 Z-22.029 F4517 
N1174 X-167.323 Y45.410 Z-22.296 F4455 
N1175 X-168.107 Y44.966 Z-21.859 F4268 
N1176 X-168.414 Y44.320 Z-21.180 F3958 
N1177 X-168.566 Y43.714 Z-20.534 F3524 
N1178 X-168.658 Y43.184 Z-19.968 F2966 
N1179 X-168.718 Y42.754 Z-19.508 F2314 
N1180 X-168.758 Y42.424 Z-19.154 F1756 
N1181 X-168.786 Y42.175 Z-18.887 F1321 
N1182 X-168.807 Y41.987 Z-18.685 F1011 
N1183 X-168.822 Y41.838 Z-18.526 F825 
N1184 X-168.836 Y41.711 Z-18.389 F763 
N1185 X-169.013 Y40.010 Z-16.565 F763 
N1186 X-169.032 Y39.833 Z-16.376 F1017 
N1187 X-169.055 Y39.607 Z-16.133 F1272 
N1188 X-169.084 Y39.330 Z-15.835 F1527 
N1189 X-169.097 Y39.216 Z-15.714 F1527 
N1190 X-169.449 Y35.836 Z-12.089 F1527 
N1191 X-169.792 Y32.098 Z-8.081 F1527 
N1192 X-170.109 Y28.043 Z-3.732 F1527 
N1193 X-170.388 Y23.622 Z1.009 F1527 
N1194 X-170.624 Y18.541 Z6.457 F1527 
N1195 X-170.778 Y13.082 Z12.311 F1527 
N1196 X-170.827 Y7.056 Z18.774 F1527 
N1197 X-170.765 Y1.798 Z24.412 F1527 
N1198 X-170.750 Y1.036 Z25.229 F1527 
N1199 X-170.743 Y0.729 Z25.558 F1908 
N1200 X-170.735 Y0.354 Z25.960 F2290 
N1201 X-170.727 Y-0.060 Z26.404 F2364 
N1202 X-170.714 Y-0.500 Z26.877 F2587 
N1203 X-170.692 Y-0.993 Z27.406 F2958 
N1204 X-170.651 Y-1.566 Z28.020 F3478 
N1205 X-170.569 Y-2.234 Z28.736 F3997 
N1206 X-170.403 Y-2.976 Z29.531 F4369 
N1207 X-170.094 Y-3.750 Z30.362 F4591 
N1208 X-169.600 Y-4.507 Z31.174 F4665 
N1209 X-168.966 Y-5.170 Z31.884 F4665 
N1210 X-168.184 Y-5.728 Z32.483 F4601 
N1211 X-167.185 Y-5.954 Z32.725 F4407 
N1212 X-166.709 Y-5.350 Z32.078 F4085 
N1213 X-166.599 Y-4.710 Z31.392 F3633 
N1214 X-166.566 Y-4.151 Z30.792 F3053 
N1215 X-166.557 Y-3.699 Z30.307 F2376 
N1216 X-166.557 Y-3.353 Z29.936 F1795 
N1217 X-166.559 Y-3.094 Z29.658 F1344 
N1218 X-166.562 Y-2.899 Z29.449 F1021 
N1219 X-166.565 Y-2.747 Z29.286 F828 
N1220 X-166.567 Y-2.616 Z29.146 F763 
N1221 X-166.595 Y-0.911 Z27.317 F763 
N1222 X-166.598 Y-0.734 Z27.128 F1017 
N1223 X-166.602 Y-0.507 Z26.884 F1272 
N1224 X-166.606 Y-0.229 Z26.586 F1527 
N1225 X-166.715 Y6.401 Z19.476 F1527 
N1226 X-166.679 Y12.486 Z12.951 F1527 
N1227 X-166.524 Y18.285 Z6.733 F1527 
N1228 X-166.295 Y23.275 Z1.381 F1527 
N1229 X-166.007 Y27.870 Z-3.547 F1527 
N1230 X-165.686 Y31.986 Z-7.960 F1527 
N1231 X-165.340 Y35.744 Z-11.991 F1527 
N1232 X-164.965 Y39.314 Z-15.818 F1527 
N1233 X-164.933 Y39.620 Z-16.147 F1908 
N1234 X-164.894 Y39.994 Z-16.548 F2290 
N1235 X-164.853 Y40.392 Z-16.974 F2359 
N1236 X-164.812 Y40.813 Z-17.427 F2566 
N1237 X-164.774 Y41.282 Z-17.930 F2911 
N1238 X-164.743 Y41.823 Z-18.511 F3394 
N1239 X-164.738 Y42.450 Z-19.187 F3877 
N1240 X-164.801 Y43.145 Z-19.940 F4222 
N1241 X-165.014 Y43.869 Z-20.732 F4429 
N1242 X-165.482 Y44.554 Z-21.496 F4498 
N1243 X-166.237 Y45.093 Z-22.119 F4498 
N1244 X-167.227 Y45.295 Z-22.392 F4436 
N1245 X-167.984 Y44.835 Z-21.938 F4251 
N1246 X-168.276 Y44.191 Z-21.259 F3942 
N1247 X-168.422 Y43.588 Z-20.617 F3510 
N1248 X-168.511 Y43.062 Z-20.055 F2955 
N1249 X-168.570 Y42.634 Z-19.597 F2306 
N1250 X-168.610 Y42.306 Z-19.245 F1751 
N1251 X-168.638 Y42.058 Z-18.980 F1319 
N1252 X-168.658 Y41.871 Z-18.778 F1010 
N1253 X-168.674 Y41.723 Z-18.620 F825 
N1254 X-168.687 Y41.595 Z-18.483 F763 
N1255 X-168.865 Y39.895 Z-16.659 F763 
N1256 X-168.883 Y39.718 Z-16.470 F1017 
N1257 X-168.907 Y39.491 Z-16.227 F1272 
N1258 X-168.936 Y39.214 Z-15.930 F1527 
N1259 X-168.949 Y39.100 Z-15.807 F1527 
N1260 X-169.301 Y35.720 Z-12.183 F1527 
N1261 X-169.644 Y31.984 Z-8.176 F1527 
N1262 X-169.960 Y27.929 Z-3.828 F1527 
N1263 X-170.239 Y23.509 Z0.912 F1527 
N1264 X-170.476 Y18.430 Z6.359 F1527 
N1265 X-170.629 Y12.971 Z12.212 F1527 
N1266 X-170.678 Y6.946 Z18.674 F1527 
N1267 X-170.617 Y1.691 Z24.309 F1527 
N1268 X-170.601 Y0.922 Z25.134 F1527 
N1269 X-170.594 Y0.615 Z25.463 F1908 
N1270 X-170.587 Y0.240 Z25.865 F2290 
N1271 X-170.578 Y-0.172 Z26.307 F2364 
N1272 X-170.565 Y-0.611 Z26.778 F2585 
N1273 X-170.544 Y-1.102 Z27.304 F2953 
N1274 X-170.505 Y-1.671 Z27.915 F3469 
N1275 X-170.426 Y-2.335 Z28.627 F3985 
N1276 X-170.269 Y-3.072 Z29.417 F4353 
N1277 X-169.976 Y-3.843 Z30.244 F4574 
N1278 X-169.504 Y-4.601 Z31.056 F4648 
N1279 X-168.891 Y-5.269 Z31.773 F4648 
N1280 X-168.131 Y-5.835 Z32.380 F4584 
N1281 X-167.144 Y-6.058 Z32.619 F4391 
N1282 X-166.698 Y-5.446 Z31.962 F4070 
N1283 X-166.596 Y-4.809 Z31.280 F3620 
N1284 X-166.565 Y-4.253 Z30.683 F3043 
N1285 X-166.557 Y-3.803 Z30.201 F2368 
N1286 X-166.557 Y-3.459 Z29.832 F1790 
N1287 X-166.559 Y-3.201 Z29.555 F1341 
N1288 X-166.562 Y-3.007 Z29.347 F1020 
N1289 X-166.565 Y-2.856 Z29.185 F827 
N1290 X-166.567 Y-2.725 Z29.044 F763 
N1291 X-166.595 Y-1.020 Z27.216 F763 
N1292 X-166.598 Y-0.843 Z27.026 F1017 
N1293 X-166.602 Y-0.616 Z26.783 F1272 
N1294 X-166.606 Y-0.338 Z26.485 F1527 
N1295 X-166.715 Y6.294 Z19.373 F1527 
N1296 X-166.679 Y12.378 Z12.849 F1527 
N1297 X-166.524 Y18.176 Z6.631 F1527 
N1298 X-166.295 Y23.166 Z1.280 F1527 
N1299 X-166.007 Y27.762 Z-3.648 F1527 
N1300 X-165.686 Y31.877 Z-8.062 F1527 
N1301 X-165.340 Y35.635 Z-12.092 F1527 
N1302 X-164.965 Y39.205 Z-15.920 F1527 
N1303 X-164.933 Y39.511 Z-16.248 F1908 
N1304 X-164.894 Y39.885 Z-16.649 F2290 
N1305 X-164.853 Y40.281 Z-17.074 F2358 
N1306 X-164.813 Y40.701 Z-17.524 F2564 
N1307 X-164.774 Y41.167 Z-18.025 F2906 
N1308 X-164.742 Y41.704 Z-18.602 F3385 
N1309 X-164.734 Y42.327 Z-19.273 F3864 
N1310 X-164.789 Y43.017 Z-20.020 F4206 
N1311 X-164.985 Y43.737 Z-20.808 F4411 
N1312 X-165.424 Y44.424 Z-21.574 F4480 
N1313 X-166.153 Y44.975 Z-22.210 F4480 
N1314 X-167.233 Y45.162 Z-22.473 F4405 
N1315 X-167.935 Y44.577 Z-21.882 F4182 
N1316 X-168.187 Y43.876 Z-21.141 F3811 
N1317 X-168.317 Y43.243 Z-20.466 F3290 
N1318 X-168.397 Y42.714 Z-19.900 F2621 
N1319 X-168.448 Y42.308 Z-19.465 F1952 
N1320 X-168.483 Y42.008 Z-19.144 F1432 
N1321 X-168.507 Y41.788 Z-18.908 F1060 
N1322 X-168.524 Y41.621 Z-18.728 F837 
N1323 X-168.539 Y41.480 Z-18.577 F763 
N1324 X-168.717 Y39.779 Z-16.754 F763 
N1325 X-168.735 Y39.603 Z-16.565 F1017 
N1326 X-168.759 Y39.376 Z-16.321 F1272 
N1327 X-168.788 Y39.099 Z-16.024 F1527 
N1328 X-168.800 Y38.984 Z-15.900 F1527 
N1329 X-169.153 Y35.605 Z-12.277 F1527 
N1330 X-169.495 Y31.869 Z-8.271 F1527 
N1331 X-169.812 Y27.815 Z-3.924 F1527 
N1332 X-170.091 Y23.396 Z0.815 F1527 
N1333 X-170.327 Y18.318 Z6.261 F1527 
N1334 X-170.481 Y12.860 Z12.113 F1527 
N1335 X-170.529 Y6.836 Z18.574 F1527 
N1336 X-170.468 Y1.584 Z24.206 F1527 
N1337 X-170.452 Y0.807 Z25.039 F1527 
N1338 X-170.446 Y0.500 Z25.368 F1908 
N1339 X-170.438 Y0.125 Z25.770 F2290 
N1340 X-170.429 Y-0.285 Z26.211 F2363 
N1341 X-170.417 Y-0.722 Z26.679 F2583 
N1342 X-170.397 Y-1.211 Z27.203 F2948 
N1343 X-170.359 Y-1.777 Z27.810 F3460 
N1344 X-170.284 Y-2.437 Z28.518 F3972 
N1345 X-170.135 Y-3.169 Z29.303 F4338 
N1346 X-169.856 Y-3.937 Z30.127 F4558 
N1347 X-169.407 Y-4.695 Z30.939 F4631 
N1348 X-168.816 Y-5.369 Z31.661 F4631 
N1349 X-168.077 Y-5.942 Z32.276 F4567 
N1350 X-167.105 Y-6.162 Z32.512 F4375 
N1351 X-166.688 Y-5.542 Z31.847 F4055 
N1352 X-166.593 Y-4.908 Z31.168 F3608 
N1353 X-166.563 Y-4.355 Z30.575 F3033 
N1354 X-166.556 Y-3.907 Z30.095 F2361 
N1355 X-166.557 Y-3.566 Z29.728 F1786 
N1356 X-166.559 Y-3.309 Z29.453 F1338 
N1357 X-166.562 Y-3.116 Z29.245 F1019 
N1358 X-166.565 Y-2.964 Z29.083 F827 
N1359 X-166.567 Y-2.833 Z28.943 F763 
N1360 X-166.595 Y-1.128 Z27.115 F763 
N1361 X-166.598 Y-0.952 Z26.925 F1017 
N1362 X-166.602 Y-0.724 Z26.681 F1272 
N1363 X-166.606 Y-0.447 Z26.383 F1527 
N1364 X-166.715 Y6.187 Z19.270 F1527 
N1365 X-166.679 Y12.270 Z12.746 F1527 
N1366 X-166.524 Y18.068 Z6.529 F1527 
N1367 X-166.295 Y23.058 Z1.178 F1527 
N1368 X-166.007 Y27.653 Z-3.750 F1527 
N1369 X-165.686 Y31.768 Z-8.163 F1527 
N1370 X-165.340 Y35.527 Z-12.193 F1527 
N1371 X-164.965 Y39.096 Z-16.021 F1527 
N1372 X-164.933 Y39.402 Z-16.349 F1908 
N1373 X-164.894 Y39.776 Z-16.751 F2290 
N1374 X-164.853 Y40.171 Z-17.174 F2358 
N1375 X-164.813 Y40.589 Z-17.622 F2562 
N1376 X-164.774 Y41.053 Z-18.120 F2901 
N1377 X-164.741 Y41.586 Z-18.694 F3376 
N1378 X-164.730 Y42.205 Z-19.360 F3851 
N1379 X-164.778 Y42.890 Z-20.101 F4191 
N1380 X-164.958 Y43.607 Z-20.886 F4394 
N1381 X-165.369 Y44.295 Z-21.653 F4462 
N1382 X-166.069 Y44.855 Z-22.298 F4462 
N1383 X-167.134 Y45.045 Z-22.567 F4388 
N1384 X-167.805 Y44.447 Z-21.961 F4166 
N1385 X-168.046 Y43.749 Z-21.223 F3796 
N1386 X-168.172 Y43.119 Z-20.551 F3279 
N1387 X-168.250 Y42.593 Z-19.988 F2613 
N1388 X-168.300 Y42.190 Z-19.556 F1947 
N1389 X-168.334 Y41.891 Z-19.236 F1429 
N1390 X-168.358 Y41.672 Z-19.001 F1059 
N1391 X-168.376 Y41.505 Z-18.822 F837 
N1392 X-168.391 Y41.365 Z-18.672 F763 
N1393 X-168.568 Y39.664 Z-16.848 F763 
N1394 X-168.587 Y39.488 Z-16.659 F1017 
N1395 X-168.610 Y39.261 Z-16.416 F1272 
N1396 X-168.639 Y38.984 Z-16.119 F1527 
N1397 X-168.652 Y38.867 Z-15.994 F1527 
N1398 X-169.004 Y35.490 Z-12.371 F1527 
N1399 X-169.347 Y31.754 Z-8.366 F1527 
N1400 X-169.663 Y27.702 Z-4.020 F1527 
N1401 X-169.942 Y23.284 Z0.718 F1527 
N1402 X-170.179 Y18.206 Z6.163 F1527 
N1403 X-170.332 Y12.749 Z12.015 F1527 
N1404 X-170.381 Y6.725 Z18.475 F1527 
N1405 X-170.320 Y1.476 Z24.103 F1527 
N1406 X-170.303 Y0.693 Z24.944 F1527 
N1407 X-170.297 Y0.386 Z25.273 F1908 
N1408 X-170.289 Y0.011 Z25.675 F2290 
N1409 X-170.280 Y-0.398 Z26.114 F2363 
N1410 X-170.268 Y-0.833 Z26.580 F2580 
N1411 X-170.249 Y-1.319 Z27.101 F2943 
N1412 X-170.212 Y-1.882 Z27.705 F3452 
N1413 X-170.141 Y-2.538 Z28.408 F3960 
N1414 X-170.000 Y-3.266 Z29.189 F4323 
N1415 X-169.737 Y-4.030 Z30.008 F4540 
N1416 X-169.309 Y-4.787 Z30.820 F4613 
N1417 X-168.739 Y-5.469 Z31.551 F4613 
N1418 X-168.023 Y-6.049 Z32.173 F4549 
N1419 X-167.066 Y-6.265 Z32.404 F4358 
N1420 X-166.678 Y-5.637 Z31.732 F4040 
N1421 X-166.589 Y-5.007 Z31.056 F3595 
N1422 X-166.562 Y-4.457 Z30.466 F3022 
N1423 X-166.556 Y-4.012 Z29.989 F2354 
N1424 X-166.557 Y-3.672 Z29.624 F1781 
N1425 X-166.559 Y-3.416 Z29.350 F1336 
N1426 X-166.562 Y-3.224 Z29.144 F1018 
N1427 X-166.565 Y-3.073 Z28.982 F827 
N1428 X-166.567 Y-2.942 Z28.842 F763 
N1429 X-166.595 Y-1.237 Z27.013 F763 
N1430 X-166.598 Y-1.060 Z26.824 F1017 
N1431 X-166.602 Y-0.833 Z26.580 F1272 
N1432 X-166.606 Y-0.555 Z26.282 F1527 
N1433 X-166.715 Y6.080 Z19.167 F1527 
N1434 X-166.679 Y12.162 Z12.644 F1527 
N1435 X-166.524 Y17.959 Z6.428 F1527 
N1436 X-166.295 Y22.949 Z1.077 F1527 
N1437 X-166.007 Y27.544 Z-3.851 F1527 
N1438 X-165.686 Y31.660 Z-8.264 F1527 
N1439 X-165.340 Y35.418 Z-12.295 F1527 
N1440 X-164.965 Y38.987 Z-16.122 F1527 
N1441 X-164.933 Y39.294 Z-16.451 F1908 
N1442 X-164.894 Y39.668 Z-16.852 F2290 
N1443 X-164.853 Y40.060 Z-17.273 F2357 
N1444 X-164.813 Y40.476 Z-17.719 F2559 
N1445 X-164.774 Y40.938 Z-18.214 F2896 
N1446 X-164.740 Y41.468 Z-18.784 F3367 
N1447 X-164.726 Y42.081 Z-19.445 F3838 
N1448 X-164.767 Y42.761 Z-20.181 F4174 
N1449 X-164.930 Y43.474 Z-20.961 F4376 
N1450 X-165.313 Y44.164 Z-21.729 F4444 
N1451 X-165.988 Y44.737 Z-22.389 F4444 
N1452 X-167.037 Y44.927 Z-22.659 F4370 
N1453 X-167.675 Y44.316 Z-22.039 F4149 
N1454 X-167.905 Y43.621 Z-21.304 F3781 
N1455 X-168.026 Y42.995 Z-20.636 F3266 
N1456 X-168.103 Y42.472 Z-20.077 F2603 
N1457 X-168.152 Y42.071 Z-19.647 F1941 
N1458 X-168.186 Y41.774 Z-19.329 F1425 
N1459 X-168.210 Y41.556 Z-19.095 F1057 
N1460 X-168.228 Y41.390 Z-18.916 F837 
N1461 X-168.242 Y41.250 Z-18.766 F763 
N1462 X-168.420 Y39.549 Z-16.943 F763 
N1463 X-168.438 Y39.373 Z-16.753 F1017 
N1464 X-168.462 Y39.146 Z-16.510 F1272 
N1465 X-168.491 Y38.869 Z-16.213 F1527 
N1466 X-168.504 Y38.751 Z-16.087 F1527 
N1467 X-168.856 Y35.374 Z-12.465 F1527 
N1468 X-169.199 Y31.640 Z-8.461 F1527 
N1469 X-169.515 Y27.588 Z-4.116 F1527 
N1470 X-169.794 Y23.171 Z0.621 F1527 
N1471 X-170.030 Y18.095 Z6.064 F1527 
N1472 X-170.184 Y12.638 Z11.916 F1527 
N1473 X-170.232 Y6.615 Z18.375 F1527 
N1474 X-170.171 Y1.369 Z24.000 F1527 
N1475 X-170.154 Y0.578 Z24.849 F1527 
N1476 X-170.148 Y0.271 Z25.178 F1908 
N1477 X-170.140 Y-0.104 Z25.580 F2290 
N1478 X-170.132 Y-0.512 Z26.017 F2362 
N1479 X-170.120 Y-0.945 Z26.482 F2578 
N1480 X-170.101 Y-1.429 Z27.001 F2939 
N1481 X-170.066 Y-1.989 Z27.601 F3444 
N1482 X-169.998 Y-2.640 Z28.300 F3948 
N1483 X-169.864 Y-3.364 Z29.076 F4309 
N1484 X-169.615 Y-4.126 Z29.893 F4525 
N1485 X-169.209 Y-4.882 Z30.703 F4597 
N1486 X-168.663 Y-5.566 Z31.438 F4597 
N1487 X-167.970 Y-6.155 Z32.069 F4534 
N1488 X-167.030 Y-6.367 Z32.297 F4344 
N1489 X-166.669 Y-5.734 Z31.617 F4027 
N1490 X-166.586 Y-5.107 Z30.945 F3583 
N1491 X-166.561 Y-4.559 Z30.358 F3013 
N1492 X-166.556 Y-4.117 Z29.883 F2347 
N1493 X-166.557 Y-3.779 Z29.521 F1777 
N1494 X-166.559 Y-3.524 Z29.248 F1333 
N1495 X-166.562 Y-3.332 Z29.042 F1016 
N1496 X-166.565 Y-3.181 Z28.880 F826 
N1497 X-166.567 Y-3.051 Z28.740 F763 
N1498 X-166.595 Y-1.346 Z26.912 F763 
N1499 X-166.598 Y-1.169 Z26.722 F1017 
N1500 X-166.602 Y-0.942 Z26.478 F1272 
N1501 X-166.606 Y-0.664 Z26.181 F1527 
N1502 X-166.715 Y5.973 Z19.063 F1527 
N1503 X-166.679 Y12.055 Z12.541 F1527 
N1504 X-166.524 Y17.851 Z6.326 F1527 
N1505 X-166.295 Y22.840 Z0.975 F1527 
N1506 X-166.007 Y27.436 Z-3.953 F1527 
N1507 X-165.686 Y31.551 Z-8.366 F1527 
N1508 X-165.340 Y35.309 Z-12.396 F1527 
N1509 X-164.965 Y38.879 Z-16.224 F1527 
N1510 X-164.933 Y39.185 Z-16.552 F1908 
N1511 X-164.894 Y39.559 Z-16.953 F2290 
N1512 X-164.853 Y39.950 Z-17.373 F2357 
N1513 X-164.813 Y40.364 Z-17.817 F2557 
N1514 X-164.774 Y40.823 Z-18.309 F2891 
N1515 X-164.739 Y41.350 Z-18.875 F3358 
N1516 X-164.723 Y41.959 Z-19.532 F3825 
N1517 X-164.757 Y42.634 Z-20.262 F4159 
N1518 X-164.905 Y43.343 Z-21.037 F4359 
N1519 X-165.260 Y44.033 Z-21.805 F4426 
N1520 X-165.905 Y44.617 Z-22.477 F4426 
N1521 X-166.938 Y44.809 Z-22.751 F4353 
N1522 X-167.544 Y44.186 Z-22.118 F4133 
N1523 X-167.763 Y43.494 Z-21.385 F3767 
N1524 X-167.881 Y42.871 Z-20.721 F3254 
N1525 X-167.955 Y42.352 Z-20.165 F2594 
N1526 X-168.005 Y41.953 Z-19.738 F1935 
N1527 X-168.038 Y41.657 Z-19.421 F1422 
N1528 X-168.062 Y41.440 Z-19.188 F1056 
N1529 X-168.079 Y41.274 Z-19.010 F836 
N1530 X-168.094 Y41.134 Z-18.861 F763 
N1531 X-168.272 Y39.434 Z-17.037 F763 
N1532 X-168.290 Y39.257 Z-16.848 F1017 
N1533 X-168.314 Y39.031 Z-16.605 F1272 
N1534 X-168.343 Y38.754 Z-16.307 F1527 
N1535 X-168.356 Y38.635 Z-16.180 F1527 
N1536 X-168.708 Y35.259 Z-12.560 F1527 
N1537 X-169.050 Y31.525 Z-8.556 F1527 
N1538 X-169.366 Y27.474 Z-4.212 F1527 
N1539 X-169.645 Y23.058 Z0.524 F1527 
N1540 X-169.882 Y17.983 Z5.966 F1527 
N1541 X-170.035 Y12.527 Z11.817 F1527 
N1542 X-170.083 Y6.504 Z18.276 F1527 
N1543 X-170.022 Y1.262 Z23.897 F1527 
N1544 X-170.006 Y0.463 Z24.754 F1527 
N1545 X-169.999 Y0.156 Z25.083 F1908 
N1546 X-169.991 Y-0.219 Z25.485 F2290 
N1547 X-169.983 Y-0.625 Z25.921 F2362 
N1548 X-169.971 Y-1.057 Z26.384 F2576 
N1549 X-169.953 Y-1.538 Z26.900 F2934 
N1550 X-169.919 Y-2.095 Z27.497 F3435 
N1551 X-169.855 Y-2.743 Z28.192 F3936 
N1552 X-169.728 Y-3.462 Z28.963 F4294 
N1553 X-169.493 Y-4.220 Z29.776 F4509 
N1554 X-169.108 Y-4.975 Z30.586 F4581 
N1555 X-168.585 Y-5.665 Z31.326 F4581 
N1556 X-167.916 Y-6.261 Z31.964 F4518 
N1557 X-166.994 Y-6.469 Z32.188 F4328 
N1558 X-166.660 Y-5.830 Z31.503 F4013 
N1559 X-166.583 Y-5.206 Z30.834 F3571 
N1560 X-166.560 Y-4.662 Z30.250 F3003 
N1561 X-166.555 Y-4.222 Z29.778 F2341 
N1562 X-166.557 Y-3.885 Z29.417 F1773 
N1563 X-166.559 Y-3.632 Z29.145 F1331 
N1564 X-166.562 Y-3.441 Z28.940 F1015 
N1565 X-166.565 Y-3.290 Z28.779 F826 
N1566 X-166.567 Y-3.160 Z28.639 F763 
N1567 X-166.595 Y-1.455 Z26.810 F763 
N1568 X-166.598 Y-1.278 Z26.621 F1017 
N1569 X-166.602 Y-1.051 Z26.377 F1272 
N1570 X-166.606 Y-0.773 Z26.079 F1527 
N1571 X-166.715 Y5.866 Z18.960 F1527 
N1572 X-166.679 Y11.947 Z12.439 F1527 
N1573 X-166.524 Y17.742 Z6.224 F1527 
N1574 X-166.295 Y22.732 Z0.874 F1527 
N1575 X-166.007 Y27.327 Z-4.054 F1527 
N1576 X-165.686 Y31.442 Z-8.467 F1527 
N1577 X-165.340 Y35.201 Z-12.497 F1527 
N1578 X-164.965 Y38.770 Z-16.325 F1527 
N1579 X-164.933 Y39.076 Z-16.653 F1908 
N1580 X-164.894 Y39.450 Z-17.055 F2290 
N1581 X-164.854 Y39.840 Z-17.472 F2356 
N1582 X-164.813 Y40.252 Z-17.914 F2555 
N1583 X-164.774 Y40.708 Z-18.404 F2886 
N1584 X-164.738 Y41.231 Z-18.967 F3349 
N1585 X-164.719 Y41.836 Z-19.619 F3813 
N1586 X-164.747 Y42.506 Z-20.344 F4144 
N1587 X-164.880 Y43.211 Z-21.114 F4342 
N1588 X-165.209 Y43.902 Z-21.881 F4409 
N1589 X-165.824 Y44.497 Z-22.565 F4409 
N1590 X-166.839 Y44.690 Z-22.842 F4336 
N1591 X-167.413 Y44.055 Z-22.196 F4117 
N1592 X-167.621 Y43.366 Z-21.467 F3752 
N1593 X-167.735 Y42.748 Z-20.807 F3242 
N1594 X-167.808 Y42.231 Z-20.254 F2586 
N1595 X-167.857 Y41.834 Z-19.829 F1930 
N1596 X-167.890 Y41.540 Z-19.514 F1419 
N1597 X-167.914 Y41.324 Z-19.281 F1055 
N1598 X-167.931 Y41.159 Z-19.104 F836 
N1599 X-167.946 Y41.019 Z-18.955 F763 
N1600 X-168.123 Y39.319 Z-17.131 F763 
N1601 X-168.142 Y39.142 Z-16.942 F1017 
N1602 X-168.165 Y38.916 Z-16.699 F1272 
N1603 X-168.194 Y38.638 Z-16.402 F1527 
N1604 X-168.208 Y38.518 Z-16.273 F1527 
N1605 X-168.559 Y35.143 Z-12.654 F1527 
N1606 X-168.902 Y31.411 Z-8.651 F1527 
N1607 X-169.218 Y27.361 Z-4.308 F1527 
N1608 X-169.497 Y22.946 Z0.426 F1527 
N1609 X-169.733 Y17.871 Z5.868 F1527 
N1610 X-169.886 Y12.415 Z11.719 F1527 
N1611 X-169.935 Y6.393 Z18.177 F1527 
N1612 X-169.874 Y1.155 Z23.794 F1527 
N1613 X-169.857 Y0.348 Z24.660 F1527 
N1614 X-169.850 Y0.041 Z24.989 F1908 
N1615 X-169.843 Y-0.334 Z25.391 F2290 
N1616 X-169.834 Y-0.739 Z25.825 F2361 
N1617 X-169.823 Y-1.168 Z26.286 F2574 
N1618 X-169.805 Y-1.648 Z26.799 F2929 
N1619 X-169.773 Y-2.201 Z27.393 F3427 
N1620 X-169.712 Y-2.845 Z28.083 F3924 
N1621 X-169.592 Y-3.560 Z28.850 F4279 
N1622 X-169.371 Y-4.314 Z29.659 F4493 
N1623 X-169.007 Y-5.068 Z30.467 F4564 
N1624 X-168.505 Y-5.765 Z31.215 F4564 
N1625 X-167.860 Y-6.367 Z31.861 F4501 
N1626 X-166.958 Y-6.569 Z32.077 F4312 
N1627 X-166.651 Y-5.926 Z31.388 F3998 
N1628 X-166.580 Y-5.305 Z30.722 F3559 
N1629 X-166.559 Y-4.764 Z30.141 F2993 
N1630 X-166.555 Y-4.326 Z29.672 F2334 
N1631 X-166.557 Y-3.992 Z29.313 F1768 
N1632 X-166.559 Y-3.740 Z29.043 F1328 
N1633 X-166.562 Y-3.549 Z28.838 F1014 
N1634 X-166.565 Y-3.399 Z28.677 F826 
N1635 X-166.567 Y-3.268 Z28.537 F763 
N1636 X-166.595 Y-1.563 Z26.709 F763 
N1637 X-166.598 Y-1.387 Z26.520 F1017 
N1638 X-166.602 Y-1.159 Z26.276 F1272 
N1639 X-166.606 Y-0.881 Z25.978 F1527 
N1640 X-166.715 Y5.760 Z18.856 F1527 
N1641 X-166.679 Y11.840 Z12.336 F1527 
N1642 X-166.524 Y17.634 Z6.122 F1527 
N1643 X-166.295 Y22.623 Z0.772 F1527 
N1644 X-166.007 Y27.218 Z-4.155 F1527 
N1645 X-165.686 Y31.334 Z-8.569 F1527 
N1646 X-165.340 Y35.092 Z-12.599 F1527 
N1647 X-164.965 Y38.661 Z-16.427 F1527 
N1648 X-164.933 Y38.967 Z-16.755 F1908 
N1649 X-164.894 Y39.342 Z-17.156 F2290 
N1650 X-164.854 Y39.729 Z-17.572 F2356 
N1651 X-164.813 Y40.139 Z-18.012 F2553 
N1652 X-164.774 Y40.593 Z-18.499 F2881 
N1653 X-164.737 Y41.114 Z-19.058 F3341 
N1654 X-164.716 Y41.714 Z-19.706 F3800 
N1655 X-164.737 Y42.380 Z-20.425 F4129 
N1656 X-164.856 Y43.080 Z-21.191 F4326 
N1657 X-165.159 Y43.771 Z-21.958 F4392 
N1658 X-165.743 Y44.376 Z-22.653 F4392 
N1659 X-166.739 Y44.570 Z-22.933 F4319 
N1660 X-167.280 Y43.926 Z-22.275 F4101 
N1661 X-167.479 Y43.240 Z-21.549 F3738 
N1662 X-167.589 Y42.624 Z-20.893 F3230 
N1663 X-167.661 Y42.111 Z-20.343 F2577 
N1664 X-167.709 Y41.716 Z-19.920 F1924 
N1665 X-167.742 Y41.423 Z-19.606 F1416 
N1666 X-167.765 Y41.208 Z-19.375 F1053 
N1667 X-167.783 Y41.043 Z-19.199 F836 
N1668 X-167.797 Y40.904 Z-19.050 F763 
N1669 X-167.975 Y39.203 Z-17.226 F763 
N1670 X-167.993 Y39.027 Z-17.037 F1017 
N1671 X-168.017 Y38.800 Z-16.794 F1272 
N1672 X-168.046 Y38.523 Z-16.496 F1527 
N1673 X-168.059 Y38.402 Z-16.366 F1527 
N1674 X-168.411 Y35.028 Z-12.748 F1527 
N1675 X-168.753 Y31.296 Z-8.746 F1527 
N1676 X-169.069 Y27.247 Z-4.404 F1527 
N1677 X-169.348 Y22.833 Z0.329 F1527 
N1678 X-169.584 Y17.759 Z5.770 F1527 
N1679 X-169.738 Y12.304 Z11.621 F1527 
N1680 X-169.786 Y6.281 Z18.079 F1527 
N1681 X-169.725 Y1.047 Z23.692 F1527 
N1682 X-169.708 Y0.233 Z24.565 F1527 
N1683 X-169.702 Y-0.074 Z24.894 F1908 
N1684 X-169.694 Y-0.449 Z25.296 F2290 
N1685 X-169.685 Y-0.853 Z25.729 F2361 
N1686 X-169.674 Y-1.281 Z26.188 F2572 
N1687 X-169.657 Y-1.758 Z26.700 F2925 
N1688 X-169.626 Y-2.308 Z27.290 F3419 
N1689 X-169.568 Y-2.948 Z27.977 F3913 
N1690 X-169.455 Y-3.659 Z28.739 F4266 
N1691 X-169.247 Y-4.410 Z29.544 F4478 
N1692 X-168.904 Y-5.163 Z30.351 F4549 
N1693 X-168.426 Y-5.862 Z31.101 F4549 
N1694 X-167.807 Y-6.472 Z31.755 F4486 
N1695 X-166.925 Y-6.670 Z31.967 F4298 
N1696 X-166.643 Y-6.024 Z31.275 F3985 
N1697 X-166.577 Y-5.406 Z30.612 F3547 
N1698 X-166.558 Y-4.867 Z30.034 F2984 
N1699 X-166.555 Y-4.432 Z29.567 F2327 
N1700 X-166.556 Y-4.099 Z29.210 F1764 
N1701 X-166.559 Y-3.848 Z28.941 F1326 
N1702 X-166.562 Y-3.658 Z28.737 F1013 
N1703 X-166.565 Y-3.508 Z28.576 F826 
N1704 X-166.567 Y-3.377 Z28.436 F763 
N1705 X-166.595 Y-1.672 Z26.608 F763 
N1706 X-166.598 Y-1.495 Z26.418 F1017 
N1707 X-166.602 Y-1.268 Z26.174 F1272 
N1708 X-166.606 Y-0.990 Z25.876 F1527 
N1709 X-166.715 Y5.654 Z18.751 F1527 
N1710 X-166.679 Y11.733 Z12.233 F1527 
N1711 X-166.524 Y17.526 Z6.021 F1527 
N1712 X-166.295 Y22.515 Z0.671 F1527 
N1713 X-166.007 Y27.110 Z-4.257 F1527 
N1714 X-165.686 Y31.225 Z-8.670 F1527 
N1715 X-165.340 Y34.983 Z-12.700 F1527 
N1716 X-164.965 Y38.553 Z-16.528 F1527 
N1717 X-164.933 Y38.859 Z-16.856 F1908 
N1718 X-164.894 Y39.233 Z-17.257 F2290 
N1719 X-164.854 Y39.619 Z-17.672 F2355 
N1720 X-164.814 Y40.027 Z-18.110 F2551 
N1721 X-164.773 Y40.479 Z-18.594 F2876 
N1722 X-164.736 Y40.996 Z-19.150 F3332 
N1723 X-164.713 Y41.593 Z-19.793 F3788 
N1724 X-164.728 Y42.253 Z-20.507 F4114 
N1725 X-164.834 Y42.950 Z-21.268 F4310 
N1726 X-165.111 Y43.639 Z-22.034 F4375 
N1727 X-165.663 Y44.255 Z-22.740 F4375 
N1728 X-166.638 Y44.450 Z-23.023 F4303 
N1729 X-167.148 Y43.796 Z-22.355 F4086 
N1730 X-167.336 Y43.113 Z-21.631 F3725 
N1731 X-167.443 Y42.501 Z-20.978 F3219 
N1732 X-167.514 Y41.990 Z-20.432 F2569 
N1733 X-167.561 Y41.597 Z-20.011 F1919 
N1734 X-167.594 Y41.306 Z-19.699 F1413 
N1735 X-167.617 Y41.091 Z-19.468 F1052 
N1736 X-167.634 Y40.927 Z-19.293 F835 
N1737 X-167.649 Y40.789 Z-19.144 F763 
N1738 X-167.826 Y39.088 Z-17.320 F763 
N1739 X-167.845 Y38.912 Z-17.131 F1017 
N1740 X-167.869 Y38.685 Z-16.888 F1272 
N1741 X-167.898 Y38.408 Z-16.591 F1527 
N1742 X-167.911 Y38.286 Z-16.460 F1527 
N1743 X-168.263 Y34.912 Z-12.842 F1527 
N1744 X-168.605 Y31.181 Z-8.841 F1527 
N1745 X-168.921 Y27.133 Z-4.500 F1527 
N1746 X-169.200 Y22.720 Z0.232 F1527 
N1747 X-169.436 Y17.648 Z5.672 F1527 
N1748 X-169.589 Y12.192 Z11.523 F1527 
N1749 X-169.637 Y6.170 Z17.981 F1527 
N1750 X-169.576 Y0.940 Z23.589 F1527 
N1751 X-169.559 Y0.117 Z24.471 F1527 
N1752 X-169.553 Y-0.190 Z24.800 F1908 
N1753 X-169.545 Y-0.565 Z25.202 F2290 
N1754 X-169.537 Y-0.967 Z25.633 F2360 
N1755 X-169.526 Y-1.393 Z26.090 F2570 
N1756 X-169.509 Y-1.868 Z26.599 F2921 
N1757 X-169.480 Y-2.415 Z27.187 F3411 
N1758 X-169.424 Y-3.051 Z27.869 F3901 
N1759 X-169.319 Y-3.758 Z28.626 F4252 
N1760 X-169.123 Y-4.505 Z29.427 F4462 
N1761 X-168.800 Y-5.256 Z30.233 F4532 
N1762 X-168.344 Y-5.962 Z30.990 F4532 
N1763 X-167.751 Y-6.578 Z31.651 F4470 
N1764 X-166.893 Y-6.768 Z31.855 F4283 
N1765 X-166.635 Y-6.121 Z31.160 F3971 
N1766 X-166.575 Y-5.506 Z30.501 F3535 
N1767 X-166.557 Y-4.970 Z29.926 F2975 
N1768 X-166.554 Y-4.537 Z29.462 F2320 
N1769 X-166.556 Y-4.206 Z29.107 F1760 
N1770 X-166.559 Y-3.956 Z28.839 F1324 
N1771 X-166.562 Y-3.766 Z28.635 F1012 
N1772 X-166.565 Y-3.616 Z28.475 F825 
N1773 X-166.567 Y-3.486 Z28.335 F763 
N1774 X-166.595 Y-1.781 Z26.506 F763 
N1775 X-166.598 Y-1.604 Z26.317 F1017 
N1776 X-166.602 Y-1.377 Z26.073 F1272 
N1777 X-166.606 Y-1.099 Z25.775 F1527 
N1778 X-166.715 Y5.548 Z18.647 F1527 
N1779 X-166.679 Y11.626 Z12.129 F1527 
N1780 X-166.524 Y17.417 Z5.919 F1527 
N1781 X-166.295 Y22.406 Z0.569 F1527 
N1782 X-166.007 Y27.001 Z-4.358 F1527 
N1783 X-165.686 Y31.116 Z-8.771 F1527 
N1784 X-165.340 Y34.874 Z-12.802 F1527 
N1785 X-164.965 Y38.444 Z-16.629 F1527 
N1786 X-164.933 Y38.750 Z-16.958 F1908 
N1787 X-164.894 Y39.124 Z-17.359 F2290 
N1788 X-164.854 Y39.509 Z-17.771 F2355 
N1789 X-164.814 Y39.915 Z-18.207 F2549 
N1790 X-164.773 Y40.365 Z-18.690 F2872 
N1791 X-164.736 Y40.878 Z-19.242 F3324 
N1792 X-164.710 Y41.471 Z-19.880 F3777 
N1793 X-164.719 Y42.127 Z-20.590 F4100 
N1794 X-164.812 Y42.819 Z-21.345 F4294 
N1795 X-165.065 Y43.508 Z-22.109 F4358 
N1796 X-165.584 Y44.133 Z-22.826 F4358 
N1797 X-166.536 Y44.329 Z-23.112 F4287 
N1798 X-167.014 Y43.666 Z-22.434 F4071 
N1799 X-167.194 Y42.987 Z-21.714 F3711 
N1800 X-167.298 Y42.378 Z-21.064 F3208 
N1801 X-167.367 Y41.870 Z-20.521 F2561 
N1802 X-167.413 Y41.479 Z-20.102 F1914 
N1803 X-167.446 Y41.189 Z-19.791 F1410 
N1804 X-167.469 Y40.975 Z-19.562 F1051 
N1805 X-167.486 Y40.812 Z-19.387 F835 
N1806 X-167.500 Y40.674 Z-19.239 F763 
N1807 X-167.678 Y38.973 Z-17.415 F763 
N1808 X-167.697 Y38.797 Z-17.226 F1017 
N1809 X-167.720 Y38.570 Z-16.983 F1272 
N1810 X-167.749 Y38.293 Z-16.686 F1527 
N1811 X-167.763 Y38.169 Z-16.553 F1527 
N1812 X-168.114 Y34.797 Z-12.936 F1527 
N1813 X-168.457 Y31.067 Z-8.936 F1527 
N1814 X-168.772 Y27.020 Z-4.596 F1527 
N1815 X-169.051 Y22.607 Z0.135 F1527 
N1816 X-169.287 Y17.536 Z5.574 F1527 
N1817 X-169.441 Y12.080 Z11.425 F1527 
N1818 X-169.489 Y6.058 Z17.883 F1527 
N1819 X-169.428 Y0.833 Z23.486 F1527 
N1820 X-169.410 Y0.002 Z24.377 F1527 
N1821 X-169.404 Y-0.305 Z24.706 F1908 
N1822 X-169.396 Y-0.680 Z25.108 F2290 
N1823 X-169.388 Y-1.081 Z25.538 F2360 
N1824 X-169.377 Y-1.505 Z25.993 F2568 
N1825 X-169.361 Y-1.978 Z26.500 F2916 
N1826 X-169.333 Y-2.523 Z27.084 F3403 
N1827 X-169.281 Y-3.155 Z27.762 F3890 
N1828 X-169.181 Y-3.857 Z28.515 F4238 
N1829 X-168.998 Y-4.601 Z29.312 F4447 
N1830 X-168.695 Y-5.350 Z30.116 F4517 
N1831 X-168.262 Y-6.060 Z30.877 F4517 
N1832 X-167.695 Y-6.684 Z31.546 F4455 
N1833 X-166.862 Y-6.868 Z31.743 F4269 
N1834 X-166.627 Y-6.218 Z31.047 F3958 
N1835 X-166.572 Y-5.606 Z30.390 F3524 
N1836 X-166.556 Y-5.073 Z29.819 F2966 
N1837 X-166.554 Y-4.643 Z29.357 F2314 
N1838 X-166.556 Y-4.313 Z29.004 F1756 
N1839 X-166.559 Y-4.064 Z28.737 F1321 
N1840 X-166.562 Y-3.875 Z28.534 F1011 
N1841 X-166.565 Y-3.725 Z28.373 F825 
N1842 X-166.567 Y-3.594 Z28.233 F763 
N1843 X-166.595 Y-1.889 Z26.405 F763 
N1844 X-166.598 Y-1.713 Z26.215 F1017 
N1845 X-166.602 Y-1.485 Z25.972 F1272 
N1846 X-166.606 Y-1.208 Z25.674 F1527 
N1847 X-166.715 Y5.443 Z18.542 F1527 
N1848 X-166.679 Y11.519 Z12.026 F1527 
N1849 X-166.524 Y17.309 Z5.817 F1527 
N1850 X-166.295 Y22.297 Z0.468 F1527 
N1851 X-166.007 Y26.892 Z-4.460 F1527 
N1852 X-165.686 Y31.008 Z-8.873 F1527 
N1853 X-165.340 Y34.766 Z-12.903 F1527 
N1854 X-164.965 Y38.335 Z-16.731 F1527 
N1855 X-164.933 Y38.641 Z-17.059 F1908 
N1856 X-164.894 Y39.015 Z-17.460 F2290 
N1857 X-164.854 Y39.399 Z-17.871 F2354 
N1858 X-164.814 Y39.803 Z-18.305 F2547 
N1859 X-164.773 Y40.250 Z-18.785 F2867 
N1860 X-164.735 Y40.761 Z-19.334 F3316 
N1861 X-164.707 Y41.350 Z-19.968 F3765 
N1862 X-164.711 Y42.001 Z-20.673 F4086 
N1863 X-164.792 Y42.689 Z-21.423 F4278 
N1864 X-165.021 Y43.377 Z-22.185 F4343 
N1865 X-165.506 Y44.011 Z-22.912 F4343 
N1866 X-166.433 Y44.207 Z-23.201 F4271 
N1867 X-166.880 Y43.537 Z-22.514 F4056 
N1868 X-167.051 Y42.860 Z-21.796 F3698 
N1869 X-167.152 Y42.255 Z-21.151 F3197 
N1870 X-167.219 Y41.750 Z-20.610 F2553 
N1871 X-167.265 Y41.361 Z-20.193 F1908 
N1872 X-167.298 Y41.073 Z-19.884 F1407 
N1873 X-167.320 Y40.859 Z-19.656 F1049 
N1874 X-167.338 Y40.697 Z-19.481 F835 
N1875 X-167.352 Y40.559 Z-19.333 F763 
N1876 X-167.530 Y38.858 Z-17.510 F763 
N1877 X-167.548 Y38.682 Z-17.320 F1017 
N1878 X-167.572 Y38.455 Z-17.077 F1272 
N1879 X-167.601 Y38.178 Z-16.780 F1527 
N1880 X-167.615 Y38.053 Z-16.646 F1527 
N1881 X-167.966 Y34.681 Z-13.030 F1527 
N1882 X-168.308 Y30.952 Z-9.031 F1527 
N1883 X-168.624 Y26.906 Z-4.692 F1527 
N1884 X-168.903 Y22.495 Z0.038 F1527 
N1885 X-169.139 Y17.424 Z5.476 F1527 
N1886 X-169.292 Y11.967 Z11.327 F1527 
N1887 X-169.340 Y5.945 Z17.785 F1527 
N1888 X-169.279 Y0.726 Z23.383 F1527 
N1889 X-169.262 Y-0.114 Z24.283 F1527 
N1890 X-169.255 Y-0.421 Z24.612 F1908 
N1891 X-169.247 Y-0.796 Z25.014 F2290 
N1892 X-169.239 Y-1.195 Z25.442 F2359 
N1893 X-169.229 Y-1.618 Z25.896 F2567 
N1894 X-169.213 Y-2.089 Z26.401 F2912 
N1895 X-169.186 Y-2.631 Z26.982 F3396 
N1896 X-169.137 Y-3.260 Z27.657 F3880 
N1897 X-169.043 Y-3.958 Z28.406 F4226 
N1898 X-168.872 Y-4.698 Z29.199 F4433 
N1899 X-168.587 Y-5.446 Z30.001 F4502 
N1900 X-168.180 Y-6.157 Z30.763 F4502 
N1901 X-167.640 Y-6.788 Z31.440 F4441 
N1902 X-166.834 Y-6.967 Z31.632 F4255 
N1903 X-166.620 Y-6.317 Z30.935 F3946 
N1904 X-166.569 Y-5.707 Z30.281 F3514 
N1905 X-166.555 Y-5.176 Z29.712 F2957 
N1906 X-166.554 Y-4.749 Z29.253 F2308 
N1907 X-166.556 Y-4.421 Z28.902 F1752 
N1908 X-166.559 Y-4.173 Z28.635 F1319 
N1909 X-166.562 Y-3.984 Z28.433 F1010 
N1910 X-166.565 Y-3.834 Z28.272 F825 
N1911 X-166.567 Y-3.703 Z28.132 F763 
N1912 X-166.595 Y-1.998 Z26.304 F763 
N1913 X-166.598 Y-1.821 Z26.114 F1017 
N1914 X-166.602 Y-1.594 Z25.870 F1272 
N1915 X-166.606 Y-1.316 Z25.572 F1527 
N1916 X-166.715 Y5.338 Z18.436 F1527 
N1917 X-166.679 Y11.413 Z11.922 F1527 
N1918 X-166.523 Y17.201 Z5.715 F1527 
N1919 X-166.295 Y22.189 Z0.366 F1527 
N1920 X-166.007 Y26.784 Z-4.561 F1527 
N1921 X-165.686 Y30.899 Z-8.974 F1527 
N1922 X-165.340 Y34.657 Z-13.004 F1527 
N1923 X-164.965 Y38.226 Z-16.832 F1527 
N1924 X-164.933 Y38.533 Z-17.160 F1908 
N1925 X-164.894 Y38.907 Z-17.562 F2290 
N1926 X-164.854 Y39.288 Z-17.971 F2354 
N1927 X-164.814 Y39.691 Z-18.403 F2545 
N1928 X-164.773 Y40.136 Z-18.881 F2863 
N1929 X-164.734 Y40.644 Z-19.427 F3308 
N1930 X-164.704 Y41.229 Z-20.056 F3754 
N1931 X-164.703 Y41.876 Z-20.756 F4072 
N1932 X-164.772 Y42.559 Z-21.501 F4263 
N1933 X-164.978 Y43.245 Z-22.261 F4327 
N1934 X-165.429 Y43.888 Z-22.997 F4327 
N1935 X-166.329 Y44.084 Z-23.288 F4256 
N1936 X-166.745 Y43.408 Z-22.594 F4042 
N1937 X-166.908 Y42.735 Z-21.879 F3685 
N1938 X-167.006 Y42.133 Z-21.237 F3186 
N1939 X-167.072 Y41.630 Z-20.699 F2545 
N1940 X-167.118 Y41.243 Z-20.284 F1903 
N1941 X-167.149 Y40.956 Z-19.977 F1404 
N1942 X-167.172 Y40.743 Z-19.749 F1048 
N1943 X-167.189 Y40.581 Z-19.575 F834 
N1944 X-167.204 Y40.444 Z-19.428 F763 
N1945 X-167.381 Y38.743 Z-17.604 F763 
N1946 X-167.400 Y38.567 Z-17.415 F1017 
N1947 X-167.423 Y38.340 Z-17.172 F1272 
N1948 X-167.452 Y38.063 Z-16.875 F1527 
N1949 X-167.466 Y37.937 Z-16.739 F1527 
N1950 X-167.818 Y34.566 Z-13.124 F1527 
N1951 X-168.160 Y30.837 Z-9.126 F1527 
N1952 X-168.475 Y26.792 Z-4.788 F1527 
N1953 X-168.754 Y22.382 Z-0.059 F1527 
N1954 X-168.990 Y17.311 Z5.379 F1527 
N1955 X-169.143 Y11.855 Z11.230 F1527 
N1956 X-169.191 Y5.832 Z17.688 F1527 
N1957 X-169.130 Y0.618 Z23.280 F1527 
N1958 X-169.113 Y-0.230 Z24.189 F1527 
N1959 X-169.106 Y-0.537 Z24.518 F1908 
N1960 X-169.099 Y-0.912 Z24.921 F2290 
N1961 X-169.090 Y-1.310 Z25.347 F2359 
N1962 X-169.080 Y-1.731 Z25.799 F2565 
N1963 X-169.065 Y-2.199 Z26.301 F2908 
N1964 X-169.039 Y-2.739 Z26.880 F3388 
N1965 X-168.993 Y-3.364 Z27.550 F3869 
N1966 X-168.905 Y-4.058 Z28.294 F4212 
N1967 X-168.746 Y-4.794 Z29.084 F4418 
N1968 X-168.480 Y-5.539 Z29.883 F4487 
N1969 X-168.095 Y-6.257 Z30.652 F4487 
N1970 X-167.583 Y-6.893 Z31.335 F4425 
N1971 X-166.807 Y-7.065 Z31.519 F4241 
N1972 X-166.613 Y-6.415 Z30.822 F3933 
N1973 X-166.567 Y-5.807 Z30.171 F3502 
N1974 X-166.554 Y-5.280 Z29.605 F2948 
N1975 X-166.554 Y-4.855 Z29.149 F2302 
N1976 X-166.556 Y-4.529 Z28.799 F1748 
N1977 X-166.559 Y-4.281 Z28.534 F1317 
N1978 X-166.562 Y-4.092 Z28.331 F1009 
N1979 X-166.565 Y-3.943 Z28.171 F825 
N1980 X-166.567 Y-3.812 Z28.030 F763 
N1981 X-166.595 Y-2.107 Z26.202 F763 
N1982 X-166.598 Y-1.930 Z26.013 F1017 
N1983 X-166.602 Y-1.703 Z25.769 F1272 
N1984 X-166.606 Y-1.425 Z25.471 F1527 
N1985 X-166.715 Y5.234 Z18.330 F1527 
N1986 X-166.679 Y11.307 Z11.818 F1527 
N1987 X-166.523 Y17.093 Z5.613 F1527 
N1988 X-166.295 Y22.080 Z0.264 F1527 
N1989 X-166.007 Y26.675 Z-4.662 F1527 
N1990 X-165.686 Y30.790 Z-9.076 F1527 
N1991 X-165.340 Y34.548 Z-13.106 F1527 
N1992 X-164.965 Y38.118 Z-16.933 F1527 
N1993 X-164.933 Y38.424 Z-17.262 F1908 
N1994 X-164.894 Y38.798 Z-17.663 F2290 
N1995 X-164.854 Y39.178 Z-18.071 F2353 
N1996 X-164.814 Y39.579 Z-18.501 F2543 
N1997 X-164.773 Y40.022 Z-18.976 F2859 
N1998 X-164.733 Y40.527 Z-19.519 F3301 
N1999 X-164.701 Y41.108 Z-20.145 F3743 
N2000 X-164.695 Y41.751 Z-20.840 F4059 
N2001 X-164.753 Y42.430 Z-21.580 F4249 
N2002 X-164.937 Y43.114 Z-22.338 F4312 
N2003 X-165.354 Y43.765 Z-23.081 F4312 
N2004 X-166.223 Y43.961 Z-23.375 F4241 
N2005 X-166.610 Y43.280 Z-22.674 F4028 
N2006 X-166.765 Y42.609 Z-21.963 F3673 
N2007 X-166.860 Y42.010 Z-21.324 F3176 
N2008 X-166.925 Y41.510 Z-20.788 F2537 
N2009 X-166.970 Y41.125 Z-20.376 F1899 
N2010 X-167.001 Y40.839 Z-20.069 F1402 
N2011 X-167.024 Y40.627 Z-19.843 F1047 
N2012 X-167.041 Y40.466 Z-19.669 F834 
N2013 X-167.055 Y40.329 Z-19.523 F763 
N2014 X-167.233 Y38.628 Z-17.699 F763 
N2015 X-167.251 Y38.452 Z-17.510 F1017 
N2016 X-167.275 Y38.225 Z-17.267 F1272 
N2017 X-167.304 Y37.948 Z-16.969 F1527 
N2018 X-167.318 Y37.820 Z-16.833 F1527 
N2019 X-167.670 Y34.450 Z-13.218 F1527 
N2020 X-168.011 Y30.723 Z-9.221 F1527 
N2021 X-168.327 Y26.679 Z-4.884 F1527 
N2022 X-168.606 Y22.269 Z-0.156 F1527 
N2023 X-168.841 Y17.199 Z5.281 F1527 
N2024 X-168.995 Y11.741 Z11.134 F1527 
N2025 X-169.043 Y5.719 Z17.592 F1527 
N2026 X-168.982 Y0.511 Z23.177 F1527 
N2027 X-168.964 Y-0.346 Z24.096 F1527 
N2028 X-168.958 Y-0.653 Z24.425 F1908 
N2029 X-168.950 Y-1.028 Z24.827 F2290 
N2030 X-168.942 Y-1.424 Z25.252 F2358 
N2031 X-168.931 Y-1.844 Z25.702 F2563 
N2032 X-168.917 Y-2.311 Z26.203 F2904 
N2033 X-168.892 Y-2.847 Z26.778 F3381 
N2034 X-168.848 Y-3.469 Z27.445 F3859 
N2035 X-168.767 Y-4.159 Z28.185 F4200 
N2036 X-168.619 Y-4.891 Z28.970 F4404 
N2037 X-168.372 Y-5.635 Z29.767 F4473 
N2038 X-168.009 Y-6.355 Z30.540 F4473 
N2039 X-167.466 Y-7.057 Z31.292 F4398 
N2040 X-166.716 Y-7.034 Z31.268 F4176 
N2041 X-166.588 Y-6.326 Z30.508 F3805 
N2042 X-166.558 Y-5.687 Z29.824 F3285 
N2043 X-166.553 Y-5.159 Z29.257 F2618 
N2044 X-166.555 Y-4.756 Z28.825 F1950 
N2045 X-166.558 Y-4.457 Z28.504 F1431 
N2046 X-166.562 Y-4.235 Z28.267 F1060 
N2047 X-166.565 Y-4.065 Z28.084 F837 
N2048 X-166.567 Y-3.921 Z27.929 F763 
N2049 X-166.595 Y-2.216 Z26.101 F763 
N2050 X-166.598 Y-2.039 Z25.911 F1017 
N2051 X-166.602 Y-1.812 Z25.667 F1272 
N2052 X-166.606 Y-1.534 Z25.370 F1527 
N2053 X-166.715 Y5.130 Z18.224 F1527 
N2054 X-166.679 Y11.201 Z11.713 F1527 
N2055 X-166.523 Y16.985 Z5.510 F1527 
N2056 X-166.295 Y21.972 Z0.163 F1527 
N2057 X-166.007 Y26.566 Z-4.764 F1527 
N2058 X-165.686 Y30.682 Z-9.177 F1527 
N2059 X-165.340 Y34.440 Z-13.207 F1527 
N2060 X-164.965 Y38.009 Z-17.035 F1527 
N2061 X-164.933 Y38.315 Z-17.363 F1908 
N2062 X-164.894 Y38.689 Z-17.764 F2290 
N2063 X-164.855 Y39.068 Z-18.171 F2353 
N2064 X-164.814 Y39.468 Z-18.599 F2541 
N2065 X-164.773 Y39.908 Z-19.072 F2855 
N2066 X-164.733 Y40.411 Z-19.612 F3294 
N2067 X-164.698 Y40.988 Z-20.234 F3733 
N2068 X-164.688 Y41.626 Z-20.924 F4046 
N2069 X-164.735 Y42.301 Z-21.660 F4234 
N2070 X-164.898 Y42.983 Z-22.414 F4297 
N2071 X-165.280 Y43.641 Z-23.165 F4297 
N2072 X-166.116 Y43.837 Z-23.462 F4226 
N2073 X-166.474 Y43.151 Z-22.755 F4014 
N2074 X-166.622 Y42.484 Z-22.047 F3661 
N2075 X-166.714 Y41.888 Z-21.411 F3166 
N2076 X-166.777 Y41.390 Z-20.878 F2530 
N2077 X-166.822 Y41.006 Z-20.467 F1894 
N2078 X-166.853 Y40.722 Z-20.162 F1399 
N2079 X-166.876 Y40.511 Z-19.936 F1046 
N2080 X-166.893 Y40.350 Z-19.763 F834 
N2081 X-166.907 Y40.214 Z-19.617 F763 
N2082 X-167.085 Y38.513 Z-17.793 F763 
N2083 X-167.103 Y38.337 Z-17.604 F1017 
N2084 X-167.127 Y38.110 Z-17.361 F1272 
N2085 X-167.156 Y37.833 Z-17.064 F1527 
N2086 X-167.170 Y37.704 Z-16.926 F1527 
N2087 X-167.521 Y34.335 Z-13.312 F1527 
N2088 X-167.863 Y30.608 Z-9.316 F1527 
N2089 X-168.179 Y26.565 Z-4.980 F1527 
N2090 X-168.457 Y22.156 Z-0.253 F1527 
N2091 X-168.693 Y17.087 Z5.184 F1527 
N2092 X-168.846 Y11.628 Z11.038 F1527 
N2093 X-168.894 Y5.605 Z17.497 F1527 
N2094 X-168.833 Y0.404 Z23.074 F1527 
N2095 X-168.815 Y-0.462 Z24.003 F1527 
N2096 X-168.809 Y-0.769 Z24.332 F1908 
N2097 X-168.801 Y-1.144 Z24.734 F2290 
N2098 X-168.793 Y-1.539 Z25.158 F2358 
N2099 X-168.783 Y-1.957 Z25.606 F2561 
N2100 X-168.769 Y-2.422 Z26.104 F2900 
N2101 X-168.745 Y-2.956 Z26.677 F3374 
N2102 X-168.704 Y-3.574 Z27.340 F3849 
N2103 X-168.628 Y-4.261 Z28.076 F4187 
N2104 X-168.491 Y-4.989 Z28.857 F4391 
N2105 X-168.262 Y-5.730 Z29.652 F4458 
N2106 X-167.923 Y-6.454 Z30.428 F4458 
N2107 X-167.411 Y-7.162 Z31.187 F4385 
N2108 X-166.699 Y-7.132 Z31.155 F4163 
N2109 X-166.583 Y-6.426 Z30.398 F3793 
N2110 X-166.556 Y-5.790 Z29.716 F3276 
N2111 X-166.552 Y-5.265 Z29.153 F2611 
N2112 X-166.555 Y-4.864 Z28.723 F1946 
N2113 X-166.558 Y-4.566 Z28.403 F1428 
N2114 X-166.562 Y-4.344 Z28.166 F1059 
N2115 X-166.565 Y-4.174 Z27.983 F837 
N2116 X-166.567 Y-4.029 Z27.828 F763 
N2117 X-166.595 Y-2.324 Z25.999 F763 
N2118 X-166.598 Y-2.148 Z25.810 F1017 
N2119 X-166.602 Y-1.920 Z25.566 F1272 
N2120 X-166.606 Y-1.642 Z25.268 F1527 
N2121 X-166.715 Y5.026 Z18.117 F1527 
N2122 X-166.679 Y11.096 Z11.608 F1527 
N2123 X-166.523 Y16.878 Z5.408 F1527 
N2124 X-166.295 Y21.864 Z0.061 F1527 
N2125 X-166.007 Y26.458 Z-4.865 F1527 
N2126 X-165.686 Y30.573 Z-9.279 F1527 
N2127 X-165.340 Y34.331 Z-13.308 F1527 
N2128 X-164.965 Y37.900 Z-17.136 F1527 
N2129 X-164.933 Y38.206 Z-17.464 F1908 
N2130 X-164.894 Y38.581 Z-17.866 F2290 
N2131 X-164.855 Y38.958 Z-18.271 F2352 
N2132 X-164.815 Y39.356 Z-18.697 F2539 
N2133 X-164.773 Y39.795 Z-19.168 F2851 
N2134 X-164.732 Y40.294 Z-19.705 F3286 
N2135 X-164.696 Y40.868 Z-20.323 F3722 
N2136 X-164.681 Y41.502 Z-21.009 F4034 
N2137 X-164.718 Y42.173 Z-21.740 F4221 
N2138 X-164.860 Y42.853 Z-22.491 F4283 
N2139 X-165.207 Y43.517 Z-23.249 F4283 
N2140 X-166.008 Y43.713 Z-23.547 F4213 
N2141 X-166.338 Y43.023 Z-22.836 F4001 
N2142 X-166.478 Y42.359 Z-22.131 F3649 
N2143 X-166.567 Y41.766 Z-21.498 F3157 
N2144 X-166.630 Y41.270 Z-20.967 F2523 
N2145 X-166.674 Y40.888 Z-20.558 F1889 
N2146 X-166.705 Y40.605 Z-20.254 F1397 
N2147 X-166.727 Y40.395 Z-20.030 F1045 
N2148 X-166.744 Y40.235 Z-19.858 F833 
N2149 X-166.759 Y40.099 Z-19.712 F763 
N2150 X-166.936 Y38.398 Z-17.888 F763 
N2151 X-166.955 Y38.222 Z-17.699 F1017 
N2152 X-166.978 Y37.995 Z-17.456 F1272 
N2153 X-167.007 Y37.718 Z-17.159 F1527 
N2154 X-167.022 Y37.588 Z-17.019 F1527 
N2155 X-167.373 Y34.219 Z-13.407 F1527 
N2156 X-167.715 Y30.493 Z-9.411 F1527 
N2157 X-168.030 Y26.451 Z-5.076 F1527 
N2158 X-168.308 Y22.043 Z-0.349 F1527 
N2159 X-168.544 Y16.974 Z5.086 F1527 
N2160 X-168.698 Y11.514 Z10.942 F1527 
N2161 X-168.746 Y5.490 Z17.402 F1527 
N2162 X-168.685 Y0.296 Z22.971 F1527 
N2163 X-168.666 Y-0.579 Z23.909 F1527 
N2164 X-168.660 Y-0.885 Z24.239 F1908 
N2165 X-168.652 Y-1.261 Z24.641 F2290 
N2166 X-168.644 Y-1.654 Z25.063 F2357 
N2167 X-168.634 Y-2.071 Z25.510 F2559 
N2168 X-168.620 Y-2.534 Z26.006 F2896 
N2169 X-168.598 Y-3.065 Z26.576 F3367 
N2170 X-168.559 Y-3.680 Z27.235 F3839 
N2171 X-168.489 Y-4.363 Z27.967 F4175 
N2172 X-168.362 Y-5.088 Z28.745 F4378 
N2173 X-168.150 Y-5.827 Z29.537 F4445 
N2174 X-167.835 Y-6.552 Z30.315 F4445 
N2175 X-167.356 Y-7.267 Z31.082 F4371 
N2176 X-166.683 Y-7.229 Z31.042 F4150 
N2177 X-166.578 Y-6.526 Z30.288 F3782 
N2178 X-166.555 Y-5.893 Z29.608 F3267 
N2179 X-166.552 Y-5.371 Z29.049 F2604 
N2180 X-166.555 Y-4.972 Z28.621 F1941 
N2181 X-166.558 Y-4.675 Z28.302 F1426 
N2182 X-166.562 Y-4.454 Z28.065 F1058 
N2183 X-166.565 Y-4.283 Z27.882 F837 
N2184 X-166.567 Y-4.138 Z27.726 F763 
N2185 X-166.595 Y-2.433 Z25.898 F763 
N2186 X-166.598 Y-2.256 Z25.708 F1017 
N2187 X-166.602 Y-2.029 Z25.465 F1272 
N2188 X-166.606 Y-1.751 Z25.167 F1527 
N2189 X-166.715 Y4.924 Z18.009 F1527 
N2190 X-166.679 Y10.991 Z11.502 F1527 
N2191 X-166.523 Y16.770 Z5.305 F1527 
N2192 X-166.295 Y21.755 Z-0.041 F1527 
N2193 X-166.007 Y26.349 Z-4.967 F1527 
N2194 X-165.686 Y30.464 Z-9.380 F1527 
N2195 X-165.340 Y34.222 Z-13.410 F1527 
N2196 X-164.965 Y37.792 Z-17.238 F1527 
N2197 X-164.933 Y38.098 Z-17.566 F1908 
N2198 X-164.894 Y38.472 Z-17.967 F2290 
N2199 X-164.855 Y38.848 Z-18.371 F2352 
N2200 X-164.815 Y39.244 Z-18.796 F2537 
N2201 X-164.773 Y39.681 Z-19.264 F2847 
N2202 X-164.731 Y40.178 Z-19.799 F3280 
N2203 X-164.693 Y40.748 Z-20.413 F3713 
N2204 X-164.674 Y41.379 Z-21.094 F4022 
N2205 X-164.701 Y42.046 Z-21.821 F4207 
N2206 X-164.824 Y42.723 Z-22.569 F4269 
N2207 X-165.137 Y43.393 Z-23.333 F4269 
N2208 X-165.897 Y43.588 Z-23.632 F4199 
N2209 X-166.201 Y42.896 Z-22.917 F3989 
N2210 X-166.335 Y42.234 Z-22.215 F3638 
N2211 X-166.421 Y41.644 Z-21.585 F3147 
N2212 X-166.483 Y41.150 Z-21.056 F2516 
N2213 X-166.526 Y40.770 Z-20.649 F1885 
N2214 X-166.557 Y40.488 Z-20.347 F1394 
N2215 X-166.579 Y40.279 Z-20.123 F1044 
N2216 X-166.596 Y40.119 Z-19.952 F833 
N2217 X-166.610 Y39.984 Z-19.807 F763 
N2218 X-166.788 Y38.283 Z-17.983 F763 
N2219 X-166.806 Y38.107 Z-17.794 F1017 
N2220 X-166.830 Y37.880 Z-17.551 F1272 
N2221 X-166.859 Y37.603 Z-17.253 F1527 
N2222 X-166.873 Y37.471 Z-17.112 F1527 
N2223 X-167.225 Y34.104 Z-13.501 F1527 
N2224 X-167.566 Y30.379 Z-9.506 F1527 
N2225 X-167.882 Y26.337 Z-5.172 F1527 
N2226 X-168.160 Y21.930 Z-0.446 F1527 
N2227 X-168.396 Y16.862 Z4.989 F1527 
N2228 X-168.549 Y11.399 Z10.847 F1527 
N2229 X-168.597 Y5.374 Z17.308 F1527 
N2230 X-168.536 Y0.189 Z22.868 F1527 
N2231 X-168.517 Y-0.695 Z23.817 F1527 
N2232 X-168.511 Y-1.002 Z24.146 F1908 
N2233 X-168.503 Y-1.377 Z24.548 F2290 
N2234 X-168.495 Y-1.770 Z24.969 F2357 
N2235 X-168.486 Y-2.185 Z25.414 F2558 
N2236 X-168.472 Y-2.646 Z25.908 F2892 
N2237 X-168.451 Y-3.175 Z26.475 F3361 
N2238 X-168.415 Y-3.786 Z27.131 F3829 
N2239 X-168.349 Y-4.465 Z27.860 F4164 
N2240 X-168.233 Y-5.187 Z28.633 F4365 
N2241 X-168.038 Y-5.923 Z29.423 F4432 
N2242 X-167.746 Y-6.651 Z30.204 F4432 
N2243 X-167.300 Y-7.372 Z30.976 F4358 
N2244 X-166.667 Y-7.328 Z30.929 F4138 
N2245 X-166.574 Y-6.627 Z30.178 F3771 
N2246 X-166.553 Y-5.996 Z29.501 F3258 
N2247 X-166.551 Y-5.478 Z28.945 F2597 
N2248 X-166.554 Y-5.081 Z28.520 F1937 
N2249 X-166.558 Y-4.784 Z28.201 F1423 
N2250 X-166.562 Y-4.563 Z27.964 F1056 
N2251 X-166.565 Y-4.392 Z27.781 F836 
N2252 X-166.567 Y-4.247 Z27.625 F763 
N2253 X-166.595 Y-2.542 Z25.797 F763 
N2254 X-166.598 Y-2.365 Z25.607 F1017 
N2255 X-166.602 Y-2.138 Z25.363 F1272 
N2256 X-166.606 Y-1.860 Z25.065 F1527 
N2257 X-166.715 Y4.822 Z17.900 F1527 
N2258 X-166.679 Y10.887 Z11.396 F1527 
N2259 X-166.523 Y16.663 Z5.202 F1527 
N2260 X-166.295 Y21.647 Z-0.143 F1527 
N2261 X-166.007 Y26.240 Z-5.068 F1527 
N2262 X-165.686 Y30.356 Z-9.482 F1527 
N2263 X-165.340 Y34.113 Z-13.511 F1527 
N2264 X-164.965 Y37.683 Z-17.339 F1527 
N2265 X-164.933 Y37.989 Z-17.667 F1908 
N2266 X-164.894 Y38.363 Z-18.068 F2290 
N2267 X-164.855 Y38.738 Z-18.471 F2351 
N2268 X-164.815 Y39.133 Z-18.894 F2536 
N2269 X-164.773 Y39.568 Z-19.361 F2843 
N2270 X-164.730 Y40.062 Z-19.892 F3273 
N2271 X-164.691 Y40.629 Z-20.503 F3703 
N2272 X-164.668 Y41.256 Z-21.180 F4010 
N2273 X-164.686 Y41.919 Z-21.902 F4195 
N2274 X-164.789 Y42.593 Z-22.647 F4256 
N2275 X-165.068 Y43.269 Z-23.416 F4256 
N2276 X-165.785 Y43.463 Z-23.717 F4186 
N2277 X-166.064 Y42.769 Z-22.999 F3977 
N2278 X-166.191 Y42.110 Z-22.300 F3627 
N2279 X-166.275 Y41.522 Z-21.672 F3138 
N2280 X-166.335 Y41.030 Z-21.146 F2510 
N2281 X-166.378 Y40.652 Z-20.740 F1881 
N2282 X-166.409 Y40.371 Z-20.440 F1392 
N2283 X-166.431 Y40.163 Z-20.217 F1042 
N2284 X-166.448 Y40.004 Z-20.046 F833 
N2285 X-166.462 Y39.869 Z-19.901 F763 
N2286 X-166.639 Y38.168 Z-18.078 F763 
N2287 X-166.658 Y37.992 Z-17.889 F1017 
N2288 X-166.682 Y37.765 Z-17.645 F1272 
N2289 X-166.711 Y37.488 Z-17.348 F1527 
N2290 X-166.725 Y37.355 Z-17.206 F1527 
N2291 X-167.076 Y33.988 Z-13.595 F1527 
N2292 X-167.418 Y30.264 Z-9.601 F1527 
N2293 X-167.733 Y26.224 Z-5.268 F1527 
N2294 X-168.011 Y21.817 Z-0.543 F1527 
N2295 X-168.247 Y16.749 Z4.892 F1527 
N2296 X-168.401 Y11.283 Z10.753 F1527 
N2297 X-168.448 Y5.257 Z17.215 F1527 
N2298 X-168.387 Y0.082 Z22.765 F1527 
N2299 X-168.369 Y-0.812 Z23.724 F1527 
N2300 X-168.362 Y-1.119 Z24.053 F1908 
N2301 X-168.354 Y-1.494 Z24.455 F2290 
N2302 X-168.346 Y-1.885 Z24.875 F2357 
N2303 X-168.337 Y-2.299 Z25.319 F2556 
N2304 X-168.324 Y-2.758 Z25.811 F2889 
N2305 X-168.304 Y-3.285 Z26.375 F3354 
N2306 X-168.270 Y-3.893 Z27.028 F3820 
N2307 X-168.210 Y-4.569 Z27.752 F4153 
N2308 X-168.103 Y-5.287 Z28.522 F4352 
N2309 X-167.925 Y-6.021 Z29.310 F4419 
N2310 X-167.656 Y-6.751 Z30.092 F4419 
N2311 X-167.243 Y-7.477 Z30.871 F4346 
N2312 X-166.652 Y-7.427 Z30.817 F4126 
N2313 X-166.570 Y-6.729 Z30.069 F3761 
N2314 X-166.552 Y-6.099 Z29.394 F3249 
N2315 X-166.551 Y-5.585 Z28.842 F2591 
N2316 X-166.554 Y-5.190 Z28.419 F1933 
N2317 X-166.558 Y-4.894 Z28.101 F1421 
N2318 X-166.562 Y-4.672 Z27.863 F1055 
N2319 X-166.565 Y-4.501 Z27.680 F836 
N2320 X-166.567 Y-4.355 Z27.524 F763 
N2321 X-166.595 Y-2.650 Z25.695 F763 
N2322 X-166.598 Y-2.474 Z25.506 F1017 
N2323 X-166.602 Y-2.246 Z25.262 F1272 
N2324 X-166.606 Y-1.969 Z24.964 F1527 
N2325 X-166.716 Y4.722 Z17.790 F1527 
N2326 X-166.679 Y10.784 Z11.288 F1527 
N2327 X-166.523 Y16.556 Z5.099 F1527 
N2328 X-166.295 Y21.539 Z-0.245 F1527 
N2329 X-166.007 Y26.132 Z-5.170 F1527 
N2330 X-165.686 Y30.247 Z-9.583 F1527 
N2331 X-165.340 Y34.005 Z-13.613 F1527 
N2332 X-164.965 Y37.574 Z-17.440 F1527 
N2333 X-164.933 Y37.880 Z-17.769 F1908 
N2334 X-164.894 Y38.254 Z-18.170 F2290 
N2335 X-164.855 Y38.628 Z-18.571 F2351 
N2336 X-164.815 Y39.022 Z-18.993 F2534 
N2337 X-164.773 Y39.455 Z-19.458 F2840 
N2338 X-164.730 Y39.947 Z-19.986 F3267 
N2339 X-164.689 Y40.511 Z-20.594 F3694 
N2340 X-164.661 Y41.134 Z-21.267 F4000 
N2341 X-164.671 Y41.793 Z-21.985 F4183 
N2342 X-164.756 Y42.465 Z-22.727 F4244 
N2343 X-165.001 Y43.144 Z-23.499 F4244 
N2344 X-165.671 Y43.337 Z-23.801 F4174 
N2345 X-165.927 Y42.642 Z-23.081 F3965 
N2346 X-166.047 Y41.986 Z-22.385 F3617 
N2347 X-166.129 Y41.400 Z-21.760 F3130 
N2348 X-166.188 Y40.910 Z-21.235 F2503 
N2349 X-166.230 Y40.533 Z-20.831 F1877 
N2350 X-166.261 Y40.254 Z-20.532 F1390 
N2351 X-166.283 Y40.047 Z-20.311 F1041 
N2352 X-166.299 Y39.889 Z-20.141 F833 
N2353 X-166.313 Y39.754 Z-19.996 F763 
N2354 X-166.491 Y38.054 Z-18.172 F763 
N2355 X-166.510 Y37.877 Z-17.983 F1017 
N2356 X-166.533 Y37.651 Z-17.740 F1272 
N2357 X-166.562 Y37.373 Z-17.443 F1527 
N2358 X-166.577 Y37.239 Z-17.299 F1527 
N2359 X-166.928 Y33.873 Z-13.689 F1527 
N2360 X-167.269 Y30.149 Z-9.696 F1527 
N2361 X-167.585 Y26.110 Z-5.364 F1527 
N2362 X-167.863 Y21.703 Z-0.639 F1527 
N2363 X-168.101 Y16.583 Z4.851 F1527 
N2364 X-168.256 Y10.931 Z10.913 F1527 
N2365 X-168.299 Y5.107 Z17.159 F1527 
N2366 X-168.239 Y-0.025 Z22.662 F1527 
N2367 X-168.220 Y-0.929 Z23.631 F1527 
N2368 X-168.213 Y-1.236 Z23.961 F1908 
N2369 X-168.206 Y-1.611 Z24.363 F2290 
N2370 X-168.198 Y-2.001 Z24.781 F2356 
N2371 X-168.188 Y-2.414 Z25.224 F2555 
N2372 X-168.176 Y-2.871 Z25.714 F2885 
N2373 X-168.157 Y-3.395 Z26.276 F3348 
N2374 X-168.125 Y-4.001 Z26.925 F3811 
N2375 X-168.070 Y-4.673 Z27.646 F4142 
N2376 X-167.972 Y-5.387 Z28.412 F4340 
N2377 X-167.811 Y-6.119 Z29.197 F4406 
N2378 X-167.565 Y-6.850 Z29.981 F4406 
N2379 X-167.186 Y-7.581 Z30.765 F4333 
N2380 X-166.638 Y-7.526 Z30.705 F4115 
N2381 X-166.565 Y-6.831 Z29.960 F3750 
N2382 X-166.551 Y-6.203 Z29.287 F3240 
N2383 X-166.551 Y-5.693 Z28.740 F2585 
N2384 X-166.554 Y-5.300 Z28.318 F1929 
N2385 X-166.558 Y-5.004 Z28.001 F1419 
N2386 X-166.562 Y-4.782 Z27.763 F1054 
N2387 X-166.565 Y-4.610 Z27.579 F836 
N2388 X-166.567 Y-4.464 Z27.422 F763 
N2389 X-166.595 Y-2.759 Z25.594 F763 
N2390 X-166.598 Y-2.582 Z25.404 F1017 
N2391 X-166.602 Y-2.355 Z25.161 F1272 
N2392 X-166.606 Y-2.077 Z24.863 F1527 
N2393 X-166.716 Y4.654 Z17.644 F1527 
N2394 X-166.674 Y10.918 Z10.927 F1527 
N2395 X-166.521 Y16.500 Z4.941 F1527 
N2396 X-166.295 Y21.431 Z-0.347 F1527 
N2397 X-166.007 Y26.023 Z-5.272 F1527 
N2398 X-165.686 Y30.139 Z-9.685 F1527 
N2399 X-165.340 Y33.896 Z-13.714 F1527 
N2400 X-164.965 Y37.465 Z-17.542 F1527 
N2401 X-164.933 Y37.772 Z-17.870 F1908 
N2402 X-164.894 Y38.146 Z-18.271 F2290 
N2403 X-164.855 Y38.518 Z-18.671 F2351 
N2404 X-164.815 Y38.910 Z-19.092 F2533 
N2405 X-164.773 Y39.342 Z-19.554 F2836 
N2406 X-164.729 Y39.832 Z-20.081 F3261 
N2407 X-164.686 Y40.393 Z-20.685 F3686 
N2408 X-164.655 Y41.012 Z-21.354 F3989 
N2409 X-164.656 Y41.668 Z-22.068 F4171 
N2410 X-164.724 Y42.337 Z-22.807 F4232 
N2411 X-164.936 Y43.020 Z-23.582 F4232 
N2412 X-165.555 Y43.212 Z-23.886 F4163 
N2413 X-165.789 Y42.515 Z-23.163 F3955 
N2414 X-165.903 Y41.863 Z-22.471 F3608 
N2415 X-165.982 Y41.279 Z-21.847 F3122 
N2416 X-166.041 Y40.790 Z-21.324 F2498 
N2417 X-166.082 Y40.415 Z-20.922 F1873 
N2418 X-166.113 Y40.137 Z-20.625 F1387 
N2419 X-166.134 Y39.932 Z-20.404 F1041 
N2420 X-166.151 Y39.774 Z-20.235 F832 
N2421 X-166.165 Y39.639 Z-20.091 F763 
N2422 X-166.343 Y37.939 Z-18.267 F763 
N2423 X-166.361 Y37.762 Z-18.078 F1017 
N2424 X-166.385 Y37.536 Z-17.835 F1272 
N2425 X-166.414 Y37.259 Z-17.538 F1527 
N2426 X-166.429 Y37.123 Z-17.392 F1527 
N2427 X-166.780 Y33.757 Z-13.783 F1527 
N2428 X-167.121 Y30.034 Z-9.791 F1527 
N2429 X-167.436 Y25.996 Z-5.460 F1527 
N2430 X-167.715 Y21.590 Z-0.735 F1527 
N2431 X-167.952 Y16.472 Z4.753 F1527 
N2432 X-168.108 Y10.821 Z10.813 F1527 
N2433 X-168.151 Y4.991 Z17.065 F1527 
N2434 X-168.090 Y-0.133 Z22.559 F1527 
N2435 X-168.071 Y-1.046 Z23.539 F1527 
N2436 X-168.065 Y-1.353 Z23.868 F1908 
N2437 X-168.057 Y-1.728 Z24.271 F2290 
N2438 X-168.049 Y-2.117 Z24.688 F2356 
N2439 X-168.040 Y-2.529 Z25.129 F2553 
N2440 X-168.028 Y-2.984 Z25.617 F2882 
N2441 X-168.010 Y-3.506 Z26.177 F3342 
N2442 X-167.980 Y-4.109 Z26.823 F3802 
N2443 X-167.930 Y-4.777 Z27.540 F4131 
N2444 X-167.841 Y-5.488 Z28.303 F4329 
N2445 X-167.695 Y-6.217 Z29.085 F4394 
N2446 X-167.472 Y-6.950 Z29.870 F4394 
N2447 X-167.127 Y-7.686 Z30.659 F4322 
N2448 X-166.624 Y-7.625 Z30.594 F4104 
N2449 X-166.561 Y-6.933 Z29.852 F3741 
N2450 X-166.549 Y-6.308 Z29.181 F3232 
N2451 X-166.550 Y-5.801 Z28.638 F2579 
N2452 X-166.554 Y-5.410 Z28.218 F1925 
N2453 X-166.558 Y-5.114 Z27.901 F1417 
N2454 X-166.562 Y-4.892 Z27.663 F1054 
N2455 X-166.565 Y-4.719 Z27.478 F836 
N2456 X-166.567 Y-4.573 Z27.321 F763 
N2457 X-166.595 Y-2.868 Z25.493 F763 
N2458 X-166.598 Y-2.691 Z25.303 F1017 
N2459 X-166.602 Y-2.464 Z25.059 F1272 
N2460 X-166.606 Y-2.186 Z24.761 F1527 
N2461 X-166.716 Y4.552 Z17.535 F1527 
N2462 X-166.674 Y10.809 Z10.826 F1527 
N2463 X-166.521 Y16.391 Z4.839 F1527 
N2464 X-166.295 Y21.324 Z-0.450 F1527 
N2465 X-166.007 Y25.915 Z-5.373 F1527 
N2466 X-165.686 Y30.030 Z-9.786 F1527 
N2467 X-165.340 Y33.787 Z-13.815 F1527 
N2468 X-164.965 Y37.357 Z-17.643 F1527 
N2469 X-164.933 Y37.663 Z-17.971 F1908 
N2470 X-164.894 Y38.037 Z-18.373 F2290 
N2471 X-164.855 Y38.408 Z-18.771 F2350 
N2472 X-164.814 Y38.799 Z-19.190 F2531 
N2473 X-164.770 Y39.229 Z-19.651 F2833 
N2474 X-164.724 Y39.716 Z-20.175 F3255 
N2475 X-164.678 Y40.275 Z-20.776 F3677 
N2476 X-164.641 Y40.890 Z-21.442 F3979 
N2477 X-164.631 Y41.543 Z-22.152 F4160 
N2478 X-164.680 Y42.208 Z-22.886 F4220 
N2479 X-164.855 Y42.895 Z-23.665 F4220 
N2480 X-165.417 Y43.084 Z-23.968 F4151 
N2481 X-165.629 Y42.387 Z-23.244 F3944 
N2482 X-165.739 Y41.738 Z-22.555 F3598 
N2483 X-165.817 Y41.156 Z-21.933 F3114 
N2484 X-165.876 Y40.668 Z-21.412 F2492 
N2485 X-165.918 Y40.295 Z-21.012 F1869 
N2486 X-165.949 Y40.019 Z-20.716 F1385 
N2487 X-165.971 Y39.815 Z-20.497 F1040 
N2488 X-165.988 Y39.658 Z-20.329 F832 
N2489 X-166.003 Y39.524 Z-20.185 F763 
N2490 X-166.190 Y37.824 Z-18.362 F763 
N2491 X-166.210 Y37.647 Z-18.173 F1017 
N2492 X-166.235 Y37.421 Z-17.930 F1272 
N2493 X-166.265 Y37.144 Z-17.633 F1527 
N2494 X-166.281 Y37.006 Z-17.485 F1527 
N2495 X-166.631 Y33.642 Z-13.877 F1527 
N2496 X-166.973 Y29.920 Z-9.886 F1527 
N2497 X-167.288 Y25.882 Z-5.556 F1527 
N2498 X-167.566 Y21.476 Z-0.831 F1527 
N2499 X-167.804 Y16.360 Z4.655 F1527 
N2500 X-167.959 Y10.711 Z10.713 F1527 
N2501 X-168.002 Y4.874 Z16.972 F1527 
N2502 X-167.974 Y1.641 Z20.439 F1527 
N2503 X-167.941 Y-0.240 Z22.456 F1527 
N2504 X-167.922 Y-1.164 Z23.447 F1527 
N2505 X-167.916 Y-1.471 Z23.776 F1908 
N2506 X-167.908 Y-1.846 Z24.179 F2290 
N2507 X-167.900 Y-2.234 Z24.595 F2355 
N2508 X-167.890 Y-2.644 Z25.034 F2552 
N2509 X-167.877 Y-3.098 Z25.521 F2879 
N2510 X-167.859 Y-3.618 Z26.078 F3337 
N2511 X-167.830 Y-4.218 Z26.722 F3795 
N2512 X-167.781 Y-4.883 Z27.436 F4122 
N2513 X-167.700 Y-5.591 Z28.195 F4318 
N2514 X-167.567 Y-6.317 Z28.974 F4383 
N2515 X-167.364 Y-7.051 Z29.760 F4383 
N2516 X-167.051 Y-7.790 Z30.553 F4311 
N2517 X-166.592 Y-7.726 Z30.484 F4094 
N2518 X-166.540 Y-7.037 Z29.745 F3732 
N2519 X-166.531 Y-6.413 Z29.076 F3225 
N2520 X-166.534 Y-5.910 Z28.537 F2573 
N2521 X-166.539 Y-5.520 Z28.119 F1921 
N2522 X-166.545 Y-5.225 Z27.802 F1415 
N2523 X-166.549 Y-5.002 Z27.563 F1053 
N2524 X-166.553 Y-4.828 Z27.377 F835 
N2525 X-166.556 Y-4.681 Z27.219 F763 
N2526 X-166.592 Y-2.977 Z25.391 F763 
N2527 X-166.595 Y-2.800 Z25.202 F1017 
N2528 X-166.600 Y-2.572 Z24.958 F1272 
N2529 X-166.606 Y-2.295 Z24.660 F1527 
N2530 X-166.690 Y1.650 Z20.430 F1527 
N2531 X-166.716 Y4.452 Z17.425 F1527 
N2532 X-166.674 Y10.700 Z10.725 F1527 
N2533 X-166.521 Y16.283 Z4.738 F1527 
N2534 X-166.295 Y21.216 Z-0.553 F1527 
N2535 X-166.007 Y25.807 Z-5.475 F1527 
N2536 X-165.686 Y29.922 Z-9.888 F1527 
N2537 X-165.340 Y33.678 Z-13.917 F1527 
N2538 X-164.965 Y37.248 Z-17.744 F1527 
N2539 X-164.933 Y37.554 Z-18.073 F1908 
N2540 X-164.894 Y37.928 Z-18.474 F2290 
N2541 X-164.855 Y38.299 Z-18.871 F2350 
N2542 X-164.814 Y38.688 Z-19.289 F2530 
N2543 X-164.770 Y39.116 Z-19.749 F2830 
N2544 X-164.723 Y39.602 Z-20.271 F3250 
N2545 X-164.676 Y40.158 Z-20.869 F3670 
N2546 X-164.635 Y40.771 Z-21.531 F3970 
N2547 X-164.618 Y41.420 Z-22.237 F4150 
N2548 X-164.650 Y42.083 Z-22.969 F4210 
N2549 X-164.794 Y42.771 Z-23.749 F4210 
N2550 X-165.298 Y42.959 Z-24.052 F4141 
N2551 X-165.491 Y42.261 Z-23.328 F3935 
N2552 X-165.594 Y41.616 Z-22.642 F3590 
N2553 X-165.671 Y41.034 Z-22.021 F3107 
N2554 X-165.728 Y40.548 Z-21.500 F2487 
N2555 X-165.770 Y40.176 Z-21.103 F1866 
N2556 X-165.801 Y39.902 Z-20.809 F1384 
N2557 X-165.823 Y39.699 Z-20.591 F1039 
N2558 X-165.840 Y39.543 Z-20.423 F832 
N2559 X-165.855 Y39.409 Z-20.280 F763 
N2560 X-166.042 Y37.709 Z-18.457 F763 
N2561 X-166.061 Y37.533 Z-18.268 F1017 
N2562 X-166.086 Y37.306 Z-18.025 F1272 
N2563 X-166.117 Y37.029 Z-17.728 F1527 
N2564 X-166.132 Y36.890 Z-17.578 F1527 
N2565 X-166.483 Y33.526 Z-13.971 F1527 
N2566 X-166.824 Y29.805 Z-9.980 F1527 
N2567 X-167.139 Y25.768 Z-5.651 F1527 
N2568 X-167.418 Y21.361 Z-0.926 F1527 
N2569 X-167.655 Y16.248 Z4.557 F1527 
N2570 X-167.810 Y10.601 Z10.613 F1527 
N2571 X-167.853 Y4.755 Z16.882 F1527 
N2572 X-167.826 Y1.533 Z20.337 F1527 
N2573 X-167.793 Y-0.347 Z22.353 F1527 
N2574 X-167.773 Y-1.282 Z23.356 F1527 
N2575 X-167.767 Y-1.589 Z23.685 F1908 
N2576 X-167.759 Y-1.964 Z24.087 F2290 
N2577 X-167.751 Y-2.351 Z24.502 F2355 
N2578 X-167.741 Y-2.759 Z24.940 F2550 
N2579 X-167.729 Y-3.212 Z25.425 F2876 
N2580 X-167.712 Y-3.729 Z25.980 F3331 
N2581 X-167.685 Y-4.327 Z26.621 F3787 
N2582 X-167.641 Y-4.989 Z27.331 F4112 
N2583 X-167.568 Y-5.694 Z28.087 F4307 
N2584 X-167.449 Y-6.418 Z28.863 F4372 
