; PROGRAM NAME: A88888820
; ORDER       : A888888
; OPER. NAME  : Spiral Rough Airfoil:109
; OPER. DESCR.: spiral roughing airfoil/platformy i pioro pwk
; OPER. TYPE  : rouAirfoil
; GEO. OPTION : 3
; MACHINE     : HSTM_300_SIM840D_Py
;             : HSTM300/500 - HAMUEL: 5-axis milling machine-SIM840D Traori PP_Script
; CONTROL     : SINUMERIK 840D
; created:   2021-12-10 09:01:42.644217
;-------DODATKOWE DANE-------------------
; PROGRAMISTA : Mariusz Malec
; PARTID      : 137T000339P1001_-
;  ap         : 3.0
;  ae         : 13.0
;  lean_angle : 1.0
;  airf_offset: 0.7
;----------------------------------------
RAPORT("TA888888","Spiral Rough Airfoil:109")
N10 TRAFOOF
N11 D0
N12 G90 G94
N13 G0 G53 D0 Z550
N14 STOPRE
M9 ; chlodziwo wyl
; --- Spiral Rough Airfoil:109 - spiral roughing airfoil/platformy i pioro pwk ---
N16 ;ToolChange : concat=None ,current_tdmid=None, PP.tdmId=940969
N17 TRAFOOF
N18 G0 G53 D0 X-200 Y150 Z550 B0
N19 T="7740969"
RAPORT("TA888888","ToolChangeStart 7740969")
N20 M6
RAPORT("TA888888","ToolChangeEnd")
N21 STOPRE
N22 MSG(" TLID=940969 D=25.0 R=5.0 Ang=0.0 Len=95.0 ")
;---> in saveDoc :0:00:00.094747
;---> in saveDoc :0:00:00.070811
N23 S2546 M03
N24 STOPRE
N25 TOL(0.1,1,1)
N26 G0 G53 A311.9717 B0.0000
N27 TRAORI
N28 G54 D1
N29 D1 
;---> in saveDoc :0:00:00.094747
N30 TRANS  X=R4
;---> in saveDoc :0:00:00.071807
;shiftX 0.0
;pointsCnt 2222
N31 ;SPIRALA WYK BANDAZA
N32 ; DELTA A > 40.1
N33 TRAFOOF
N34 D1
N35 STOPRE
N36 G00 G54 Z291.000
N37 G01 A311.9717 F10000
N38 TRAORI
N39 G54 D1
N40 STOPRE
N41 TRANS  X=R4
N42 G00 X-312.241 Y45.166 Z70.919 A311.9717 
N43 M346 ; chlodziwo mgla
N44 X-312.241 Y7.992 Z37.480 
N45 G01 X-312.241 Y6.065 Z35.016 F1909 
N46 X-312.241 Y4.993 Z32.076 
N47 X-312.241 Y4.883 Z28.950 
N48 X-312.241 Y5.744 Z25.942 
N49 X-312.241 Y7.492 Z23.347 
N50 X-312.240 Y7.536 Z23.300 A311.9703 
N51 X-312.239 Y7.580 Z23.253 A311.9684 
N52 X-312.238 Y7.624 Z23.206 A311.9662 
N53 X-312.238 Y7.669 Z23.159 A311.9634 
N54 X-312.236 Y7.752 Z23.070 A311.9585 
N55 X-312.234 Y7.845 Z22.972 A311.9520 
N56 X-312.232 Y7.979 Z22.830 A311.9421 
N57 X-312.229 Y8.147 Z22.652 A311.9285 
N58 X-312.224 Y8.360 Z22.427 A311.9095 
N59 X-312.219 Y8.631 Z22.140 A311.8833 
N60 X-312.212 Y8.969 Z21.784 A311.8476 
N61 X-312.203 Y9.398 Z21.332 A311.7992 
N62 X-312.193 Y9.906 Z20.795 A311.7417 
N63 X-312.183 Y10.521 Z20.139 A311.7057 
N64 X-312.177 Y11.231 Z19.365 A311.7510 
N65 X-312.171 Y12.052 Z18.469 A311.8262 
N66 X-312.157 Y13.000 Z17.453 A311.8315 
N67 X-312.141 Y14.066 Z16.312 
N68 X-312.123 Y15.244 Z15.052 A311.8289 
N69 X-312.104 Y16.519 Z13.688 A311.8221 
N70 X-312.083 Y17.878 Z12.232 A311.8190 
N71 X-312.062 Y19.304 Z10.707 A311.8162 
N72 X-312.040 Y20.773 Z9.134 A311.8126 
N73 X-312.017 Y22.262 Z7.541 A311.8063 
N74 X-311.995 Y23.746 Z5.953 A311.7964 
N75 X-311.972 Y25.201 Z4.397 A311.7823 
N76 X-311.950 Y26.605 Z2.896 A311.7662 
N77 X-311.930 Y27.935 Z1.474 A311.7529 
N78 X-311.912 Y29.175 Z0.145 A311.7530 
N79 X-311.896 Y30.312 Z-1.076 A311.7713 
N80 X-311.882 Y31.338 Z-2.180 A311.8119 
N81 X-311.869 Y32.252 Z-3.158 A311.8315 
N82 X-311.855 Y33.060 Z-4.019 
N83 X-311.839 Y33.766 Z-4.759 A311.7672 
N84 X-311.811 Y34.389 Z-5.372 A311.4730 
N85 X-311.769 Y34.934 Z-5.862 A310.9343 
N86 X-311.711 Y35.429 Z-6.249 A310.0912 
N87 X-311.640 Y35.865 Z-6.533 A308.9994 
N88 X-311.555 Y36.261 Z-6.737 A307.6677 
N89 X-311.460 Y36.625 Z-6.875 A306.1451 
N90 X-311.357 Y36.965 Z-6.962 A304.4702 
N91 X-311.247 Y37.285 Z-7.010 A302.6885 
N92 X-311.132 Y37.595 Z-7.031 A300.8074 
N93 X-311.031 Y37.852 Z-7.034 A299.1546 
N94 X-310.921 Y38.124 Z-7.026 A297.3301 
N95 X-310.826 Y38.353 Z-7.014 A295.7575 
N96 X-310.740 Y38.559 Z-7.000 A294.3121 
N97 X-310.645 Y38.784 Z-6.984 A292.7200 
N98 X-310.546 Y39.018 Z-6.967 A291.0388 
N99 X-310.482 Y39.173 Z-6.956 A289.9237 
N100 X-310.413 Y39.336 Z-6.946 A288.7377 
N101 X-310.341 Y39.510 Z-6.935 A287.4736 
N102 X-310.264 Y39.694 Z-6.925 A286.1230 
N103 X-310.183 Y39.891 Z-6.915 A284.6758 
N104 X-310.098 Y40.098 Z-6.908 A283.1511 
N105 X-310.039 Y40.244 Z-6.904 A282.0726 
N106 X-309.978 Y40.397 Z-6.902 A280.9416 
N107 X-309.915 Y40.557 Z-6.901 A279.7584 
N108 X-309.849 Y40.723 Z-6.903 A278.5242 
N109 X-309.783 Y40.896 Z-6.907 A277.2396 
N110 X-309.714 Y41.075 Z-6.915 A275.9048 
N111 X-309.645 Y41.261 Z-6.926 A274.5180 
N112 X-309.574 Y41.454 Z-6.941 A273.0763 
N113 X-309.501 Y41.654 Z-6.960 A271.5763 
N114 X-309.443 Y41.820 Z-6.980 A270.3278 
N115 X-309.387 Y41.980 Z-7.001 A269.1191 
N116 X-309.331 Y42.144 Z-7.026 A267.8798 
N117 X-309.275 Y42.311 Z-7.055 A266.6115 
N118 X-309.219 Y42.481 Z-7.088 A265.3147 
N119 X-309.164 Y42.655 Z-7.125 A263.9894 
N120 X-309.109 Y42.831 Z-7.166 A262.6356 
N121 X-309.055 Y43.009 Z-7.212 A261.2532 
N122 X-309.001 Y43.190 Z-7.263 A259.8438 
N123 X-308.949 Y43.373 Z-7.319 A258.4101 
N124 X-308.897 Y43.558 Z-7.380 A256.9552 
N125 X-308.848 Y43.743 Z-7.446 A255.4814 
N126 X-308.801 Y43.922 Z-7.515 A254.0388 
N127 X-308.758 Y44.097 Z-7.587 A252.6176 
N128 X-308.716 Y44.272 Z-7.664 A251.1853 
N129 X-308.676 Y44.446 Z-7.746 A249.7443 
N130 X-308.639 Y44.618 Z-7.832 A248.2977 
N131 X-308.604 Y44.789 Z-7.923 A246.8485 
N132 X-308.571 Y44.957 Z-8.018 A245.3993 
N133 X-308.541 Y45.123 Z-8.117 A243.9526 
N134 X-308.513 Y45.285 Z-8.220 A242.5111 
N135 X-308.488 Y45.444 Z-8.326 A241.0777 
N136 X-308.466 Y45.598 Z-8.435 A239.6556 
N137 X-308.446 Y45.749 Z-8.548 A238.2483 
N138 X-308.429 Y45.894 Z-8.662 A236.8580 
N139 X-308.413 Y46.054 Z-8.795 A235.3046 
N140 X-308.400 Y46.217 Z-8.939 A233.6702 
N141 X-308.390 Y46.374 Z-9.085 A232.0619 
N142 X-308.384 Y46.523 Z-9.234 A230.4809 
N143 X-308.380 Y46.666 Z-9.384 A228.9304 
N144 X-308.381 Y46.801 Z-9.535 A227.4155 
N145 X-308.384 Y46.928 Z-9.685 A225.9402 
N146 X-308.390 Y47.047 Z-9.835 A224.5056 
N147 X-308.399 Y47.159 Z-9.984 A223.1111 
N148 X-308.410 Y47.264 Z-10.132 A221.7557 
N149 X-308.423 Y47.362 Z-10.278 A220.4392 
N150 X-308.445 Y47.490 Z-10.481 A218.6493 
N151 X-308.471 Y47.606 Z-10.684 A216.9066 
N152 X-308.500 Y47.709 Z-10.880 A215.2519 
N153 X-308.531 Y47.801 Z-11.069 A213.6871 
N154 X-308.564 Y47.880 Z-11.252 A212.2090 
N155 X-308.599 Y47.950 Z-11.427 A210.8116 
N156 X-308.635 Y48.010 Z-11.595 A209.4884 
N157 X-308.683 Y48.078 Z-11.805 A207.8549 
N158 X-308.744 Y48.144 Z-12.051 A205.9803 
N159 X-308.806 Y48.194 Z-12.282 A204.2476 
N160 X-308.869 Y48.231 Z-12.499 A202.6417 
N161 X-308.931 Y48.256 Z-12.702 A201.1503 
N162 X-309.032 Y48.277 Z-13.010 A198.9257 
N163 X-309.135 Y48.275 Z-13.296 A196.8858 
N164 X-309.245 Y48.251 Z-13.579 A194.8960 
N165 X-309.387 Y48.190 Z-13.910 A192.5891 
N166 X-309.539 Y48.090 Z-14.229 A190.4045 
N167 X-309.709 Y47.941 Z-14.540 A188.2925 
N168 X-309.903 Y47.724 Z-14.845 A186.2460 
N169 X-310.120 Y47.429 Z-15.125 A184.3851 
N170 X-310.348 Y47.062 Z-15.360 A182.8428 
N171 X-310.607 Y46.587 Z-15.558 A181.5471 
N172 X-310.897 Y45.990 Z-15.710 A180.5566 
N173 X-311.215 Y45.278 Z-15.813 A179.9007 
N174 X-311.575 Y44.422 Z-15.873 A179.5248 
N175 X-311.985 Y43.413 Z-15.903 A179.3651 
N176 X-312.456 Y42.233 Z-15.915 A179.3432 
N177 X-312.992 Y40.884 Z-15.921 A179.3804 
N178 X-313.602 Y39.349 Z-15.930 A179.4225 
N179 X-314.285 Y37.635 Z-15.945 A179.4402 
N180 X-315.040 Y35.745 Z-15.966 
N181 X-315.858 Y33.697 Z-15.988 
N182 X-316.734 Y31.506 Z-16.014 A179.4312 
N183 X-317.656 Y29.200 Z-16.040 A179.4194 
N184 X-318.612 Y26.807 Z-16.068 A179.4048 
N185 X-319.589 Y24.362 Z-16.097 A179.3855 
N186 X-320.574 Y21.900 Z-16.126 A179.3607 
N187 X-321.550 Y19.457 Z-16.154 A179.3345 
N188 X-322.505 Y17.068 Z-16.181 A179.3156 
N189 X-323.424 Y14.765 Z-16.205 A179.3187 
N190 X-324.297 Y12.576 Z-16.225 A179.3493 
N191 X-325.115 Y10.523 Z-16.244 A179.4054 
N192 X-325.874 Y8.624 Z-16.266 A179.4402 
N193 X-326.571 Y6.887 Z-16.292 
N194 X-327.205 Y5.308 Z-16.319 A179.4047 
N195 X-327.779 Y3.902 Z-16.369 A179.1322 
N196 X-328.299 Y2.652 Z-16.441 A178.6217 
N197 X-328.770 Y1.547 Z-16.537 A177.8149 
N198 X-329.193 Y0.585 Z-16.656 A176.7227 
N199 X-329.580 Y-0.265 Z-16.798 A175.3396 
N200 X-329.929 Y-1.007 Z-16.955 A173.7333 
N201 X-330.247 Y-1.660 Z-17.121 A171.9662 
N202 X-330.536 Y-2.243 Z-17.288 A170.1144 
N203 X-330.801 Y-2.767 Z-17.448 A168.2499 
N204 X-331.043 Y-3.246 Z-17.597 A166.4196 
N205 X-331.258 Y-3.672 Z-17.727 A164.7193 
N206 X-331.458 Y-4.073 Z-17.844 A163.0806 
N207 X-331.642 Y-4.448 Z-17.944 A161.5417 
N208 X-331.811 Y-4.798 Z-18.029 A160.1044 
N209 X-331.970 Y-5.135 Z-18.103 A158.7295 
N210 X-332.122 Y-5.462 Z-18.166 A157.4035 
N211 X-332.268 Y-5.784 Z-18.219 A156.1116 
N212 X-332.410 Y-6.103 Z-18.263 A154.8398 
N213 X-332.550 Y-6.424 Z-18.300 A153.5748 
N214 X-332.689 Y-6.750 Z-18.328 A152.3035 
N215 X-332.828 Y-7.084 Z-18.347 A151.0134 
N216 X-332.969 Y-7.431 Z-18.357 A149.6921 
N217 X-333.112 Y-7.795 Z-18.356 A148.3293 
N218 X-333.262 Y-8.186 Z-18.341 A146.8855 
N219 X-333.417 Y-8.608 Z-18.308 A145.3601 
N220 X-333.576 Y-9.059 Z-18.253 A143.7790 
N221 X-333.743 Y-9.562 Z-18.163 A142.0934 
N222 X-333.911 Y-10.109 Z-18.027 A140.3693 
N223 X-334.076 Y-10.701 Z-17.831 A138.6649 
N224 X-334.233 Y-11.349 Z-17.553 A137.0250 
N225 X-334.372 Y-12.038 Z-17.179 A135.5727 
N226 X-334.490 Y-12.778 Z-16.686 A134.3586 
N227 X-334.581 Y-13.560 Z-16.073 A133.4404 
N228 X-334.649 Y-14.403 Z-15.326 A132.7979 
N229 X-334.696 Y-15.305 Z-14.455 A132.4006 
N230 X-334.729 Y-16.282 Z-13.461 A132.1837 
N231 X-334.753 Y-17.337 Z-12.355 A132.0884 
N232 X-334.773 Y-18.472 Z-11.148 A132.0671 
N233 X-334.792 Y-19.683 Z-9.853 A132.0840 
N234 X-334.812 Y-20.959 Z-8.489 A132.1111 
N235 X-334.833 Y-22.286 Z-7.072 A132.1337 
N236 X-334.857 Y-23.648 Z-5.625 A132.1365 
N237 X-334.882 Y-25.023 Z-4.165 
N238 X-334.908 Y-26.389 Z-2.717 A132.1293 
N239 X-334.933 Y-27.723 Z-1.302 A132.1179 
N240 X-334.957 Y-29.006 Z0.058 A132.1098 
N241 X-334.979 Y-30.219 Z1.345 A132.1090 
N242 X-334.999 Y-31.350 Z2.546 A132.1159 
N243 X-335.017 Y-32.386 Z3.649 A132.1337 
N244 X-335.035 Y-33.323 Z4.641 A132.1365 
N245 X-335.051 Y-34.160 Z5.528 
N246 X-335.068 Y-34.897 Z6.301 A132.0872 
N247 X-335.093 Y-35.552 Z6.957 A131.8746 
N248 X-335.130 Y-36.132 Z7.499 A131.4408 
N249 X-335.182 Y-36.644 Z7.924 A130.7362 
N250 X-335.250 Y-37.112 Z8.252 A129.7222 
N251 X-335.334 Y-37.543 Z8.496 A128.4197 
N252 X-335.428 Y-37.931 Z8.664 A126.9330 
N253 X-335.530 Y-38.293 Z8.779 A125.2788 
N254 X-335.634 Y-38.621 Z8.851 A123.5774 
N255 X-335.739 Y-38.926 Z8.895 A121.8495 
N256 X-335.849 Y-39.225 Z8.918 A120.0273 
N257 X-335.940 Y-39.460 Z8.925 A118.5187 
N258 X-336.041 Y-39.716 Z8.923 A116.8195 
N259 X-336.130 Y-39.933 Z8.916 A115.3354 
N260 X-336.211 Y-40.130 Z8.907 A113.9589 
N261 X-336.301 Y-40.346 Z8.894 A112.4320 
N262 X-336.399 Y-40.581 Z8.880 A110.7561 
N263 X-336.463 Y-40.734 Z8.870 A109.6482 
N264 X-336.531 Y-40.897 Z8.860 A108.4671 
N265 X-336.603 Y-41.070 Z8.851 A107.2071 
N266 X-336.679 Y-41.254 Z8.842 A105.8612 
N267 X-336.759 Y-41.450 Z8.834 A104.4212 
N268 X-336.844 Y-41.659 Z8.828 A102.8826 
N269 X-336.903 Y-41.805 Z8.825 A101.8107 
N270 X-336.963 Y-41.957 Z8.824 A100.6862 
N271 X-337.026 Y-42.116 Z8.824 A99.5073 
N272 X-337.091 Y-42.282 Z8.827 A98.2746 
N273 X-337.157 Y-42.455 Z8.832 A96.9897 
N274 X-337.225 Y-42.634 Z8.840 A95.6534 
N275 X-337.295 Y-42.820 Z8.852 A94.2650 
N276 X-337.365 Y-43.013 Z8.868 A92.8218 
N277 X-337.437 Y-43.213 Z8.889 A91.3195 
N278 X-337.495 Y-43.378 Z8.909 A90.0830 
N279 X-337.550 Y-43.537 Z8.931 A88.8836 
N280 X-337.606 Y-43.700 Z8.956 A87.6497 
N281 X-337.661 Y-43.867 Z8.985 A86.3828 
N282 X-337.717 Y-44.037 Z9.019 A85.0841 
N283 X-337.772 Y-44.211 Z9.056 A83.7547 
N284 X-337.827 Y-44.387 Z9.098 A82.3954 
N285 X-337.881 Y-44.567 Z9.145 A81.0071 
N286 X-337.935 Y-44.748 Z9.196 A79.5912 
N287 X-337.988 Y-44.932 Z9.253 A78.1500 
N288 X-338.039 Y-45.117 Z9.315 A76.6864 
N289 X-338.089 Y-45.303 Z9.382 A75.2027 
N290 X-338.135 Y-45.484 Z9.452 A73.7503 
N291 X-338.178 Y-45.658 Z9.525 A72.3370 
N292 X-338.219 Y-45.831 Z9.602 A70.9113 
N293 X-338.259 Y-46.004 Z9.684 A69.4753 
N294 X-338.296 Y-46.176 Z9.770 A68.0316 
N295 X-338.331 Y-46.346 Z9.861 A66.5834 
N296 X-338.363 Y-46.514 Z9.957 A65.1334 
N297 X-338.393 Y-46.680 Z10.056 A63.6840 
N298 X-338.421 Y-46.842 Z10.160 A62.2376 
N299 X-338.446 Y-47.002 Z10.267 A60.7969 
N300 X-338.468 Y-47.157 Z10.377 A59.3645 
N301 X-338.488 Y-47.309 Z10.491 A57.9438 
N302 X-338.504 Y-47.456 Z10.607 A56.5380 
N303 X-338.519 Y-47.605 Z10.731 A55.0820 
N304 X-338.533 Y-47.769 Z10.876 A53.4369 
N305 X-338.543 Y-47.927 Z11.024 A51.8172 
N306 X-338.549 Y-48.077 Z11.174 A50.2240 
N307 X-338.552 Y-48.221 Z11.325 A48.6598 
N308 X-338.552 Y-48.357 Z11.477 A47.1288 
N309 X-338.548 Y-48.486 Z11.630 A45.6362 
N310 X-338.542 Y-48.606 Z11.781 A44.1841 
N311 X-338.533 Y-48.720 Z11.932 A42.7714 
N312 X-338.522 Y-48.826 Z12.082 A41.3960 
N313 X-338.509 Y-48.926 Z12.231 A40.0564 
N314 X-338.491 Y-49.028 Z12.393 A38.6254 
N315 X-338.465 Y-49.150 Z12.602 A36.8136 
N316 X-338.436 Y-49.260 Z12.806 A35.0821 
N317 X-338.404 Y-49.357 Z13.004 A33.4370 
N318 X-338.370 Y-49.442 Z13.195 A31.8811 
N319 X-338.334 Y-49.516 Z13.378 A30.4115 
N320 X-338.297 Y-49.581 Z13.554 A29.0223 
N321 X-338.259 Y-49.636 Z13.723 A27.7071 
N322 X-338.205 Y-49.701 Z13.948 A25.9772 
N323 X-338.138 Y-49.761 Z14.202 A24.0479 
N324 X-338.071 Y-49.805 Z14.441 A22.2677 
N325 X-338.004 Y-49.836 Z14.664 A20.6190 
N326 X-337.934 Y-49.855 Z14.883 A19.0244 
N327 X-337.817 Y-49.865 Z15.221 A16.5853 
N328 X-337.705 Y-49.850 Z15.521 A14.4433 
N329 X-337.571 Y-49.805 Z15.848 A12.1345 
N330 X-337.420 Y-49.721 Z16.178 A9.8248 
N331 X-337.241 Y-49.578 Z16.523 A7.4351 
N332 X-337.049 Y-49.375 Z16.838 A5.2714 
N333 X-336.844 Y-49.103 Z17.111 A3.4096 
N334 X-336.617 Y-48.736 Z17.342 A1.8345 
N335 X-336.374 Y-48.280 Z17.518 A0.6459 
N336 X-336.101 Y-47.705 Z17.644 A359.7815 
N337 X-335.797 Y-47.009 Z17.724 A359.2222 
N338 X-335.449 Y-46.167 Z17.768 A358.9048 
N339 X-335.048 Y-45.167 Z17.784 A358.7670 
N340 X-334.582 Y-43.989 Z17.783 A358.7437 
N341 X-334.048 Y-42.631 Z17.776 A358.7741 
N342 X-333.435 Y-41.075 Z17.768 A358.8117 
N343 X-332.743 Y-39.322 Z17.765 A358.8301 
N344 X-331.974 Y-37.378 Z17.765 
N345 X-331.132 Y-35.250 Z17.765 
N346 X-330.226 Y-32.960 Z17.765 A358.8292 
N347 X-329.265 Y-30.531 Z17.765 A358.8248 
N348 X-328.261 Y-27.992 Z17.765 A358.8229 
N349 X-327.227 Y-25.379 Z17.765 A358.8222 
N350 X-326.180 Y-22.731 Z17.764 A358.8222 
N351 X-325.134 Y-20.087 Z17.763 A358.8218 
N352 X-324.106 Y-17.487 Z17.763 A358.8205 
N353 X-323.111 Y-14.970 Z17.763 A358.8178 
N354 X-322.161 Y-12.568 Z17.763 A358.8132 
N355 X-321.268 Y-10.312 Z17.763 A358.8060 
N356 X-320.442 Y-8.224 Z17.764 A358.7948 
N357 X-319.688 Y-6.319 Z17.765 A358.7792 
N358 X-319.011 Y-4.610 Z17.767 A358.7597 
N359 X-318.411 Y-3.094 Z17.768 A358.7499 
N360 X-317.887 Y-1.767 Z17.766 A358.7581 
N361 X-317.439 Y-0.628 Z17.759 A358.8220 
N362 X-317.055 Y0.342 Z17.759 A358.8301 
N363 X-316.729 Y1.164 Z17.762 A358.8232 
N364 X-316.433 Y1.855 Z17.826 A358.3271 
N365 X-316.155 Y2.425 Z17.972 A357.1490 
N366 X-315.878 Y2.913 Z18.210 A355.1896 
N367 X-315.609 Y3.333 Z18.500 A352.7434 
N368 X-315.350 Y3.709 Z18.808 A350.0695 
N369 X-315.120 Y4.036 Z19.092 A347.5303 
N370 X-314.919 Y4.321 Z19.341 A345.2261 
N371 X-314.742 Y4.574 Z19.558 A343.1518 
N372 X-314.577 Y4.813 Z19.756 A341.2018 
N373 X-314.430 Y5.030 Z19.928 A339.4432 
N374 X-314.292 Y5.237 Z20.085 A337.7883 
N375 X-314.163 Y5.435 Z20.228 A336.2278 
N376 X-314.036 Y5.634 Z20.364 A334.6871 
N377 X-313.912 Y5.832 Z20.492 A333.1789 
N378 X-313.786 Y6.040 Z20.616 A331.6360 
N379 X-313.653 Y6.263 Z20.740 A330.0156 
N380 X-313.515 Y6.504 Z20.861 A328.3220 
N381 X-313.366 Y6.773 Z20.981 A326.4853 
N382 X-313.201 Y7.084 Z21.099 A324.4402 
N383 X-313.025 Y7.434 Z21.204 A322.2548 
N384 X-312.839 Y7.833 Z21.285 A319.9191 
N385 X-312.649 Y8.281 Z21.319 A317.5370 
N386 X-312.479 Y8.750 Z21.276 A315.3808 
N387 X-312.337 Y9.252 Z21.117 A313.5790 
N388 X-312.246 Y9.746 Z20.824 A312.4308 
N389 X-312.200 Y10.250 Z20.394 A311.8788 
N390 X-312.182 Y10.798 Z19.832 A311.7288 
N391 X-312.177 Y11.428 Z19.147 A311.7588 
N392 X-312.171 Y12.152 Z18.358 A311.8162 
N393 X-312.160 Y12.984 Z17.463 A311.8307 
N394 X-312.146 Y13.931 Z16.448 
N395 X-312.131 Y14.982 Z15.322 
N396 X-312.113 Y16.133 Z14.089 A311.8228 
N397 X-312.095 Y17.371 Z12.763 A311.8187 
N398 X-312.076 Y18.684 Z11.356 A311.8154 
N399 X-312.056 Y20.051 Z9.890 A311.8131 
N400 X-312.036 Y21.453 Z8.388 A311.8114 
N401 X-312.016 Y22.868 Z6.871 A311.8113 
N402 X-311.995 Y24.270 Z5.367 A311.8148 
N403 X-311.976 Y25.640 Z3.898 A311.8214 
N404 X-311.957 Y26.955 Z2.488 A311.8307 
N405 X-311.939 Y28.198 Z1.156 
N406 X-311.921 Y29.355 Z-0.082 
N407 X-311.906 Y30.415 Z-1.219 A311.8303 
N408 X-311.888 Y31.376 Z-2.238 A311.7723 
N409 X-311.869 Y32.231 Z-3.136 A311.6481 
N410 X-311.846 Y32.991 Z-3.916 A311.4197 
N411 X-311.817 Y33.664 Z-4.583 A311.0517 
N412 X-311.779 Y34.252 Z-5.132 A310.5133 
N413 X-311.733 Y34.764 Z-5.570 A309.7882 
N414 X-311.674 Y35.224 Z-5.918 A308.8442 
N415 X-311.604 Y35.639 Z-6.182 A307.6806 
N416 X-311.522 Y36.015 Z-6.371 A306.3254 
N417 X-311.429 Y36.369 Z-6.501 A304.7711 
N418 X-311.330 Y36.692 Z-6.583 A303.1213 
N419 X-311.227 Y36.994 Z-6.629 A301.4075 
N420 X-311.117 Y37.294 Z-6.653 A299.5706 
N421 X-311.019 Y37.548 Z-6.661 A297.9362 
N422 X-310.909 Y37.825 Z-6.660 A296.0821 
N423 X-310.827 Y38.028 Z-6.655 A294.6953 
N424 X-310.738 Y38.247 Z-6.648 A293.1697 
N425 X-310.640 Y38.486 Z-6.639 A291.4912 
N426 X-310.569 Y38.660 Z-6.632 A290.2489 
N427 X-310.500 Y38.829 Z-6.626 A289.0406 
N428 X-310.427 Y39.008 Z-6.620 A287.7501 
N429 X-310.350 Y39.198 Z-6.614 A286.3684 
N430 X-310.267 Y39.402 Z-6.610 A284.8846 
N431 X-310.199 Y39.574 Z-6.607 A283.6261 
N432 X-310.138 Y39.727 Z-6.606 A282.5013 
N433 X-310.074 Y39.888 Z-6.607 A281.3179 
N434 X-310.008 Y40.057 Z-6.609 A280.0752 
N435 X-309.940 Y40.233 Z-6.614 A278.7740 
N436 X-309.870 Y40.416 Z-6.621 A277.4150 
N437 X-309.799 Y40.607 Z-6.632 A275.9978 
N438 X-309.726 Y40.806 Z-6.647 A274.5205 
N439 X-309.667 Y40.967 Z-6.662 A273.3180 
N440 X-309.611 Y41.125 Z-6.679 A272.1301 
N441 X-309.553 Y41.289 Z-6.700 A270.9039 
N442 X-309.495 Y41.457 Z-6.723 A269.6403 
N443 X-309.437 Y41.629 Z-6.751 A268.3416 
N444 X-309.379 Y41.804 Z-6.783 A267.0098 
N445 X-309.321 Y41.983 Z-6.819 A265.6457 
N446 X-309.263 Y42.166 Z-6.859 A264.2494 
N447 X-309.206 Y42.351 Z-6.904 A262.8208 
N448 X-309.149 Y42.540 Z-6.955 A261.3599 
N449 X-309.097 Y42.720 Z-7.008 A259.9576 
N450 X-309.048 Y42.891 Z-7.061 A258.6204 
N451 X-309.001 Y43.062 Z-7.120 A257.2640 
N452 X-308.955 Y43.234 Z-7.182 A255.8905 
N453 X-308.911 Y43.407 Z-7.250 A254.5017 
N454 X-308.868 Y43.580 Z-7.322 A253.0997 
N455 X-308.827 Y43.752 Z-7.398 A251.6865 
N456 X-308.788 Y43.924 Z-7.480 A250.2646 
N457 X-308.751 Y44.094 Z-7.565 A248.8371 
N458 X-308.717 Y44.263 Z-7.655 A247.4070 
N459 X-308.684 Y44.429 Z-7.749 A245.9766 
N460 X-308.655 Y44.592 Z-7.847 A244.5479 
N461 X-308.625 Y44.764 Z-7.956 A243.0259 
N462 X-308.599 Y44.935 Z-8.072 A241.4800 
N463 X-308.575 Y45.101 Z-8.191 A239.9446 
N464 X-308.555 Y45.263 Z-8.313 A238.4238 
N465 X-308.537 Y45.420 Z-8.439 A236.9210 
N466 X-308.523 Y45.571 Z-8.567 A235.4384 
N467 X-308.512 Y45.716 Z-8.697 A233.9775 
N468 X-308.504 Y45.856 Z-8.829 A232.5400 
N469 X-308.498 Y45.989 Z-8.962 A231.1277 
N470 X-308.495 Y46.117 Z-9.096 A229.7428 
N471 X-308.495 Y46.238 Z-9.231 A228.3881 
N472 X-308.499 Y46.386 Z-9.405 A226.6821 
N473 X-308.506 Y46.524 Z-9.578 A225.0270 
N474 X-308.517 Y46.651 Z-9.750 A223.4271 
N475 X-308.531 Y46.769 Z-9.921 A221.8793 
N476 X-308.547 Y46.878 Z-10.090 A220.3820 
N477 X-308.567 Y46.979 Z-10.256 A218.9348 
N478 X-308.588 Y47.071 Z-10.419 A217.5390 
N479 X-308.612 Y47.155 Z-10.579 A216.1964 
N480 X-308.646 Y47.253 Z-10.783 A214.5165 
N481 X-308.685 Y47.347 Z-10.999 A212.7751 
N482 X-308.727 Y47.426 Z-11.205 A211.1433 
N483 X-308.770 Y47.493 Z-11.401 A209.6125 
N484 X-308.815 Y47.549 Z-11.589 A208.1743 
N485 X-308.861 Y47.595 Z-11.768 A206.8207 
N486 X-308.933 Y47.649 Z-12.032 A204.8560 
N487 X-309.006 Y47.687 Z-12.279 A203.0450 
N488 X-309.079 Y47.709 Z-12.509 A201.3829 
N489 X-309.164 Y47.719 Z-12.761 A199.5814 
N490 X-309.273 Y47.710 Z-13.056 A197.5043 
N491 X-309.378 Y47.681 Z-13.318 A195.6859 
N492 X-309.522 Y47.611 Z-13.646 A193.4351 
N493 X-309.672 Y47.505 Z-13.951 A191.3835 
N494 X-309.839 Y47.351 Z-14.249 A189.4061 
N495 X-310.029 Y47.132 Z-14.541 A187.4983 
N496 X-310.241 Y46.839 Z-14.811 A185.7660 
N497 X-310.468 Y46.476 Z-15.045 A184.3005 
N498 X-310.725 Y46.011 Z-15.251 A183.0316 
N499 X-311.017 Y45.430 Z-15.426 A181.9787 
N500 X-311.340 Y44.738 Z-15.565 A181.1623 
N501 X-311.709 Y43.904 Z-15.675 A180.5314 
N502 X-312.126 Y42.925 Z-15.758 A180.0693 
N503 X-312.596 Y41.791 Z-15.818 A179.7462 
N504 X-313.129 Y40.481 Z-15.861 A179.5344 
N505 X-313.724 Y39.003 Z-15.889 A179.4119 
N506 X-314.384 Y37.352 Z-15.908 A179.3535 
N507 X-315.107 Y35.535 Z-15.921 A179.3357 
N508 X-315.891 Y33.565 Z-15.933 A179.3363 
N509 X-316.728 Y31.458 Z-15.945 A179.3389 
N510 X-317.611 Y29.240 Z-15.959 A179.3356 
N511 X-318.527 Y26.937 Z-15.974 A179.3243 
N512 X-319.464 Y24.582 Z-15.990 A179.3075 
N513 X-320.409 Y22.208 Z-16.006 A179.2895 
N514 X-321.348 Y19.848 Z-16.020 A179.2745 
N515 X-322.267 Y17.536 Z-16.033 A179.2695 
N516 X-323.154 Y15.303 Z-16.044 A179.2771 
N517 X-323.999 Y13.175 Z-16.053 A179.3014 
N518 X-324.795 Y11.175 Z-16.066 A179.3026 
N519 X-325.536 Y9.313 Z-16.079 A179.2910 
N520 X-326.220 Y7.607 Z-16.106 A179.1526 
N521 X-326.849 Y6.055 Z-16.148 A178.8425 
N522 X-327.424 Y4.657 Z-16.210 A178.3028 
N523 X-327.948 Y3.407 Z-16.293 A177.5084 
N524 X-328.422 Y2.300 Z-16.393 A176.4644 
N525 X-328.853 Y1.314 Z-16.509 A175.1858 
N526 X-329.244 Y0.438 Z-16.635 A173.7131 
N527 X-329.598 Y-0.339 Z-16.767 A172.1007 
N528 X-329.921 Y-1.035 Z-16.900 A170.4016 
N529 X-330.213 Y-1.659 Z-17.028 A168.6778 
N530 X-330.480 Y-2.227 Z-17.146 A166.9698 
N531 X-330.723 Y-2.745 Z-17.252 A165.3168 
N532 X-330.946 Y-3.226 Z-17.346 A163.7224 
N533 X-331.151 Y-3.672 Z-17.426 A162.2133 
N534 X-331.342 Y-4.095 Z-17.493 A160.7689 
N535 X-331.521 Y-4.497 Z-17.548 A159.3922 
N536 X-331.691 Y-4.888 Z-17.593 A158.0550 
N537 X-331.853 Y-5.267 Z-17.627 A156.7591 
N538 X-332.010 Y-5.643 Z-17.651 A155.4856 
N539 X-332.164 Y-6.017 Z-17.667 A154.2233 
N540 X-332.315 Y-6.393 Z-17.672 A152.9668 
N541 X-332.465 Y-6.778 Z-17.667 A151.6977 
N542 X-332.615 Y-7.172 Z-17.651 A150.4120 
N543 X-332.765 Y-7.577 Z-17.621 A149.1102 
N544 X-332.919 Y-8.009 Z-17.576 A147.7490 
N545 X-333.074 Y-8.457 Z-17.512 A146.3639 
N546 X-333.235 Y-8.944 Z-17.423 A144.9021 
N547 X-333.398 Y-9.464 Z-17.303 A143.4039 
N548 X-333.562 Y-10.023 Z-17.142 A141.8771 
N549 X-333.725 Y-10.625 Z-16.930 A140.3522 
N550 X-333.883 Y-11.276 Z-16.651 A138.8543 
N551 X-334.032 Y-11.972 Z-16.295 A137.4511 
N552 X-334.168 Y-12.721 Z-15.844 A136.1722 
N553 X-334.286 Y-13.515 Z-15.294 A135.0727 
N554 X-334.387 Y-14.363 Z-14.632 A134.1632 
N555 X-334.468 Y-15.264 Z-13.858 A133.4582 
N556 X-334.531 Y-16.218 Z-12.973 A132.9561 
N557 X-334.578 Y-17.231 Z-11.979 A132.6374 
N558 X-334.613 Y-18.297 Z-10.891 A132.4726 
N559 X-334.640 Y-19.420 Z-9.719 A132.4197 
N560 X-334.665 Y-20.595 Z-8.480 A132.4307 
N561 X-334.689 Y-21.811 Z-7.196 A132.4620 
N562 X-334.716 Y-23.057 Z-5.885 A132.4879 
N563 X-334.745 Y-24.316 Z-4.565 A132.4989 
N564 X-334.775 Y-25.569 Z-3.255 A132.5009 
N565 X-334.805 Y-26.797 Z-1.973 A132.5042 
N566 X-334.834 Y-27.981 Z-0.736 A132.5171 
N567 X-334.863 Y-29.109 Z0.437 
N568 X-334.890 Y-30.168 Z1.537 
N569 X-334.916 Y-31.150 Z2.558 
N570 X-334.946 Y-32.053 Z3.478 A132.4010 
N571 X-334.982 Y-32.878 Z4.296 A132.1389 
N572 X-335.023 Y-33.623 Z5.007 A131.7098 
N573 X-335.071 Y-34.291 Z5.616 A131.1126 
N574 X-335.124 Y-34.889 Z6.132 A130.3490 
N575 X-335.182 Y-35.414 Z6.554 A129.4457 
N576 X-335.246 Y-35.888 Z6.900 A128.3910 
N577 X-335.316 Y-36.312 Z7.176 A127.2044 
N578 X-335.392 Y-36.697 Z7.392 A125.8979 
N579 X-335.473 Y-37.051 Z7.558 A124.4823 
N580 X-335.556 Y-37.369 Z7.679 A123.0307 
N581 X-335.641 Y-37.664 Z7.767 A121.5403 
N582 X-335.723 Y-37.928 Z7.829 A120.0896 
N583 X-335.809 Y-38.185 Z7.874 A118.5860 
N584 X-335.894 Y-38.426 Z7.904 A117.1009 
N585 X-335.978 Y-38.657 Z7.925 A115.6208 
N586 X-336.057 Y-38.870 Z7.938 A114.2194 
N587 X-336.146 Y-39.102 Z7.948 A112.6536 
N588 X-336.218 Y-39.291 Z7.954 A111.3622 
N589 X-336.291 Y-39.481 Z7.958 A110.0424 
N590 X-336.370 Y-39.683 Z7.963 A108.6201 
N591 X-336.450 Y-39.890 Z7.968 A107.1534 
N592 X-336.514 Y-40.057 Z7.973 A105.9655 
N593 X-336.581 Y-40.230 Z7.979 A104.7184 
N594 X-336.650 Y-40.412 Z7.987 A103.4119 
N595 X-336.721 Y-40.600 Z7.997 A102.0464 
N596 X-336.792 Y-40.792 Z8.010 A100.6509 
N597 X-336.850 Y-40.950 Z8.023 A99.5028 
N598 X-336.908 Y-41.112 Z8.038 A98.3187 
N599 X-336.968 Y-41.278 Z8.056 A97.0983 
N600 X-337.028 Y-41.448 Z8.076 A95.8400 
N601 X-337.089 Y-41.624 Z8.100 A94.5402 
N602 X-337.151 Y-41.805 Z8.127 A93.1938 
N603 X-337.207 Y-41.973 Z8.155 A91.9459 
N604 X-337.260 Y-42.131 Z8.183 A90.7608 
N605 X-337.313 Y-42.294 Z8.215 A89.5336 
N606 X-337.367 Y-42.462 Z8.250 A88.2643 
N607 X-337.421 Y-42.635 Z8.289 A86.9544 
N608 X-337.476 Y-42.811 Z8.333 A85.6050 
N609 X-337.530 Y-42.992 Z8.381 A84.2168 
N610 X-337.585 Y-43.177 Z8.434 A82.7899 
N611 X-337.634 Y-43.350 Z8.487 A81.4462 
N612 X-337.681 Y-43.517 Z8.542 A80.1378 
N613 X-337.726 Y-43.686 Z8.601 A78.8021 
N614 X-337.771 Y-43.857 Z8.665 A77.4414 
N615 X-337.815 Y-44.030 Z8.733 A76.0583 
N616 X-337.858 Y-44.203 Z8.807 A74.6552 
N617 X-337.899 Y-44.377 Z8.885 A73.2347 
N618 X-337.938 Y-44.551 Z8.968 A71.7993 
N619 X-337.975 Y-44.724 Z9.056 A70.3517 
N620 X-338.010 Y-44.894 Z9.148 A68.9043 
N621 X-338.043 Y-45.063 Z9.244 A67.4579 
N622 X-338.073 Y-45.229 Z9.344 A66.0076 
N623 X-338.100 Y-45.393 Z9.449 A64.5559 
N624 X-338.126 Y-45.554 Z9.557 A63.1048 
N625 X-338.148 Y-45.713 Z9.670 A61.6567 
N626 X-338.168 Y-45.867 Z9.786 A60.2142 
N627 X-338.185 Y-46.018 Z9.905 A58.7802 
N628 X-338.200 Y-46.164 Z10.027 A57.3582 
N629 X-338.212 Y-46.313 Z10.157 A55.8820 
N630 X-338.222 Y-46.467 Z10.301 A54.3104 
N631 X-338.229 Y-46.615 Z10.447 A52.7618 
N632 X-338.232 Y-46.756 Z10.594 A51.2384 
N633 X-338.232 Y-46.891 Z10.744 A49.7424 
N634 X-338.230 Y-47.018 Z10.893 A48.2771 
N635 X-338.224 Y-47.139 Z11.043 A46.8460 
N636 X-338.216 Y-47.252 Z11.193 A45.4521 
N637 X-338.204 Y-47.364 Z11.350 A44.0129 
N638 X-338.187 Y-47.487 Z11.534 A42.3747 
N639 X-338.167 Y-47.599 Z11.716 A40.7887 
N640 X-338.144 Y-47.702 Z11.895 A39.2529 
N641 X-338.118 Y-47.797 Z12.073 A37.7668 
N642 X-338.090 Y-47.882 Z12.247 A36.3312 
N643 X-338.060 Y-47.960 Z12.417 A34.9482 
N644 X-338.020 Y-48.045 Z12.624 A33.3019 
N645 X-337.975 Y-48.123 Z12.838 A31.6291 
N646 X-337.928 Y-48.189 Z13.043 A30.0482 
N647 X-337.880 Y-48.243 Z13.241 A28.5549 
N648 X-337.830 Y-48.288 Z13.429 A27.1444 
N649 X-337.762 Y-48.333 Z13.673 A25.3486 
N650 X-337.689 Y-48.365 Z13.913 A23.6098 
N651 X-337.616 Y-48.383 Z14.137 A22.0046 
N652 X-337.531 Y-48.389 Z14.384 A20.2584 
N653 X-337.429 Y-48.378 Z14.658 A18.3476 
N654 X-337.328 Y-48.348 Z14.910 A16.6124 
N655 X-337.193 Y-48.285 Z15.220 A14.5096 
N656 X-337.051 Y-48.191 Z15.514 A12.5328 
N657 X-336.892 Y-48.057 Z15.811 A10.5661 
N658 X-336.707 Y-47.865 Z16.118 A8.5529 
N659 X-336.493 Y-47.600 Z16.425 A6.5537 
N660 X-336.260 Y-47.264 Z16.707 A4.7316 
N661 X-335.998 Y-46.832 Z16.963 A3.0793 
N662 X-335.712 Y-46.300 Z17.178 A1.6920 
N663 X-335.391 Y-45.644 Z17.348 A0.5878 
N664 X-335.037 Y-44.855 Z17.468 A359.8056 
N665 X-334.640 Y-43.919 Z17.542 A359.3119 
N666 X-334.192 Y-42.821 Z17.581 A359.0460 
N667 X-333.684 Y-41.549 Z17.596 A358.9338 
N668 X-333.106 Y-40.090 Z17.599 A358.9040 
N669 X-332.457 Y-38.448 Z17.596 A358.9092 
N670 X-331.734 Y-36.619 Z17.593 A358.9233 
N671 X-330.942 Y-34.614 Z17.591 A358.9348 
N672 X-330.085 Y-32.447 Z17.591 A358.9400 
N673 X-329.171 Y-30.137 Z17.592 
N674 X-328.212 Y-27.713 Z17.593 
N675 X-327.220 Y-25.207 Z17.595 A358.9398 
N676 X-326.209 Y-22.654 Z17.596 A358.9369 
N677 X-325.196 Y-20.094 Z17.598 A358.9341 
N678 X-324.195 Y-17.565 Z17.600 A358.9312 
N679 X-323.221 Y-15.105 Z17.602 A358.9279 
N680 X-322.287 Y-12.746 Z17.605 A358.9231 
N681 X-321.406 Y-10.522 Z17.607 A358.9158 
N682 X-320.587 Y-8.453 Z17.610 A358.9044 
N683 X-319.837 Y-6.561 Z17.614 A358.8883 
N684 X-319.160 Y-4.851 Z17.618 A358.8676 
N685 X-318.558 Y-3.332 Z17.620 A358.8556 
N686 X-318.031 Y-2.002 Z17.621 A358.8620 
N687 X-317.576 Y-0.845 Z17.614 A358.9284 
N688 X-317.187 Y0.138 Z17.616 A358.9400 
N689 X-316.856 Y0.971 Z17.620 A358.9285 
N690 X-316.554 Y1.676 Z17.686 A358.4252 
N691 X-316.272 Y2.258 Z17.831 A357.2647 
N692 X-315.993 Y2.756 Z18.062 A355.3561 
N693 X-315.718 Y3.191 Z18.351 A352.9169 
N694 X-315.466 Y3.564 Z18.645 A350.3620 
N695 X-315.236 Y3.895 Z18.923 A347.8701 
N696 X-315.027 Y4.194 Z19.177 A345.5135 
N697 X-314.846 Y4.456 Z19.396 A343.4174 
N698 X-314.685 Y4.691 Z19.587 A341.5321 
N699 X-314.532 Y4.919 Z19.764 A339.7182 
N700 X-314.399 Y5.120 Z19.915 A338.1297 
N701 X-314.266 Y5.325 Z20.060 A336.5387 
N702 X-314.143 Y5.519 Z20.192 A335.0482 
N703 X-314.019 Y5.717 Z20.318 A333.5534 
N704 X-313.892 Y5.926 Z20.443 A332.0123 
N705 X-313.767 Y6.137 Z20.560 A330.4845 
N706 X-313.625 Y6.383 Z20.686 A328.7505 
N707 X-313.482 Y6.640 Z20.803 A326.9848 
N708 X-313.321 Y6.940 Z20.922 A325.0000 
N709 X-313.146 Y7.283 Z21.032 A322.8264 
N710 X-312.961 Y7.670 Z21.121 A320.5199 
N711 X-312.774 Y8.101 Z21.169 A318.1642 
N712 X-312.600 Y8.556 Z21.150 A315.9716 
N713 X-312.448 Y9.053 Z21.026 A314.0380 
N714 X-312.344 Y9.540 Z20.777 A312.7279 
N715 X-312.287 Y10.028 Z20.395 A312.0294 
N716 X-312.263 Y10.551 Z19.881 A311.7897 
N717 X-312.256 Y11.130 Z19.256 A311.7949 
N718 X-312.251 Y11.799 Z18.526 A311.8607 
N719 X-312.242 Y12.566 Z17.698 A311.8928 
N720 X-312.228 Y13.434 Z16.770 
N721 X-312.213 Y14.399 Z15.739 
N722 X-312.196 Y15.453 Z14.615 A311.8813 
N723 X-312.178 Y16.585 Z13.406 A311.8728 
N724 X-312.159 Y17.781 Z12.128 A311.8653 
N725 X-312.139 Y19.026 Z10.798 A311.8589 
N726 X-312.119 Y20.299 Z9.437 A311.8539 
N727 X-312.100 Y21.581 Z8.066 A311.8531 
N728 X-312.080 Y22.851 Z6.707 A311.8601 
N729 X-312.062 Y24.089 Z5.382 A311.8759 
N730 X-312.044 Y25.277 Z4.110 A311.8928 
N731 X-312.025 Y26.403 Z2.910 
N732 X-312.008 Y27.452 Z1.791 
N733 X-311.988 Y28.422 Z0.769 A311.8074 
N734 X-311.962 Y29.310 Z-0.146 A311.6028 
N735 X-311.930 Y30.114 Z-0.952 A311.2456 
N736 X-311.890 Y30.843 Z-1.651 A310.7059 
N737 X-311.842 Y31.495 Z-2.241 A309.9677 
N738 X-311.785 Y32.085 Z-2.736 A309.0117 
N739 X-311.718 Y32.616 Z-3.138 A307.8546 
N740 X-311.643 Y33.098 Z-3.463 A306.5145 
N741 X-311.562 Y33.534 Z-3.722 A305.0477 
N742 X-311.477 Y33.936 Z-3.931 A303.4851 
N743 X-311.393 Y34.299 Z-4.097 A301.9033 
N744 X-311.312 Y34.623 Z-4.230 A300.3599 
N745 X-311.232 Y34.924 Z-4.340 A298.8300 
N746 X-311.159 Y35.188 Z-4.429 A297.4130 
N747 X-311.088 Y35.436 Z-4.504 A296.0206 
N748 X-311.015 Y35.680 Z-4.572 A294.5998 
N749 X-310.951 Y35.892 Z-4.626 A293.3158 
N750 X-310.882 Y36.112 Z-4.677 A291.9492 
N751 X-310.820 Y36.306 Z-4.720 A290.7181 
N752 X-310.755 Y36.510 Z-4.763 A289.3947 
N753 X-310.694 Y36.698 Z-4.800 A288.1570 
N754 X-310.633 Y36.883 Z-4.836 A286.9186 
N755 X-310.570 Y37.077 Z-4.873 A285.6037 
N756 X-310.512 Y37.253 Z-4.906 A284.3939 
N757 X-310.454 Y37.429 Z-4.940 A283.1745 
N758 X-310.394 Y37.612 Z-4.975 A281.8910 
N759 X-310.335 Y37.796 Z-5.011 A280.5937 
N760 X-310.280 Y37.964 Z-5.045 A279.3957 
N761 X-310.224 Y38.138 Z-5.081 A278.1458 
N762 X-310.167 Y38.318 Z-5.120 A276.8439 
N763 X-310.109 Y38.502 Z-5.162 A275.5081 
N764 X-310.058 Y38.667 Z-5.201 A274.2973 
N765 X-310.006 Y38.837 Z-5.244 A273.0455 
N766 X-309.953 Y39.011 Z-5.290 A271.7515 
N767 X-309.900 Y39.190 Z-5.339 A270.4143 
N768 X-309.848 Y39.368 Z-5.391 A269.0771 
N769 X-309.800 Y39.534 Z-5.443 A267.8150 
N770 X-309.753 Y39.704 Z-5.498 A266.5211 
N771 X-309.706 Y39.876 Z-5.557 A265.1964 
N772 X-309.659 Y40.051 Z-5.621 A263.8417 
N773 X-309.613 Y40.229 Z-5.688 A262.4579 
N774 X-309.571 Y40.396 Z-5.756 A261.1351 
N775 X-309.530 Y40.564 Z-5.828 A259.8032 
N776 X-309.490 Y40.733 Z-5.904 A258.4502 
N777 X-309.452 Y40.902 Z-5.984 A257.0780 
N778 X-309.415 Y41.072 Z-6.068 A255.6889 
N779 X-309.379 Y41.241 Z-6.158 A254.2854 
N780 X-309.347 Y41.406 Z-6.249 A252.8988 
N781 X-309.316 Y41.570 Z-6.345 A251.5020 
N782 X-309.287 Y41.733 Z-6.445 A250.0974 
N783 X-309.260 Y41.894 Z-6.550 A248.6877 
N784 X-309.236 Y42.053 Z-6.658 A247.2757 
N785 X-309.214 Y42.209 Z-6.770 A245.8608 
N786 X-309.194 Y42.367 Z-6.890 A244.4004 
N787 X-309.177 Y42.522 Z-7.013 A242.9451 
N788 X-309.162 Y42.673 Z-7.140 A241.4975 
N789 X-309.151 Y42.819 Z-7.270 A240.0600 
N790 X-309.142 Y42.961 Z-7.402 A238.6355 
N791 X-309.135 Y43.101 Z-7.541 A237.1890 
N792 X-309.132 Y43.244 Z-7.690 A235.6742 
N793 X-309.132 Y43.380 Z-7.841 A234.1827 
N794 X-309.135 Y43.510 Z-7.994 A232.7163 
N795 X-309.141 Y43.633 Z-8.147 A231.2767 
N796 X-309.149 Y43.749 Z-8.301 A229.8627 
N797 X-309.163 Y43.873 Z-8.476 A228.2987 
N798 X-309.179 Y43.987 Z-8.651 A226.7766 
N799 X-309.199 Y44.093 Z-8.824 A225.2977 
N800 X-309.222 Y44.191 Z-8.996 A223.8619 
N801 X-309.248 Y44.286 Z-9.176 A222.3882 
N802 X-309.280 Y44.379 Z-9.371 A220.8242 
N803 X-309.316 Y44.463 Z-9.563 A219.3167 
N804 X-309.353 Y44.537 Z-9.751 A217.8659 
N805 X-309.396 Y44.606 Z-9.947 A216.3851 
N806 X-309.445 Y44.670 Z-10.157 A214.8193 
N807 X-309.496 Y44.723 Z-10.361 A213.3294 
N808 X-309.549 Y44.766 Z-10.558 A211.9120 
N809 X-309.614 Y44.804 Z-10.783 A210.3173 
N810 X-309.681 Y44.830 Z-11.000 A208.8045 
N811 X-309.750 Y44.846 Z-11.213 A207.3454 
N812 X-309.833 Y44.851 Z-11.449 A205.7441 
N813 X-309.915 Y44.843 Z-11.672 A204.2529 
N814 X-310.010 Y44.820 Z-11.915 A202.6553 
N815 X-310.109 Y44.783 Z-12.152 A201.1181 
N816 X-310.223 Y44.725 Z-12.408 A199.4747 
N817 X-310.344 Y44.647 Z-12.661 A197.8700 
N818 X-310.481 Y44.542 Z-12.929 A196.1904 
N819 X-310.636 Y44.403 Z-13.211 A194.4403 
N820 X-310.809 Y44.227 Z-13.501 A192.6557 
N821 X-311.001 Y44.006 Z-13.796 A190.8502 
N822 X-311.221 Y43.723 Z-14.100 A188.9999 
N823 X-311.465 Y43.373 Z-14.398 A187.1952 
N824 X-311.739 Y42.939 Z-14.684 A185.4699 
N825 X-312.037 Y42.418 Z-14.943 A183.9135 
N826 X-312.371 Y41.781 Z-15.173 A182.5309 
N827 X-312.734 Y41.033 Z-15.362 A181.3881 
N828 X-313.131 Y40.164 Z-15.512 A180.4809 
N829 X-313.571 Y39.151 Z-15.623 A179.7879 
N830 X-314.056 Y37.993 Z-15.699 A179.2958 
N831 X-314.587 Y36.690 Z-15.744 A178.9764 
N832 X-315.171 Y35.234 Z-15.765 A178.7910 
N833 X-315.805 Y33.635 Z-15.770 A178.7003 
N834 X-316.490 Y31.898 Z-15.765 A178.6642 
N835 X-317.223 Y30.037 Z-15.756 A178.6513 
N836 X-317.996 Y28.073 Z-15.745 A178.6441 
N837 X-318.801 Y26.028 Z-15.734 A178.6354 
N838 X-319.627 Y23.930 Z-15.722 A178.6257 
N839 X-320.463 Y21.805 Z-15.710 A178.6178 
N840 X-321.297 Y19.686 Z-15.697 A178.6157 
N841 X-322.117 Y17.600 Z-15.683 A178.6194 
N842 X-322.913 Y15.575 Z-15.669 A178.6363 
N843 X-323.676 Y13.635 Z-15.658 A178.6396 
N844 X-324.400 Y11.797 Z-15.648 A178.6394 
N845 X-325.081 Y10.079 Z-15.651 A178.5364 
N846 X-325.717 Y8.488 Z-15.672 A178.2632 
N847 X-326.312 Y7.026 Z-15.718 A177.7326 
N848 X-326.863 Y5.696 Z-15.789 A176.9067 
N849 X-327.377 Y4.483 Z-15.883 A175.7800 
N850 X-327.847 Y3.391 Z-15.991 A174.4169 
N851 X-328.279 Y2.398 Z-16.101 A172.8901 
N852 X-328.671 Y1.501 Z-16.206 A171.2914 
N853 X-329.028 Y0.684 Z-16.300 A169.6736 
N854 X-329.351 Y-0.060 Z-16.381 A168.0880 
N855 X-329.647 Y-0.748 Z-16.448 A166.5387 
N856 X-329.914 Y-1.377 Z-16.502 A165.0635 
N857 X-330.163 Y-1.967 Z-16.543 A163.6352 
N858 X-330.394 Y-2.525 Z-16.572 A162.2574 
N859 X-330.610 Y-3.055 Z-16.591 A160.9261 
N860 X-330.815 Y-3.566 Z-16.598 A159.6341 
N861 X-331.010 Y-4.062 Z-16.595 A158.3750 
N862 X-331.196 Y-4.545 Z-16.582 A157.1468 
N863 X-331.377 Y-5.023 Z-16.558 A155.9353 
N864 X-331.552 Y-5.499 Z-16.523 A154.7350 
N865 X-331.724 Y-5.974 Z-16.477 A153.5399 
N866 X-331.894 Y-6.455 Z-16.418 A152.3409 
N867 X-332.061 Y-6.943 Z-16.346 A151.1341 
N868 X-332.228 Y-7.443 Z-16.260 A149.9128 
N869 X-332.395 Y-7.958 Z-16.155 A148.6657 
N870 X-332.563 Y-8.496 Z-16.031 A147.3836 
N871 X-332.733 Y-9.060 Z-15.881 A146.0634 
N872 X-332.905 Y-9.659 Z-15.700 A144.7005 
N873 X-333.078 Y-10.291 Z-15.481 A143.3126 
N874 X-333.249 Y-10.964 Z-15.216 A141.9133 
N875 X-333.418 Y-11.678 Z-14.894 A140.5252 
N876 X-333.581 Y-12.443 Z-14.503 A139.1674 
N877 X-333.735 Y-13.254 Z-14.034 A137.8834 
N878 X-333.877 Y-14.112 Z-13.478 A136.7085 
N879 X-334.003 Y-15.016 Z-12.827 A135.6743 
N880 X-334.112 Y-15.962 Z-12.080 A134.8146 
N881 X-334.201 Y-16.952 Z-11.230 A134.1526 
N882 X-334.272 Y-17.980 Z-10.285 A133.7005 
N883 X-334.327 Y-19.046 Z-9.254 A133.4418 
N884 X-334.371 Y-20.146 Z-8.154 A133.3393 
N885 X-334.409 Y-21.277 Z-7.002 A133.3360 
N886 X-334.446 Y-22.435 Z-5.818 A133.3723 
N887 X-334.485 Y-23.607 Z-4.622 A133.4089 
N888 X-334.525 Y-24.781 Z-3.431 A133.4279 
N889 X-334.567 Y-25.938 Z-2.262 A133.4326 
N890 X-334.609 Y-27.061 Z-1.129 A133.4365 
N891 X-334.649 Y-28.134 Z-0.046 A133.4525 
N892 X-334.688 Y-29.149 Z0.974 A133.4566 
N893 X-334.725 Y-30.095 Z1.921 
N894 X-334.759 Y-30.964 Z2.792 
N895 X-334.798 Y-31.764 Z3.573 A133.3373 
N896 X-334.844 Y-32.496 Z4.257 A133.0172 
N897 X-334.899 Y-33.159 Z4.840 A132.4825 
N898 X-334.963 Y-33.764 Z5.333 A131.7173 
N899 X-335.035 Y-34.309 Z5.738 A130.7444 
N900 X-335.114 Y-34.804 Z6.067 A129.5788 
N901 X-335.197 Y-35.248 Z6.326 A128.2726 
N902 X-335.287 Y-35.663 Z6.534 A126.8091 
N903 X-335.377 Y-36.028 Z6.690 A125.3196 
N904 X-335.468 Y-36.367 Z6.811 A123.7694 
N905 X-335.558 Y-36.680 Z6.906 A122.2088 
N906 X-335.647 Y-36.972 Z6.980 A120.6534 
N907 X-335.730 Y-37.234 Z7.038 A119.1794 
N908 X-335.808 Y-37.474 Z7.085 A117.7761 
N909 X-335.887 Y-37.711 Z7.127 A116.3454 
N910 X-335.957 Y-37.916 Z7.159 A115.0734 
N911 X-336.028 Y-38.123 Z7.188 A113.7531 
N912 X-336.098 Y-38.321 Z7.213 A112.4648 
N913 X-336.163 Y-38.505 Z7.235 A111.2506 
N914 X-336.232 Y-38.699 Z7.256 A109.9468 
N915 X-336.299 Y-38.885 Z7.275 A108.6796 
N916 X-336.361 Y-39.058 Z7.293 A107.4928 
N917 X-336.426 Y-39.238 Z7.311 A106.2362 
N918 X-336.494 Y-39.428 Z7.331 A104.9070 
N919 X-336.555 Y-39.600 Z7.350 A103.6893 
N920 X-336.614 Y-39.767 Z7.369 A102.4978 
N921 X-336.676 Y-39.941 Z7.390 A101.2518 
N922 X-336.739 Y-40.122 Z7.413 A99.9484 
N923 X-336.804 Y-40.309 Z7.439 A98.5994 
N924 X-336.859 Y-40.471 Z7.463 A97.4193 
N925 X-336.916 Y-40.638 Z7.490 A96.1970 
N926 X-336.973 Y-40.810 Z7.519 A94.9326 
N927 X-337.031 Y-40.986 Z7.552 A93.6260 
N928 X-337.090 Y-41.168 Z7.589 A92.2761 
N929 X-337.146 Y-41.342 Z7.627 A90.9768 
N930 X-337.197 Y-41.507 Z7.665 A89.7396 
N931 X-337.249 Y-41.675 Z7.707 A88.4678 
N932 X-337.301 Y-41.847 Z7.753 A87.1622 
N933 X-337.352 Y-42.022 Z7.803 A85.8241 
N934 X-337.403 Y-42.200 Z7.857 A84.4549 
N935 X-337.454 Y-42.380 Z7.916 A83.0596 
N936 X-337.499 Y-42.547 Z7.974 A81.7611 
N937 X-337.543 Y-42.715 Z8.036 A80.4399 
N938 X-337.587 Y-42.884 Z8.102 A79.0970 
N939 X-337.629 Y-43.055 Z8.172 A77.7341 
N940 X-337.670 Y-43.226 Z8.248 A76.3532 
N941 X-337.709 Y-43.397 Z8.327 A74.9561 
N942 X-337.747 Y-43.568 Z8.412 A73.5449 
N943 X-337.782 Y-43.735 Z8.499 A72.1499 
N944 X-337.815 Y-43.901 Z8.590 A70.7472 
N945 X-337.846 Y-44.065 Z8.686 A69.3369 
N946 X-337.875 Y-44.228 Z8.785 A67.9216 
N947 X-337.902 Y-44.389 Z8.889 A66.5039 
N948 X-337.926 Y-44.547 Z8.997 A65.0863 
N949 X-337.948 Y-44.702 Z9.108 A63.6712 
N950 X-337.968 Y-44.859 Z9.228 A62.2057 
N951 X-337.985 Y-45.016 Z9.353 A60.7224 
N952 X-338.000 Y-45.168 Z9.481 A59.2493 
N953 X-338.011 Y-45.315 Z9.612 A57.7895 
N954 X-338.020 Y-45.457 Z9.746 A56.3456 
N955 X-338.026 Y-45.593 Z9.882 A54.9200 
N956 X-338.029 Y-45.724 Z10.019 A53.5138 
N957 X-338.029 Y-45.863 Z10.173 A51.9834 
N958 X-338.026 Y-45.997 Z10.331 A50.4495 
N959 X-338.019 Y-46.124 Z10.491 A48.9454 
N960 X-338.010 Y-46.244 Z10.650 A47.4737 
N961 X-337.998 Y-46.356 Z10.809 A46.0373 
N962 X-337.983 Y-46.461 Z10.968 A44.6379 
N963 X-337.963 Y-46.571 Z11.146 A43.0984 
N964 X-337.939 Y-46.676 Z11.330 A41.5454 
N965 X-337.912 Y-46.772 Z11.511 A40.0404 
N966 X-337.883 Y-46.859 Z11.691 A38.5830 
N967 X-337.852 Y-46.937 Z11.867 A37.1737 
N968 X-337.814 Y-47.016 Z12.060 A35.6534 
N969 X-337.771 Y-47.089 Z12.263 A34.0854 
N970 X-337.726 Y-47.152 Z12.460 A32.5907 
N971 X-337.679 Y-47.205 Z12.651 A31.1648 
N972 X-337.627 Y-47.252 Z12.849 A29.7031 
N973 X-337.565 Y-47.294 Z13.070 A28.0935 
N974 X-337.502 Y-47.325 Z13.283 A26.5666 
N975 X-337.437 Y-47.347 Z13.488 A25.1162 
N976 X-337.355 Y-47.361 Z13.734 A23.3848 
N977 X-337.270 Y-47.362 Z13.975 A21.7130 
N978 X-337.178 Y-47.350 Z14.220 A20.0351 
N979 X-337.067 Y-47.318 Z14.498 A18.1440 
N980 X-336.949 Y-47.266 Z14.771 A16.3061 
N981 X-336.811 Y-47.184 Z15.069 A14.3175 
N982 X-336.651 Y-47.063 Z15.382 A12.2525 
N983 X-336.472 Y-46.896 Z15.700 A10.1693 
N984 X-336.270 Y-46.673 Z16.021 A8.0836 
N985 X-336.048 Y-46.387 Z16.328 A6.0860 
N986 X-335.786 Y-45.999 Z16.633 A4.1088 
N987 X-335.504 Y-45.523 Z16.895 A2.3951 
N988 X-335.199 Y-44.942 Z17.108 A0.9965 
N989 X-334.860 Y-44.227 Z17.265 A359.9447 
N990 X-334.487 Y-43.371 Z17.363 A359.2766 
N991 X-334.073 Y-42.367 Z17.411 A358.9370 
N992 X-333.607 Y-41.202 Z17.424 A358.8272 
N993 X-333.075 Y-39.854 Z17.421 A358.8381 
N994 X-332.474 Y-38.328 Z17.415 A358.8808 
N995 X-331.799 Y-36.620 Z17.411 A358.9145 
N996 X-331.053 Y-34.735 Z17.414 A358.9155 
N997 X-330.238 Y-32.679 Z17.418 
N998 X-329.364 Y-30.473 Z17.422 
N999 X-328.441 Y-28.142 Z17.427 A358.9140 
N1000 X-327.479 Y-25.716 Z17.432 A358.9116 
N1001 X-326.493 Y-23.229 Z17.437 A358.9097 
N1002 X-325.498 Y-20.717 Z17.442 A358.9077 
N1003 X-324.509 Y-18.220 Z17.447 A358.9055 
N1004 X-323.540 Y-15.776 Z17.452 A358.9024 
N1005 X-322.605 Y-13.418 Z17.457 A358.8977 
N1006 X-321.718 Y-11.180 Z17.462 A358.8904 
N1007 X-320.888 Y-9.087 Z17.468 A358.8791 
N1008 X-320.124 Y-7.159 Z17.474 A358.8627 
N1009 X-319.429 Y-5.410 Z17.480 A358.8406 
N1010 X-318.809 Y-3.845 Z17.486 A358.8208 
N1011 X-318.264 Y-2.470 Z17.489 A358.8178 
N1012 X-317.790 Y-1.271 Z17.485 A358.8656 
N1013 X-317.386 Y-0.245 Z17.483 A358.9155 
N1014 X-317.035 Y0.637 Z17.487 
N1015 X-316.728 Y1.375 Z17.532 A358.5929 
N1016 X-316.438 Y1.994 Z17.658 A357.5980 
N1017 X-316.155 Y2.518 Z17.870 A355.8619 
N1018 X-315.877 Y2.972 Z18.147 A353.5373 
N1019 X-315.620 Y3.361 Z18.438 A351.0195 
N1020 X-315.384 Y3.706 Z18.718 A348.5194 
N1021 X-315.170 Y4.016 Z18.975 A346.1536 
N1022 X-314.977 Y4.297 Z19.204 A343.9612 
N1023 X-314.812 Y4.540 Z19.397 A342.0578 
N1024 X-314.661 Y4.767 Z19.570 A340.2915 
N1025 X-314.518 Y4.985 Z19.729 A338.6099 
N1026 X-314.390 Y5.184 Z19.868 A337.0840 
N1027 X-314.264 Y5.384 Z20.001 A335.5771 
N1028 X-314.140 Y5.583 Z20.126 A334.0986 
N1029 X-314.018 Y5.785 Z20.246 A332.6288 
N1030 X-313.890 Y6.002 Z20.365 A331.0772 
N1031 X-313.761 Y6.225 Z20.479 A329.5104 
N1032 X-313.617 Y6.483 Z20.598 A327.7531 
N1033 X-313.468 Y6.758 Z20.710 A325.9337 
N1034 X-313.304 Y7.075 Z20.819 A323.9087 
N1035 X-313.125 Y7.441 Z20.915 A321.6899 
N1036 X-312.941 Y7.848 Z20.981 A319.3903 
N1037 X-312.762 Y8.287 Z20.995 A317.1470 
N1038 X-312.594 Y8.774 Z20.925 A315.0258 
N1039 X-312.468 Y9.253 Z20.749 A313.4234 
N1040 X-312.384 Y9.739 Z20.443 A312.3837 
N1041 X-312.343 Y10.234 Z20.008 A311.9052 
N1042 X-312.329 Y10.765 Z19.456 A311.8097 
N1043 X-312.325 Y11.359 Z18.807 A311.8699 
N1044 X-312.319 Y12.045 Z18.061 A311.9374 
N1045 X-312.306 Y12.819 Z17.234 A311.9420 
N1046 X-312.292 Y13.686 Z16.310 
N1047 X-312.275 Y14.631 Z15.305 A311.9300 
N1048 X-312.257 Y15.648 Z14.225 A311.9151 
N1049 X-312.239 Y16.723 Z13.080 A311.9034 
N1050 X-312.220 Y17.843 Z11.887 A311.8947 
N1051 X-312.201 Y18.990 Z10.665 A311.8895 
N1052 X-312.181 Y20.146 Z9.433 A311.8901 
N1053 X-312.163 Y21.293 Z8.209 A311.8997 
N1054 X-312.145 Y22.413 Z7.013 A311.9214 
N1055 X-312.127 Y23.491 Z5.864 A311.9420 
N1056 X-312.109 Y24.514 Z4.777 
N1057 X-312.092 Y25.474 Z3.757 
N1058 X-312.066 Y26.372 Z2.830 A311.7828 
N1059 X-312.032 Y27.202 Z2.002 A311.4422 
N1060 X-311.988 Y27.969 Z1.273 A310.8735 
N1061 X-311.934 Y28.675 Z0.639 A310.0697 
N1062 X-311.872 Y29.316 Z0.099 A309.0597 
N1063 X-311.806 Y29.892 Z-0.355 A307.8923 
N1064 X-311.734 Y30.421 Z-0.743 A306.5732 
N1065 X-311.661 Y30.896 Z-1.065 A305.1710 
N1066 X-311.588 Y31.322 Z-1.333 A303.7271 
N1067 X-311.513 Y31.720 Z-1.565 A302.2154 
N1068 X-311.442 Y32.069 Z-1.754 A300.7598 
N1069 X-311.372 Y32.392 Z-1.918 A299.3053 
N1070 X-311.306 Y32.690 Z-2.061 A297.8838 
N1071 X-311.242 Y32.966 Z-2.188 A296.5032 
N1072 X-311.180 Y33.224 Z-2.303 A295.1554 
N1073 X-311.122 Y33.463 Z-2.406 A293.8603 
N1074 X-311.067 Y33.686 Z-2.499 A292.6102 
N1075 X-311.012 Y33.906 Z-2.588 A291.3476 
N1076 X-310.959 Y34.111 Z-2.669 A290.1301 
N1077 X-310.907 Y34.315 Z-2.747 A288.8989 
N1078 X-310.855 Y34.512 Z-2.821 A287.6819 
N1079 X-310.804 Y34.706 Z-2.894 A286.4546 
N1080 X-310.754 Y34.895 Z-2.963 A285.2436 
N1081 X-310.704 Y35.085 Z-3.033 A283.9996 
N1082 X-310.656 Y35.266 Z-3.100 A282.8008 
N1083 X-310.606 Y35.452 Z-3.168 A281.5503 
N1084 X-310.559 Y35.631 Z-3.234 A280.3348 
N1085 X-310.512 Y35.810 Z-3.301 A279.1015 
N1086 X-310.465 Y35.993 Z-3.371 A277.8248 
N1087 X-310.420 Y36.165 Z-3.437 A276.6072 
N1088 X-310.375 Y36.342 Z-3.507 A275.3487 
N1089 X-310.330 Y36.520 Z-3.579 A274.0591 
N1090 X-310.288 Y36.690 Z-3.650 A272.8198 
N1091 X-310.246 Y36.864 Z-3.724 A271.5453 
N1092 X-310.204 Y37.040 Z-3.801 A270.2352 
N1093 X-310.164 Y37.208 Z-3.877 A268.9697 
N1094 X-310.125 Y37.378 Z-3.957 A267.6808 
N1095 X-310.087 Y37.549 Z-4.040 A266.3628 
N1096 X-310.050 Y37.719 Z-4.126 A265.0509 
N1097 X-310.016 Y37.885 Z-4.213 A263.7462 
N1098 X-309.982 Y38.052 Z-4.304 A262.4188 
N1099 X-309.949 Y38.220 Z-4.399 A261.0699 
N1100 X-309.919 Y38.383 Z-4.495 A259.7439 
N1101 X-309.890 Y38.546 Z-4.595 A258.4032 
N1102 X-309.863 Y38.708 Z-4.699 A257.0472 
N1103 X-309.837 Y38.869 Z-4.807 A255.6823 
N1104 X-309.814 Y39.027 Z-4.917 A254.3199 
N1105 X-309.793 Y39.184 Z-5.032 A252.9481 
N1106 X-309.774 Y39.339 Z-5.150 A251.5685 
N1107 X-309.756 Y39.493 Z-5.273 A250.1793 
N1108 X-309.742 Y39.644 Z-5.400 A248.7824 
N1109 X-309.729 Y39.793 Z-5.530 A247.3841 
N1110 X-309.719 Y39.938 Z-5.664 A245.9865 
N1111 X-309.712 Y40.082 Z-5.803 A244.5642 
N1112 X-309.707 Y40.223 Z-5.947 A243.1393 
N1113 X-309.705 Y40.360 Z-6.093 A241.7217 
N1114 X-309.706 Y40.493 Z-6.243 A240.3045 
N1115 X-309.710 Y40.625 Z-6.401 A238.8475 
N1116 X-309.716 Y40.752 Z-6.561 A237.4056 
N1117 X-309.726 Y40.873 Z-6.723 A235.9809 
N1118 X-309.739 Y40.992 Z-6.893 A234.5200 
N1119 X-309.756 Y41.106 Z-7.067 A233.0542 
N1120 X-309.776 Y41.214 Z-7.242 A231.6135 
N1121 X-309.799 Y41.317 Z-7.422 A230.1607 
N1122 X-309.826 Y41.417 Z-7.610 A228.6764 
N1123 X-309.857 Y41.508 Z-7.797 A227.2263 
N1124 X-309.891 Y41.594 Z-7.988 A225.7747 
N1125 X-309.930 Y41.675 Z-8.189 A224.2838 
N1126 X-309.972 Y41.747 Z-8.387 A222.8346 
N1127 X-310.018 Y41.813 Z-8.591 A221.3668 
N1128 X-310.069 Y41.872 Z-8.801 A219.8837 
N1129 X-310.123 Y41.922 Z-9.007 A218.4499 
N1130 X-310.184 Y41.966 Z-9.227 A216.9465 
N1131 X-310.247 Y42.000 Z-9.444 A215.4873 
N1132 X-310.316 Y42.025 Z-9.666 A214.0159 
N1133 X-310.390 Y42.041 Z-9.891 A212.5459 
N1134 X-310.469 Y42.046 Z-10.117 A211.0888 
N1135 X-310.553 Y42.040 Z-10.349 A209.6149 
N1136 X-310.643 Y42.023 Z-10.582 A208.1551 
N1137 X-310.738 Y41.994 Z-10.818 A206.6918 
N1138 X-310.841 Y41.951 Z-11.058 A205.2204 
N1139 X-310.947 Y41.895 Z-11.296 A203.7820 
N1140 X-311.066 Y41.821 Z-11.547 A202.2794 
N1141 X-311.191 Y41.730 Z-11.798 A200.7886 
N1142 X-311.325 Y41.620 Z-12.052 A199.2966 
N1143 X-311.469 Y41.489 Z-12.311 A197.7866 
N1144 X-311.626 Y41.331 Z-12.578 A196.2393 
N1145 X-311.800 Y41.140 Z-12.854 A194.6431 
N1146 X-311.992 Y40.911 Z-13.139 A193.0047 
N1147 X-312.202 Y40.639 Z-13.427 A191.3551 
N1148 X-312.430 Y40.319 Z-13.715 A189.7067 
N1149 X-312.685 Y39.936 Z-14.005 A188.0452 
N1150 X-312.967 Y39.480 Z-14.291 A186.3966 
N1151 X-313.278 Y38.941 Z-14.567 A184.7910 
N1152 X-313.621 Y38.308 Z-14.825 A183.2644 
N1153 X-313.994 Y37.573 Z-15.056 A181.8660 
N1154 X-314.399 Y36.724 Z-15.252 A180.6384 
N1155 X-314.836 Y35.756 Z-15.404 A179.6287 
N1156 X-315.309 Y34.657 Z-15.511 A178.8539 
N1157 X-315.815 Y33.433 Z-15.573 A178.3128 
N1158 X-316.358 Y32.082 Z-15.598 A177.9676 
N1159 X-316.942 Y30.604 Z-15.596 A177.7679 
N1160 X-317.564 Y29.012 Z-15.574 A177.6620 
N1161 X-318.224 Y27.314 Z-15.541 A177.6115 
N1162 X-318.916 Y25.529 Z-15.501 A177.5921 
N1163 X-319.633 Y23.677 Z-15.457 A177.5898 
N1164 X-320.366 Y21.781 Z-15.410 A177.5978 
N1165 X-321.107 Y19.866 Z-15.364 A177.6095 
N1166 X-321.846 Y17.958 Z-15.318 A177.6214 
N1167 X-322.572 Y16.083 Z-15.275 
N1168 X-323.278 Y14.261 Z-15.234 
N1169 X-323.956 Y12.514 Z-15.198 A177.5831 
N1170 X-324.603 Y10.857 Z-15.174 A177.4545 
N1171 X-325.215 Y9.304 Z-15.167 A177.1768 
N1172 X-325.793 Y7.857 Z-15.183 A176.6744 
N1173 X-326.335 Y6.524 Z-15.223 A175.9015 
N1174 X-326.844 Y5.295 Z-15.287 A174.8434 
N1175 X-327.315 Y4.173 Z-15.366 A173.5430 
N1176 X-327.753 Y3.144 Z-15.452 A172.0661 
N1177 X-328.157 Y2.197 Z-15.534 A170.4951 
N1178 X-328.523 Y1.335 Z-15.605 A168.9178 
N1179 X-328.858 Y0.540 Z-15.662 A167.3624 
N1180 X-329.165 Y-0.199 Z-15.704 A165.8550 
N1181 X-329.444 Y-0.880 Z-15.731 A164.4219 
N1182 X-329.705 Y-1.526 Z-15.746 A163.0308 
N1183 X-329.946 Y-2.133 Z-15.749 A161.6972 
N1184 X-330.173 Y-2.715 Z-15.740 A160.4036 
N1185 X-330.389 Y-3.277 Z-15.721 A159.1417 
N1186 X-330.595 Y-3.825 Z-15.691 A157.9056 
N1187 X-330.793 Y-4.363 Z-15.650 A156.6889 
N1188 X-330.985 Y-4.897 Z-15.598 A155.4850 
N1189 X-331.173 Y-5.429 Z-15.534 A154.2876 
N1190 X-331.357 Y-5.964 Z-15.456 A153.0908 
N1191 X-331.539 Y-6.507 Z-15.363 A151.8884 
N1192 X-331.719 Y-7.061 Z-15.253 A150.6750 
N1193 X-331.899 Y-7.632 Z-15.124 A149.4433 
N1194 X-332.079 Y-8.224 Z-14.971 A148.1882 
N1195 X-332.260 Y-8.842 Z-14.792 A146.9085 
N1196 X-332.441 Y-9.489 Z-14.582 A145.6016 
N1197 X-332.623 Y-10.175 Z-14.331 A144.2675 
N1198 X-332.805 Y-10.902 Z-14.033 A142.9202 
N1199 X-332.983 Y-11.672 Z-13.678 A141.5858 
N1200 X-333.156 Y-12.486 Z-13.259 A140.2909 
N1201 X-333.321 Y-13.351 Z-12.760 A139.0617 
N1202 X-333.474 Y-14.260 Z-12.179 A137.9397 
N1203 X-333.612 Y-15.212 Z-11.510 A136.9519 
N1204 X-333.736 Y-16.211 Z-10.746 A136.1161 
N1205 X-333.843 Y-17.247 Z-9.893 A135.4544 
N1206 X-333.933 Y-18.318 Z-8.955 A134.9747 
N1207 X-334.009 Y-19.422 Z-7.941 A134.6689 
N1208 X-334.074 Y-20.551 Z-6.866 A134.5140 
N1209 X-334.131 Y-21.701 Z-5.748 A134.4704 
N1210 X-334.185 Y-22.864 Z-4.606 A134.4873 
N1211 X-334.239 Y-24.029 Z-3.461 A134.5223 
N1212 X-334.294 Y-25.184 Z-2.331 A134.5503 
N1213 X-334.349 Y-26.314 Z-1.230 A134.5646 
N1214 X-334.404 Y-27.402 Z-0.173 A134.5721 
N1215 X-334.456 Y-28.433 Z0.829 A134.5872 
N1216 X-334.506 Y-29.398 Z1.763 A134.5904 
N1217 X-334.553 Y-30.291 Z2.624 
N1218 X-334.595 Y-31.108 Z3.413 
N1219 X-334.643 Y-31.852 Z4.107 A134.4467 
N1220 X-334.699 Y-32.534 Z4.707 A134.0815 
N1221 X-334.766 Y-33.153 Z5.210 A133.4615 
N1222 X-334.842 Y-33.711 Z5.617 A132.5886 
N1223 X-334.927 Y-34.225 Z5.947 A131.4744 
N1224 X-335.019 Y-34.689 Z6.207 A130.1793 
N1225 X-335.116 Y-35.121 Z6.412 A128.7113 
N1226 X-335.212 Y-35.498 Z6.563 A127.2180 
N1227 X-335.309 Y-35.848 Z6.678 A125.6525 
N1228 X-335.406 Y-36.170 Z6.765 A124.0671 
N1229 X-335.501 Y-36.470 Z6.831 A122.4756 
N1230 X-335.594 Y-36.748 Z6.880 A120.9075 
N1231 X-335.678 Y-36.994 Z6.916 A119.4616 
N1232 X-335.766 Y-37.243 Z6.947 A117.9401 
N1233 X-335.839 Y-37.449 Z6.970 A116.6503 
N1234 X-335.918 Y-37.667 Z6.991 A115.2615 
N1235 X-335.989 Y-37.862 Z7.008 A113.9906 
N1236 X-336.057 Y-38.050 Z7.024 A112.7462 
N1237 X-336.130 Y-38.248 Z7.040 A111.4193 
N1238 X-336.196 Y-38.426 Z7.054 A110.2041 
N1239 X-336.260 Y-38.600 Z7.067 A109.0115 
N1240 X-336.327 Y-38.782 Z7.081 A107.7510 
N1241 X-336.397 Y-38.972 Z7.096 A106.4188 
N1242 X-336.457 Y-39.137 Z7.110 A105.2609 
N1243 X-336.518 Y-39.305 Z7.125 A104.0655 
N1244 X-336.581 Y-39.480 Z7.143 A102.8195 
N1245 X-336.646 Y-39.661 Z7.162 A101.5214 
N1246 X-336.708 Y-39.837 Z7.183 A100.2512 
N1247 X-336.765 Y-40.001 Z7.203 A99.0701 
N1248 X-336.824 Y-40.169 Z7.227 A97.8459 
N1249 X-336.883 Y-40.342 Z7.253 A96.5774 
N1250 X-336.943 Y-40.521 Z7.282 A95.2646 
N1251 X-337.004 Y-40.704 Z7.315 A93.9088 
N1252 X-337.058 Y-40.869 Z7.347 A92.6882 
N1253 X-337.111 Y-41.036 Z7.382 A91.4445 
N1254 X-337.165 Y-41.206 Z7.420 A90.1691 
N1255 X-337.219 Y-41.379 Z7.462 A88.8620 
N1256 X-337.272 Y-41.556 Z7.508 A87.5235 
N1257 X-337.325 Y-41.735 Z7.559 A86.1549 
N1258 X-337.375 Y-41.906 Z7.610 A84.8437 
N1259 X-337.422 Y-42.074 Z7.664 A83.5458 
N1260 X-337.468 Y-42.243 Z7.722 A82.2269 
N1261 X-337.513 Y-42.414 Z7.785 A80.8882 
N1262 X-337.558 Y-42.586 Z7.851 A79.5306 
N1263 X-337.601 Y-42.758 Z7.922 A78.1555 
N1264 X-337.642 Y-42.930 Z7.998 A76.7647 
N1265 X-337.681 Y-43.099 Z8.076 A75.3927 
N1266 X-337.718 Y-43.266 Z8.158 A74.0149 
N1267 X-337.753 Y-43.433 Z8.244 A72.6281 
N1268 X-337.786 Y-43.598 Z8.335 A71.2344 
N1269 X-337.817 Y-43.761 Z8.430 A69.8359 
N1270 X-337.846 Y-43.923 Z8.529 A68.4345 
N1271 X-337.872 Y-44.082 Z8.631 A67.0327 
N1272 X-337.897 Y-44.244 Z8.741 A65.5839 
N1273 X-337.920 Y-44.404 Z8.856 A64.1300 
N1274 X-337.939 Y-44.559 Z8.974 A62.6827 
N1275 X-337.956 Y-44.711 Z9.095 A61.2442 
N1276 X-337.970 Y-44.859 Z9.220 A59.8165 
N1277 X-337.982 Y-45.002 Z9.347 A58.4017 
N1278 X-337.990 Y-45.141 Z9.478 A56.9888 
N1279 X-337.997 Y-45.288 Z9.623 A55.4629 
N1280 X-338.000 Y-45.428 Z9.770 A53.9607 
N1281 X-338.000 Y-45.562 Z9.919 A52.4837 
N1282 X-337.997 Y-45.689 Z10.069 A51.0326 
N1283 X-337.991 Y-45.810 Z10.220 A49.6086 
N1284 X-337.982 Y-45.924 Z10.372 A48.2128 
N1285 X-337.969 Y-46.047 Z10.546 A46.6448 
N1286 X-337.953 Y-46.162 Z10.719 A45.1169 
N1287 X-337.933 Y-46.268 Z10.892 A43.6332 
N1288 X-337.911 Y-46.365 Z11.063 A42.1928 
N1289 X-337.886 Y-46.455 Z11.232 A40.7945 
N1290 X-337.856 Y-46.546 Z11.419 A39.2748 
N1291 X-337.821 Y-46.632 Z11.612 A37.7355 
N1292 X-337.784 Y-46.709 Z11.801 A36.2530 
N1293 X-337.745 Y-46.776 Z11.986 A34.8289 
N1294 X-337.703 Y-46.836 Z12.173 A33.4153 
N1295 X-337.651 Y-46.894 Z12.382 A31.8565 
N1296 X-337.598 Y-46.942 Z12.584 A30.3725 
N1297 X-337.544 Y-46.980 Z12.779 A28.9552 
N1298 X-337.483 Y-47.012 Z12.988 A27.4613 
N1299 X-337.412 Y-47.037 Z13.214 A25.8598 
N1300 X-337.340 Y-47.052 Z13.432 A24.3321 
N1301 X-337.260 Y-47.057 Z13.665 A22.7137 
N1302 X-337.166 Y-47.050 Z13.922 A20.9483 
N1303 X-337.071 Y-47.030 Z14.167 A19.2735 
N1304 X-336.947 Y-46.987 Z14.465 A17.2566 
N1305 X-336.819 Y-46.922 Z14.755 A15.3153 
N1306 X-336.670 Y-46.823 Z15.064 A13.2574 
N1307 X-336.496 Y-46.678 Z15.391 A11.1014 
N1308 X-336.303 Y-46.483 Z15.717 A8.9662 
N1309 X-336.090 Y-46.228 Z16.033 A6.9051 
N1310 X-335.840 Y-45.879 Z16.349 A4.8523 
N1311 X-335.571 Y-45.449 Z16.625 A3.0539 
N1312 X-335.275 Y-44.912 Z16.860 A1.5142 
N1313 X-334.954 Y-44.262 Z17.040 A0.3201 
N1314 X-334.599 Y-43.472 Z17.162 A359.4915 
N1315 X-334.208 Y-42.546 Z17.229 A359.0233 
N1316 X-333.766 Y-41.450 Z17.254 A358.8302 
N1317 X-333.267 Y-40.190 Z17.255 A358.8140 
N1318 X-332.701 Y-38.753 Z17.247 A358.8647 
N1319 X-332.062 Y-37.133 Z17.242 A358.9162 
N1320 X-331.350 Y-35.333 Z17.244 A358.9302 
N1321 X-330.567 Y-33.360 Z17.250 
N1322 X-329.722 Y-31.228 Z17.256 
N1323 X-328.823 Y-28.961 Z17.263 A358.9273 
N1324 X-327.881 Y-26.588 Z17.270 A358.9232 
N1325 X-326.910 Y-24.138 Z17.277 A358.9213 
N1326 X-325.923 Y-21.650 Z17.284 A358.9201 
N1327 X-324.936 Y-19.159 Z17.291 A358.9188 
N1328 X-323.963 Y-16.706 Z17.298 A358.9166 
N1329 X-323.018 Y-14.325 Z17.305 A358.9128 
N1330 X-322.116 Y-12.051 Z17.312 A358.9066 
N1331 X-321.268 Y-9.912 Z17.319 A358.8971 
N1332 X-320.480 Y-7.929 Z17.327 A358.8826 
N1333 X-319.762 Y-6.120 Z17.334 A358.8626 
N1334 X-319.115 Y-4.489 Z17.342 A358.8388 
N1335 X-318.542 Y-3.047 Z17.347 A358.8280 
N1336 X-318.043 Y-1.786 Z17.348 A358.8475 
N1337 X-317.614 Y-0.694 Z17.342 A358.9302 
N1338 X-317.247 Y0.227 Z17.347 
N1339 X-316.926 Y1.023 Z17.365 A358.8229 
N1340 X-316.634 Y1.676 Z17.460 A358.0896 
N1341 X-316.348 Y2.235 Z17.643 A356.6165 
N1342 X-316.068 Y2.710 Z17.901 A354.4771 
N1343 X-315.795 Y3.132 Z18.199 A351.9279 
N1344 X-315.546 Y3.499 Z18.491 A349.3546 
N1345 X-315.324 Y3.822 Z18.757 A346.9307 
N1346 X-315.126 Y4.111 Z18.992 A344.7033 
N1347 X-314.956 Y4.362 Z19.190 A342.7637 
N1348 X-314.799 Y4.598 Z19.370 A340.9430 
N1349 X-314.654 Y4.819 Z19.531 A339.2481 
N1350 X-314.522 Y5.024 Z19.674 A337.6955 
N1351 X-314.395 Y5.226 Z19.808 A336.1833 
N1352 X-314.272 Y5.425 Z19.933 A334.7162 
N1353 X-314.150 Y5.626 Z20.052 A333.2624 
N1354 X-314.024 Y5.838 Z20.171 A331.7488 
N1355 X-313.898 Y6.056 Z20.283 A330.2218 
N1356 X-313.759 Y6.303 Z20.400 A328.5394 
N1357 X-313.617 Y6.562 Z20.509 A326.8145 
N1358 X-313.456 Y6.869 Z20.621 A324.8407 
N1359 X-313.284 Y7.213 Z20.722 A322.7196 
N1360 X-313.104 Y7.598 Z20.800 A320.4811 
N1361 X-312.922 Y8.023 Z20.838 A318.2113 
N1362 X-312.754 Y8.472 Z20.812 A316.0965 
N1363 X-312.605 Y8.958 Z20.690 A314.2208 
N1364 X-312.501 Y9.435 Z20.453 A312.9125 
N1365 X-312.441 Y9.911 Z20.092 A312.1861 
N1366 X-312.416 Y10.404 Z19.614 A311.9389 
N1367 X-312.408 Y10.945 Z19.033 A311.9577 
N1368 X-312.404 Y11.559 Z18.362 A312.0412 
N1369 X-312.394 Y12.254 Z17.618 A312.0758 
N1370 X-312.379 Y13.031 Z16.794 
N1371 X-312.363 Y13.880 Z15.895 A312.0705 
N1372 X-312.344 Y14.795 Z14.929 A312.0492 
N1373 X-312.325 Y15.764 Z13.905 A312.0347 
N1374 X-312.306 Y16.771 Z12.838 A312.0262 
N1375 X-312.287 Y17.803 Z11.744 A312.0264 
N1376 X-312.268 Y18.842 Z10.641 A312.0351 
N1377 X-312.249 Y19.873 Z9.546 A312.0490 
N1378 X-312.231 Y20.882 Z8.475 A312.0716 
N1379 X-312.212 Y21.852 Z7.448 A312.0758 
N1380 X-312.194 Y22.775 Z6.473 
N1381 X-312.175 Y23.644 Z5.559 A312.0532 
N1382 X-312.148 Y24.457 Z4.732 A311.8595 
N1383 X-312.110 Y25.216 Z3.992 A311.4586 
N1384 X-312.060 Y25.919 Z3.350 A310.8019 
N1385 X-311.999 Y26.574 Z2.795 A309.8770 
N1386 X-311.927 Y27.177 Z2.324 A308.7194 
N1387 X-311.850 Y27.735 Z1.921 A307.3736 
N1388 X-311.770 Y28.241 Z1.582 A305.9175 
N1389 X-311.692 Y28.697 Z1.296 A304.4163 
N1390 X-311.615 Y29.110 Z1.052 A302.9025 
N1391 X-311.540 Y29.492 Z0.838 A301.3720 
N1392 X-311.469 Y29.839 Z0.652 A299.8758 
N1393 X-311.402 Y30.154 Z0.490 A298.4358 
N1394 X-311.338 Y30.447 Z0.344 A297.0267 
N1395 X-311.277 Y30.721 Z0.209 A295.6532 
N1396 X-311.221 Y30.975 Z0.086 A294.3385 
N1397 X-311.168 Y31.213 Z-0.029 A293.0715 
N1398 X-311.117 Y31.441 Z-0.140 A291.8218 
N1399 X-311.067 Y31.663 Z-0.248 A290.5768 
N1400 X-311.021 Y31.871 Z-0.349 A289.3861 
N1401 X-310.975 Y32.076 Z-0.449 A288.1831 
N1402 X-310.931 Y32.277 Z-0.548 A286.9817 
N1403 X-310.888 Y32.473 Z-0.644 A285.7897 
N1404 X-310.845 Y32.668 Z-0.741 A284.5767 
N1405 X-310.804 Y32.856 Z-0.835 A283.3851 
N1406 X-310.763 Y33.047 Z-0.931 A282.1634 
N1407 X-310.724 Y33.230 Z-1.025 A280.9659 
N1408 X-310.685 Y33.415 Z-1.122 A279.7370 
N1409 X-310.648 Y33.595 Z-1.218 A278.5290 
N1410 X-310.611 Y33.776 Z-1.316 A277.2931 
N1411 X-310.576 Y33.953 Z-1.414 A276.0680 
N1412 X-310.542 Y34.130 Z-1.515 A274.8231 
N1413 X-310.509 Y34.305 Z-1.617 A273.5782 
N1414 X-310.477 Y34.478 Z-1.720 A272.3249 
N1415 X-310.447 Y34.651 Z-1.827 A271.0614 
N1416 X-310.418 Y34.821 Z-1.934 A269.7994 
N1417 X-310.390 Y34.991 Z-2.045 A268.5181 
N1418 X-310.364 Y35.157 Z-2.157 A267.2461 
N1419 X-310.339 Y35.323 Z-2.273 A265.9573 
N1420 X-310.317 Y35.487 Z-2.391 A264.6648 
N1421 X-310.296 Y35.649 Z-2.513 A263.3661 
N1422 X-310.276 Y35.809 Z-2.637 A262.0576 
N1423 X-310.259 Y35.967 Z-2.764 A260.7469 
N1424 X-310.244 Y36.124 Z-2.895 A259.4274 
N1425 X-310.231 Y36.278 Z-3.029 A258.1018 
N1426 X-310.219 Y36.430 Z-3.167 A256.7710 
N1427 X-310.211 Y36.579 Z-3.308 A255.4342 
N1428 X-310.204 Y36.726 Z-3.453 A254.0904 
N1429 X-310.200 Y36.869 Z-3.601 A252.7460 
N1430 X-310.198 Y37.010 Z-3.754 A251.3891 
N1431 X-310.199 Y37.148 Z-3.910 A250.0322 
N1432 X-310.203 Y37.283 Z-4.070 A248.6688 
N1433 X-310.209 Y37.414 Z-4.234 A247.2986 
N1434 X-310.218 Y37.541 Z-4.401 A245.9313 
N1435 X-310.230 Y37.666 Z-4.573 A244.5451 
N1436 X-310.245 Y37.785 Z-4.748 A243.1670 
N1437 X-310.263 Y37.902 Z-4.928 A241.7719 
N1438 X-310.284 Y38.013 Z-5.111 A240.3797 
N1439 X-310.309 Y38.120 Z-5.299 A238.9802 
N1440 X-310.336 Y38.223 Z-5.490 A237.5753 
N1441 X-310.367 Y38.320 Z-5.685 A236.1729 
N1442 X-310.401 Y38.412 Z-5.885 A234.7570 
N1443 X-310.439 Y38.499 Z-6.086 A233.3520 
N1444 X-310.480 Y38.580 Z-6.294 A231.9269 
N1445 X-310.525 Y38.654 Z-6.502 A230.5187 
N1446 X-310.574 Y38.723 Z-6.718 A229.0870 
N1447 X-310.626 Y38.785 Z-6.933 A227.6750 
N1448 X-310.683 Y38.841 Z-7.155 A226.2405 
N1449 X-310.743 Y38.889 Z-7.377 A224.8238 
N1450 X-310.808 Y38.930 Z-7.605 A223.3899 
N1451 X-310.876 Y38.963 Z-7.834 A221.9672 
N1452 X-310.949 Y38.988 Z-8.066 A220.5385 
N1453 X-311.026 Y39.005 Z-8.302 A219.1110 
N1454 X-311.107 Y39.013 Z-8.538 A217.6949 
N1455 X-311.193 Y39.012 Z-8.779 A216.2607 
N1456 X-311.283 Y39.002 Z-9.020 A214.8431 
N1457 X-311.377 Y38.982 Z-9.264 A213.4208 
N1458 X-311.477 Y38.952 Z-9.511 A211.9971 
N1459 X-311.581 Y38.912 Z-9.758 A210.5856 
N1460 X-311.689 Y38.860 Z-10.007 A209.1708 
N1461 X-311.804 Y38.797 Z-10.258 A207.7514 
N1462 X-311.923 Y38.722 Z-10.510 A206.3416 
N1463 X-312.047 Y38.634 Z-10.761 A204.9394 
N1464 X-312.177 Y38.533 Z-11.015 A203.5340 
N1465 X-312.315 Y38.416 Z-11.272 A202.1100 
N1466 X-312.459 Y38.284 Z-11.531 A200.6804 
N1467 X-312.612 Y38.134 Z-11.793 A199.2401 
N1468 X-312.773 Y37.965 Z-12.057 A197.7842 
N1469 X-312.943 Y37.774 Z-12.325 A196.3094 
N1470 X-313.125 Y37.558 Z-12.596 A194.8156 
N1471 X-313.323 Y37.308 Z-12.875 A193.2667 
N1472 X-313.537 Y37.022 Z-13.159 A191.6809 
N1473 X-313.767 Y36.698 Z-13.445 A190.0730 
N1474 X-314.021 Y36.320 Z-13.738 A188.4000 
N1475 X-314.299 Y35.883 Z-14.033 A186.6873 
N1476 X-314.600 Y35.379 Z-14.321 A184.9803 
N1477 X-314.932 Y34.789 Z-14.599 A183.2859 
N1478 X-315.287 Y34.117 Z-14.849 A181.7074 
N1479 X-315.671 Y33.342 Z-15.065 A180.2755 
N1480 X-316.078 Y32.465 Z-15.236 A179.0624 
N1481 X-316.512 Y31.477 Z-15.357 A178.0865 
N1482 X-316.971 Y30.381 Z-15.430 A177.3490 
N1483 X-317.461 Y29.170 Z-15.459 A176.8228 
N1484 X-317.981 Y27.849 Z-15.451 A176.4741 
N1485 X-318.531 Y26.424 Z-15.414 A176.2647 
N1486 X-319.110 Y24.907 Z-15.355 A176.1590 
N1487 X-319.716 Y23.309 Z-15.281 A176.1238 
N1488 X-320.344 Y21.647 Z-15.198 A176.1287 
N1489 X-320.988 Y19.942 Z-15.113 A176.1486 
N1490 X-321.640 Y18.215 Z-15.027 A176.1696 
N1491 X-322.294 Y16.489 Z-14.944 A176.1756 
N1492 X-322.939 Y14.784 Z-14.863 
N1493 X-323.569 Y13.121 Z-14.784 
N1494 X-324.179 Y11.518 Z-14.717 A176.1021 
N1495 X-324.764 Y9.991 Z-14.664 A175.9199 
N1496 X-325.322 Y8.552 Z-14.632 A175.5553 
N1497 X-325.855 Y7.201 Z-14.626 A174.9448 
N1498 X-326.359 Y5.945 Z-14.647 A174.0584 
N1499 X-326.833 Y4.784 Z-14.689 A172.9089 
N1500 X-327.278 Y3.708 Z-14.744 A171.5425 
N1501 X-327.692 Y2.714 Z-14.802 A170.0439 
N1502 X-328.074 Y1.794 Z-14.853 A168.4875 
N1503 X-328.424 Y0.944 Z-14.893 A166.9369 
N1504 X-328.745 Y0.156 Z-14.919 A165.4276 
N1505 X-329.039 Y-0.577 Z-14.930 A163.9795 
N1506 X-329.312 Y-1.269 Z-14.928 A162.5816 
N1507 X-329.566 Y-1.924 Z-14.913 A161.2351 
N1508 X-329.806 Y-2.554 Z-14.886 A159.9253 
N1509 X-330.032 Y-3.160 Z-14.847 A158.6546 
N1510 X-330.248 Y-3.753 Z-14.797 A157.4089 
N1511 X-330.457 Y-4.337 Z-14.734 A156.1807 
N1512 X-330.660 Y-4.918 Z-14.658 A154.9631 
N1513 X-330.858 Y-5.500 Z-14.567 A153.7489 
N1514 X-331.053 Y-6.089 Z-14.461 A152.5329 
N1515 X-331.247 Y-6.691 Z-14.335 A151.3066 
N1516 X-331.439 Y-7.311 Z-14.188 A150.0661 
N1517 X-331.631 Y-7.951 Z-14.015 A148.8166 
N1518 X-331.824 Y-8.621 Z-13.812 A147.5449 
N1519 X-332.015 Y-9.320 Z-13.573 A146.2655 
N1520 X-332.207 Y-10.059 Z-13.291 A144.9705 
N1521 X-332.398 Y-10.840 Z-12.959 A143.6757 
N1522 X-332.587 Y-11.670 Z-12.566 A142.3959 
N1523 X-332.769 Y-12.541 Z-12.108 A141.1705 
N1524 X-332.942 Y-13.461 Z-11.573 A140.0191 
N1525 X-333.105 Y-14.429 Z-10.953 A138.9789 
N1526 X-333.254 Y-15.439 Z-10.248 A138.0770 
N1527 X-333.388 Y-16.491 Z-9.456 A137.3257 
N1528 X-333.509 Y-17.580 Z-8.583 A136.7305 
N1529 X-333.616 Y-18.703 Z-7.634 A136.2851 
N1530 X-333.711 Y-19.853 Z-6.624 A135.9789 
N1531 X-333.797 Y-21.022 Z-5.564 A135.7931 
N1532 X-333.876 Y-22.203 Z-4.472 A135.7038 
N1533 X-333.950 Y-23.383 Z-3.366 A135.6809 
N1534 X-334.021 Y-24.552 Z-2.266 A135.6935 
N1535 X-334.090 Y-25.696 Z-1.189 A135.7190 
N1536 X-334.158 Y-26.801 Z-0.150 A135.7438 
N1537 X-334.224 Y-27.854 Z0.837 A135.7636 
N1538 X-334.286 Y-28.843 Z1.762 A135.7780 
N1539 X-334.346 Y-29.760 Z2.616 
N1540 X-334.400 Y-30.599 Z3.396 
N1541 X-334.451 Y-31.360 Z4.099 A135.7396 
N1542 X-334.509 Y-32.052 Z4.708 A135.5221 
N1543 X-334.574 Y-32.678 Z5.221 A135.0826 
N1544 X-334.650 Y-33.248 Z5.640 A134.3598 
N1545 X-334.739 Y-33.769 Z5.971 A133.3440 
N1546 X-334.838 Y-34.249 Z6.225 A132.0611 
N1547 X-334.946 Y-34.697 Z6.419 A130.5486 
N1548 X-335.053 Y-35.090 Z6.556 A128.9812 
N1549 X-335.161 Y-35.454 Z6.658 A127.3345 
N1550 X-335.267 Y-35.788 Z6.732 A125.6775 
N1551 X-335.369 Y-36.096 Z6.786 A124.0318 
N1552 X-335.468 Y-36.379 Z6.824 A122.4300 
N1553 X-335.557 Y-36.629 Z6.851 A120.9455 
N1554 X-335.651 Y-36.884 Z6.871 A119.3811 
N1555 X-335.728 Y-37.093 Z6.885 A118.0615 
N1556 X-335.811 Y-37.311 Z6.897 A116.6521 
N1557 X-335.887 Y-37.513 Z6.906 A115.3267 
N1558 X-335.958 Y-37.700 Z6.915 A114.0807 
N1559 X-336.032 Y-37.896 Z6.923 A112.7622 
N1560 X-336.103 Y-38.082 Z6.931 A111.4934 
N1561 X-336.168 Y-38.252 Z6.939 A110.3263 
N1562 X-336.234 Y-38.428 Z6.948 A109.1021 
N1563 X-336.304 Y-38.612 Z6.958 A107.8163 
N1564 X-336.369 Y-38.786 Z6.968 A106.5931 
N1565 X-336.430 Y-38.951 Z6.979 A105.4273 
N1566 X-336.493 Y-39.122 Z6.991 A104.2114 
N1567 X-336.558 Y-39.299 Z7.006 A102.9457 
N1568 X-336.624 Y-39.482 Z7.023 A101.6304 
N1569 X-336.684 Y-39.647 Z7.040 A100.4358 
N1570 X-336.742 Y-39.812 Z7.059 A99.2410 
N1571 X-336.801 Y-39.981 Z7.080 A98.0079 
N1572 X-336.862 Y-40.155 Z7.105 A96.7351 
N1573 X-336.922 Y-40.333 Z7.132 A95.4219 
N1574 X-336.982 Y-40.511 Z7.162 A94.1124 
N1575 X-337.036 Y-40.675 Z7.193 A92.8928 
N1576 X-337.090 Y-40.843 Z7.227 A91.6446 
N1577 X-337.144 Y-41.013 Z7.264 A90.3680 
N1578 X-337.198 Y-41.186 Z7.305 A89.0630 
N1579 X-337.252 Y-41.362 Z7.350 A87.7293 
N1580 X-337.305 Y-41.541 Z7.400 A86.3673 
N1581 X-337.354 Y-41.709 Z7.449 A85.0820 
N1582 X-337.401 Y-41.877 Z7.502 A83.7818 
N1583 X-337.448 Y-42.047 Z7.560 A82.4618 
N1584 X-337.494 Y-42.218 Z7.621 A81.1233 
N1585 X-337.538 Y-42.389 Z7.687 A79.7679 
N1586 X-337.582 Y-42.561 Z7.757 A78.3972 
N1587 X-337.623 Y-42.733 Z7.831 A77.0151 
N1588 X-337.662 Y-42.901 Z7.909 A75.6492 
N1589 X-337.699 Y-43.069 Z7.990 A74.2739 
N1590 X-337.735 Y-43.235 Z8.076 A72.8912 
N1591 X-337.768 Y-43.400 Z8.165 A71.5029 
N1592 X-337.799 Y-43.563 Z8.259 A70.1108 
N1593 X-337.828 Y-43.724 Z8.357 A68.7167 
N1594 X-337.855 Y-43.883 Z8.459 A67.3187 
N1595 X-337.880 Y-44.046 Z8.568 A65.8671 
N1596 X-337.903 Y-44.205 Z8.682 A64.4202 
N1597 X-337.923 Y-44.361 Z8.799 A62.9803 
N1598 X-337.940 Y-44.512 Z8.919 A61.5493 
N1599 X-337.955 Y-44.660 Z9.042 A60.1291 
N1600 X-337.966 Y-44.802 Z9.168 A58.7218 
N1601 X-337.976 Y-44.945 Z9.301 A57.2814 
N1602 X-337.982 Y-45.091 Z9.445 A55.7673 
N1603 X-337.986 Y-45.231 Z9.591 A54.2765 
N1604 X-337.986 Y-45.364 Z9.738 A52.8107 
N1605 X-337.984 Y-45.491 Z9.886 A51.3706 
N1606 X-337.978 Y-45.612 Z10.036 A49.9569 
N1607 X-337.970 Y-45.730 Z10.191 A48.5234 
N1608 X-337.957 Y-45.852 Z10.362 A46.9717 
N1609 X-337.941 Y-45.967 Z10.534 A45.4590 
N1610 X-337.923 Y-46.073 Z10.704 A43.9878 
N1611 X-337.901 Y-46.170 Z10.873 A42.5588 
N1612 X-337.877 Y-46.260 Z11.040 A41.1712 
N1613 X-337.847 Y-46.355 Z11.231 A39.6196 
N1614 X-337.814 Y-46.441 Z11.421 A38.0987 
N1615 X-337.778 Y-46.518 Z11.608 A36.6307 
N1616 X-337.739 Y-46.586 Z11.791 A35.2165 
N1617 X-337.697 Y-46.649 Z11.981 A33.7710 
N1618 X-337.647 Y-46.708 Z12.187 A32.2340 
N1619 X-337.596 Y-46.757 Z12.385 A30.7703 
N1620 X-337.543 Y-46.797 Z12.578 A29.3723 
N1621 X-337.483 Y-46.831 Z12.786 A27.8796 
N1622 X-337.415 Y-46.858 Z13.007 A26.3093 
N1623 X-337.346 Y-46.875 Z13.221 A24.8057 
N1624 X-337.268 Y-46.884 Z13.450 A23.2121 
N1625 X-337.177 Y-46.882 Z13.703 A21.4583 
N1626 X-337.085 Y-46.868 Z13.946 A19.7920 
N1627 X-336.965 Y-46.833 Z14.245 A17.7584 
N1628 X-336.842 Y-46.780 Z14.532 A15.8140 
N1629 X-336.690 Y-46.690 Z14.860 A13.6152 
N1630 X-336.520 Y-46.560 Z15.193 A11.3975 
N1631 X-336.329 Y-46.378 Z15.527 A9.1880 
N1632 X-336.118 Y-46.136 Z15.852 A7.0527 
N1633 X-335.883 Y-45.817 Z16.159 A5.0470 
N1634 X-335.623 Y-45.409 Z16.436 A3.2404 
N1635 X-335.337 Y-44.898 Z16.670 A1.7060 
N1636 X-335.020 Y-44.263 Z16.856 A0.4805 
N1637 X-334.676 Y-43.507 Z16.983 A359.6275 
N1638 X-334.295 Y-42.612 Z17.057 A359.1152 
N1639 X-333.866 Y-41.554 Z17.090 A358.8799 
N1640 X-333.381 Y-40.332 Z17.095 A358.8357 
N1641 X-332.830 Y-38.936 Z17.088 A358.8809 
N1642 X-332.206 Y-37.354 Z17.083 A358.9383 
N1643 X-331.509 Y-35.593 Z17.085 A358.9640 
N1644 X-330.742 Y-33.661 Z17.092 
N1645 X-329.911 Y-31.565 Z17.100 
N1646 X-329.024 Y-29.331 Z17.108 A358.9613 
N1647 X-328.092 Y-26.985 Z17.118 A358.9557 
N1648 X-327.129 Y-24.557 Z17.127 A358.9533 
N1649 X-326.148 Y-22.084 Z17.135 A358.9523 
N1650 X-325.163 Y-19.604 Z17.144 A358.9516 
N1651 X-324.191 Y-17.153 Z17.153 A358.9500 
N1652 X-323.245 Y-14.770 Z17.162 A358.9468 
N1653 X-322.339 Y-12.486 Z17.171 A358.9411 
N1654 X-321.483 Y-10.332 Z17.180 A358.9324 
N1655 X-320.688 Y-8.330 Z17.189 A358.9188 
N1656 X-319.961 Y-6.501 Z17.198 A358.8998 
N1657 X-319.304 Y-4.847 Z17.207 A358.8746 
N1658 X-318.721 Y-3.379 Z17.214 A358.8603 
N1659 X-318.211 Y-2.093 Z17.217 A358.8682 
N1660 X-317.775 Y-0.984 Z17.211 A358.9570 
N1661 X-317.397 Y-0.035 Z17.216 A358.9640 
N1662 X-317.074 Y0.775 Z17.224 A358.9426 
N1663 X-316.772 Y1.461 Z17.311 A358.2846 
N1664 X-316.486 Y2.029 Z17.484 A356.9044 
N1665 X-316.198 Y2.524 Z17.744 A354.7654 
N1666 X-315.930 Y2.941 Z18.034 A352.3006 
N1667 X-315.671 Y3.323 Z18.335 A349.6551 
N1668 X-315.442 Y3.658 Z18.607 A347.1726 
N1669 X-315.243 Y3.951 Z18.841 A344.9618 
N1670 X-315.067 Y4.214 Z19.044 A342.9686 
N1671 X-314.906 Y4.459 Z19.225 A341.1205 
N1672 X-314.762 Y4.681 Z19.382 A339.4618 
N1673 X-314.628 Y4.893 Z19.524 A337.9030 
N1674 X-314.500 Y5.098 Z19.654 A336.4127 
N1675 X-314.377 Y5.300 Z19.776 A334.9627 
N1676 X-314.256 Y5.503 Z19.891 A333.5319 
N1677 X-314.131 Y5.716 Z20.005 A332.0548 
N1678 X-314.007 Y5.934 Z20.112 A330.5677 
N1679 X-313.871 Y6.178 Z20.223 A328.9374 
N1680 X-313.732 Y6.436 Z20.327 A327.2616 
N1681 X-313.577 Y6.733 Z20.431 A325.3918 
N1682 X-313.411 Y7.067 Z20.526 A323.3631 
N1683 X-313.237 Y7.440 Z20.603 A321.2172 
N1684 X-313.058 Y7.853 Z20.645 A319.0136 
N1685 X-312.889 Y8.293 Z20.632 A316.8992 
N1686 X-312.733 Y8.773 Z20.538 A314.9508 
N1687 X-312.615 Y9.246 Z20.342 A313.4848 
N1688 X-312.539 Y9.722 Z20.025 A312.5596 
N1689 X-312.503 Y10.203 Z19.593 A312.1624 
N1690 X-312.490 Y10.715 Z19.059 A312.1104 
N1691 X-312.485 Y11.282 Z18.443 A312.1790 
N1692 X-312.476 Y11.918 Z17.760 A312.2338 
N1693 X-312.462 Y12.629 Z17.008 
N1694 X-312.446 Y13.404 Z16.190 
N1695 X-312.428 Y14.237 Z15.315 A312.2109 
N1696 X-312.409 Y15.110 Z14.395 A312.1937 
N1697 X-312.391 Y16.015 Z13.440 A312.1836 
N1698 X-312.373 Y16.937 Z12.465 A312.1860 
N1699 X-312.355 Y17.862 Z11.486 A312.1988 
N1700 X-312.338 Y18.775 Z10.519 A312.2183 
N1701 X-312.320 Y19.664 Z9.579 A312.2338 
N1702 X-312.303 Y20.515 Z8.681 
N1703 X-312.286 Y21.324 Z7.829 
N1704 X-312.263 Y22.085 Z7.045 A312.1238 
N1705 X-312.232 Y22.796 Z6.341 A311.8488 
N1706 X-312.189 Y23.468 Z5.716 A311.3280 
N1707 X-312.131 Y24.096 Z5.179 A310.5250 
N1708 X-312.061 Y24.680 Z4.728 A309.4426 
N1709 X-311.978 Y25.234 Z4.344 A308.0887 
N1710 X-311.890 Y25.744 Z4.024 A306.5733 
N1711 X-311.802 Y26.208 Z3.756 A304.9791 
N1712 X-311.716 Y26.632 Z3.527 A303.3643 
N1713 X-311.633 Y27.024 Z3.324 A301.7462 
N1714 X-311.555 Y27.381 Z3.144 A300.1783 
N1715 X-311.485 Y27.701 Z2.986 A298.6959 
N1716 X-311.418 Y27.999 Z2.841 A297.2583 
N1717 X-311.356 Y28.278 Z2.706 A295.8642 
N1718 X-311.298 Y28.537 Z2.581 A294.5288 
N1719 X-311.244 Y28.779 Z2.463 A293.2404 
N1720 X-311.193 Y29.013 Z2.348 A291.9744 
N1721 X-311.144 Y29.238 Z2.235 A290.7245 
N1722 X-311.098 Y29.452 Z2.125 A289.5132 
N1723 X-311.054 Y29.661 Z2.016 A288.3126 
N1724 X-311.012 Y29.866 Z1.906 A287.1100 
N1725 X-310.972 Y30.064 Z1.798 A285.9301 
N1726 X-310.933 Y30.260 Z1.689 A284.7399 
N1727 X-310.896 Y30.454 Z1.579 A283.5465 
N1728 X-310.860 Y30.644 Z1.468 A282.3515 
N1729 X-310.825 Y30.834 Z1.356 A281.1423 
N1730 X-310.792 Y31.020 Z1.242 A279.9396 
N1731 X-310.760 Y31.205 Z1.127 A278.7226 
N1732 X-310.730 Y31.387 Z1.009 A277.5065 
N1733 X-310.701 Y31.567 Z0.889 A276.2801 
N1734 X-310.674 Y31.745 Z0.767 A275.0499 
N1735 X-310.649 Y31.922 Z0.642 A273.8117 
N1736 X-310.625 Y32.097 Z0.514 A272.5673 
N1737 X-310.603 Y32.269 Z0.383 A271.3166 
N1738 X-310.583 Y32.439 Z0.249 A270.0602 
N1739 X-310.566 Y32.608 Z0.112 A268.7978 
N1740 X-310.550 Y32.773 Z-0.028 A267.5307 
N1741 X-310.537 Y32.937 Z-0.173 A266.2558 
N1742 X-310.525 Y33.098 Z-0.320 A264.9782 
N1743 X-310.517 Y33.256 Z-0.472 A263.6898 
N1744 X-310.511 Y33.412 Z-0.628 A262.4004 
N1745 X-310.507 Y33.565 Z-0.788 A261.1013 
N1746 X-310.506 Y33.714 Z-0.952 A259.8006 
N1747 X-310.508 Y33.861 Z-1.120 A258.4930 
N1748 X-310.512 Y34.004 Z-1.292 A257.1818 
N1749 X-310.520 Y34.143 Z-1.468 A255.8685 
N1750 X-310.531 Y34.279 Z-1.649 A254.5481 
N1751 X-310.545 Y34.409 Z-1.834 A253.2323 
N1752 X-310.562 Y34.537 Z-2.024 A251.9024 
N1753 X-310.582 Y34.659 Z-2.217 A250.5783 
N1754 X-310.606 Y34.777 Z-2.416 A249.2487 
N1755 X-310.634 Y34.889 Z-2.618 A247.9183 
N1756 X-310.664 Y34.996 Z-2.823 A246.5916 
N1757 X-310.698 Y35.099 Z-3.034 A245.2517 
N1758 X-310.736 Y35.196 Z-3.248 A243.9164 
N1759 X-310.777 Y35.288 Z-3.466 A242.5785 
N1760 X-310.822 Y35.374 Z-3.688 A241.2346 
N1761 X-310.870 Y35.454 Z-3.913 A239.8930 
N1762 X-310.922 Y35.529 Z-4.142 A238.5449 
N1763 X-310.978 Y35.597 Z-4.375 A237.1934 
N1764 X-311.037 Y35.660 Z-4.610 A235.8430 
N1765 X-311.100 Y35.716 Z-4.849 A234.4867 
N1766 X-311.166 Y35.766 Z-5.091 A233.1258 
N1767 X-311.236 Y35.809 Z-5.335 A231.7651 
N1768 X-311.309 Y35.845 Z-5.581 A230.4022 
N1769 X-311.386 Y35.875 Z-5.832 A229.0306 
N1770 X-311.466 Y35.898 Z-6.084 A227.6593 
N1771 X-311.550 Y35.914 Z-6.337 A226.2881 
N1772 X-311.638 Y35.923 Z-6.593 A224.9108 
N1773 X-311.729 Y35.924 Z-6.852 A223.5296 
N1774 X-311.824 Y35.918 Z-7.111 A222.1479 
N1775 X-311.922 Y35.905 Z-7.371 A220.7662 
N1776 X-312.023 Y35.883 Z-7.633 A219.3814 
N1777 X-312.129 Y35.854 Z-7.897 A217.9924 
N1778 X-312.238 Y35.816 Z-8.161 A216.6039 
N1779 X-312.350 Y35.770 Z-8.425 A215.2161 
N1780 X-312.466 Y35.715 Z-8.690 A213.8289 
N1781 X-312.585 Y35.652 Z-8.955 A212.4402 
N1782 X-312.708 Y35.579 Z-9.221 A211.0472 
N1783 X-312.835 Y35.497 Z-9.487 A209.6560 
N1784 X-312.966 Y35.405 Z-9.752 A208.2666 
N1785 X-313.100 Y35.304 Z-10.017 A206.8783 
N1786 X-313.238 Y35.191 Z-10.281 A205.4895 
N1787 X-313.381 Y35.069 Z-10.545 A204.0985 
N1788 X-313.527 Y34.934 Z-10.809 A202.7034 
N1789 X-313.679 Y34.787 Z-11.073 A201.3018 
N1790 X-313.837 Y34.627 Z-11.337 A199.8908 
N1791 X-314.001 Y34.451 Z-11.602 A198.4662 
N1792 X-314.172 Y34.259 Z-11.869 A197.0229 
N1793 X-314.351 Y34.047 Z-12.139 A195.5556 
N1794 X-314.540 Y33.814 Z-12.411 A194.0601 
N1795 X-314.739 Y33.557 Z-12.684 A192.5348 
N1796 X-314.956 Y33.264 Z-12.969 A190.9227 
N1797 X-315.186 Y32.939 Z-13.254 A189.2849 
N1798 X-315.438 Y32.564 Z-13.547 A187.5664 
N1799 X-315.709 Y32.139 Z-13.836 A185.8310 
N1800 X-316.002 Y31.653 Z-14.118 A184.0942 
N1801 X-316.315 Y31.098 Z-14.383 A182.4052 
N1802 X-316.654 Y30.461 Z-14.625 A180.7949 
N1803 X-317.012 Y29.740 Z-14.832 A179.3304 
N1804 X-317.394 Y28.925 Z-14.999 A178.0372 
N1805 X-317.795 Y28.018 Z-15.118 A176.9516 
N1806 X-318.220 Y27.009 Z-15.190 A176.0758 
N1807 X-318.668 Y25.899 Z-15.214 A175.4176 
N1808 X-319.136 Y24.697 Z-15.194 A174.9673 
N1809 X-319.627 Y23.402 Z-15.136 A174.6934 
N1810 X-320.140 Y22.028 Z-15.050 A174.5574 
N1811 X-320.675 Y20.581 Z-14.944 A174.5116 
N1812 X-321.227 Y19.080 Z-14.827 A174.5143 
N1813 X-321.793 Y17.540 Z-14.705 A174.5340 
N1814 X-322.367 Y15.980 Z-14.583 A174.5564 
N1815 X-322.941 Y14.420 Z-14.464 A174.5579 
N1816 X-323.510 Y12.878 Z-14.347 
N1817 X-324.067 Y11.371 Z-14.237 A174.5187 
N1818 X-324.609 Y9.916 Z-14.143 A174.3736 
N1819 X-325.132 Y8.526 Z-14.069 A174.0672 
N1820 X-325.637 Y7.208 Z-14.022 A173.5303 
N1821 X-326.122 Y5.964 Z-14.002 A172.7264 
N1822 X-326.586 Y4.797 Z-14.007 A171.6552 
N1823 X-327.024 Y3.707 Z-14.028 A170.3605 
N1824 X-327.435 Y2.692 Z-14.055 A168.9168 
N1825 X-327.817 Y1.748 Z-14.078 A167.4074 
N1826 X-328.172 Y0.864 Z-14.092 A165.8779 
N1827 X-328.499 Y0.037 Z-14.093 A164.3771 
N1828 X-328.800 Y-0.737 Z-14.079 A162.9282 
N1829 X-329.080 Y-1.470 Z-14.052 A161.5293 
N1830 X-329.343 Y-2.172 Z-14.011 A160.1702 
N1831 X-329.591 Y-2.845 Z-13.957 A158.8572 
N1832 X-329.827 Y-3.502 Z-13.890 A157.5708 
N1833 X-330.052 Y-4.146 Z-13.809 A156.3121 
N1834 X-330.271 Y-4.786 Z-13.712 A155.0695 
N1835 X-330.485 Y-5.428 Z-13.599 A153.8375 
N1836 X-330.695 Y-6.078 Z-13.465 A152.6049 
N1837 X-330.902 Y-6.740 Z-13.311 A151.3736 
N1838 X-331.108 Y-7.425 Z-13.130 A150.1302 
N1839 X-331.313 Y-8.132 Z-12.919 A148.8852 
N1840 X-331.517 Y-8.868 Z-12.673 A147.6393 
N1841 X-331.720 Y-9.641 Z-12.385 A146.3940 
N1842 X-331.922 Y-10.455 Z-12.047 A145.1589 
N1843 X-332.120 Y-11.309 Z-11.655 A143.9546 
N1844 X-332.315 Y-12.211 Z-11.198 A142.7875 
N1845 X-332.502 Y-13.157 Z-10.673 A141.6856 
N1846 X-332.681 Y-14.148 Z-10.074 A140.6705 
N1847 X-332.850 Y-15.186 Z-9.394 A139.7603 
N1848 X-333.007 Y-16.262 Z-8.637 A138.9763 
N1849 X-333.151 Y-17.375 Z-7.805 A138.3227 
N1850 X-333.283 Y-18.518 Z-6.905 A137.7995 
N1851 X-333.405 Y-19.688 Z-5.945 A137.3977 
N1852 X-333.516 Y-20.872 Z-4.940 A137.1066 
N1853 X-333.619 Y-22.063 Z-3.905 A136.9117 
N1854 X-333.714 Y-23.248 Z-2.854 A136.7974 
N1855 X-333.804 Y-24.416 Z-1.806 A136.7462 
N1856 X-333.888 Y-25.553 Z-0.777 A136.7394 
N1857 X-333.967 Y-26.649 Z0.218 A136.7608 
N1858 X-334.043 Y-27.689 Z1.163 A136.7933 
N1859 X-334.114 Y-28.666 Z2.050 A136.8248 
N1860 X-334.182 Y-29.571 Z2.864 
N1861 X-334.245 Y-30.401 Z3.611 
N1862 X-334.306 Y-31.151 Z4.275 A136.7566 
N1863 X-334.369 Y-31.832 Z4.856 A136.5489 
N1864 X-334.437 Y-32.443 Z5.344 A136.1534 
N1865 X-334.514 Y-33.000 Z5.747 A135.5035 
N1866 X-334.602 Y-33.505 Z6.060 A134.5721 
N1867 X-334.704 Y-33.976 Z6.298 A133.3305 
N1868 X-334.814 Y-34.406 Z6.466 A131.8571 
N1869 X-334.935 Y-34.817 Z6.585 A130.1552 
N1870 X-335.053 Y-35.185 Z6.663 A128.4140 
N1871 X-335.170 Y-35.528 Z6.715 A126.6334 
N1872 X-335.276 Y-35.827 Z6.748 A124.9778 
N1873 X-335.378 Y-36.105 Z6.771 A123.3635 
N1874 X-335.480 Y-36.377 Z6.789 A121.7236 
N1875 X-335.564 Y-36.599 Z6.799 A120.3458 
N1876 X-335.652 Y-36.830 Z6.807 A118.8709 
N1877 X-335.730 Y-37.032 Z6.813 A117.5586 
N1878 X-335.807 Y-37.230 Z6.816 A116.2551 
N1879 X-335.888 Y-37.437 Z6.820 A114.8653 
N1880 X-335.957 Y-37.614 Z6.823 A113.6698 
N1881 X-336.026 Y-37.791 Z6.826 A112.4569 
N1882 X-336.097 Y-37.976 Z6.830 A111.1854 
N1883 X-336.168 Y-38.160 Z6.836 A109.9018 
N1884 X-336.231 Y-38.324 Z6.841 A108.7600 
N1885 X-336.295 Y-38.492 Z6.848 A107.5730 
N1886 X-336.361 Y-38.667 Z6.857 A106.3376 
N1887 X-336.429 Y-38.848 Z6.867 A105.0503 
N1888 X-336.491 Y-39.015 Z6.878 A103.8612 
N1889 X-336.552 Y-39.179 Z6.891 A102.6828 
N1890 X-336.613 Y-39.348 Z6.905 A101.4649 
N1891 X-336.676 Y-39.521 Z6.923 A100.2082 
N1892 X-336.739 Y-39.700 Z6.943 A98.9126 
N1893 X-336.799 Y-39.871 Z6.965 A97.6609 
N1894 X-336.856 Y-40.035 Z6.988 A96.4619 
N1895 X-336.913 Y-40.202 Z7.014 A95.2304 
N1896 X-336.970 Y-40.373 Z7.043 A93.9662 
N1897 X-337.027 Y-40.548 Z7.075 A92.6701 
N1898 X-337.085 Y-40.725 Z7.112 A91.3437 
N1899 X-337.139 Y-40.898 Z7.150 A90.0491 
N1900 X-337.191 Y-41.064 Z7.190 A88.7948 
N1901 X-337.242 Y-41.233 Z7.234 A87.5170 
N1902 X-337.293 Y-41.404 Z7.282 A86.2160 
N1903 X-337.342 Y-41.576 Z7.333 A84.8928 
N1904 X-337.391 Y-41.750 Z7.389 A83.5485 
N1905 X-337.439 Y-41.925 Z7.449 A82.1847 
N1906 X-337.484 Y-42.094 Z7.511 A80.8582 
N1907 X-337.528 Y-42.263 Z7.577 A79.5254 
N1908 X-337.569 Y-42.431 Z7.646 A78.1793 
N1909 X-337.610 Y-42.600 Z7.720 A76.8215 
N1910 X-337.648 Y-42.767 Z7.798 A75.4534 
N1911 X-337.685 Y-42.935 Z7.881 A74.0770 
N1912 X-337.720 Y-43.101 Z7.967 A72.6941 
N1913 X-337.753 Y-43.267 Z8.059 A71.2912 
N1914 X-337.784 Y-43.431 Z8.155 A69.8841 
N1915 X-337.813 Y-43.593 Z8.254 A68.4758 
N1916 X-337.839 Y-43.753 Z8.358 A67.0684 
N1917 X-337.863 Y-43.910 Z8.465 A65.6637 
N1918 X-337.885 Y-44.063 Z8.576 A64.2640 
N1919 X-337.903 Y-44.214 Z8.691 A62.8643 
N1920 X-337.921 Y-44.370 Z8.816 A61.3830 
N1921 X-337.935 Y-44.522 Z8.944 A59.9135 
N1922 X-337.947 Y-44.669 Z9.076 A58.4578 
N1923 X-337.955 Y-44.811 Z9.210 A57.0179 
N1924 X-337.961 Y-44.947 Z9.346 A55.5961 
N1925 X-337.963 Y-45.078 Z9.483 A54.1947 
N1926 X-337.963 Y-45.213 Z9.633 A52.7078 
N1927 X-337.960 Y-45.346 Z9.790 A51.1942 
N1928 X-337.954 Y-45.471 Z9.948 A49.7095 
N1929 X-337.944 Y-45.590 Z10.106 A48.2539 
N1930 X-337.932 Y-45.702 Z10.265 A46.8280 
N1931 X-337.917 Y-45.806 Z10.423 A45.4331 
N1932 X-337.897 Y-45.918 Z10.604 A43.8814 
N1933 X-337.874 Y-46.021 Z10.784 A42.3626 
N1934 X-337.848 Y-46.115 Z10.962 A40.8897 
N1935 X-337.819 Y-46.201 Z11.138 A39.4613 
N1936 X-337.789 Y-46.279 Z11.311 A38.0762 
N1937 X-337.750 Y-46.360 Z11.510 A36.5198 
N1938 X-337.709 Y-46.432 Z11.705 A35.0128 
N1939 X-337.666 Y-46.494 Z11.896 A33.5657 
N1940 X-337.621 Y-46.548 Z12.081 A32.1800 
N1941 X-337.568 Y-46.598 Z12.285 A30.6770 
N1942 X-337.511 Y-46.639 Z12.492 A29.1724 
N1943 X-337.453 Y-46.672 Z12.693 A27.7338 
N1944 X-337.391 Y-46.696 Z12.894 A26.3050 
N1945 X-337.315 Y-46.715 Z13.130 A24.6451 
N1946 X-337.237 Y-46.724 Z13.358 A23.0535 
N1947 X-337.151 Y-46.722 Z13.599 A21.3914 
N1948 X-337.047 Y-46.707 Z13.874 A19.4932 
N1949 X-336.939 Y-46.677 Z14.146 A17.6367 
N1950 X-336.801 Y-46.620 Z14.469 A15.4376 
N1951 X-336.649 Y-46.532 Z14.798 A13.2214 
N1952 X-336.479 Y-46.403 Z15.134 A10.9646 
N1953 X-336.283 Y-46.218 Z15.480 A8.6628 
N1954 X-336.060 Y-45.960 Z15.818 A6.4222 
N1955 X-335.823 Y-45.632 Z16.119 A4.4400 
N1956 X-335.559 Y-45.202 Z16.386 A2.6906 
N1957 X-335.275 Y-44.676 Z16.598 A1.2958 
N1958 X-334.961 Y-44.027 Z16.759 A0.2312 
N1959 X-334.616 Y-43.249 Z16.866 A359.5103 
N1960 X-334.230 Y-42.330 Z16.927 A359.0924 
N1961 X-333.793 Y-41.246 Z16.952 A358.9100 
N1962 X-333.296 Y-39.995 Z16.956 A358.8852 
N1963 X-332.733 Y-38.566 Z16.950 A358.9314 
N1964 X-332.098 Y-36.956 Z16.947 A358.9839 
N1965 X-331.388 Y-35.166 Z16.950 A359.0039 
N1966 X-330.609 Y-33.203 Z16.958 
N1967 X-329.767 Y-31.083 Z16.966 
N1968 X-328.873 Y-28.829 Z16.976 A358.9998 
N1969 X-327.936 Y-26.469 Z16.986 A358.9945 
N1970 X-326.969 Y-24.035 Z16.995 A358.9922 
N1971 X-325.988 Y-21.564 Z17.004 A358.9914 
N1972 X-325.008 Y-19.092 Z17.014 A358.9908 
N1973 X-324.042 Y-16.659 Z17.023 A358.9890 
N1974 X-323.105 Y-14.300 Z17.032 A358.9853 
N1975 X-322.211 Y-12.047 Z17.041 A358.9789 
N1976 X-321.371 Y-9.931 Z17.050 A358.9693 
N1977 X-320.592 Y-7.971 Z17.059 A358.9549 
N1978 X-319.882 Y-6.184 Z17.068 A358.9352 
N1979 X-319.242 Y-4.574 Z17.077 A358.9120 
N1980 X-318.678 Y-3.154 Z17.083 A358.9011 
N1981 X-318.186 Y-1.911 Z17.085 A358.9218 
N1982 X-317.762 Y-0.834 Z17.080 A359.0039 
N1983 X-317.402 Y0.071 Z17.086 
N1984 X-317.085 Y0.851 Z17.110 A358.8537 
N1985 X-316.785 Y1.510 Z17.220 A358.0061 
N1986 X-316.498 Y2.058 Z17.418 A356.4044 
N1987 X-316.209 Y2.538 Z17.696 A354.0910 
N1988 X-315.944 Y2.943 Z17.991 A351.5629 
N1989 X-315.694 Y3.310 Z18.284 A348.9610 
N1990 X-315.472 Y3.637 Z18.547 A346.5418 
N1991 X-315.277 Y3.926 Z18.773 A344.3675 
N1992 X-315.102 Y4.191 Z18.971 A342.3912 
N1993 X-314.945 Y4.432 Z19.144 A340.6031 
N1994 X-314.806 Y4.650 Z19.292 A339.0043 
N1995 X-314.672 Y4.865 Z19.431 A337.4466 
N1996 X-314.548 Y5.066 Z19.554 A336.0120 
N1997 X-314.426 Y5.271 Z19.672 A334.5750 
N1998 X-314.304 Y5.477 Z19.784 A333.1480 
N1999 X-314.183 Y5.688 Z19.891 A331.7103 
N2000 X-314.055 Y5.916 Z19.997 A330.1932 
N2001 X-313.923 Y6.157 Z20.099 A328.6261 
N2002 X-313.785 Y6.418 Z20.197 A326.9703 
N2003 X-313.633 Y6.716 Z20.293 A325.1423 
N2004 X-313.474 Y7.043 Z20.376 A323.2123 
N2005 X-313.307 Y7.408 Z20.441 A321.1695 
N2006 X-313.134 Y7.815 Z20.474 A319.0445 
N2007 X-312.966 Y8.253 Z20.458 A316.9616 
N2008 X-312.815 Y8.714 Z20.371 A315.0701 
N2009 X-312.694 Y9.185 Z20.188 A313.5489 
N2010 X-312.614 Y9.653 Z19.893 A312.5620 
N2011 X-312.574 Y10.120 Z19.485 A312.1059 
N2012 X-312.559 Y10.608 Z18.983 A312.0093 
N2013 X-312.554 Y11.143 Z18.404 A312.0479 
N2014 X-312.546 Y11.734 Z17.766 A312.0884 
N2015 X-312.535 Y12.391 Z17.067 
N2016 X-312.523 Y13.097 Z16.316 A312.0866 
N2017 X-312.508 Y13.849 Z15.521 A312.0620 
N2018 X-312.494 Y14.633 Z14.689 A312.0427 
N2019 X-312.480 Y15.437 Z13.833 A312.0341 
N2020 X-312.467 Y16.250 Z12.964 A312.0438 
N2021 X-312.455 Y17.058 Z12.099 A312.0664 
N2022 X-312.443 Y17.851 Z11.250 A312.0884 
N2023 X-312.430 Y18.618 Z10.434 
N2024 X-312.416 Y19.352 Z9.657 A312.0669 
N2025 X-312.396 Y20.050 Z8.937 A311.9406 
N2026 X-312.369 Y20.704 Z8.284 A311.6765 
N2027 X-312.331 Y21.322 Z7.703 A311.2044 
N2028 X-312.280 Y21.906 Z7.197 A310.4721 
N2029 X-312.214 Y22.459 Z6.768 A309.4546 
N2030 X-312.135 Y22.982 Z6.408 A308.1630 
N2031 X-312.047 Y23.473 Z6.110 A306.6613 
N2032 X-311.956 Y23.925 Z5.863 A305.0474 
N2033 X-311.864 Y24.347 Z5.652 A303.3711 
N2034 X-311.777 Y24.733 Z5.468 A301.7076 
N2035 X-311.694 Y25.090 Z5.304 A300.0751 
N2036 X-311.618 Y25.415 Z5.156 A298.5194 
N2037 X-311.549 Y25.711 Z5.021 A297.0482 
N2038 X-311.485 Y25.985 Z4.895 A295.6452 
N2039 X-311.425 Y26.243 Z4.776 A294.2903 
N2040 X-311.369 Y26.488 Z4.661 A292.9682 
N2041 X-311.316 Y26.724 Z4.549 A291.6705 
N2042 X-311.267 Y26.944 Z4.441 A290.4325 
N2043 X-311.220 Y27.160 Z4.332 A289.2004 
N2044 X-311.176 Y27.371 Z4.223 A287.9759 
N2045 X-311.134 Y27.574 Z4.114 A286.7826 
N2046 X-311.094 Y27.774 Z4.004 A285.5851 
N2047 X-311.056 Y27.970 Z3.892 A284.3916 
N2048 X-311.020 Y28.163 Z3.779 A283.1988 
N2049 X-310.985 Y28.355 Z3.663 A281.9976 
N2050 X-310.953 Y28.543 Z3.546 A280.7975 
N2051 X-310.921 Y28.731 Z3.426 A279.5864 
N2052 X-310.892 Y28.916 Z3.303 A278.3701 
N2053 X-310.864 Y29.099 Z3.176 A277.1470 
N2054 X-310.838 Y29.280 Z3.047 A275.9188 
N2055 X-310.815 Y29.459 Z2.914 A274.6840 
N2056 X-310.794 Y29.636 Z2.777 A273.4446 
N2057 X-310.774 Y29.811 Z2.636 A272.1966 
N2058 X-310.758 Y29.984 Z2.492 A270.9435 
N2059 X-310.743 Y30.154 Z2.343 A269.6849 
N2060 X-310.731 Y30.322 Z2.189 A268.4184 
N2061 X-310.723 Y30.486 Z2.031 A267.1521 
N2062 X-310.716 Y30.649 Z1.868 A265.8713 
N2063 X-310.713 Y30.808 Z1.700 A264.5908 
N2064 X-310.713 Y30.963 Z1.527 A263.3063 
N2065 X-310.716 Y31.116 Z1.348 A262.0120 
N2066 X-310.723 Y31.264 Z1.165 A260.7197 
N2067 X-310.733 Y31.408 Z0.975 A259.4180 
N2068 X-310.747 Y31.549 Z0.780 A258.1133 
N2069 X-310.765 Y31.684 Z0.580 A256.8118 
N2070 X-310.786 Y31.815 Z0.374 A255.5013 
N2071 X-310.812 Y31.940 Z0.161 A254.1898 
N2072 X-310.842 Y32.060 Z-0.056 A252.8829 
N2073 X-310.876 Y32.173 Z-0.278 A251.5767 
N2074 X-310.915 Y32.281 Z-0.507 A250.2640 
N2075 X-310.958 Y32.382 Z-0.741 A248.9571 
N2076 X-311.006 Y32.476 Z-0.979 A247.6561 
N2077 X-311.058 Y32.564 Z-1.223 A246.3580 
N2078 X-311.114 Y32.644 Z-1.472 A245.0549 
N2079 X-311.175 Y32.717 Z-1.725 A243.7569 
N2080 X-311.241 Y32.783 Z-1.982 A242.4632 
N2081 X-311.311 Y32.841 Z-2.243 A241.1726 
N2082 X-311.385 Y32.892 Z-2.507 A239.8839 
N2083 X-311.463 Y32.935 Z-2.776 A238.5941 
N2084 X-311.545 Y32.971 Z-3.047 A237.3013 
N2085 X-311.631 Y33.000 Z-3.322 A236.0077 
N2086 X-311.721 Y33.022 Z-3.598 A234.7122 
N2087 X-311.814 Y33.037 Z-3.877 A233.4137 
N2088 X-311.911 Y33.045 Z-4.158 A232.1110 
N2089 X-312.011 Y33.046 Z-4.441 A230.8034 
N2090 X-312.114 Y33.040 Z-4.725 A229.4902 
N2091 X-312.220 Y33.028 Z-5.011 A228.1712 
N2092 X-312.330 Y33.009 Z-5.297 A226.8461 
N2093 X-312.442 Y32.983 Z-5.584 A225.5146 
N2094 X-312.557 Y32.951 Z-5.871 A224.1766 
N2095 X-312.674 Y32.912 Z-6.159 A222.8321 
N2096 X-312.794 Y32.867 Z-6.447 A221.4812 
N2097 X-312.917 Y32.815 Z-6.734 A220.1245 
N2098 X-313.042 Y32.757 Z-7.021 A218.7628 
N2099 X-313.170 Y32.691 Z-7.307 A217.3962 
N2100 X-313.300 Y32.619 Z-7.592 A216.0249 
N2101 X-313.432 Y32.540 Z-7.877 A214.6494 
N2102 X-313.567 Y32.453 Z-8.160 A213.2700 
N2103 X-313.705 Y32.360 Z-8.442 A211.8878 
N2104 X-313.844 Y32.258 Z-8.722 A210.5037 
N2105 X-313.987 Y32.149 Z-9.001 A209.1180 
N2106 X-314.131 Y32.032 Z-9.278 A207.7305 
N2107 X-314.279 Y31.906 Z-9.553 A206.3410 
N2108 X-314.429 Y31.772 Z-9.827 A204.9491 
N2109 X-314.583 Y31.629 Z-10.099 A203.5543 
N2110 X-314.739 Y31.475 Z-10.369 A202.1563 
N2111 X-314.900 Y31.311 Z-10.637 A200.7542 
N2112 X-315.064 Y31.136 Z-10.905 A199.3463 
N2113 X-315.233 Y30.948 Z-11.171 A197.9302 
N2114 X-315.407 Y30.747 Z-11.436 A196.5026 
N2115 X-315.588 Y30.528 Z-11.703 A195.0494 
N2116 X-315.778 Y30.290 Z-11.972 A193.5634 
N2117 X-315.976 Y30.032 Z-12.242 A192.0480 
N2118 X-316.183 Y29.750 Z-12.512 A190.5100 
N2119 X-316.408 Y29.432 Z-12.788 A188.9022 
N2120 X-316.642 Y29.085 Z-13.060 A187.2926 
N2121 X-316.896 Y28.687 Z-13.334 A185.6264 
N2122 X-317.167 Y28.242 Z-13.601 A183.9605 
N2123 X-317.457 Y27.740 Z-13.856 A182.3075 
N2124 X-317.764 Y27.177 Z-14.094 A180.6989 
N2125 X-318.096 Y26.532 Z-14.311 A179.1355 
N2126 X-318.445 Y25.815 Z-14.495 A177.6928 
N2127 X-318.813 Y25.014 Z-14.639 A176.3978 
N2128 X-319.196 Y24.132 Z-14.735 A175.2978 
N2129 X-319.598 Y23.160 Z-14.782 A174.4110 
N2130 X-320.014 Y22.105 Z-14.779 A173.7494 
N2131 X-320.447 Y20.967 Z-14.730 A173.2935 
N2132 X-320.894 Y19.758 Z-14.644 A173.0123 
N2133 X-321.358 Y18.482 Z-14.529 A172.8604 
N2134 X-321.836 Y17.151 Z-14.393 A172.7984 
N2135 X-322.326 Y15.779 Z-14.246 A172.7896 
N2136 X-322.825 Y14.380 Z-14.092 A172.8092 
N2137 X-323.328 Y12.972 Z-13.939 A172.8150 
N2138 X-323.830 Y11.568 Z-13.789 A172.8098 
N2139 X-324.328 Y10.185 Z-13.651 A172.7177 
N2140 X-324.817 Y8.837 Z-13.529 A172.5030 
N2141 X-325.298 Y7.534 Z-13.430 A172.1029 
N2142 X-325.766 Y6.285 Z-13.357 A171.4730 
N2143 X-326.221 Y5.091 Z-13.308 A170.5942 
N2144 X-326.657 Y3.963 Z-13.279 A169.4879 
N2145 X-327.074 Y2.894 Z-13.262 A168.1965 
N2146 X-327.467 Y1.885 Z-13.247 A166.7910 
N2147 X-327.837 Y0.932 Z-13.227 A165.3299 
N2148 X-328.180 Y0.037 Z-13.197 A163.8696 
N2149 X-328.501 Y-0.813 Z-13.154 A162.4285 
N2150 X-328.801 Y-1.621 Z-13.097 A161.0226 
N2151 X-329.082 Y-2.396 Z-13.027 A159.6542 
N2152 X-329.348 Y-3.145 Z-12.942 A158.3197 
N2153 X-329.602 Y-3.875 Z-12.842 A157.0172 
N2154 X-329.845 Y-4.594 Z-12.726 A155.7425 
N2155 X-330.079 Y-5.309 Z-12.590 A154.4889 
N2156 X-330.308 Y-6.027 Z-12.434 A153.2529 
N2157 X-330.532 Y-6.755 Z-12.255 A152.0254 
N2158 X-330.753 Y-7.500 Z-12.048 A150.8050 
N2159 X-330.972 Y-8.266 Z-11.810 A149.5916 
N2160 X-331.188 Y-9.059 Z-11.536 A148.3877 
N2161 X-331.402 Y-9.883 Z-11.220 A147.2010 
N2162 X-331.613 Y-10.746 Z-10.856 A146.0333 
N2163 X-331.821 Y-11.644 Z-10.440 A144.9043 
N2164 X-332.024 Y-12.586 Z-9.964 A143.8190 
N2165 X-332.221 Y-13.570 Z-9.424 A142.7921 
N2166 X-332.412 Y-14.597 Z-8.817 A141.8340 
N2167 X-332.593 Y-15.661 Z-8.143 A140.9608 
N2168 X-332.765 Y-16.763 Z-7.401 A140.1776 
N2169 X-332.927 Y-17.897 Z-6.594 A139.4924 
N2170 X-333.078 Y-19.055 Z-5.731 A138.9097 
N2171 X-333.218 Y-20.227 Z-4.818 A138.4330 
N2172 X-333.346 Y-21.407 Z-3.868 A138.0645 
N2173 X-333.464 Y-22.581 Z-2.892 A137.8027 
N2174 X-333.571 Y-23.739 Z-1.907 A137.6400 
N2175 X-333.670 Y-24.868 Z-0.928 A137.5627 
N2176 X-333.762 Y-25.960 Z0.031 A137.5506 
N2177 X-333.847 Y-27.003 Z0.951 A137.5805 
N2178 X-333.927 Y-27.989 Z1.823 A137.6291 
N2179 X-334.002 Y-28.907 Z2.632 A137.6701 
N2180 X-334.075 Y-29.759 Z3.375 
N2181 X-334.142 Y-30.533 Z4.050 
N2182 X-334.210 Y-31.242 Z4.647 A137.5418 
N2183 X-334.280 Y-31.880 Z5.159 A137.2533 
N2184 X-334.355 Y-32.452 Z5.584 A136.7635 
N2185 X-334.440 Y-32.980 Z5.933 A136.0203 
N2186 X-334.533 Y-33.456 Z6.200 A135.0194 
N2187 X-334.635 Y-33.888 Z6.394 A133.7783 
N2188 X-334.751 Y-34.308 Z6.534 A132.2413 
N2189 X-334.869 Y-34.685 Z6.622 A130.5872 
N2190 X-334.990 Y-35.039 Z6.676 A128.8276 
N2191 X-335.109 Y-35.367 Z6.707 A127.0463 
N2192 X-335.218 Y-35.656 Z6.722 A125.3848 
N2193 X-335.324 Y-35.931 Z6.731 A123.7308 
N2194 X-335.420 Y-36.179 Z6.735 A122.1931 
N2195 X-335.513 Y-36.414 Z6.737 A120.7046 
N2196 X-335.595 Y-36.623 Z6.737 A119.3540 
N2197 X-335.682 Y-36.843 Z6.736 A117.9091 
N2198 X-335.755 Y-37.025 Z6.735 A116.6896 
N2199 X-335.828 Y-37.209 Z6.734 A115.4519 
N2200 X-335.904 Y-37.400 Z6.732 A114.1429 
N2201 X-335.976 Y-37.581 Z6.731 A112.8970 
N2202 X-336.043 Y-37.749 Z6.731 A111.7338 
N2203 X-336.111 Y-37.923 Z6.732 A110.5187 
N2204 X-336.182 Y-38.103 Z6.734 A109.2513 
N2205 X-336.251 Y-38.281 Z6.737 A107.9971 
N2206 X-336.313 Y-38.442 Z6.742 A106.8522 
N2207 X-336.377 Y-38.608 Z6.748 A105.6669 
N2208 X-336.442 Y-38.780 Z6.756 A104.4386 
N2209 X-336.508 Y-38.957 Z6.766 A103.1650 
N2210 X-336.573 Y-39.132 Z6.778 A101.8978 
N2211 X-336.632 Y-39.294 Z6.792 A100.7234 
N2212 X-336.693 Y-39.460 Z6.808 A99.5163 
N2213 X-336.753 Y-39.630 Z6.826 A98.2770 
N2214 X-336.814 Y-39.804 Z6.848 A97.0052 
N2215 X-336.875 Y-39.981 Z6.873 A95.7002 
N2216 X-336.934 Y-40.153 Z6.900 A94.4295 
N2217 X-336.989 Y-40.319 Z6.928 A93.2045 
N2218 X-337.044 Y-40.487 Z6.960 A91.9527 
N2219 X-337.099 Y-40.657 Z6.996 A90.6754 
N2220 X-337.154 Y-40.830 Z7.035 A89.3739 
N2221 X-337.208 Y-41.006 Z7.078 A88.0490 
N2222 X-337.261 Y-41.183 Z7.125 A86.7017 
N2223 X-337.310 Y-41.350 Z7.173 A85.4181 
N2224 X-337.359 Y-41.519 Z7.225 A84.1181 
N2225 X-337.406 Y-41.689 Z7.281 A82.8013 
N2226 X-337.452 Y-41.859 Z7.341 A81.4693 
N2227 X-337.497 Y-42.030 Z7.405 A80.1237 
N2228 X-337.540 Y-42.201 Z7.473 A78.7660 
N2229 X-337.582 Y-42.371 Z7.546 A77.3982 
N2230 X-337.621 Y-42.540 Z7.622 A76.0325 
N2231 X-337.659 Y-42.707 Z7.702 A74.6596 
N2232 X-337.695 Y-42.874 Z7.787 A73.2811 
N2233 X-337.728 Y-43.038 Z7.875 A71.8990 
N2234 X-337.760 Y-43.201 Z7.967 A70.5149 
N2235 X-337.789 Y-43.362 Z8.064 A69.1308 
N2236 X-337.816 Y-43.520 Z8.164 A67.7446 
N2237 X-337.842 Y-43.683 Z8.272 A66.2967 
N2238 X-337.865 Y-43.842 Z8.385 A64.8545 
N2239 X-337.885 Y-43.998 Z8.501 A63.4203 
N2240 X-337.903 Y-44.149 Z8.620 A61.9962 
N2241 X-337.918 Y-44.297 Z8.742 A60.5840 
N2242 X-337.930 Y-44.439 Z8.866 A59.1851 
N2243 X-337.940 Y-44.583 Z8.998 A57.7463 
N2244 X-337.947 Y-44.729 Z9.140 A56.2412 
N2245 X-337.951 Y-44.869 Z9.285 A54.7580 
N2246 X-337.952 Y-45.002 Z9.431 A53.2992 
N2247 X-337.950 Y-45.130 Z9.578 A51.8667 
N2248 X-337.945 Y-45.250 Z9.726 A50.4614 
N2249 X-337.937 Y-45.370 Z9.881 A49.0180 
N2250 X-337.926 Y-45.492 Z10.050 A47.4837 
N2251 X-337.911 Y-45.606 Z10.220 A45.9850 
N2252 X-337.893 Y-45.713 Z10.388 A44.5230 
N2253 X-337.872 Y-45.812 Z10.556 A43.0994 
N2254 X-337.849 Y-45.903 Z10.723 A41.7084 
N2255 X-337.819 Y-45.999 Z10.913 A40.1544 
N2256 X-337.787 Y-46.086 Z11.101 A38.6522 
N2257 X-337.752 Y-46.164 Z11.285 A37.1995 
N2258 X-337.715 Y-46.233 Z11.466 A35.7946 
N2259 X-337.673 Y-46.299 Z11.658 A34.3311 
N2260 X-337.625 Y-46.360 Z11.861 A32.8032 
N2261 X-337.576 Y-46.412 Z12.059 A31.3424 
N2262 X-337.524 Y-46.454 Z12.250 A29.9475 
N2263 X-337.465 Y-46.491 Z12.456 A28.4597 
N2264 X-337.400 Y-46.520 Z12.672 A26.9220 
N2265 X-337.334 Y-46.540 Z12.881 A25.4515 
N2266 X-337.260 Y-46.552 Z13.101 A23.9130 
N2267 X-337.173 Y-46.554 Z13.349 A22.1976 
N2268 X-337.085 Y-46.545 Z13.587 A20.5559 
N2269 X-336.973 Y-46.520 Z13.874 A18.5978 
N2270 X-336.856 Y-46.479 Z14.158 A16.6609 
N2271 X-336.707 Y-46.405 Z14.495 A14.3800 
N2272 X-336.542 Y-46.297 Z14.837 A12.0763 
N2273 X-336.356 Y-46.141 Z15.188 A9.7265 
N2274 X-336.143 Y-45.919 Z15.539 A7.3836 
N2275 X-335.911 Y-45.625 Z15.865 A5.2258 
N2276 X-335.658 Y-45.242 Z16.152 A3.3317 
N2277 X-335.384 Y-44.762 Z16.386 A1.7899 
N2278 X-335.087 Y-44.170 Z16.564 A0.6184 
N2279 X-334.759 Y-43.452 Z16.688 A359.7952 
N2280 X-334.396 Y-42.602 Z16.764 A359.2852 
N2281 X-333.983 Y-41.593 Z16.803 A359.0185 
N2282 X-333.513 Y-40.417 Z16.816 A358.9283 
N2283 X-332.979 Y-39.067 Z16.815 A358.9416 
N2284 X-332.375 Y-37.535 Z16.811 A358.9880 
N2285 X-331.699 Y-35.826 Z16.811 A359.0271 
N2286 X-330.951 Y-33.941 Z16.819 A359.0282 
N2287 X-330.137 Y-31.892 Z16.827 
N2288 X-329.266 Y-29.699 Z16.837 
N2289 X-328.348 Y-27.388 Z16.847 A359.0220 
N2290 X-327.396 Y-24.990 Z16.857 A359.0186 
N2291 X-326.423 Y-22.539 Z16.867 A359.0172 
N2292 X-325.444 Y-20.074 Z16.877 A359.0170 
N2293 X-324.475 Y-17.632 Z16.887 A359.0164 
N2294 X-323.529 Y-15.249 Z16.897 A359.0144 
N2295 X-322.621 Y-12.962 Z16.907 A359.0104 
N2296 X-321.761 Y-10.797 Z16.916 A359.0039 
N2297 X-320.960 Y-8.781 Z16.926 A358.9943 
N2298 X-320.226 Y-6.933 Z16.935 A358.9823 
N2299 X-319.561 Y-5.259 Z16.943 A358.9678 
N2300 X-318.969 Y-3.769 Z16.950 A358.9611 
N2301 X-318.451 Y-2.463 Z16.955 A358.9666 
N2302 X-318.002 Y-1.327 Z16.952 A359.0282 
N2303 X-317.619 Y-0.362 Z16.958 
N2304 X-317.284 Y0.475 Z16.969 A358.9798 
N2305 X-316.982 Y1.164 Z17.051 A358.3616 
N2306 X-316.683 Y1.761 Z17.227 A356.9543 
N2307 X-316.394 Y2.260 Z17.484 A354.8263 
N2308 X-316.117 Y2.693 Z17.781 A352.2945 
N2309 X-315.856 Y3.083 Z18.082 A349.6411 
N2310 X-315.622 Y3.430 Z18.356 A347.1332 
N2311 X-315.418 Y3.734 Z18.589 A344.9031 
N2312 X-315.240 Y4.006 Z18.789 A342.9125 
N2313 X-315.078 Y4.258 Z18.964 A341.0890 
N2314 X-314.933 Y4.488 Z19.116 A339.4504 
N2315 X-314.800 Y4.703 Z19.251 A337.9294 
N2316 X-314.672 Y4.913 Z19.376 A336.4627 
N2317 X-314.552 Y5.114 Z19.489 A335.0759 
N2318 X-314.434 Y5.317 Z19.597 A333.7037 
N2319 X-314.316 Y5.523 Z19.698 A332.3300 
N2320 X-314.200 Y5.731 Z19.794 A330.9689 
N2321 X-314.077 Y5.957 Z19.888 A329.5216 
N2322 X-313.954 Y6.190 Z19.976 A328.0628 
N2323 X-313.823 Y6.446 Z20.061 A326.5036 
N2324 X-313.683 Y6.726 Z20.140 A324.8394 
N2325 X-313.538 Y7.032 Z20.210 A323.0825 
N2326 X-313.383 Y7.372 Z20.266 A321.1999 
N2327 X-313.219 Y7.754 Z20.302 A319.1792 
N2328 X-313.052 Y8.178 Z20.301 A317.0921 
N2329 X-312.897 Y8.624 Z20.242 A315.1222 
N2330 X-312.766 Y9.079 Z20.104 A313.4467 
N2331 X-312.671 Y9.528 Z19.870 A312.2183 
N2332 X-312.613 Y9.978 Z19.532 A311.4544 
N2333 X-312.585 Y10.439 Z19.100 A311.0744 
N2334 X-312.574 Y10.918 Z18.596 A310.9343 
N2335 X-312.573 Y11.438 Z18.022 A310.9074 
N2336 X-312.574 Y12.001 Z17.393 A310.9193 
N2337 X-312.574 Y12.609 Z16.715 A310.9251 
N2338 X-312.574 Y13.252 Z16.001 A310.9193 
N2339 X-312.572 Y13.926 Z15.254 A310.9002 
N2340 X-312.572 Y14.617 Z14.487 A310.8873 
N2341 X-312.572 Y15.314 Z13.710 A310.8902 
N2342 X-312.574 Y16.007 Z12.935 A310.9108 
N2343 X-312.574 Y16.688 Z12.176 A310.9192 
N2344 X-312.574 Y17.346 Z11.445 A310.9157 
N2345 X-312.568 Y17.981 Z10.754 A310.8308 
N2346 X-312.556 Y18.585 Z10.117 A310.6363 
N2347 X-312.534 Y19.159 Z9.539 A310.2811 
N2348 X-312.500 Y19.706 Z9.025 A309.7143 
N2349 X-312.453 Y20.223 Z8.583 A308.9015 
N2350 X-312.391 Y20.720 Z8.205 A307.8111 
N2351 X-312.316 Y21.191 Z7.892 A306.4758 
N2352 X-312.232 Y21.636 Z7.634 A304.9517 
N2353 X-312.141 Y22.062 Z7.414 A303.2758 
N2354 X-312.053 Y22.450 Z7.231 A301.5945 
N2355 X-311.967 Y22.814 Z7.068 A299.9029 
N2356 X-311.886 Y23.149 Z6.922 A298.2668 
N2357 X-311.812 Y23.455 Z6.790 A296.7150 
N2358 X-311.745 Y23.736 Z6.667 A295.2443 
N2359 X-311.682 Y23.999 Z6.550 A293.8351 
N2360 X-311.624 Y24.247 Z6.437 A292.4692 
N2361 X-311.570 Y24.481 Z6.329 A291.1582 
N2362 X-311.519 Y24.704 Z6.224 A289.8857 
N2363 X-311.471 Y24.921 Z6.119 A288.6228 
N2364 X-311.425 Y25.130 Z6.014 A287.3867 
N2365 X-311.382 Y25.334 Z5.909 A286.1605 
N2366 X-311.341 Y25.535 Z5.802 A284.9357 
N2367 X-311.302 Y25.730 Z5.694 A283.7287 
N2368 X-311.265 Y25.924 Z5.583 A282.5151 
N2369 X-311.229 Y26.114 Z5.470 A281.3038 
