; PROGRAM NAME: B01143036
; ORDER       : B011430
; OPER. NAME  : Side Milling:132
; OPER. DESCR.: Side Milling/rowek zgr
; OPER. TYPE  : sideMill
; GEO. OPTION : 1
; MACHINE     : HSTM_500_SIM840D_Py
;             : HSTM500 - HAMUEL: 5-axis milling machine - SIM840D Traori PP_Script
; CONTROL     : SINUMERIK 840D
; created:   2022-10-26 13:20:40.891814
;-------DODATKOWE DANE-------------------
; PROGRAMISTA : Zbigniew Papierowski
; PARTID      : 135T006774P1021_-
;  ap         : 2.5
;  ae         : 5.0
;  lean_angle : 0.0
;  fin_offset : 0.3
;----------------------------------------
;RAPORT("TB011430","Side Milling:132")
N10 TRAFOOF
N11 D0
N12 G90 G94
N13 G0 G53 D0 Z550 B0
N14 STOPRE
M9 ; chlodziwo wyl
; --- Side Milling:132 - Side Milling/rowek zgr ---
N16 ;ToolChange : concat=None ,current_tdmid=None, PP.tdmId=940663
N17 TRAFOOF
N18 G0 G53 D0 X-200 Y150 Z550 B0
N19 T="7740663"
;RAPORT("TB011430","ToolChangeStart 7740663")
N20 M6
;RAPORT("TB011430","ToolChangeEnd")
N21 STOPRE
N22 MSG(" TLID=940663 D=6.0 R=0.6 Ang=0.0 Len=102.0 ")
N23 ; (Preloading tool)
N24 T="7740664"
N25 S8488 M03
N26 STOPRE
N27 CYCLE832(0.01,1,1)
N28 G0 G53 A312.0000 B-0.0000
N29 TRAORI
N30 G54 D1
;tol5=0.15
STOPRE
E_ZDARZ=500002
;ACS_ROUGH_SLOT=7740663
STOPRE
;UWAGA : ZMIENIONA TOLERANCJA OSI A i B, ruchy osi A i B beda usuniete : TOL5=0.15
N31 ; DELTA A > 40.1
N32 TRAFOOF
N33 D1
N34 STOPRE
N35 G00 G54 Z284.000
N36 G01 A312.0000 F10000
N37 TRAORI
N38 G54 D1
N39 STOPRE
N40 TRANS 
N41 G00 X-149.294 Y73.237 Z9.304 A312.0000 
N42 M342 ; chlodziwo woda
N43 X-149.294 Y36.080 Z-24.153 
N44 ;on NNTE
N45 D1 
N46 G01 G41 X-148.882 Y29.394 Z-16.728 F407
N47 G01 X-148.882 Y29.394 Z-16.728 F407 
N48 X-148.877 Y29.303 Z-16.626 
N49 X-148.871 Y29.212 Z-16.525 
N50 X-148.865 Y29.121 Z-16.424 
N51 X-148.860 Y29.030 Z-16.323 
N52 X-148.854 Y28.939 Z-16.221 
N53 X-148.848 Y28.847 Z-16.120 
N54 X-148.843 Y28.756 Z-16.019 
N55 X-148.837 Y28.665 Z-15.918 
N56 X-148.832 Y28.574 Z-15.816 
N57 X-148.826 Y28.483 Z-15.715 
N58 X-148.820 Y28.392 Z-15.614 
N59 X-148.815 Y28.300 Z-15.513 
N60 X-148.809 Y28.209 Z-15.411 
N61 X-148.803 Y28.118 Z-15.310 
N62 X-148.798 Y28.027 Z-15.209 
N63 X-148.792 Y27.936 Z-15.108 
N64 X-148.787 Y27.845 Z-15.006 
N65 X-148.781 Y27.753 Z-14.905 
N66 X-148.775 Y27.662 Z-14.804 
N67 X-148.770 Y27.571 Z-14.703 
N68 X-148.764 Y27.480 Z-14.601 
N69 X-148.759 Y27.389 Z-14.500 
N70 X-148.753 Y27.298 Z-14.399 
N71 X-148.747 Y27.206 Z-14.298 
N72 X-148.742 Y27.115 Z-14.196 
N73 X-148.736 Y27.024 Z-14.095 
N74 X-148.730 Y26.933 Z-13.994 
N75 X-148.725 Y26.842 Z-13.893 
N76 X-148.719 Y26.751 Z-13.791 
N77 X-148.714 Y26.659 Z-13.690 
N78 X-148.708 Y26.568 Z-13.589 
N79 X-148.702 Y26.477 Z-13.487 
N80 X-148.697 Y26.386 Z-13.386 
N81 X-148.691 Y26.295 Z-13.285 
N82 X-148.685 Y26.204 Z-13.184 
N83 X-148.680 Y26.112 Z-13.082 
N84 X-148.674 Y26.021 Z-12.981 
N85 X-148.669 Y25.930 Z-12.880 
N86 X-148.663 Y25.839 Z-12.779 
N87 X-148.657 Y25.748 Z-12.677 
N88 X-148.652 Y25.657 Z-12.576 
N89 X-148.646 Y25.565 Z-12.475 
N90 X-148.640 Y25.474 Z-12.374 
N91 X-148.635 Y25.383 Z-12.272 
N92 X-148.629 Y25.292 Z-12.172 
N93 X-148.624 Y25.202 Z-12.071 
N94 X-148.618 Y25.111 Z-11.970 
N95 X-148.612 Y25.020 Z-11.870 
N96 X-148.607 Y24.930 Z-11.769 
N97 X-148.601 Y24.839 Z-11.668 
N98 X-148.596 Y24.748 Z-11.568 
N99 X-148.590 Y24.658 Z-11.467 
N100 X-148.585 Y24.567 Z-11.366 
N101 X-148.579 Y24.476 Z-11.266 
N102 X-148.573 Y24.386 Z-11.165 
N103 X-148.568 Y24.295 Z-11.064 
N104 X-148.562 Y24.204 Z-10.963 
N105 X-148.557 Y24.114 Z-10.863 
N106 X-148.551 Y24.023 Z-10.762 
N107 X-148.545 Y23.932 Z-10.661 
N108 X-148.540 Y23.842 Z-10.561 
N109 X-148.534 Y23.751 Z-10.460 
N110 X-148.529 Y23.660 Z-10.359 
N111 X-148.523 Y23.570 Z-10.259 
N112 X-148.517 Y23.479 Z-10.158 
N113 X-148.512 Y23.388 Z-10.057 
N114 X-148.506 Y23.298 Z-9.956 
N115 X-148.501 Y23.207 Z-9.856 
N116 X-148.495 Y23.116 Z-9.755 
N117 X-148.489 Y23.026 Z-9.654 
N118 X-148.484 Y22.935 Z-9.554 
N119 X-148.478 Y22.844 Z-9.453 
N120 X-148.473 Y22.754 Z-9.352 
N121 X-148.467 Y22.663 Z-9.252 
N122 X-148.462 Y22.572 Z-9.151 
N123 X-148.456 Y22.482 Z-9.050 
N124 X-148.450 Y22.391 Z-8.949 
N125 X-148.445 Y22.300 Z-8.849 
N126 X-148.439 Y22.210 Z-8.748 
N127 X-148.434 Y22.119 Z-8.647 
N128 X-148.428 Y22.028 Z-8.547 
N129 X-148.422 Y21.938 Z-8.446 
N130 X-148.417 Y21.847 Z-8.345 
N131 X-148.411 Y21.756 Z-8.245 
N132 X-148.406 Y21.666 Z-8.144 
N133 X-148.402 Y21.575 Z-8.043 
N134 X-148.397 Y21.484 Z-7.942 
N135 X-148.393 Y21.394 Z-7.842 
N136 X-148.389 Y21.303 Z-7.741 
N137 X-148.384 Y21.212 Z-7.640 
N138 X-148.380 Y21.122 Z-7.540 
N139 X-148.375 Y21.031 Z-7.439 
N140 X-148.371 Y20.940 Z-7.338 
N141 X-148.367 Y20.849 Z-7.237 
N142 X-148.362 Y20.759 Z-7.137 
N143 X-148.358 Y20.668 Z-7.036 
N144 X-148.354 Y20.577 Z-6.935 
N145 X-148.349 Y20.487 Z-6.834 
N146 X-148.345 Y20.396 Z-6.734 
N147 X-148.341 Y20.305 Z-6.633 
N148 X-148.336 Y20.215 Z-6.532 
N149 X-148.332 Y20.124 Z-6.431 
N150 X-148.327 Y20.033 Z-6.331 
N151 X-148.323 Y19.942 Z-6.230 
N152 X-148.319 Y19.852 Z-6.129 
N153 X-148.314 Y19.761 Z-6.029 
N154 X-148.310 Y19.670 Z-5.928 
N155 X-148.306 Y19.580 Z-5.827 
N156 X-148.301 Y19.489 Z-5.726 
N157 X-148.297 Y19.398 Z-5.626 
N158 X-148.293 Y19.308 Z-5.525 
N159 X-148.288 Y19.217 Z-5.424 
N160 X-148.284 Y19.126 Z-5.323 
N161 X-148.279 Y19.035 Z-5.223 
N162 X-148.275 Y18.945 Z-5.122 
N163 X-148.271 Y18.854 Z-5.021 
N164 X-148.266 Y18.763 Z-4.921 
N165 X-148.262 Y18.673 Z-4.820 
N166 X-148.258 Y18.582 Z-4.719 
N167 X-148.253 Y18.491 Z-4.618 
N168 X-148.249 Y18.401 Z-4.518 
N169 X-148.245 Y18.310 Z-4.417 
N170 X-148.240 Y18.219 Z-4.316 
N171 X-148.236 Y18.128 Z-4.215 
N172 X-148.231 Y18.038 Z-4.115 
N173 X-148.227 Y17.947 Z-4.014 
N174 X-148.223 Y17.856 Z-3.913 
N175 X-148.218 Y17.766 Z-3.812 
N176 X-148.214 Y17.675 Z-3.712 
N177 X-148.210 Y17.584 Z-3.611 
N178 X-148.205 Y17.494 Z-3.510 
N179 X-148.201 Y17.403 Z-3.410 
N180 X-148.197 Y17.312 Z-3.309 
N181 X-148.194 Y17.221 Z-3.208 
N182 X-148.191 Y17.131 Z-3.107 
N183 X-148.188 Y17.040 Z-3.007 
N184 X-148.185 Y16.949 Z-2.906 
N185 X-148.182 Y16.859 Z-2.805 
N186 X-148.180 Y16.768 Z-2.704 
N187 X-148.177 Y16.677 Z-2.604 
N188 X-148.174 Y16.586 Z-2.503 
N189 X-148.171 Y16.496 Z-2.402 
N190 X-148.168 Y16.405 Z-2.301 
N191 X-148.165 Y16.314 Z-2.200 
N192 X-148.162 Y16.223 Z-2.100 
N193 X-148.159 Y16.133 Z-1.999 
N194 X-148.157 Y16.042 Z-1.898 
N195 X-148.154 Y15.951 Z-1.797 
N196 X-148.151 Y15.861 Z-1.697 
N197 X-148.148 Y15.770 Z-1.596 
N198 X-148.145 Y15.679 Z-1.495 
N199 X-148.142 Y15.588 Z-1.394 
N200 X-148.139 Y15.498 Z-1.294 
N201 X-148.136 Y15.407 Z-1.193 
N202 X-148.134 Y15.316 Z-1.092 
N203 X-148.131 Y15.226 Z-0.991 
N204 X-148.128 Y15.135 Z-0.891 
N205 X-148.125 Y15.044 Z-0.790 
N206 X-148.122 Y14.953 Z-0.689 
N207 X-148.119 Y14.863 Z-0.588 
N208 X-148.116 Y14.772 Z-0.488 
N209 X-148.113 Y14.681 Z-0.387 
N210 X-148.111 Y14.590 Z-0.286 
N211 X-148.108 Y14.500 Z-0.185 
N212 X-148.105 Y14.409 Z-0.085 
N213 X-148.102 Y14.318 Z0.016 
N214 X-148.099 Y14.228 Z0.117 
N215 X-148.096 Y14.137 Z0.218 
N216 X-148.093 Y14.046 Z0.319 
N217 X-148.090 Y13.955 Z0.419 
N218 X-148.088 Y13.865 Z0.520 
N219 X-148.085 Y13.774 Z0.621 
N220 X-148.082 Y13.683 Z0.722 
N221 X-148.079 Y13.592 Z0.822 
N222 X-148.076 Y13.502 Z0.923 
N223 X-148.073 Y13.411 Z1.024 
N224 X-148.070 Y13.320 Z1.125 
N225 X-148.067 Y13.230 Z1.225 
N226 X-148.065 Y13.139 Z1.326 
N227 X-148.062 Y13.048 Z1.427 
N228 X-148.059 Y12.957 Z1.528 
N229 X-148.056 Y12.867 Z1.628 
N230 X-148.053 Y12.776 Z1.729 
N231 X-148.050 Y12.685 Z1.830 
N232 X-148.047 Y12.595 Z1.931 
N233 X-148.044 Y12.504 Z2.031 
N234 X-148.042 Y12.413 Z2.132 
N235 X-148.039 Y12.322 Z2.233 
N236 X-148.036 Y12.232 Z2.334 
N237 X-148.033 Y12.141 Z2.434 
N238 X-148.030 Y12.050 Z2.535 
N239 X-148.027 Y11.959 Z2.636 
N240 X-148.025 Y11.869 Z2.737 
N241 X-148.024 Y11.778 Z2.838 
N242 X-148.023 Y11.687 Z2.938 
N243 X-148.022 Y11.596 Z3.039 
N244 X-148.021 Y11.506 Z3.140 
N245 X-148.020 Y11.415 Z3.241 
N246 X-148.019 Y11.324 Z3.341 
N247 X-148.018 Y11.234 Z3.442 
N248 X-148.017 Y11.143 Z3.543 
N249 X-148.016 Y11.052 Z3.644 
N250 X-148.015 Y10.961 Z3.745 
N251 X-148.014 Y10.871 Z3.845 
N252 X-148.013 Y10.780 Z3.946 
N253 X-148.012 Y10.689 Z4.047 
N254 X-148.011 Y10.598 Z4.148 
N255 X-148.010 Y10.508 Z4.248 
N256 X-148.009 Y10.417 Z4.349 
N257 X-148.008 Y10.326 Z4.450 
N258 X-148.007 Y10.235 Z4.551 
N259 X-148.006 Y10.145 Z4.652 
N260 X-148.005 Y10.054 Z4.752 
N261 X-148.004 Y9.963 Z4.853 
N262 X-148.003 Y9.872 Z4.954 
N263 X-148.002 Y9.782 Z5.055 
N264 X-148.001 Y9.691 Z5.155 
N265 X-148.000 Y9.600 Z5.256 
N266 X-147.999 Y9.509 Z5.357 
N267 X-147.998 Y9.419 Z5.458 
N268 X-147.997 Y9.328 Z5.559 
N269 X-147.996 Y9.237 Z5.659 
N270 X-147.995 Y9.146 Z5.760 
N271 X-147.994 Y9.056 Z5.861 
N272 X-147.993 Y8.965 Z5.962 
N273 X-147.992 Y8.874 Z6.062 
N274 X-147.991 Y8.783 Z6.163 
N275 X-147.990 Y8.693 Z6.264 
N276 X-147.989 Y8.602 Z6.365 
N277 X-147.988 Y8.511 Z6.466 
N278 X-147.987 Y8.420 Z6.566 
N279 X-147.986 Y8.330 Z6.667 
N280 X-147.985 Y8.239 Z6.768 
N281 X-147.984 Y8.148 Z6.869 
N282 X-147.983 Y8.058 Z6.969 
N283 X-147.982 Y7.967 Z7.070 
N284 X-147.981 Y7.876 Z7.171 
N285 X-147.980 Y7.785 Z7.272 
N286 X-147.979 Y7.695 Z7.373 
N287 X-147.978 Y7.604 Z7.473 
N288 X-147.977 Y7.513 Z7.574 
N289 X-147.975 Y7.422 Z7.675 
N290 X-147.974 Y7.332 Z7.776 
N291 X-147.973 Y7.241 Z7.877 
N292 X-147.972 Y7.150 Z7.977 
N293 X-147.971 Y7.059 Z8.078 
N294 X-147.970 Y6.969 Z8.179 
N295 X-147.969 Y6.878 Z8.280 
N296 X-147.968 Y6.787 Z8.380 
N297 X-147.967 Y6.696 Z8.481 
N298 X-147.966 Y6.606 Z8.582 
N299 X-147.965 Y6.515 Z8.683 
N300 X-147.964 Y6.424 Z8.784 
N301 X-147.963 Y6.333 Z8.884 
N302 X-147.962 Y6.243 Z8.985 
N303 X-147.961 Y6.152 Z9.086 
N304 X-147.960 Y6.061 Z9.187 
N305 X-147.959 Y5.970 Z9.287 
N306 X-147.958 Y5.880 Z9.388 
N307 X-147.957 Y5.789 Z9.489 
N308 X-147.956 Y5.698 Z9.590 
N309 X-147.955 Y5.607 Z9.691 
N310 X-147.954 Y5.517 Z9.791 
N311 X-147.953 Y5.426 Z9.892 
N312 X-147.952 Y5.335 Z9.993 
N313 X-147.951 Y5.245 Z10.094 
N314 X-147.950 Y5.154 Z10.194 
N315 X-147.949 Y5.063 Z10.296 
N316 X-147.948 Y4.971 Z10.397 
N317 X-147.947 Y4.880 Z10.498 
N318 X-147.946 Y4.789 Z10.600 
N319 X-147.945 Y4.698 Z10.701 
N320 X-147.944 Y4.606 Z10.802 
N321 X-147.943 Y4.515 Z10.904 
N322 X-147.942 Y4.424 Z11.005 
N323 X-147.941 Y4.333 Z11.106 
N324 X-147.940 Y4.241 Z11.208 
N325 X-147.939 Y4.150 Z11.309 
N326 X-147.938 Y4.059 Z11.410 
N327 X-147.937 Y3.968 Z11.512 
N328 X-147.936 Y3.876 Z11.613 
N329 X-147.935 Y3.785 Z11.714 
N330 X-147.934 Y3.694 Z11.816 
N331 X-147.933 Y3.603 Z11.917 
N332 X-147.932 Y3.511 Z12.018 
N333 X-147.931 Y3.420 Z12.120 
N334 X-147.930 Y3.329 Z12.221 
N335 X-147.928 Y3.238 Z12.322 
N336 X-147.927 Y3.146 Z12.424 
N337 G40 X-147.852 Y-3.545 Z19.855 F407
N338 X-147.852 Y-3.545 Z19.855 
N339 G00 X-147.852 Y15.034 Z36.583 
N340 X-149.294 Y53.284 Z-8.662 
N341 X-149.294 Y34.705 Z-25.391 
N342 ;on NNTE
N343 D1 
N344 G01 G41 X-148.882 Y28.020 Z-17.965 F407
N345 G01 X-148.882 Y28.020 Z-17.965 F407 
N346 X-148.877 Y27.928 Z-17.864 
N347 X-148.871 Y27.837 Z-17.763 
N348 X-148.865 Y27.746 Z-17.662 
N349 X-148.860 Y27.655 Z-17.560 
N350 X-148.854 Y27.564 Z-17.459 
N351 X-148.848 Y27.473 Z-17.358 
N352 X-148.843 Y27.381 Z-17.257 
N353 X-148.837 Y27.290 Z-17.155 
N354 X-148.832 Y27.199 Z-17.054 
N355 X-148.826 Y27.108 Z-16.953 
N356 X-148.820 Y27.017 Z-16.852 
N357 X-148.815 Y26.926 Z-16.750 
N358 X-148.809 Y26.834 Z-16.649 
N359 X-148.803 Y26.743 Z-16.548 
N360 X-148.798 Y26.652 Z-16.447 
N361 X-148.792 Y26.561 Z-16.345 
N362 X-148.787 Y26.470 Z-16.244 
N363 X-148.781 Y26.379 Z-16.143 
N364 X-148.775 Y26.287 Z-16.042 
N365 X-148.770 Y26.196 Z-15.940 
N366 X-148.764 Y26.105 Z-15.839 
N367 X-148.759 Y26.014 Z-15.738 
N368 X-148.753 Y25.923 Z-15.637 
N369 X-148.747 Y25.832 Z-15.535 
N370 X-148.742 Y25.740 Z-15.434 
N371 X-148.736 Y25.649 Z-15.333 
N372 X-148.730 Y25.558 Z-15.232 
N373 X-148.725 Y25.467 Z-15.130 
N374 X-148.719 Y25.376 Z-15.029 
N375 X-148.714 Y25.285 Z-14.928 
N376 X-148.708 Y25.193 Z-14.827 
N377 X-148.702 Y25.102 Z-14.725 
N378 X-148.697 Y25.011 Z-14.624 
N379 X-148.691 Y24.920 Z-14.523 
N380 X-148.685 Y24.829 Z-14.422 
N381 X-148.680 Y24.738 Z-14.320 
N382 X-148.674 Y24.646 Z-14.219 
N383 X-148.669 Y24.555 Z-14.118 
N384 X-148.663 Y24.464 Z-14.017 
N385 X-148.657 Y24.373 Z-13.915 
N386 X-148.652 Y24.282 Z-13.814 
N387 X-148.646 Y24.191 Z-13.713 
N388 X-148.640 Y24.099 Z-13.612 
N389 X-148.635 Y24.008 Z-13.510 
N390 X-148.629 Y23.918 Z-13.410 
N391 X-148.624 Y23.827 Z-13.309 
N392 X-148.618 Y23.736 Z-13.208 
N393 X-148.612 Y23.646 Z-13.108 
N394 X-148.607 Y23.555 Z-13.007 
N395 X-148.601 Y23.464 Z-12.906 
N396 X-148.596 Y23.374 Z-12.805 
N397 X-148.590 Y23.283 Z-12.705 
N398 X-148.585 Y23.192 Z-12.604 
N399 X-148.579 Y23.102 Z-12.503 
N400 X-148.573 Y23.011 Z-12.403 
N401 X-148.568 Y22.920 Z-12.302 
N402 X-148.562 Y22.830 Z-12.201 
N403 X-148.557 Y22.739 Z-12.101 
N404 X-148.551 Y22.648 Z-12.000 
N405 X-148.545 Y22.558 Z-11.899 
N406 X-148.540 Y22.467 Z-11.799 
N407 X-148.534 Y22.376 Z-11.698 
N408 X-148.529 Y22.286 Z-11.597 
N409 X-148.523 Y22.195 Z-11.496 
N410 X-148.517 Y22.104 Z-11.396 
N411 X-148.512 Y22.014 Z-11.295 
N412 X-148.506 Y21.923 Z-11.194 
N413 X-148.501 Y21.832 Z-11.094 
N414 X-148.495 Y21.742 Z-10.993 
N415 X-148.489 Y21.651 Z-10.892 
N416 X-148.484 Y21.560 Z-10.792 
N417 X-148.478 Y21.470 Z-10.691 
N418 X-148.473 Y21.379 Z-10.590 
N419 X-148.467 Y21.288 Z-10.489 
N420 X-148.462 Y21.198 Z-10.389 
N421 X-148.456 Y21.107 Z-10.288 
N422 X-148.450 Y21.016 Z-10.187 
N423 X-148.445 Y20.926 Z-10.087 
N424 X-148.439 Y20.835 Z-9.986 
N425 X-148.434 Y20.744 Z-9.885 
N426 X-148.428 Y20.654 Z-9.785 
N427 X-148.422 Y20.563 Z-9.684 
N428 X-148.417 Y20.472 Z-9.583 
N429 X-148.411 Y20.382 Z-9.482 
N430 X-148.406 Y20.291 Z-9.382 
N431 X-148.402 Y20.200 Z-9.281 
N432 X-148.397 Y20.109 Z-9.180 
N433 X-148.393 Y20.019 Z-9.080 
N434 X-148.389 Y19.928 Z-8.979 
N435 X-148.384 Y19.837 Z-8.878 
N436 X-148.380 Y19.747 Z-8.777 
N437 X-148.375 Y19.656 Z-8.677 
N438 X-148.371 Y19.565 Z-8.576 
N439 X-148.367 Y19.475 Z-8.475 
N440 X-148.362 Y19.384 Z-8.374 
N441 X-148.358 Y19.293 Z-8.274 
N442 X-148.354 Y19.202 Z-8.173 
N443 X-148.349 Y19.112 Z-8.072 
N444 X-148.345 Y19.021 Z-7.972 
N445 X-148.341 Y18.930 Z-7.871 
N446 X-148.336 Y18.840 Z-7.770 
N447 X-148.332 Y18.749 Z-7.669 
N448 X-148.327 Y18.658 Z-7.569 
N449 X-148.323 Y18.568 Z-7.468 
N450 X-148.319 Y18.477 Z-7.367 
N451 X-148.314 Y18.386 Z-7.266 
N452 X-148.310 Y18.296 Z-7.166 
N453 X-148.306 Y18.205 Z-7.065 
N454 X-148.301 Y18.114 Z-6.964 
N455 X-148.297 Y18.023 Z-6.864 
N456 X-148.293 Y17.933 Z-6.763 
N457 X-148.288 Y17.842 Z-6.662 
N458 X-148.284 Y17.751 Z-6.561 
N459 X-148.279 Y17.661 Z-6.461 
N460 X-148.275 Y17.570 Z-6.360 
N461 X-148.271 Y17.479 Z-6.259 
N462 X-148.266 Y17.389 Z-6.158 
N463 X-148.262 Y17.298 Z-6.058 
N464 X-148.258 Y17.207 Z-5.957 
N465 X-148.253 Y17.116 Z-5.856 
N466 X-148.249 Y17.026 Z-5.756 
N467 X-148.245 Y16.935 Z-5.655 
N468 X-148.240 Y16.844 Z-5.554 
N469 X-148.236 Y16.754 Z-5.453 
N470 X-148.231 Y16.663 Z-5.353 
N471 X-148.227 Y16.572 Z-5.252 
N472 X-148.223 Y16.482 Z-5.151 
N473 X-148.218 Y16.391 Z-5.050 
N474 X-148.214 Y16.300 Z-4.950 
N475 X-148.210 Y16.209 Z-4.849 
N476 X-148.205 Y16.119 Z-4.748 
N477 X-148.201 Y16.028 Z-4.647 
N478 X-148.197 Y15.937 Z-4.547 
N479 X-148.194 Y15.847 Z-4.446 
N480 X-148.191 Y15.756 Z-4.345 
N481 X-148.188 Y15.665 Z-4.244 
N482 X-148.185 Y15.574 Z-4.144 
N483 X-148.182 Y15.484 Z-4.043 
N484 X-148.180 Y15.393 Z-3.942 
N485 X-148.177 Y15.302 Z-3.841 
N486 X-148.174 Y15.212 Z-3.741 
N487 X-148.171 Y15.121 Z-3.640 
N488 X-148.168 Y15.030 Z-3.539 
N489 X-148.165 Y14.939 Z-3.438 
N490 X-148.162 Y14.849 Z-3.338 
N491 X-148.159 Y14.758 Z-3.237 
N492 X-148.157 Y14.667 Z-3.136 
N493 X-148.154 Y14.576 Z-3.035 
N494 X-148.151 Y14.486 Z-2.935 
N495 X-148.148 Y14.395 Z-2.834 
N496 X-148.145 Y14.304 Z-2.733 
N497 X-148.142 Y14.214 Z-2.632 
N498 X-148.139 Y14.123 Z-2.532 
N499 X-148.136 Y14.032 Z-2.431 
N500 X-148.134 Y13.941 Z-2.330 
N501 X-148.131 Y13.851 Z-2.229 
N502 X-148.128 Y13.760 Z-2.128 
N503 X-148.125 Y13.669 Z-2.028 
N504 X-148.122 Y13.579 Z-1.927 
N505 X-148.119 Y13.488 Z-1.826 
N506 X-148.116 Y13.397 Z-1.725 
N507 X-148.113 Y13.306 Z-1.625 
N508 X-148.111 Y13.216 Z-1.524 
N509 X-148.108 Y13.125 Z-1.423 
N510 X-148.105 Y13.034 Z-1.322 
N511 X-148.102 Y12.943 Z-1.222 
N512 X-148.099 Y12.853 Z-1.121 
N513 X-148.096 Y12.762 Z-1.020 
N514 X-148.093 Y12.671 Z-0.919 
N515 X-148.090 Y12.581 Z-0.819 
N516 X-148.088 Y12.490 Z-0.718 
N517 X-148.085 Y12.399 Z-0.617 
N518 X-148.082 Y12.308 Z-0.516 
N519 X-148.079 Y12.218 Z-0.416 
N520 X-148.076 Y12.127 Z-0.315 
N521 X-148.073 Y12.036 Z-0.214 
N522 X-148.070 Y11.945 Z-0.113 
N523 X-148.067 Y11.855 Z-0.013 
N524 X-148.065 Y11.764 Z0.088 
N525 X-148.062 Y11.673 Z0.189 
N526 X-148.059 Y11.583 Z0.290 
N527 X-148.056 Y11.492 Z0.390 
N528 X-148.053 Y11.401 Z0.491 
N529 X-148.050 Y11.310 Z0.592 
N530 X-148.047 Y11.220 Z0.693 
N531 X-148.044 Y11.129 Z0.794 
N532 X-148.042 Y11.038 Z0.894 
N533 X-148.039 Y10.948 Z0.995 
N534 X-148.036 Y10.857 Z1.096 
N535 X-148.033 Y10.766 Z1.197 
N536 X-148.030 Y10.675 Z1.297 
N537 X-148.027 Y10.585 Z1.398 
N538 X-148.025 Y10.494 Z1.499 
N539 X-148.024 Y10.403 Z1.600 
N540 X-148.023 Y10.312 Z1.700 
N541 X-148.022 Y10.222 Z1.801 
N542 X-148.021 Y10.131 Z1.902 
N543 X-148.020 Y10.040 Z2.003 
N544 X-148.019 Y9.949 Z2.104 
N545 X-148.018 Y9.859 Z2.204 
N546 X-148.017 Y9.768 Z2.305 
N547 X-148.016 Y9.677 Z2.406 
N548 X-148.015 Y9.586 Z2.507 
N549 X-148.014 Y9.496 Z2.607 
N550 X-148.013 Y9.405 Z2.708 
N551 X-148.012 Y9.314 Z2.809 
N552 X-148.011 Y9.223 Z2.910 
N553 X-148.010 Y9.133 Z3.011 
N554 X-148.009 Y9.042 Z3.111 
N555 X-148.008 Y8.951 Z3.212 
N556 X-148.007 Y8.861 Z3.313 
N557 X-148.006 Y8.770 Z3.414 
N558 X-148.005 Y8.679 Z3.514 
N559 X-148.004 Y8.588 Z3.615 
N560 X-148.003 Y8.498 Z3.716 
N561 X-148.002 Y8.407 Z3.817 
N562 X-148.001 Y8.316 Z3.918 
N563 X-148.000 Y8.225 Z4.018 
N564 X-147.999 Y8.135 Z4.119 
N565 X-147.998 Y8.044 Z4.220 
N566 X-147.997 Y7.953 Z4.321 
N567 X-147.996 Y7.862 Z4.421 
N568 X-147.995 Y7.772 Z4.522 
N569 X-147.994 Y7.681 Z4.623 
N570 X-147.993 Y7.590 Z4.724 
N571 X-147.992 Y7.499 Z4.825 
N572 X-147.991 Y7.409 Z4.925 
N573 X-147.990 Y7.318 Z5.026 
N574 X-147.989 Y7.227 Z5.127 
N575 X-147.988 Y7.136 Z5.228 
N576 X-147.987 Y7.046 Z5.328 
N577 X-147.986 Y6.955 Z5.429 
N578 X-147.985 Y6.864 Z5.530 
N579 X-147.984 Y6.773 Z5.631 
N580 X-147.983 Y6.683 Z5.732 
N581 X-147.982 Y6.592 Z5.832 
N582 X-147.981 Y6.501 Z5.933 
N583 X-147.980 Y6.410 Z6.034 
N584 X-147.979 Y6.320 Z6.135 
N585 X-147.978 Y6.229 Z6.236 
N586 X-147.977 Y6.138 Z6.336 
N587 X-147.975 Y6.048 Z6.437 
N588 X-147.974 Y5.957 Z6.538 
N589 X-147.973 Y5.866 Z6.639 
N590 X-147.972 Y5.775 Z6.739 
N591 X-147.971 Y5.685 Z6.840 
N592 X-147.970 Y5.594 Z6.941 
N593 X-147.969 Y5.503 Z7.042 
N594 X-147.968 Y5.412 Z7.143 
N595 X-147.967 Y5.322 Z7.243 
N596 X-147.966 Y5.231 Z7.344 
N597 X-147.965 Y5.140 Z7.445 
N598 X-147.964 Y5.049 Z7.546 
N599 X-147.963 Y4.959 Z7.646 
N600 X-147.962 Y4.868 Z7.747 
N601 X-147.961 Y4.777 Z7.848 
N602 X-147.960 Y4.686 Z7.949 
N603 X-147.959 Y4.596 Z8.050 
N604 X-147.958 Y4.505 Z8.150 
N605 X-147.957 Y4.414 Z8.251 
N606 X-147.956 Y4.323 Z8.352 
N607 X-147.955 Y4.233 Z8.453 
N608 X-147.954 Y4.142 Z8.553 
N609 X-147.953 Y4.051 Z8.654 
N610 X-147.952 Y3.960 Z8.755 
N611 X-147.951 Y3.870 Z8.856 
N612 X-147.950 Y3.779 Z8.957 
N613 X-147.949 Y3.688 Z9.058 
N614 X-147.948 Y3.596 Z9.159 
N615 X-147.947 Y3.505 Z9.261 
N616 X-147.946 Y3.414 Z9.362 
N617 X-147.945 Y3.323 Z9.463 
N618 X-147.944 Y3.231 Z9.565 
N619 X-147.943 Y3.140 Z9.666 
N620 X-147.942 Y3.049 Z9.767 
N621 X-147.941 Y2.958 Z9.869 
N622 X-147.940 Y2.867 Z9.970 
N623 X-147.939 Y2.775 Z10.071 
N624 X-147.938 Y2.684 Z10.173 
N625 X-147.937 Y2.593 Z10.274 
N626 X-147.936 Y2.502 Z10.375 
N627 X-147.935 Y2.410 Z10.477 
N628 X-147.934 Y2.319 Z10.578 
N629 X-147.933 Y2.228 Z10.679 
N630 X-147.932 Y2.137 Z10.781 
N631 X-147.931 Y2.045 Z10.882 
N632 X-147.930 Y1.954 Z10.983 
N633 X-147.928 Y1.863 Z11.085 
N634 X-147.927 Y1.772 Z11.186 
N635 G40 X-147.852 Y-4.919 Z18.617 F407
N636 X-147.852 Y-4.919 Z18.617 
N637 G00 X-147.852 Y32.238 Z52.074 
;RAPORT("TB011430","Side Milling:132 End")
;trailer : concat=None
; points cnt = 582
N639 MSG (" --- GROUPED OF SUBPROGRAM --- ")
N640 FGROUP()
N641 TRAFOOF
; PROGRAM NAME: B01143036
; ORDER       : B011430
; OPER. NAME  : Side Milling:133
; OPER. DESCR.: rough slot NGA
; OPER. TYPE  : sideMill
; GEO. OPTION : 1
; MACHINE     : HSTM_500_SIM840D_Py
;             : HSTM500 - HAMUEL: 5-axis milling machine - SIM840D Traori PP_Script
; CONTROL     : SINUMERIK 840D
; created:   2022-10-26 13:20:46.789191
;-------DODATKOWE DANE-------------------
; PROGRAMISTA : Zbigniew Papierowski
; PARTID      : 135T006774P1021_-
;  ap         : 2.5
;  ae         : 5.0
;  lean_angle : 0.0
;  fin_offset : 0.3
;----------------------------------------
;RAPORT("TB011430","Side Milling:133")
N10 TRAFOOF
N11 D0
N12 G90 G94
N13 G0 G53 D0 Z550 B0
N14 STOPRE
M9 ; chlodziwo wyl
; --- Side Milling:133 - rough slot NGA ---
N16 ;ToolChange : concat=None ,current_tdmid=None, PP.tdmId=940663
N17 TRAFOOF
N18 G0 G53 D0 Z550 B0
N19 STOPRE
N20 MSG(" TLID=940663 D=6.0 R=0.6 Ang=0.0 Len=102.0 ")
N21 S8488 M03
N22 STOPRE
N23 CYCLE832(0.01,1,1)
N24 G0 G53 A132.0000 B0.0000
N25 TRAORI
N26 G54 D1
;tol5=0.15
STOPRE
E_ZDARZ=500002
;ACS_ROUGH_SLOT=7740663
STOPRE
;UWAGA : ZMIENIONA TOLERANCJA OSI A i B, ruchy osi A i B beda usuniete : TOL5=0.15
N27 ; DELTA A > 40.1
N28 TRAFOOF
N29 D1
N30 STOPRE
N31 G00 G54 Z284.000
N32 G01 A132.0000 F10000
N33 TRAORI
N34 G54 D1
N35 STOPRE
N36 TRANS 
N37 G00 X-148.818 Y-73.584 Z-8.914 A132.0000 
N38 M342 ; chlodziwo woda
N39 X-148.818 Y-36.427 Z24.542 
N40 ;on NNTA
N41 D3 
N42 G01 G41 X-148.514 Y-29.739 Z17.114 F407
N43 G01 X-148.514 Y-29.739 Z17.114 F407 
N44 X-148.510 Y-29.648 Z17.013 
N45 X-148.506 Y-29.557 Z16.912 
N46 X-148.502 Y-29.465 Z16.811 
N47 X-148.498 Y-29.374 Z16.709 
N48 X-148.494 Y-29.283 Z16.608 
N49 X-148.490 Y-29.192 Z16.507 
N50 X-148.486 Y-29.101 Z16.405 
N51 X-148.481 Y-29.009 Z16.304 
N52 X-148.477 Y-28.918 Z16.203 
N53 X-148.473 Y-28.827 Z16.102 
N54 X-148.469 Y-28.736 Z16.000 
N55 X-148.465 Y-28.645 Z15.899 
N56 X-148.461 Y-28.553 Z15.798 
N57 X-148.457 Y-28.462 Z15.696 
N58 X-148.452 Y-28.371 Z15.595 
N59 X-148.448 Y-28.280 Z15.494 
N60 X-148.444 Y-28.189 Z15.392 
N61 X-148.440 Y-28.097 Z15.291 
N62 X-148.436 Y-28.006 Z15.190 
N63 X-148.432 Y-27.915 Z15.089 
N64 X-148.428 Y-27.824 Z14.987 
N65 X-148.424 Y-27.733 Z14.886 
N66 X-148.419 Y-27.641 Z14.785 
N67 X-148.415 Y-27.550 Z14.683 
N68 X-148.411 Y-27.459 Z14.582 
N69 X-148.407 Y-27.368 Z14.481 
N70 X-148.403 Y-27.277 Z14.380 
N71 X-148.399 Y-27.185 Z14.278 
N72 X-148.395 Y-27.094 Z14.177 
N73 X-148.390 Y-27.003 Z14.076 
N74 X-148.386 Y-26.912 Z13.974 
N75 X-148.382 Y-26.821 Z13.873 
N76 X-148.378 Y-26.729 Z13.772 
N77 X-148.374 Y-26.638 Z13.671 
N78 X-148.370 Y-26.547 Z13.569 
N79 X-148.366 Y-26.456 Z13.468 
N80 X-148.362 Y-26.364 Z13.367 
N81 X-148.357 Y-26.273 Z13.265 
N82 X-148.353 Y-26.182 Z13.164 
N83 X-148.349 Y-26.091 Z13.063 
N84 X-148.345 Y-26.000 Z12.962 
N85 X-148.341 Y-25.908 Z12.860 
N86 X-148.337 Y-25.817 Z12.759 
N87 X-148.333 Y-25.726 Z12.658 
N88 X-148.328 Y-25.635 Z12.557 
N89 X-148.324 Y-25.545 Z12.456 
N90 X-148.320 Y-25.454 Z12.355 
N91 X-148.316 Y-25.363 Z12.255 
N92 X-148.312 Y-25.273 Z12.154 
N93 X-148.308 Y-25.182 Z12.053 
N94 X-148.304 Y-25.091 Z11.952 
N95 X-148.300 Y-25.000 Z11.852 
N96 X-148.296 Y-24.910 Z11.751 
N97 X-148.291 Y-24.819 Z11.650 
N98 X-148.287 Y-24.728 Z11.550 
N99 X-148.283 Y-24.638 Z11.449 
N100 X-148.279 Y-24.547 Z11.348 
N101 X-148.275 Y-24.456 Z11.247 
N102 X-148.271 Y-24.366 Z11.147 
N103 X-148.267 Y-24.275 Z11.046 
N104 X-148.263 Y-24.184 Z10.945 
N105 X-148.259 Y-24.093 Z10.844 
N106 X-148.254 Y-24.003 Z10.744 
N107 X-148.250 Y-23.912 Z10.643 
N108 X-148.246 Y-23.821 Z10.542 
N109 X-148.242 Y-23.731 Z10.441 
N110 X-148.238 Y-23.640 Z10.341 
N111 X-148.234 Y-23.549 Z10.240 
N112 X-148.230 Y-23.458 Z10.139 
N113 X-148.226 Y-23.368 Z10.038 
N114 X-148.222 Y-23.277 Z9.938 
N115 X-148.217 Y-23.186 Z9.837 
N116 X-148.213 Y-23.096 Z9.736 
N117 X-148.209 Y-23.005 Z9.636 
N118 X-148.205 Y-22.914 Z9.535 
N119 X-148.201 Y-22.824 Z9.434 
N120 X-148.197 Y-22.733 Z9.333 
N121 X-148.193 Y-22.642 Z9.233 
N122 X-148.189 Y-22.551 Z9.132 
N123 X-148.185 Y-22.461 Z9.031 
N124 X-148.182 Y-22.370 Z8.930 
N125 X-148.179 Y-22.279 Z8.830 
N126 X-148.176 Y-22.189 Z8.729 
N127 X-148.173 Y-22.098 Z8.628 
N128 X-148.170 Y-22.007 Z8.527 
N129 X-148.167 Y-21.916 Z8.427 
N130 X-148.164 Y-21.826 Z8.326 
N131 X-148.161 Y-21.735 Z8.225 
N132 X-148.158 Y-21.644 Z8.124 
N133 X-148.155 Y-21.553 Z8.023 
N134 X-148.152 Y-21.463 Z7.923 
N135 X-148.149 Y-21.372 Z7.822 
N136 X-148.146 Y-21.281 Z7.721 
N137 X-148.143 Y-21.191 Z7.620 
N138 X-148.140 Y-21.100 Z7.520 
N139 X-148.137 Y-21.009 Z7.419 
N140 X-148.134 Y-20.918 Z7.318 
N141 X-148.131 Y-20.828 Z7.217 
N142 X-148.128 Y-20.737 Z7.117 
N143 X-148.125 Y-20.646 Z7.016 
N144 X-148.122 Y-20.555 Z6.915 
N145 X-148.119 Y-20.465 Z6.814 
N146 X-148.116 Y-20.374 Z6.714 
N147 X-148.113 Y-20.283 Z6.613 
N148 X-148.110 Y-20.193 Z6.512 
N149 X-148.107 Y-20.102 Z6.411 
N150 X-148.104 Y-20.011 Z6.311 
N151 X-148.101 Y-19.920 Z6.210 
N152 X-148.098 Y-19.830 Z6.109 
N153 X-148.095 Y-19.739 Z6.008 
N154 X-148.092 Y-19.648 Z5.908 
N155 X-148.089 Y-19.558 Z5.807 
N156 X-148.086 Y-19.467 Z5.706 
N157 X-148.083 Y-19.376 Z5.605 
N158 X-148.080 Y-19.285 Z5.504 
N159 X-148.077 Y-19.195 Z5.404 
N160 X-148.074 Y-19.104 Z5.303 
N161 X-148.071 Y-19.013 Z5.202 
N162 X-148.068 Y-18.922 Z5.101 
N163 X-148.065 Y-18.832 Z5.001 
N164 X-148.062 Y-18.741 Z4.900 
N165 X-148.059 Y-18.650 Z4.799 
N166 X-148.056 Y-18.560 Z4.698 
N167 X-148.053 Y-18.469 Z4.598 
N168 X-148.052 Y-18.378 Z4.497 
N169 X-148.050 Y-18.287 Z4.396 
N170 X-148.049 Y-18.197 Z4.295 
N171 X-148.047 Y-18.106 Z4.195 
N172 X-148.046 Y-18.015 Z4.094 
N173 X-148.044 Y-17.924 Z3.993 
N174 X-148.043 Y-17.834 Z3.892 
N175 X-148.041 Y-17.743 Z3.791 
N176 X-148.040 Y-17.652 Z3.691 
N177 X-148.038 Y-17.561 Z3.590 
N178 X-148.037 Y-17.471 Z3.489 
N179 X-148.035 Y-17.380 Z3.388 
N180 X-148.034 Y-17.289 Z3.288 
N181 X-148.032 Y-17.198 Z3.187 
N182 X-148.031 Y-17.108 Z3.086 
N183 X-148.029 Y-17.017 Z2.985 
N184 X-148.028 Y-16.926 Z2.884 
N185 X-148.026 Y-16.836 Z2.784 
N186 X-148.025 Y-16.745 Z2.683 
N187 X-148.023 Y-16.654 Z2.582 
N188 X-148.022 Y-16.563 Z2.481 
N189 X-148.020 Y-16.473 Z2.381 
N190 X-148.019 Y-16.382 Z2.280 
N191 X-148.017 Y-16.291 Z2.179 
N192 X-148.016 Y-16.200 Z2.078 
N193 X-148.014 Y-16.110 Z1.977 
N194 X-148.013 Y-16.019 Z1.877 
N195 X-148.011 Y-15.928 Z1.776 
N196 X-148.010 Y-15.837 Z1.675 
N197 X-148.008 Y-15.747 Z1.574 
N198 X-148.007 Y-15.656 Z1.474 
N199 X-148.005 Y-15.565 Z1.373 
N200 X-148.004 Y-15.474 Z1.272 
N201 X-148.002 Y-15.384 Z1.171 
N202 X-148.001 Y-15.293 Z1.070 
N203 X-147.999 Y-15.202 Z0.970 
N204 X-147.998 Y-15.111 Z0.869 
N205 X-147.996 Y-15.021 Z0.768 
N206 X-147.995 Y-14.930 Z0.667 
N207 X-147.994 Y-14.839 Z0.567 
N208 X-147.992 Y-14.748 Z0.466 
N209 X-147.991 Y-14.658 Z0.365 
N210 X-147.989 Y-14.567 Z0.264 
N211 X-147.988 Y-14.476 Z0.163 
N212 X-147.986 Y-14.386 Z0.063 
N213 X-147.985 Y-14.295 Z-0.038 
N214 X-147.983 Y-14.204 Z-0.139 
N215 X-147.982 Y-14.113 Z-0.240 
N216 X-147.980 Y-14.023 Z-0.340 
N217 X-147.979 Y-13.932 Z-0.441 
N218 X-147.977 Y-13.841 Z-0.542 
N219 X-147.976 Y-13.750 Z-0.643 
N220 X-147.974 Y-13.660 Z-0.744 
N221 X-147.973 Y-13.569 Z-0.844 
N222 X-147.971 Y-13.478 Z-0.945 
N223 X-147.970 Y-13.387 Z-1.046 
N224 X-147.968 Y-13.297 Z-1.147 
N225 X-147.967 Y-13.206 Z-1.247 
N226 X-147.965 Y-13.115 Z-1.348 
N227 X-147.964 Y-13.024 Z-1.449 
N228 X-147.962 Y-12.934 Z-1.550 
N229 X-147.961 Y-12.843 Z-1.651 
N230 X-147.959 Y-12.752 Z-1.751 
N231 X-147.958 Y-12.661 Z-1.852 
N232 X-147.956 Y-12.571 Z-1.953 
N233 X-147.956 Y-12.480 Z-2.054 
N234 X-147.956 Y-12.389 Z-2.154 
N235 X-147.956 Y-12.298 Z-2.255 
N236 X-147.956 Y-12.208 Z-2.356 
N237 X-147.956 Y-12.117 Z-2.457 
N238 X-147.956 Y-12.026 Z-2.558 
N239 X-147.956 Y-11.935 Z-2.658 
N240 X-147.956 Y-11.845 Z-2.759 
N241 X-147.956 Y-11.754 Z-2.860 
N242 X-147.956 Y-11.663 Z-2.961 
N243 X-147.956 Y-11.572 Z-3.062 
N244 X-147.956 Y-11.482 Z-3.162 
N245 X-147.956 Y-11.391 Z-3.263 
N246 X-147.956 Y-11.300 Z-3.364 
N247 X-147.956 Y-11.210 Z-3.465 
N248 X-147.956 Y-11.119 Z-3.565 
N249 X-147.956 Y-11.028 Z-3.666 
N250 X-147.956 Y-10.937 Z-3.767 
N251 X-147.956 Y-10.847 Z-3.868 
N252 X-147.956 Y-10.756 Z-3.969 
N253 X-147.956 Y-10.665 Z-4.069 
N254 X-147.956 Y-10.574 Z-4.170 
N255 X-147.956 Y-10.484 Z-4.271 
N256 X-147.956 Y-10.393 Z-4.372 
N257 X-147.956 Y-10.302 Z-4.472 
N258 X-147.956 Y-10.211 Z-4.573 
N259 X-147.956 Y-10.121 Z-4.674 
N260 X-147.956 Y-10.030 Z-4.775 
N261 X-147.956 Y-9.939 Z-4.876 
N262 X-147.956 Y-9.848 Z-4.976 
N263 X-147.956 Y-9.758 Z-5.077 
N264 X-147.956 Y-9.667 Z-5.178 
N265 X-147.956 Y-9.576 Z-5.279 
N266 X-147.956 Y-9.485 Z-5.380 
N267 X-147.956 Y-9.395 Z-5.480 
N268 X-147.956 Y-9.304 Z-5.581 
N269 X-147.956 Y-9.213 Z-5.682 
N270 X-147.956 Y-9.122 Z-5.783 
N271 X-147.956 Y-9.032 Z-5.883 
N272 X-147.956 Y-8.941 Z-5.984 
N273 X-147.956 Y-8.850 Z-6.085 
N274 X-147.956 Y-8.759 Z-6.186 
N275 X-147.957 Y-8.669 Z-6.287 
N276 X-147.958 Y-8.578 Z-6.387 
N277 X-147.959 Y-8.487 Z-6.488 
N278 X-147.960 Y-8.396 Z-6.589 
N279 X-147.961 Y-8.306 Z-6.690 
N280 X-147.963 Y-8.215 Z-6.790 
N281 X-147.964 Y-8.124 Z-6.891 
N282 X-147.965 Y-8.033 Z-6.992 
N283 X-147.966 Y-7.943 Z-7.093 
N284 X-147.967 Y-7.852 Z-7.194 
N285 X-147.968 Y-7.761 Z-7.294 
N286 X-147.969 Y-7.670 Z-7.395 
N287 X-147.970 Y-7.580 Z-7.496 
N288 X-147.971 Y-7.489 Z-7.597 
N289 X-147.972 Y-7.398 Z-7.698 
N290 X-147.973 Y-7.307 Z-7.798 
N291 X-147.974 Y-7.217 Z-7.899 
N292 X-147.975 Y-7.126 Z-8.000 
N293 X-147.976 Y-7.035 Z-8.101 
N294 X-147.977 Y-6.944 Z-8.201 
N295 X-147.978 Y-6.854 Z-8.302 
N296 X-147.980 Y-6.763 Z-8.403 
N297 X-147.981 Y-6.672 Z-8.504 
N298 X-147.982 Y-6.582 Z-8.605 
N299 X-147.983 Y-6.491 Z-8.705 
N300 X-147.984 Y-6.400 Z-8.806 
N301 X-147.985 Y-6.309 Z-8.907 
N302 X-147.986 Y-6.219 Z-9.008 
N303 X-147.987 Y-6.128 Z-9.108 
N304 X-147.988 Y-6.037 Z-9.209 
N305 X-147.989 Y-5.946 Z-9.310 
N306 X-147.990 Y-5.856 Z-9.411 
N307 X-147.991 Y-5.765 Z-9.512 
N308 X-147.992 Y-5.674 Z-9.612 
N309 X-147.993 Y-5.583 Z-9.713 
N310 X-147.994 Y-5.493 Z-9.814 
N311 X-147.995 Y-5.401 Z-9.915 
N312 X-147.997 Y-5.310 Z-10.017 
N313 X-147.998 Y-5.219 Z-10.118 
N314 X-147.999 Y-5.128 Z-10.219 
N315 X-148.000 Y-5.036 Z-10.321 
N316 X-148.001 Y-4.945 Z-10.422 
N317 X-148.002 Y-4.854 Z-10.523 
N318 X-148.003 Y-4.763 Z-10.625 
N319 X-148.004 Y-4.671 Z-10.726 
N320 X-148.005 Y-4.580 Z-10.827 
N321 X-148.006 Y-4.489 Z-10.929 
N322 X-148.007 Y-4.398 Z-11.030 
N323 X-148.008 Y-4.306 Z-11.131 
N324 X-148.009 Y-4.215 Z-11.233 
N325 X-148.010 Y-4.124 Z-11.334 
N326 X-148.012 Y-4.033 Z-11.435 
N327 X-148.013 Y-3.941 Z-11.537 
N328 X-148.014 Y-3.850 Z-11.638 
N329 X-148.015 Y-3.759 Z-11.739 
N330 X-148.016 Y-3.668 Z-11.841 
N331 X-148.017 Y-3.577 Z-11.942 
N332 X-148.018 Y-3.485 Z-12.043 
N333 G40 X-148.096 Y3.206 Z-19.475 F407
N334 X-148.096 Y3.206 Z-19.475 
N335 G00 X-148.096 Y-15.373 Z-36.203 
N336 X-148.818 Y-53.631 Z9.052 
N337 X-148.818 Y-35.052 Z25.780 
N338 ;on NNTA
N339 D3 
N340 G01 G41 X-148.514 Y-28.364 Z18.352 F407
N341 G01 X-148.514 Y-28.364 Z18.352 F407 
N342 X-148.510 Y-28.273 Z18.251 
N343 X-148.506 Y-28.182 Z18.150 
N344 X-148.502 Y-28.091 Z18.048 
N345 X-148.498 Y-27.999 Z17.947 
N346 X-148.494 Y-27.908 Z17.846 
N347 X-148.490 Y-27.817 Z17.745 
N348 X-148.486 Y-27.726 Z17.643 
N349 X-148.481 Y-27.635 Z17.542 
N350 X-148.477 Y-27.543 Z17.441 
N351 X-148.473 Y-27.452 Z17.339 
N352 X-148.469 Y-27.361 Z17.238 
N353 X-148.465 Y-27.270 Z17.137 
N354 X-148.461 Y-27.179 Z17.036 
N355 X-148.457 Y-27.087 Z16.934 
N356 X-148.452 Y-26.996 Z16.833 
N357 X-148.448 Y-26.905 Z16.732 
N358 X-148.444 Y-26.814 Z16.630 
N359 X-148.440 Y-26.723 Z16.529 
N360 X-148.436 Y-26.631 Z16.428 
N361 X-148.432 Y-26.540 Z16.327 
N362 X-148.428 Y-26.449 Z16.225 
N363 X-148.424 Y-26.358 Z16.124 
N364 X-148.419 Y-26.267 Z16.023 
N365 X-148.415 Y-26.175 Z15.921 
N366 X-148.411 Y-26.084 Z15.820 
N367 X-148.407 Y-25.993 Z15.719 
N368 X-148.403 Y-25.902 Z15.617 
N369 X-148.399 Y-25.811 Z15.516 
N370 X-148.395 Y-25.719 Z15.415 
N371 X-148.390 Y-25.628 Z15.314 
N372 X-148.386 Y-25.537 Z15.212 
N373 X-148.382 Y-25.446 Z15.111 
N374 X-148.378 Y-25.354 Z15.010 
N375 X-148.374 Y-25.263 Z14.908 
N376 X-148.370 Y-25.172 Z14.807 
N377 X-148.366 Y-25.081 Z14.706 
N378 X-148.362 Y-24.990 Z14.605 
N379 X-148.357 Y-24.898 Z14.503 
N380 X-148.353 Y-24.807 Z14.402 
N381 X-148.349 Y-24.716 Z14.301 
N382 X-148.345 Y-24.625 Z14.199 
N383 X-148.341 Y-24.534 Z14.098 
N384 X-148.337 Y-24.442 Z13.997 
N385 X-148.333 Y-24.351 Z13.896 
N386 X-148.328 Y-24.261 Z13.795 
N387 X-148.324 Y-24.170 Z13.694 
N388 X-148.320 Y-24.079 Z13.593 
N389 X-148.316 Y-23.988 Z13.493 
N390 X-148.312 Y-23.898 Z13.392 
N391 X-148.308 Y-23.807 Z13.291 
N392 X-148.304 Y-23.716 Z13.190 
N393 X-148.300 Y-23.626 Z13.090 
N394 X-148.296 Y-23.535 Z12.989 
N395 X-148.291 Y-23.444 Z12.888 
N396 X-148.287 Y-23.354 Z12.787 
N397 X-148.283 Y-23.263 Z12.687 
N398 X-148.279 Y-23.172 Z12.586 
N399 X-148.275 Y-23.081 Z12.485 
N400 X-148.271 Y-22.991 Z12.384 
N401 X-148.267 Y-22.900 Z12.284 
N402 X-148.263 Y-22.809 Z12.183 
N403 X-148.259 Y-22.719 Z12.082 
N404 X-148.254 Y-22.628 Z11.982 
N405 X-148.250 Y-22.537 Z11.881 
N406 X-148.246 Y-22.446 Z11.780 
N407 X-148.242 Y-22.356 Z11.679 
N408 X-148.238 Y-22.265 Z11.579 
N409 X-148.234 Y-22.174 Z11.478 
N410 X-148.230 Y-22.084 Z11.377 
N411 X-148.226 Y-21.993 Z11.276 
N412 X-148.222 Y-21.902 Z11.176 
N413 X-148.217 Y-21.812 Z11.075 
N414 X-148.213 Y-21.721 Z10.974 
N415 X-148.209 Y-21.630 Z10.873 
N416 X-148.205 Y-21.539 Z10.773 
N417 X-148.201 Y-21.449 Z10.672 
N418 X-148.197 Y-21.358 Z10.571 
N419 X-148.193 Y-21.267 Z10.470 
N420 X-148.189 Y-21.177 Z10.370 
N421 X-148.185 Y-21.086 Z10.269 
N422 X-148.182 Y-20.995 Z10.168 
N423 X-148.179 Y-20.904 Z10.067 
N424 X-148.176 Y-20.814 Z9.967 
N425 X-148.173 Y-20.723 Z9.866 
N426 X-148.170 Y-20.632 Z9.765 
N427 X-148.167 Y-20.542 Z9.664 
N428 X-148.164 Y-20.451 Z9.564 
N429 X-148.161 Y-20.360 Z9.463 
N430 X-148.158 Y-20.269 Z9.362 
N431 X-148.155 Y-20.179 Z9.261 
N432 X-148.152 Y-20.088 Z9.161 
N433 X-148.149 Y-19.997 Z9.060 
N434 X-148.146 Y-19.906 Z8.959 
N435 X-148.143 Y-19.816 Z8.858 
N436 X-148.140 Y-19.725 Z8.758 
N437 X-148.137 Y-19.634 Z8.657 
N438 X-148.134 Y-19.544 Z8.556 
N439 X-148.131 Y-19.453 Z8.455 
N440 X-148.128 Y-19.362 Z8.355 
N441 X-148.125 Y-19.271 Z8.254 
N442 X-148.122 Y-19.181 Z8.153 
N443 X-148.119 Y-19.090 Z8.052 
N444 X-148.116 Y-18.999 Z7.951 
N445 X-148.113 Y-18.909 Z7.851 
N446 X-148.110 Y-18.818 Z7.750 
N447 X-148.107 Y-18.727 Z7.649 
N448 X-148.104 Y-18.636 Z7.548 
N449 X-148.101 Y-18.546 Z7.448 
N450 X-148.098 Y-18.455 Z7.347 
N451 X-148.095 Y-18.364 Z7.246 
N452 X-148.092 Y-18.273 Z7.145 
N453 X-148.089 Y-18.183 Z7.045 
N454 X-148.086 Y-18.092 Z6.944 
N455 X-148.083 Y-18.001 Z6.843 
N456 X-148.080 Y-17.911 Z6.742 
N457 X-148.077 Y-17.820 Z6.642 
N458 X-148.074 Y-17.729 Z6.541 
N459 X-148.071 Y-17.638 Z6.440 
N460 X-148.068 Y-17.548 Z6.339 
N461 X-148.065 Y-17.457 Z6.239 
N462 X-148.062 Y-17.366 Z6.138 
N463 X-148.059 Y-17.275 Z6.037 
N464 X-148.056 Y-17.185 Z5.936 
N465 X-148.053 Y-17.094 Z5.836 
N466 X-148.052 Y-17.003 Z5.735 
N467 X-148.050 Y-16.913 Z5.634 
N468 X-148.049 Y-16.822 Z5.533 
N469 X-148.047 Y-16.731 Z5.432 
N470 X-148.046 Y-16.640 Z5.332 
N471 X-148.044 Y-16.550 Z5.231 
N472 X-148.043 Y-16.459 Z5.130 
N473 X-148.041 Y-16.368 Z5.029 
N474 X-148.040 Y-16.277 Z4.929 
N475 X-148.038 Y-16.187 Z4.828 
N476 X-148.037 Y-16.096 Z4.727 
N477 X-148.035 Y-16.005 Z4.626 
N478 X-148.034 Y-15.914 Z4.525 
N479 X-148.032 Y-15.824 Z4.425 
N480 X-148.031 Y-15.733 Z4.324 
N481 X-148.029 Y-15.642 Z4.223 
N482 X-148.028 Y-15.551 Z4.122 
N483 X-148.026 Y-15.461 Z4.022 
N484 X-148.025 Y-15.370 Z3.921 
N485 X-148.023 Y-15.279 Z3.820 
N486 X-148.022 Y-15.188 Z3.719 
N487 X-148.020 Y-15.098 Z3.618 
N488 X-148.019 Y-15.007 Z3.518 
N489 X-148.017 Y-14.916 Z3.417 
N490 X-148.016 Y-14.826 Z3.316 
N491 X-148.014 Y-14.735 Z3.215 
N492 X-148.013 Y-14.644 Z3.115 
N493 X-148.011 Y-14.553 Z3.014 
N494 X-148.010 Y-14.463 Z2.913 
N495 X-148.008 Y-14.372 Z2.812 
N496 X-148.007 Y-14.281 Z2.711 
N497 X-148.005 Y-14.190 Z2.611 
N498 X-148.004 Y-14.100 Z2.510 
N499 X-148.002 Y-14.009 Z2.409 
N500 X-148.001 Y-13.918 Z2.308 
N501 X-147.999 Y-13.827 Z2.208 
N502 X-147.998 Y-13.737 Z2.107 
N503 X-147.996 Y-13.646 Z2.006 
N504 X-147.995 Y-13.555 Z1.905 
N505 X-147.994 Y-13.464 Z1.804 
N506 X-147.992 Y-13.374 Z1.704 
N507 X-147.991 Y-13.283 Z1.603 
N508 X-147.989 Y-13.192 Z1.502 
N509 X-147.988 Y-13.101 Z1.401 
N510 X-147.986 Y-13.011 Z1.301 
N511 X-147.985 Y-12.920 Z1.200 
N512 X-147.983 Y-12.829 Z1.099 
N513 X-147.982 Y-12.738 Z0.998 
N514 X-147.980 Y-12.648 Z0.897 
N515 X-147.979 Y-12.557 Z0.797 
N516 X-147.977 Y-12.466 Z0.696 
N517 X-147.976 Y-12.376 Z0.595 
N518 X-147.974 Y-12.285 Z0.494 
N519 X-147.973 Y-12.194 Z0.394 
N520 X-147.971 Y-12.103 Z0.293 
N521 X-147.970 Y-12.013 Z0.192 
N522 X-147.968 Y-11.922 Z0.091 
N523 X-147.967 Y-11.831 Z-0.010 
N524 X-147.965 Y-11.740 Z-0.110 
N525 X-147.964 Y-11.650 Z-0.211 
N526 X-147.962 Y-11.559 Z-0.312 
N527 X-147.961 Y-11.468 Z-0.413 
N528 X-147.959 Y-11.377 Z-0.513 
N529 X-147.958 Y-11.287 Z-0.614 
N530 X-147.956 Y-11.196 Z-0.715 
N531 X-147.956 Y-11.105 Z-0.816 
N532 X-147.956 Y-11.014 Z-0.917 
N533 X-147.956 Y-10.924 Z-1.017 
N534 X-147.956 Y-10.833 Z-1.118 
N535 X-147.956 Y-10.742 Z-1.219 
N536 X-147.956 Y-10.651 Z-1.320 
N537 X-147.956 Y-10.561 Z-1.420 
N538 X-147.956 Y-10.470 Z-1.521 
N539 X-147.956 Y-10.379 Z-1.622 
N540 X-147.956 Y-10.288 Z-1.723 
N541 X-147.956 Y-10.198 Z-1.824 
N542 X-147.956 Y-10.107 Z-1.924 
N543 X-147.956 Y-10.016 Z-2.025 
N544 X-147.956 Y-9.925 Z-2.126 
N545 X-147.956 Y-9.835 Z-2.227 
N546 X-147.956 Y-9.744 Z-2.328 
N547 X-147.956 Y-9.653 Z-2.428 
N548 X-147.956 Y-9.562 Z-2.529 
N549 X-147.956 Y-9.472 Z-2.630 
N550 X-147.956 Y-9.381 Z-2.731 
N551 X-147.956 Y-9.290 Z-2.831 
N552 X-147.956 Y-9.199 Z-2.932 
N553 X-147.956 Y-9.109 Z-3.033 
N554 X-147.956 Y-9.018 Z-3.134 
N555 X-147.956 Y-8.927 Z-3.235 
N556 X-147.956 Y-8.836 Z-3.335 
N557 X-147.956 Y-8.746 Z-3.436 
N558 X-147.956 Y-8.655 Z-3.537 
N559 X-147.956 Y-8.564 Z-3.638 
N560 X-147.956 Y-8.473 Z-3.739 
N561 X-147.956 Y-8.383 Z-3.839 
N562 X-147.956 Y-8.292 Z-3.940 
N563 X-147.956 Y-8.201 Z-4.041 
N564 X-147.956 Y-8.111 Z-4.142 
N565 X-147.956 Y-8.020 Z-4.242 
N566 X-147.956 Y-7.929 Z-4.343 
N567 X-147.956 Y-7.838 Z-4.444 
N568 X-147.956 Y-7.748 Z-4.545 
N569 X-147.956 Y-7.657 Z-4.646 
N570 X-147.956 Y-7.566 Z-4.746 
N571 X-147.956 Y-7.475 Z-4.847 
N572 X-147.956 Y-7.385 Z-4.948 
N573 X-147.957 Y-7.294 Z-5.049 
N574 X-147.958 Y-7.203 Z-5.149 
N575 X-147.959 Y-7.112 Z-5.250 
N576 X-147.960 Y-7.022 Z-5.351 
N577 X-147.961 Y-6.931 Z-5.452 
N578 X-147.963 Y-6.840 Z-5.553 
N579 X-147.964 Y-6.749 Z-5.653 
N580 X-147.965 Y-6.659 Z-5.754 
N581 X-147.966 Y-6.568 Z-5.855 
N582 X-147.967 Y-6.477 Z-5.956 
N583 X-147.968 Y-6.386 Z-6.057 
N584 X-147.969 Y-6.296 Z-6.157 
N585 X-147.970 Y-6.205 Z-6.258 
N586 X-147.971 Y-6.114 Z-6.359 
N587 X-147.972 Y-6.023 Z-6.460 
N588 X-147.973 Y-5.933 Z-6.560 
N589 X-147.974 Y-5.842 Z-6.661 
N590 X-147.975 Y-5.751 Z-6.762 
N591 X-147.976 Y-5.660 Z-6.863 
N592 X-147.977 Y-5.570 Z-6.964 
N593 X-147.978 Y-5.479 Z-7.064 
N594 X-147.980 Y-5.388 Z-7.165 
N595 X-147.981 Y-5.297 Z-7.266 
N596 X-147.982 Y-5.207 Z-7.367 
N597 X-147.983 Y-5.116 Z-7.467 
N598 X-147.984 Y-5.025 Z-7.568 
N599 X-147.985 Y-4.934 Z-7.669 
N600 X-147.986 Y-4.844 Z-7.770 
N601 X-147.987 Y-4.753 Z-7.871 
N602 X-147.988 Y-4.662 Z-7.971 
N603 X-147.989 Y-4.571 Z-8.072 
N604 X-147.990 Y-4.481 Z-8.173 
N605 X-147.991 Y-4.390 Z-8.274 
N606 X-147.992 Y-4.299 Z-8.374 
N607 X-147.993 Y-4.209 Z-8.475 
N608 X-147.994 Y-4.118 Z-8.576 
N609 X-147.995 Y-4.027 Z-8.677 
N610 X-147.997 Y-3.935 Z-8.779 
N611 X-147.998 Y-3.844 Z-8.880 
N612 X-147.999 Y-3.753 Z-8.981 
N613 X-148.000 Y-3.662 Z-9.083 
N614 X-148.001 Y-3.570 Z-9.184 
N615 X-148.002 Y-3.479 Z-9.285 
N616 X-148.003 Y-3.388 Z-9.387 
N617 X-148.004 Y-3.297 Z-9.488 
N618 X-148.005 Y-3.205 Z-9.589 
N619 X-148.006 Y-3.114 Z-9.691 
N620 X-148.007 Y-3.023 Z-9.792 
N621 X-148.008 Y-2.932 Z-9.893 
N622 X-148.009 Y-2.840 Z-9.995 
N623 X-148.010 Y-2.749 Z-10.096 
N624 X-148.012 Y-2.658 Z-10.197 
N625 X-148.013 Y-2.567 Z-10.299 
N626 X-148.014 Y-2.475 Z-10.400 
N627 X-148.015 Y-2.384 Z-10.501 
N628 X-148.016 Y-2.293 Z-10.603 
N629 X-148.017 Y-2.202 Z-10.704 
N630 X-148.018 Y-2.110 Z-10.805 
N631 G40 X-148.096 Y4.581 Z-18.237 F407
N632 X-148.096 Y4.581 Z-18.237 
N633 G00 X-148.096 Y-32.577 Z-51.693 
;RAPORT("TB011430","Side Milling:133 End")
;trailer : concat=None
; points cnt = 582
N635 M9 ; chlodziwo wyl.
N636 MSG (" --- KONIEC PODPROGRAMU --- ")
N637 FGROUP()
N638 TRAFOOF
N639 STOPRE
N640 G0 G53 D0 Z550.0 M9 M5
N641 G0 G53 Y150 A0 B0
N642 M17
