; PROGRAM NAME: B01143060
; ORDER       : B011430
; OPER. NAME  : Contact Milling:146
; OPER. DESCR.: Contact Milling/podciecie pod ceche
; OPER. TYPE  : contactMill
; GEO. OPTION : 1
; MACHINE     : HSTM_500_SIM840D_Py
;             : HSTM500 - HAMUEL: 5-axis milling machine - SIM840D Traori PP_Script
; CONTROL     : SINUMERIK 840D
; created:   2022-10-26 13:22:14.553886
;-------DODATKOWE DANE-------------------
; PROGRAMISTA : Zbigniew Papierowski
; PARTID      : 135T006774P1021_-
;  ap         : 1.0
;  ae         : 5.0
;  lean_angle : 0.01
;  tilt_angle : 0.0
;  fin_offset : -0.15
;----------------------------------------
;RAPORT("TB011430","Contact Milling:146")
N10 TRAFOOF
N11 D0
N12 G90 G94
N13 G0 G53 D0 Z550 B0
N14 STOPRE
M9 ; chlodziwo wyl
; --- Contact Milling:146 - Contact Milling/podciecie pod ceche ---
N16 ;ToolChange : concat=None ,current_tdmid=None, PP.tdmId=957453
N17 TRAFOOF
N18 G0 G53 D0 X-200 Y150 Z550 B0
N19 T="7757453"
;RAPORT("TB011430","ToolChangeStart 7757453")
N20 M6
;RAPORT("TB011430","ToolChangeEnd")
N21 STOPRE
N22 MSG(" TLID=957453 D=5.0 R=0.0 Ang=0.0 Len=109.0 ")
N23 ; (Preloading tool)
N24 T="7756910"
N25 S12095 M03
N26 STOPRE
N27 CYCLE832(0.01,1,1)
N28 G0 G53 A0.0000 B-0.0100
N29 TRAORI
N30 G54 D1
N31 D3 
N32 X-138.208 Y-10.252 Z48.238 A0.0001 B-0.0100 
N33 M342 ; chlodziwo woda
N34 X-138.203 Y-10.252 Z18.238 
N35 G01 X-138.202 Y-10.252 Z12.238 F544 
N36 X-138.251 Y-10.252 Z11.929 
N37 X-138.393 Y-10.252 Z11.651 
N38 X-138.614 Y-10.252 Z11.429 
N39 X-138.893 Y-10.252 Z11.287 
N40 X-139.202 Y-10.252 Z11.238 
N41 X-139.341 Y-10.252 Z11.238 
N42 X-139.480 Y-10.252 Z11.238 F543 
N43 X-139.619 Y-10.252 Z11.238 F544 
N44 X-139.757 Y-10.252 Z11.238 
N45 X-139.896 Y-10.252 Z11.238 
N46 X-140.035 Y-10.252 Z11.238 
N47 X-140.174 Y-10.252 Z11.238 
N48 X-140.313 Y-10.252 Z11.238 
N49 X-140.452 Y-10.252 Z11.238 
N50 X-140.591 Y-10.252 Z11.238 
N51 X-140.730 Y-10.252 Z11.238 
N52 X-140.869 Y-10.252 Z11.238 
N53 X-141.007 Y-10.252 Z11.238 
N54 X-141.146 Y-10.252 Z11.238 
N55 X-141.285 Y-10.252 Z11.238 
N56 X-141.424 Y-10.252 Z11.238 
N57 X-141.563 Y-10.252 Z11.238 
N58 X-141.702 Y-10.252 Z11.238 
N59 X-141.841 Y-10.252 Z11.238 
N60 X-141.980 Y-10.252 Z11.238 
N61 X-142.119 Y-10.252 Z11.238 
N62 X-142.257 Y-10.252 Z11.238 
N63 X-142.396 Y-10.252 Z11.238 
N64 X-142.535 Y-10.252 Z11.238 
N65 X-142.674 Y-10.252 Z11.238 
N66 X-142.813 Y-10.252 Z11.238 
N67 X-142.952 Y-10.252 Z11.238 
N68 X-143.091 Y-10.252 Z11.238 
N69 X-143.230 Y-10.252 Z11.238 
N70 X-143.369 Y-10.252 Z11.238 
N71 X-143.507 Y-10.252 Z11.238 
N72 X-143.646 Y-10.252 Z11.238 
N73 X-143.785 Y-10.252 Z11.238 
N74 X-143.924 Y-10.252 Z11.238 
N75 X-144.063 Y-10.252 Z11.238 
N76 X-144.202 Y-10.252 Z11.238 
N77 X-144.341 Y-10.252 Z11.238 F543 
N78 X-144.480 Y-10.252 Z11.238 F544 
N79 X-144.619 Y-10.252 Z11.238 
N80 X-144.757 Y-10.252 Z11.238 
N81 X-144.896 Y-10.252 Z11.238 
N82 X-145.035 Y-10.252 Z11.238 
N83 X-145.174 Y-10.252 Z11.238 
N84 X-145.313 Y-10.252 Z11.238 
N85 X-145.452 Y-10.252 Z11.238 
N86 X-145.591 Y-10.252 Z11.238 
N87 X-145.730 Y-10.252 Z11.238 
N88 X-145.869 Y-10.252 Z11.238 
N89 X-146.007 Y-10.252 Z11.238 
N90 X-146.146 Y-10.252 Z11.238 
N91 X-146.285 Y-10.252 Z11.238 
N92 X-146.424 Y-10.252 Z11.238 
N93 X-146.563 Y-10.252 Z11.238 
N94 X-146.702 Y-10.252 Z11.238 
N95 X-146.838 Y-10.252 Z11.238 
N96 X-146.974 Y-10.252 Z11.238 
N97 X-147.110 Y-10.252 Z11.238 
N98 X-147.246 Y-10.252 Z11.238 
N99 X-147.382 Y-10.252 Z11.238 
N100 X-147.518 Y-10.252 Z11.238 F543 
N101 X-147.654 Y-10.252 Z11.238 F544 
N102 X-147.790 Y-10.252 Z11.238 
N103 X-147.926 Y-10.252 Z11.238 
N104 X-148.062 Y-10.252 Z11.238 
N105 X-148.198 Y-10.252 Z11.238 
N106 X-148.334 Y-10.252 Z11.238 
N107 X-148.470 Y-10.252 Z11.238 
N108 X-148.606 Y-10.252 Z11.238 
N109 X-148.742 Y-10.252 Z11.238 
N110 X-148.878 Y-10.252 Z11.238 
N111 X-149.014 Y-10.252 Z11.238 
N112 X-149.150 Y-10.252 Z11.238 
N113 X-149.286 Y-10.252 Z11.238 
N114 X-149.422 Y-10.252 Z11.238 
N115 X-149.558 Y-10.252 Z11.238 
N116 X-149.694 Y-10.252 Z11.238 
N117 X-149.830 Y-10.252 Z11.238 
N118 X-149.966 Y-10.252 Z11.238 
N119 X-150.102 Y-10.252 Z11.238 
N120 X-150.238 Y-10.252 Z11.238 
N121 X-150.374 Y-10.252 Z11.238 
N122 X-150.510 Y-10.252 Z11.238 
N123 X-150.646 Y-10.252 Z11.238 
N124 X-150.782 Y-10.252 Z11.238 
N125 X-150.918 Y-10.252 Z11.238 
N126 X-151.054 Y-10.252 Z11.238 
N127 X-151.190 Y-10.252 Z11.238 
N128 X-151.326 Y-10.252 Z11.238 
N129 X-151.462 Y-10.252 Z11.238 
N130 X-151.598 Y-10.252 Z11.238 
N131 X-151.734 Y-10.252 Z11.238 
N132 X-151.870 Y-10.252 Z11.238 
N133 X-152.006 Y-10.252 Z11.238 
N134 X-152.142 Y-10.252 Z11.238 
N135 X-152.278 Y-10.252 Z11.238 
N136 X-152.414 Y-10.252 Z11.238 
N137 X-152.550 Y-10.252 Z11.238 
N138 X-152.686 Y-10.252 Z11.238 
N139 X-152.822 Y-10.252 Z11.238 
N140 X-152.958 Y-10.252 Z11.238 
N141 X-153.094 Y-10.252 Z11.238 
N142 X-153.230 Y-10.252 Z11.238 
N143 X-153.366 Y-10.252 Z11.238 
N144 X-153.502 Y-10.252 Z11.238 
N145 X-153.638 Y-10.252 Z11.238 
N146 X-153.774 Y-10.252 Z11.238 
N147 X-153.910 Y-10.252 Z11.238 
N148 X-154.046 Y-10.252 Z11.238 
N149 X-154.182 Y-10.252 Z11.238 
N150 X-154.318 Y-10.252 Z11.238 
N151 X-154.454 Y-10.252 Z11.238 
N152 X-154.590 Y-10.252 Z11.238 
N153 X-154.726 Y-10.252 Z11.238 
N154 X-154.862 Y-10.252 Z11.238 
N155 X-154.998 Y-10.252 Z11.238 
N156 X-155.134 Y-10.252 Z11.238 
N157 X-155.270 Y-10.252 Z11.238 
N158 X-155.406 Y-10.252 Z11.238 
N159 X-155.542 Y-10.252 Z11.238 
N160 X-155.678 Y-10.252 Z11.238 
N161 X-155.814 Y-10.252 Z11.238 
N162 X-155.950 Y-10.252 Z11.238 
N163 X-156.086 Y-10.252 Z11.238 
N164 X-156.222 Y-10.252 Z11.238 
N165 X-156.358 Y-10.252 Z11.238 
N166 X-156.494 Y-10.252 Z11.238 
N167 X-156.630 Y-10.252 Z11.238 
N168 X-156.766 Y-10.252 Z11.238 
N169 X-156.902 Y-10.252 Z11.238 
N170 X-157.038 Y-10.252 Z11.238 
N171 X-157.174 Y-10.252 Z11.238 
N172 X-157.310 Y-10.252 Z11.238 
N173 X-157.446 Y-10.252 Z11.238 
N174 X-157.582 Y-10.252 Z11.238 
N175 X-157.718 Y-10.252 Z11.238 
N176 X-157.854 Y-10.252 Z11.238 
N177 X-157.990 Y-10.252 Z11.238 
N178 X-158.126 Y-10.252 Z11.238 
N179 X-158.262 Y-10.252 Z11.238 
N180 X-158.398 Y-10.252 Z11.238 
N181 X-158.534 Y-10.252 Z11.238 
N182 X-158.670 Y-10.252 Z11.238 
N183 X-158.806 Y-10.252 Z11.238 
N184 X-158.942 Y-10.252 Z11.238 
N185 X-159.078 Y-10.252 Z11.238 
N186 X-159.214 Y-10.252 Z11.238 
N187 X-159.350 Y-10.252 Z11.238 
N188 X-159.486 Y-10.252 Z11.238 
N189 X-159.622 Y-10.252 Z11.238 
N190 X-159.758 Y-10.252 Z11.238 
N191 X-159.894 Y-10.252 Z11.238 
N192 X-160.030 Y-10.252 Z11.238 
N193 X-160.166 Y-10.252 Z11.238 
N194 X-160.302 Y-10.252 Z11.238 
N195 X-160.438 Y-10.252 Z11.238 
N196 X-160.574 Y-10.252 Z11.238 
N197 X-160.710 Y-10.252 Z11.238 
N198 X-160.846 Y-10.252 Z11.238 
N199 X-160.982 Y-10.252 Z11.238 
N200 X-161.118 Y-10.252 Z11.238 
N201 X-161.254 Y-10.252 Z11.238 
N202 X-161.390 Y-10.252 Z11.238 
N203 X-161.526 Y-10.252 Z11.238 
N204 X-161.662 Y-10.252 Z11.238 
N205 X-161.798 Y-10.252 Z11.238 
N206 X-161.934 Y-10.252 Z11.238 
N207 X-162.070 Y-10.252 Z11.238 
N208 X-162.206 Y-10.252 Z11.238 
N209 X-162.342 Y-10.252 Z11.238 
N210 X-162.478 Y-10.252 Z11.238 
N211 X-162.614 Y-10.252 Z11.238 
N212 X-162.750 Y-10.252 Z11.238 
N213 X-162.886 Y-10.252 Z11.238 
N214 X-163.022 Y-10.252 Z11.238 
N215 X-163.158 Y-10.252 Z11.238 
N216 X-163.294 Y-10.252 Z11.238 
N217 X-163.430 Y-10.252 Z11.238 
N218 X-163.566 Y-10.252 Z11.238 
N219 X-163.702 Y-10.252 Z11.238 
N220 X-163.841 Y-10.252 Z11.238 F543 
N221 X-163.980 Y-10.252 Z11.238 F544 
N222 X-164.119 Y-10.252 Z11.238 
N223 X-164.257 Y-10.252 Z11.238 
N224 X-164.396 Y-10.252 Z11.238 
N225 X-164.535 Y-10.252 Z11.238 
N226 X-164.674 Y-10.252 Z11.238 
N227 X-164.813 Y-10.252 Z11.238 
N228 X-164.952 Y-10.252 Z11.238 
N229 X-165.091 Y-10.252 Z11.238 
N230 X-165.230 Y-10.252 Z11.238 
N231 X-165.369 Y-10.252 Z11.238 
N232 X-165.507 Y-10.252 Z11.238 
N233 X-165.646 Y-10.252 Z11.238 
N234 X-165.785 Y-10.252 Z11.238 
N235 X-165.924 Y-10.252 Z11.238 
N236 X-166.063 Y-10.252 Z11.238 
N237 X-166.202 Y-10.252 Z11.238 
N238 X-166.511 Y-10.252 Z11.287 
N239 X-166.790 Y-10.252 Z11.429 
N240 X-167.011 Y-10.252 Z11.650 
N241 X-167.153 Y-10.252 Z11.929 
N242 X-167.202 Y-10.252 Z12.238 
N243 G00 X-167.211 Y-10.252 Z62.238 
;RAPORT("TB011430","Contact Milling:146 End")
;trailer : concat=None
; points cnt = 208
N245 M9 ; chlodziwo wyl.
N246 MSG (" --- KONIEC PODPROGRAMU --- ")
N247 FGROUP()
N248 TRAFOOF
N249 STOPRE
N250 G0 G53 D0 Z550.0 M9 M5
N251 G0 G53 Y150 A0 B0
N252 M17
