; PROGRAM NAME: B01143014
; ORDER       : B011430
; OPER. NAME  : Spiral Rough Rhombic:105
; OPER. DESCR.: spiral roughing rhombic/bandaz zgr
; OPER. TYPE  : rouRoot
; GEO. OPTION : 4
; MACHINE     : HSTM_500_SIM840D_Py
;             : HSTM500 - HAMUEL: 5-axis milling machine - SIM840D Traori PP_Script
; CONTROL     : SINUMERIK 840D
; created:   2022-10-26 13:19:04.136075
;-------DODATKOWE DANE-------------------
; PROGRAMISTA : Zbigniew Papierowski
; PARTID      : 135T006774P1021_-
;  ap         : 2.5
;  ae         : 24.0
;  lean_angle : 1.0
;  fin_offset : 0.6
;----------------------------------------
;RAPORT("TB011430","Spiral Rough Rhombic:105")
N10 TRAFOOF
N11 D0
N12 G90 G94
N13 G0 G53 D0 Z550 B0
N14 STOPRE
M9 ; chlodziwo wyl
; --- Spiral Rough Rhombic:105 - spiral roughing rhombic/bandaz zgr ---
N16 ;ToolChange : concat=None ,current_tdmid=None, PP.tdmId=941293
N17 TRAFOOF
N18 G0 G53 D0 X-200 Y150 Z550 B0
N19 T="7741293"
;RAPORT("TB011430","ToolChangeStart 7741293")
N20 M6
;RAPORT("TB011430","ToolChangeEnd")
N21 STOPRE
N22 MSG(" TLID=941293 D=40.0 R=6.0 Ang=0.0 Len=90.0 ")
N23 ; (Preloading tool)
N24 T="7740670"
N25 S2148 M03
N26 STOPRE
N27 CYCLE832(0.1,3,1)
N28 G0 G53 A270.9478 B-0.0231
N29 TRAORI
N30 G54 D1
N31 D1 
N32 ; DELTA A > 40.1
N33 TRAFOOF
N34 D1
N35 STOPRE
N36 G00 G54 Z296.000
N37 G01 A270.9478 F10000
N38 TRAORI
N39 G54 D1
N40 STOPRE
N41 TRANS 
N42 G00 X-310.536 Y92.298 Z-40.785 A270.9478 B-0.0231 
N43 M348 ; chlodziwo mgla
N44 X-310.516 Y42.305 Z-41.612 
N45 G01 X-310.515 Y39.215 Z-41.120 F2835 
N46 X-310.514 Y36.429 Z-39.697 
N47 X-310.513 Y34.219 Z-37.482 
N48 X-310.512 Y32.801 Z-34.693 
N49 X-310.512 Y32.314 Z-31.603 
N50 X-310.512 Y32.319 Z-28.208 A270.9552 B-0.0248 
N51 X-310.512 Y32.322 Z-24.872 A270.9594 B-0.0276 
N52 X-310.512 Y32.325 Z-21.649 A270.9597 B-0.0300 
N53 X-310.512 Y32.327 Z-18.590 B-0.0301 
N54 X-310.512 Y32.329 Z-15.734 B-0.0239 
N55 X-310.512 Y32.331 Z-13.112 B-0.0167 
N56 X-310.512 Y32.332 Z-10.744 B-0.0107 
N57 X-310.512 Y32.334 Z-8.639 B-0.0060 
N58 X-310.512 Y32.335 Z-6.797 B-0.0027 
N59 X-310.512 Y32.343 Z-5.206 A270.9877 B-0.0009 
N60 X-310.512 Y32.453 Z-3.849 A271.4488 B-0.0003 
N61 X-310.512 Y32.848 Z-2.691 A273.1458 B-0.0007 
N62 X-310.512 Y33.567 Z-1.676 A276.3198 B-0.0029 
N63 X-310.512 Y34.528 Z-0.734 A280.6842 B-0.0079 
N64 X-310.512 Y35.611 Z0.192 A285.7744 B-0.0149 
N65 X-310.512 Y36.707 Z1.130 A291.1661 B-0.0211 
N66 X-310.512 Y37.756 Z2.093 A296.6127 B-0.0234 
N67 X-310.512 Y38.711 Z3.075 A301.9216 B-0.0204 
N68 X-310.512 Y39.554 Z4.069 A307.0050 B-0.0129 
N69 X-310.512 Y40.291 Z5.081 A311.9107 B-0.0025 
N70 X-310.512 Y40.936 Z6.130 A316.7419 B0.0087 
N71 X-310.512 Y41.493 Z7.236 A321.6006 B0.0185 
N72 X-310.512 Y41.956 Z8.419 A326.5768 B0.0242 
N73 X-310.512 Y42.305 Z9.692 A331.7177 B0.0237 
N74 X-310.512 Y42.504 Z11.038 A336.9735 B0.0176 
N75 X-310.512 Y42.513 Z12.424 A342.2320 B0.0095 
N76 X-310.512 Y42.300 Z13.795 A347.3463 B0.0034 
N77 X-310.512 Y41.841 Z15.079 A352.1039 B0.0006 
N78 X-310.512 Y41.129 Z16.159 A356.1223 B0.0000 
N79 X-310.512 Y40.179 Z16.922 A358.9960 B0.0000 
N80 X-310.512 Y39.010 Z17.329 A0.5603 
N81 X-310.512 Y37.628 Z17.450 A1.0379 
N82 X-310.512 Y36.019 Z17.458 A1.0794 
N83 X-310.512 Y34.169 Z17.456 A1.0794 
N84 X-310.512 Y32.073 Z17.453 
N85 X-310.512 Y29.735 Z17.450 
N86 X-310.512 Y27.167 Z17.446 
N87 X-310.512 Y24.395 Z17.442 
N88 X-310.512 Y21.452 Z17.438 
N89 X-310.512 Y18.381 Z17.434 
N90 X-310.512 Y15.230 Z17.429 
N91 X-310.512 Y12.055 Z17.425 
N92 X-310.512 Y8.910 Z17.421 
N93 X-310.512 Y5.850 Z17.416 
N94 X-310.512 Y2.923 Z17.412 
N95 X-310.512 Y0.172 Z17.409 
N96 X-310.512 Y-2.370 Z17.405 
N97 X-310.512 Y-4.680 Z17.402 
N98 X-310.512 Y-6.745 Z17.399 
N99 X-310.512 Y-8.560 Z17.396 
N100 X-310.512 Y-10.134 Z17.395 A1.0811 
N101 X-310.512 Y-11.478 Z17.431 A1.2395 
N102 X-310.512 Y-12.618 Z17.663 A2.2334 
N103 X-310.512 Y-13.597 Z18.210 A4.6114 
N104 X-310.512 Y-14.477 Z19.038 A8.2927 
N105 X-310.512 Y-15.322 Z20.060 A12.9527 
N106 X-310.512 Y-16.179 Z21.170 A18.1937 
N107 X-310.512 Y-17.073 Z22.286 A23.6913 
N108 X-310.512 Y-18.007 Z23.345 A29.2069 
N109 X-310.512 Y-18.968 Z24.299 A34.5408 
N110 X-310.512 Y-19.940 Z25.128 A39.5877 
N111 X-310.512 Y-20.932 Z25.849 A44.4443 
N112 X-310.512 Y-21.996 Z26.505 A49.4050 
N113 X-310.512 Y-23.188 Z27.116 A54.7330 
N114 X-310.512 Y-24.482 Z27.622 A60.2535 
N115 X-310.512 Y-25.796 Z27.960 A65.6160 
N116 X-310.512 Y-27.108 Z28.119 A70.7835 
N117 X-310.512 Y-28.394 Z28.095 A75.7345 
N118 X-310.512 Y-29.612 Z27.880 A80.3671 
N119 X-310.512 Y-30.682 Z27.475 A84.4235 
N120 X-310.512 Y-31.507 Z26.893 A87.5609 
N121 X-310.512 Y-32.050 Z26.164 A89.6468 
N122 X-310.512 Y-32.331 Z25.305 A90.7456 
N123 X-310.512 Y-32.420 Z24.326 A91.1047 
N124 X-310.512 Y-32.428 Z23.226 A91.1481 
N125 X-310.512 Y-32.425 Z22.006 A91.1482 
N126 X-310.512 Y-32.421 Z20.675 
N127 X-310.512 Y-32.418 Z19.245 
N128 X-310.512 Y-32.414 Z17.735 
N129 X-310.512 Y-32.410 Z16.166 
N130 X-310.512 Y-32.406 Z14.564 
N131 X-310.512 Y-32.401 Z12.957 
N132 X-310.512 Y-32.397 Z11.371 
N133 X-310.512 Y-32.393 Z9.833 
N134 X-310.512 Y-32.389 Z8.367 
N135 X-310.512 Y-32.386 Z6.991 
N136 X-310.512 Y-32.384 Z5.721 A91.1528 
N137 X-310.512 Y-32.406 Z4.566 A91.2572 
N138 X-310.512 Y-32.523 Z3.527 A91.7693 B0.0000 
N139 X-310.512 Y-32.817 Z2.599 A93.0505 B0.0002 
N140 X-310.512 Y-33.330 Z1.759 A95.3119 B0.0016 
N141 X-310.512 Y-34.057 Z0.973 A98.5762 B0.0054 
N142 X-310.512 Y-34.938 Z0.201 A102.6232 B0.0122 
N143 X-310.512 Y-35.887 Z-0.580 A107.1283 B0.0208 
N144 X-310.512 Y-36.849 Z-1.387 A111.8717 B0.0281 
N145 X-310.512 Y-37.783 Z-2.227 A116.7071 B0.0307 
N146 X-310.512 Y-38.657 Z-3.097 A121.5072 B0.0272 
N147 X-310.512 Y-39.457 Z-3.997 A126.2182 B0.0186 
N148 X-310.512 Y-40.181 Z-4.933 A130.8714 B0.0064 
N149 X-310.512 Y-40.837 Z-5.922 A135.5429 B-0.0079 
N150 X-310.512 Y-41.422 Z-6.982 A140.3160 B-0.0228 
N151 X-310.512 Y-41.929 Z-8.133 A145.2658 B-0.0367 
N152 X-310.512 Y-42.336 Z-9.387 A150.4388 B-0.0476 
N153 X-310.512 Y-42.605 Z-10.737 A155.7999 B-0.0532 
N154 X-310.512 Y-42.693 Z-12.145 A161.2275 B-0.0510 
N155 X-310.512 Y-42.559 Z-13.555 A166.5474 B-0.0413 
N156 X-310.512 Y-42.179 Z-14.889 A171.5381 B-0.0278 
N157 X-310.512 Y-41.543 Z-16.032 A175.8230 B-0.0156 
N158 X-310.512 Y-40.666 Z-16.830 A178.8412 B-0.0084 
N159 X-310.512 Y-39.575 Z-17.248 A180.4432 B-0.0062 
N160 X-310.512 Y-38.275 Z-17.396 A181.0292 B-0.0074 
N161 X-310.512 Y-36.754 Z-17.417 A181.1256 B-0.0099 
N162 X-310.512 Y-34.995 Z-17.414 A181.1270 B-0.0124 
N163 X-310.512 Y-32.990 Z-17.409 B-0.0144 
N164 X-310.512 Y-30.739 Z-17.404 B-0.0163 
N165 X-310.512 Y-28.252 Z-17.399 B-0.0183 
N166 X-310.512 Y-25.551 Z-17.393 B-0.0205 
N167 X-310.512 Y-22.665 Z-17.387 B-0.0231 
N168 X-310.512 Y-19.635 Z-17.380 B-0.0259 
N169 X-310.512 Y-16.508 Z-17.373 B-0.0289 
N170 X-310.512 Y-13.337 Z-17.366 B-0.0321 
N171 X-310.512 Y-10.177 Z-17.359 B-0.0354 
N172 X-310.512 Y-7.083 Z-17.352 B-0.0388 
N173 X-310.512 Y-4.106 Z-17.345 B-0.0422 
N174 X-310.512 Y-1.290 Z-17.339 B-0.0455 
N175 X-310.512 Y1.327 Z-17.333 B-0.0487 
N176 X-310.512 Y3.720 Z-17.328 B-0.0517 
N177 X-310.512 Y5.871 Z-17.323 B-0.0544 
N178 X-310.512 Y7.774 Z-17.319 B-0.0569 
N179 X-310.512 Y9.431 Z-17.315 B-0.0592 
N180 X-310.512 Y10.855 Z-17.324 A181.1747 B-0.0615 
N181 X-310.512 Y12.066 Z-17.463 A181.7730 B-0.0662 
N182 X-310.512 Y13.099 Z-17.914 A183.7194 B-0.0787 
N183 X-310.512 Y14.014 Z-18.684 A187.1163 B-0.1019 
N184 X-310.512 Y14.879 Z-19.676 A191.6079 B-0.1336 
N185 X-310.513 Y15.745 Z-20.780 A196.7752 B-0.1704 
N186 X-310.513 Y16.641 Z-21.898 A202.2385 B-0.2104 
N187 X-310.513 Y17.571 Z-22.966 A207.7395 B-0.2522 
N188 X-310.513 Y18.528 Z-23.936 A213.0825 B-0.2933 
N189 X-310.513 Y19.496 Z-24.786 A218.1587 B-0.3296 
N190 X-310.513 Y20.482 Z-25.527 A223.0348 B-0.3553 
N191 X-310.513 Y21.520 Z-26.193 A227.9195 B-0.3647 
N192 X-310.513 Y22.645 Z-26.793 A232.9775 B-0.3538 
N193 X-310.513 Y23.845 Z-27.294 A238.1330 B-0.3242 
N194 X-310.513 Y25.075 Z-27.654 A243.1896 B-0.2834 
N195 X-310.513 Y26.323 Z-27.862 A248.1365 B-0.2395 
N196 X-310.513 Y27.585 Z-27.911 A253.0125 B-0.1975 
N197 X-310.513 Y28.828 Z-27.786 A257.7416 B-0.1596 
N198 X-310.512 Y29.983 Z-27.475 A262.1095 B-0.1273 
N199 X-310.512 Y30.962 Z-26.980 A265.8160 B-0.1018 
N200 X-310.512 Y31.696 Z-26.321 A268.6203 B-0.0839 
N201 X-310.512 Y32.151 Z-25.525 A270.3915 B-0.0733 
N202 X-310.512 Y32.346 Z-24.607 A271.1768 B-0.0682 
N203 X-310.512 Y32.385 Z-23.572 A271.3537 B-0.0657 
N204 X-310.512 Y32.380 Z-22.422 A271.3628 B-0.0639 
N205 X-310.512 Y32.372 Z-21.160 B-0.0621 
N206 X-310.512 Y32.363 Z-19.797 A271.3628 B-0.0599 
N207 X-310.512 Y32.354 Z-18.349 A271.3643 B-0.0574 
N208 X-310.512 Y32.347 Z-16.835 A271.3743 B-0.0545 
N209 X-310.512 Y32.342 Z-15.280 A271.3969 B-0.0511 
N210 X-310.512 Y32.338 Z-13.708 A271.4253 B-0.0472 
N211 X-310.512 Y32.333 Z-12.147 A271.4540 B-0.0431 
N212 X-310.512 Y32.326 Z-10.622 A271.4779 B-0.0390 
N213 X-310.512 Y32.317 Z-9.156 A271.4920 B-0.0349 
N214 X-310.512 Y32.307 Z-7.771 A271.4977 B-0.0311 
N215 X-310.512 Y32.296 Z-6.483 A271.4994 B-0.0275 
N216 X-310.512 Y32.294 Z-5.303 A271.5332 B-0.0243 
N217 X-310.512 Y32.361 Z-4.235 A271.8542 B-0.0218 
N218 X-310.512 Y32.609 Z-3.273 A272.9499 B-0.0208 
N219 X-310.512 Y33.095 Z-2.400 A275.1046 B-0.0223 
N220 X-310.512 Y33.793 Z-1.583 A278.2485 B-0.0266 
N221 X-310.512 Y34.644 Z-0.786 A282.1737 B-0.0323 
N222 X-310.512 Y35.574 Z0.017 A286.6026 B-0.0370 
N223 X-310.512 Y36.518 Z0.840 A291.2828 B-0.0386 
N224 X-310.512 Y37.435 Z1.691 A296.0523 B-0.0361 
N225 X-310.512 Y38.292 Z2.567 A300.7819 B-0.0296 
N226 X-310.512 Y39.069 Z3.463 A305.3933 B-0.0202 
N227 X-310.512 Y39.768 Z4.383 A309.9017 B-0.0086 
N228 X-310.512 Y40.395 Z5.343 A314.3859 B0.0039 
N229 X-310.512 Y40.955 Z6.360 A318.9357 B0.0163 
N230 X-310.512 Y41.444 Z7.456 A323.6315 B0.0269 
N231 X-310.512 Y41.846 Z8.647 A328.5346 B0.0337 
N232 X-310.512 Y42.130 Z9.934 A333.6446 B0.0347 
N233 X-310.512 Y42.254 Z11.291 A338.8668 B0.0293 
N234 X-310.512 Y42.177 Z12.674 A344.0630 B0.0196 
N235 X-310.512 Y41.869 Z14.020 A349.0533 B0.0098 
N236 X-310.512 Y41.310 Z15.239 A353.5595 B0.0034 
N237 X-310.512 Y40.502 Z16.206 A357.1547 B0.0007 
N238 X-310.512 Y39.464 Z16.832 A359.5131 B0.0000 
N239 X-310.512 Y38.213 Z17.115 A0.5863 B0.0000 
N240 X-310.512 Y36.746 Z17.176 A0.8073 
N241 X-310.512 Y35.048 Z17.183 A0.8142 
N242 X-310.512 Y33.109 Z17.189 
N243 X-310.512 Y30.928 Z17.197 
N244 X-310.512 Y28.512 Z17.205 A0.8156 
N245 X-310.512 Y25.879 Z17.221 A0.8489 
N246 X-310.512 Y23.056 Z17.251 A0.9515 
N247 X-310.512 Y20.081 Z17.286 A1.0977 
N248 X-310.512 Y16.999 Z17.301 A1.1941 
N249 X-310.512 Y13.860 Z17.294 A1.2087 
N250 X-310.512 Y10.720 Z17.282 A1.2088 
N251 X-310.512 Y7.632 Z17.271 
N252 X-310.512 Y4.647 Z17.260 
N253 X-310.512 Y1.812 Z17.250 
N254 X-310.512 Y-0.835 Z17.240 
N255 X-310.512 Y-3.265 Z17.231 
N256 X-310.512 Y-5.459 Z17.223 
N257 X-310.512 Y-7.408 Z17.216 
N258 X-310.512 Y-9.112 Z17.210 
N259 X-310.512 Y-10.581 Z17.209 A1.2247 
N260 X-310.512 Y-11.831 Z17.286 A1.5694 
N261 X-310.512 Y-12.891 Z17.611 A2.9759 
N262 X-310.512 Y-13.812 Z18.250 A5.7785 
N263 X-310.512 Y-14.659 Z19.151 A9.8136 
N264 X-310.512 Y-15.492 Z20.215 A14.7079 
N265 X-310.512 Y-16.348 Z21.335 A20.0538 
N266 X-310.512 Y-17.244 Z22.437 A25.5611 
N267 X-310.512 Y-18.176 Z23.463 A31.0026 
N268 X-310.512 Y-19.125 Z24.372 A36.1953 
N269 X-310.512 Y-20.078 Z25.156 A41.0795 
N270 X-310.512 Y-21.052 Z25.840 A45.8019 
N271 X-310.512 Y-22.098 Z26.466 A50.6512 
N272 X-310.512 Y-23.262 Z27.042 A55.8222 
N273 X-310.512 Y-24.508 Z27.512 A61.1204 
N274 X-310.512 Y-25.775 Z27.828 A66.2872 
N275 X-310.512 Y-27.043 Z27.981 A71.2957 
N276 X-310.512 Y-28.290 Z27.962 A76.1145 
N277 X-310.512 Y-29.484 Z27.767 A80.6778 
N278 X-310.512 Y-30.561 Z27.394 A84.7955 
N279 X-310.512 Y-31.437 Z26.852 A88.1758 
N280 X-310.512 Y-32.059 Z26.165 A90.6281 
N281 X-310.512 Y-32.405 Z25.356 A92.0611 
N282 X-310.512 Y-32.517 Z24.436 A92.6053 
N283 X-310.512 Y-32.511 Z23.404 A92.7024 
N284 X-310.512 Y-32.480 Z22.259 A92.7180 
N285 X-310.512 Y-32.449 Z21.005 A92.7455 
N286 X-310.512 Y-32.417 Z19.654 A92.7852 B0.0000 
N287 X-310.512 Y-32.382 Z18.222 A92.8259 B0.0003 
N288 X-310.512 Y-32.344 Z16.730 A92.8673 B0.0020 
N289 X-310.512 Y-32.304 Z15.202 A92.9104 B0.0067 
N290 X-310.512 Y-32.263 Z13.662 A92.9540 B0.0145 
N291 X-310.512 Y-32.221 Z12.137 A92.9968 B0.0245 
N292 X-310.512 Y-32.179 Z10.653 A93.0355 B0.0361 
N293 X-310.512 Y-32.135 Z9.231 A93.0652 B0.0490 
N294 X-310.512 Y-32.090 Z7.892 A93.0812 B0.0621 
N295 X-310.512 Y-32.047 Z6.650 A93.0874 B0.0737 
N296 X-310.512 Y-32.023 Z5.514 A93.1612 B0.0828 
N297 X-310.512 Y-32.090 Z4.485 A93.6037 B0.0889 
N298 X-310.512 Y-32.341 Z3.554 A94.8285 B0.0922 
N299 X-310.512 Y-32.826 Z2.699 A97.0864 B0.0936 
N300 X-310.512 Y-33.543 Z1.883 A100.4123 B0.0929 
N301 X-310.512 Y-34.427 Z1.068 A104.5865 B0.0895 
N302 X-310.512 Y-35.379 Z0.232 A109.2364 B0.0832 
N303 X-310.512 Y-36.325 Z-0.631 A114.0710 B0.0735 
N304 X-310.512 Y-37.219 Z-1.520 A118.9013 B0.0603 
N305 X-310.512 Y-38.033 Z-2.426 A123.6126 B0.0438 
N306 X-310.512 Y-38.763 Z-3.352 A128.2002 B0.0240 
N307 X-310.512 Y-39.421 Z-4.310 A132.7400 B0.0014 
N308 X-310.512 Y-40.014 Z-5.323 A137.3341 B-0.0233 
N309 X-310.512 Y-40.542 Z-6.414 A142.0791 B-0.0488 
N310 X-310.512 Y-40.991 Z-7.604 A147.0546 B-0.0738 
N311 X-310.512 Y-41.333 Z-8.903 A152.2875 B-0.0969 
N312 X-310.512 Y-41.525 Z-10.290 A157.7003 B-0.1170 
N313 X-310.512 Y-41.519 Z-11.721 A163.1360 B-0.1338 
N314 X-310.513 Y-41.278 Z-13.116 A168.3524 B-0.1473 
N315 X-310.513 Y-40.783 Z-14.376 A173.0372 B-0.1584 
N316 X-310.513 Y-40.038 Z-15.377 A176.7722 B-0.1680 
N317 X-310.513 Y-39.067 Z-16.030 A179.2262 B-0.1768 
N318 X-310.513 Y-37.888 Z-16.345 A180.4137 B-0.1849 
N319 X-310.513 Y-36.501 Z-16.427 A180.7107 B-0.1925 
N320 X-310.513 Y-34.892 Z-16.442 A180.7415 B-0.2004 
N321 X-310.513 Y-33.048 Z-16.474 A180.8398 B-0.2078 
N322 X-310.513 Y-30.967 Z-16.520 A181.0174 B-0.2113 
N323 X-310.513 Y-28.655 Z-16.562 A181.2074 B-0.2130 
N324 X-310.513 Y-26.126 Z-16.590 A181.3754 B-0.2158 
N325 X-310.513 Y-23.406 Z-16.586 A181.4362 B-0.2194 
N326 X-310.513 Y-20.531 Z-16.565 A181.4403 B-0.2233 
N327 X-310.513 Y-17.542 Z-16.542 B-0.2274 
N328 X-310.513 Y-14.489 Z-16.518 B-0.2315 
N329 X-310.513 Y-11.423 Z-16.495 B-0.2357 
N330 X-310.513 Y-8.398 Z-16.471 B-0.2398 
N331 X-310.513 Y-5.465 Z-16.449 B-0.2438 
N332 X-310.513 Y-2.670 Z-16.427 B-0.2476 
N333 X-310.513 Y-0.053 Z-16.407 B-0.2511 
N334 X-310.513 Y2.357 Z-16.389 B-0.2544 
N335 X-310.513 Y4.539 Z-16.372 B-0.2574 
N336 X-310.513 Y6.483 Z-16.357 B-0.2600 
N337 X-310.513 Y8.187 Z-16.344 A181.4407 B-0.2623 
N338 X-310.513 Y9.660 Z-16.335 A181.4522 B-0.2645 
N339 X-310.513 Y10.915 Z-16.377 A181.6654 B-0.2681 
N340 X-310.513 Y11.981 Z-16.644 A182.8375 B-0.2779 
N341 X-310.513 Y12.907 Z-17.264 A185.5505 B-0.2987 
N342 X-310.513 Y13.759 Z-18.174 A189.6136 B-0.3308 
N343 X-310.514 Y14.600 Z-19.255 A194.5737 B-0.3719 
N344 X-310.514 Y15.464 Z-20.382 A199.9526 B-0.4180 
N345 X-310.514 Y16.361 Z-21.478 A205.4381 B-0.4656 
N346 X-310.514 Y17.293 Z-22.499 A210.8556 B-0.5117 
N347 X-310.514 Y18.247 Z-23.412 A216.0653 B-0.5531 
N348 X-310.514 Y19.215 Z-24.210 A221.0365 B-0.5853 
N349 X-310.514 Y20.216 Z-24.917 A225.8990 B-0.6032 
N350 X-310.514 Y21.281 Z-25.552 A230.8328 B-0.6018 
N351 X-310.514 Y22.422 Z-26.105 A235.8785 B-0.5797 
N352 X-310.514 Y23.608 Z-26.540 A240.8924 B-0.5412 
N353 X-310.514 Y24.815 Z-26.835 A245.7940 B-0.4940 
N354 X-310.514 Y26.039 Z-26.986 A250.6196 B-0.4443 
N355 X-310.514 Y27.263 Z-26.982 A255.3449 B-0.3957 
N356 X-310.513 Y28.445 Z-26.810 A259.8598 B-0.3508 
N357 X-310.513 Y29.520 Z-26.464 A263.9526 B-0.3123 
N358 X-310.513 Y30.409 Z-25.955 A267.3622 B-0.2821 
N359 X-310.513 Y31.051 Z-25.304 A269.8611 B-0.2611 
N360 X-310.513 Y31.403 Z-24.534 A271.2761 B-0.2493 
N361 X-310.513 Y31.516 Z-23.659 A271.7688 B-0.2442 
N362 X-310.513 Y31.521 Z-22.680 A271.8498 B-0.2420 
N363 X-310.513 Y31.519 Z-21.596 A271.9060 B-0.2402 
N364 X-310.513 Y31.537 Z-20.413 A272.0610 B-0.2377 
N365 X-310.513 Y31.569 Z-19.143 A272.2967 B-0.2346 
N366 X-310.513 Y31.595 Z-17.800 A272.5399 B-0.2311 
N367 X-310.513 Y31.606 Z-16.404 A272.7483 B-0.2273 
N368 X-310.513 Y31.600 Z-14.977 A272.9068 B-0.2233 
N369 X-310.513 Y31.579 Z-13.543 A273.0213 B-0.2191 
N370 X-310.513 Y31.550 Z-12.125 A273.1108 B-0.2145 
N371 X-310.513 Y31.519 Z-10.745 A273.1974 B-0.2094 
N372 X-310.513 Y31.488 Z-9.423 A273.2803 B-0.2040 
N373 X-310.513 Y31.452 Z-8.178 A273.3378 B-0.1984 
N374 X-310.513 Y31.422 Z-7.021 A273.4118 B-0.1929 
N375 X-310.513 Y31.438 Z-5.958 A273.6661 B-0.1871 
N376 X-310.513 Y31.581 Z-4.988 A274.4529 B-0.1799 
N377 X-310.513 Y31.938 Z-4.095 A276.1629 B-0.1703 
N378 X-310.513 Y32.530 Z-3.252 A278.9371 B-0.1579 
N379 X-310.513 Y33.323 Z-2.421 A282.6816 B-0.1426 
N380 X-310.512 Y34.242 Z-1.572 A287.1322 B-0.1246 
N381 X-310.512 Y35.191 Z-0.691 A291.9266 B-0.1044 
N382 X-310.512 Y36.099 Z0.218 A296.7770 B-0.0827 
N383 X-310.512 Y36.923 Z1.141 A301.4984 B-0.0602 
N384 X-310.512 Y37.646 Z2.068 A306.0075 B-0.0373 
N385 X-310.512 Y38.277 Z3.005 A310.3514 B-0.0143 
N386 X-310.512 Y38.834 Z3.970 A314.6453 B0.0088 
N387 X-310.512 Y39.326 Z4.988 A319.0046 B0.0310 
N388 X-310.512 Y39.751 Z6.082 A323.5274 B0.0514 
N389 X-310.512 Y40.093 Z7.272 A328.2828 B0.0690 
N390 X-310.512 Y40.319 Z8.556 A333.2574 B0.0827 
N391 X-310.512 Y40.387 Z9.911 A338.3599 B0.0924 
N392 X-310.511 Y40.255 Z11.287 A343.4298 B0.0980 
N393 X-310.511 Y39.887 Z12.606 A348.2155 B0.0997 
N394 X-310.511 Y39.268 Z13.759 A352.3590 B0.0976 
N395 X-310.512 Y38.403 Z14.637 A355.4762 B0.0905 
N396 X-310.512 Y37.311 Z15.167 A357.2775 B0.0763 
N397 X-310.512 Y36.006 Z15.393 A357.8840 B0.0563 
N398 X-310.512 Y34.488 Z15.497 A357.9783 B0.0343 
N399 X-310.512 Y32.751 Z15.594 A357.9996 B0.0150 
N400 X-310.512 Y30.789 Z15.714 A358.0756 B0.0037 
N401 X-310.512 Y28.606 Z15.881 A358.3157 B0.0003 
N402 X-310.512 Y26.212 Z16.107 A358.8162 B0.0000 
N403 X-310.512 Y23.624 Z16.382 A359.6033 
N404 X-310.512 Y20.870 Z16.626 A0.3985 
N405 X-310.512 Y17.988 Z16.793 A1.0248 
N406 X-310.512 Y15.023 Z16.831 A1.2148 
N407 X-310.512 Y12.026 Z16.821 A1.2197 
N408 X-310.512 Y9.044 Z16.810 
N409 X-310.512 Y6.128 Z16.799 
N410 X-310.512 Y3.323 Z16.788 
N411 X-310.512 Y0.671 Z16.778 
N412 X-310.512 Y-1.795 Z16.768 
N413 X-310.512 Y-4.051 Z16.760 
N414 X-310.512 Y-6.082 Z16.752 
N415 X-310.512 Y-7.880 Z16.745 
N416 X-310.512 Y-9.449 Z16.739 A1.2197 
N417 X-310.512 Y-10.799 Z16.745 A1.2648 
N418 X-310.512 Y-11.947 Z16.858 A1.7619 
N419 X-310.512 Y-12.923 Z17.227 A3.3572 
N420 X-310.512 Y-13.778 Z17.896 A6.2932 
N421 X-310.512 Y-14.576 Z18.817 A10.4161 
N422 X-310.512 Y-15.371 Z19.885 A15.3210 
N423 X-310.512 Y-16.195 Z20.997 A20.6182 
N424 X-310.512 Y-17.061 Z22.086 A26.0488 
N425 X-310.512 Y-17.963 Z23.097 A31.3882 
N426 X-310.512 Y-18.877 Z23.990 A36.4540 
N427 X-310.512 Y-19.789 Z24.758 A41.1900 
N428 X-310.512 Y-20.711 Z25.424 A45.7177 
N429 X-310.512 Y-21.682 Z26.027 A50.2752 
N430 X-310.512 Y-22.745 Z26.583 A55.0647 
N431 X-310.512 Y-23.894 Z27.061 A60.0330 
N432 X-310.512 Y-25.086 Z27.419 A64.9819 
N433 X-310.512 Y-26.296 Z27.638 A69.8464 
N434 X-310.512 Y-27.500 Z27.707 A74.5732 
N435 X-310.512 Y-28.684 Z27.621 A79.1543 
N436 X-310.512 Y-29.817 Z27.375 A83.5282 
N437 X-310.512 Y-30.834 Z26.966 A87.4858 
N438 X-310.512 Y-31.663 Z26.407 A90.7828 
N439 X-310.512 Y-32.250 Z25.720 A93.2202 
N440 X-310.512 Y-32.563 Z24.930 A94.6621 B0.0000 
N441 X-310.512 Y-32.651 Z24.045 A95.2699 B0.0001 
N442 X-310.512 Y-32.621 Z23.060 A95.4545 B0.0005 
N443 X-310.512 Y-32.549 Z21.973 A95.5108 B0.0027 
N444 X-310.512 Y-32.468 Z20.786 A95.5613 B0.0097 
N445 X-310.512 Y-32.379 Z19.511 A95.6156 B0.0244 
N446 X-310.512 Y-32.281 Z18.164 A95.6608 B0.0458 
N447 X-310.512 Y-32.177 Z16.763 A95.7060 B0.0681 
N448 X-310.512 Y-32.071 Z15.332 A95.7538 B0.0864 
N449 X-310.511 Y-31.962 Z13.893 A95.8021 B0.1008 
N450 X-310.511 Y-31.854 Z12.471 A95.8495 B0.1134 
N451 X-310.511 Y-31.747 Z11.089 A95.8930 B0.1253 
N452 X-310.511 Y-31.641 Z9.767 A95.9260 B0.1368 
N453 X-310.511 Y-31.539 Z8.522 A95.9457 B0.1477 
N454 X-310.511 Y-31.447 Z7.368 A95.9795 B0.1579 
N455 X-310.511 Y-31.404 Z6.307 A96.1849 B0.1668 
N456 X-310.511 Y-31.501 Z5.335 A96.9571 B0.1731 
N457 X-310.511 Y-31.824 Z4.430 A98.6912 B0.1752 
N458 X-310.511 Y-32.400 Z3.562 A101.5516 B0.1716 
N459 X-310.511 Y-33.190 Z2.692 A105.4472 B0.1617 
N460 X-310.511 Y-34.095 Z1.795 A110.0157 B0.1454 
N461 X-310.511 Y-35.013 Z0.867 A114.8636 B0.1237 
N462 X-310.511 Y-35.878 Z-0.083 A119.7248 B0.0973 
N463 X-310.512 Y-36.656 Z-1.045 A124.4481 B0.0669 
N464 X-310.512 Y-37.344 Z-2.017 A129.0251 B0.0328 
N465 X-310.512 Y-37.955 Z-3.016 A133.5464 B-0.0047 
N466 X-310.512 Y-38.500 Z-4.066 A138.1235 B-0.0449 
N467 X-310.512 Y-38.977 Z-5.190 A142.8547 B-0.0866 
N468 X-310.512 Y-39.370 Z-6.410 A147.8180 B-0.1287 
N469 X-310.513 Y-39.650 Z-7.731 A153.0195 B-0.1701 
N470 X-310.513 Y-39.773 Z-9.133 A158.3838 B-0.2099 
N471 X-310.513 Y-39.692 Z-10.563 A163.7380 B-0.2473 
N472 X-310.513 Y-39.370 Z-11.935 A168.8020 B-0.2813 
N473 X-310.513 Y-38.793 Z-13.132 A173.1959 B-0.3117 
N474 X-310.513 Y-37.972 Z-14.036 A176.4987 B-0.3382 
N475 X-310.513 Y-36.931 Z-14.584 A178.4735 B-0.3613 
N476 X-310.514 Y-35.687 Z-14.819 A179.2438 B-0.3809 
N477 X-310.514 Y-34.235 Z-14.913 A179.4592 B-0.3956 
N478 X-310.514 Y-32.568 Z-15.018 A179.7188 B-0.4024 
N479 X-310.514 Y-30.677 Z-15.171 A180.1982 B-0.4034 
N480 X-310.514 Y-28.563 Z-15.320 A180.7234 B-0.4038 
N481 X-310.514 Y-26.236 Z-15.435 A181.1871 B-0.4065 
N482 X-310.514 Y-23.718 Z-15.475 A181.4062 B-0.4102 
N483 X-310.514 Y-21.038 Z-15.462 A181.4346 B-0.4139 
N484 X-310.514 Y-18.231 Z-15.441 A181.4347 B-0.4177 
N485 X-310.514 Y-15.340 Z-15.419 B-0.4216 
N486 X-310.514 Y-12.414 Z-15.397 B-0.4255 
N487 X-310.514 Y-9.504 Z-15.375 B-0.4295 
N488 X-310.514 Y-6.659 Z-15.353 B-0.4333 
N489 X-310.514 Y-3.925 Z-15.332 B-0.4370 
N490 X-310.514 Y-1.343 Z-15.313 B-0.4404 
N491 X-310.514 Y1.054 Z-15.295 B-0.4437 
N492 X-310.514 Y3.242 Z-15.278 B-0.4466 
N493 X-310.514 Y5.207 Z-15.263 B-0.4493 
N494 X-310.514 Y6.943 Z-15.250 A181.4347 B-0.4516 
N495 X-310.514 Y8.454 Z-15.240 A181.4402 B-0.4537 
N496 X-310.514 Y9.749 Z-15.247 A181.5128 B-0.4563 
N497 X-310.514 Y10.849 Z-15.372 A182.0774 B-0.4636 
N498 X-310.514 Y11.789 Z-15.806 A183.9628 B-0.4834 
N499 X-310.514 Y12.627 Z-16.580 A187.3658 B-0.5182 
N500 X-310.514 Y13.429 Z-17.583 A191.8786 B-0.5647 
N501 X-310.515 Y14.242 Z-18.692 A197.0237 B-0.6176 
N502 X-310.515 Y15.089 Z-19.809 A202.4261 B-0.6720 
N503 X-310.515 Y15.978 Z-20.883 A207.8862 B-0.7241 
N504 X-310.515 Y16.905 Z-21.875 A213.2496 B-0.7711 
N505 X-310.515 Y17.855 Z-22.756 A218.3914 B-0.8097 
N506 X-310.515 Y18.823 Z-23.526 A223.3173 B-0.8359 
N507 X-310.516 Y19.828 Z-24.207 A228.1579 B-0.8453 
N508 X-310.515 Y20.893 Z-24.810 A233.0416 B-0.8346 
N509 X-310.515 Y22.018 Z-25.320 A237.9656 B-0.8043 
N510 X-310.515 Y23.179 Z-25.712 A242.8394 B-0.7595 
N511 X-310.515 Y24.363 Z-25.975 A247.6406 B-0.7064 
N512 X-310.515 Y25.555 Z-26.098 A252.3421 B-0.6500 
N513 X-310.514 Y26.730 Z-26.072 A256.8932 B-0.5937 
N514 X-310.514 Y27.852 Z-25.889 A261.2036 B-0.5405 
N515 X-310.514 Y28.862 Z-25.550 A265.0857 B-0.4933 
N516 X-310.514 Y29.693 Z-25.065 A268.3096 B-0.4550 
N517 X-310.514 Y30.281 Z-24.455 A270.6369 B-0.4277 
N518 X-310.514 Y30.592 Z-23.743 A271.9169 B-0.4120 
N519 X-310.514 Y30.691 Z-22.939 A272.3863 B-0.4047 
N520 X-310.514 Y30.702 Z-22.043 A272.5272 B-0.4008 
N521 X-310.514 Y30.715 Z-21.053 A272.6900 B-0.3967 
N522 X-310.514 Y30.766 Z-19.974 A273.0382 B-0.3909 
N523 X-310.514 Y30.844 Z-18.816 A273.5430 B-0.3835 
N524 X-310.514 Y30.913 Z-17.593 A274.0676 B-0.3756 
N525 X-310.513 Y30.942 Z-16.326 A274.4788 B-0.3680 
N526 X-310.513 Y30.928 Z-15.034 A274.7570 B-0.3609 
N527 X-310.513 Y30.890 Z-13.736 A274.9568 B-0.3536 
N528 X-310.513 Y30.841 Z-12.453 A275.1270 B-0.3458 
N529 X-310.513 Y30.788 Z-11.204 A275.2824 B-0.3373 
N530 X-310.513 Y30.727 Z-10.007 A275.4051 B-0.3284 
N531 X-310.513 Y30.661 Z-8.876 A275.4939 B-0.3193 
N532 X-310.513 Y30.623 Z-7.819 A275.6828 B-0.3099 
N533 X-310.513 Y30.675 Z-6.837 A276.2330 B-0.2984 
N534 X-310.513 Y30.892 Z-5.921 A277.4872 B-0.2829 
N535 X-310.513 Y31.331 Z-5.049 A279.7163 B-0.2620 
N536 X-310.513 Y31.985 Z-4.191 A282.9484 B-0.2355 
N537 X-310.513 Y32.802 Z-3.314 A287.0307 B-0.2039 
N538 X-310.513 Y33.700 Z-2.398 A291.6599 B-0.1685 
N539 X-310.512 Y34.586 Z-1.445 A296.4906 B-0.1312 
N540 X-310.512 Y35.401 Z-0.469 A301.2720 B-0.0938 
N541 X-310.512 Y36.111 Z0.512 A305.8495 B-0.0573 
N542 X-310.512 Y36.714 Z1.494 A310.2084 B-0.0223 
N543 X-310.512 Y37.227 Z2.489 A314.4441 B0.0113 
N544 X-310.512 Y37.661 Z3.520 A318.6679 B0.0428 
N545 X-310.512 Y38.018 Z4.607 A322.9809 B0.0712 
N546 X-310.512 Y38.290 Z5.771 A327.4663 B0.0958 
N547 X-310.511 Y38.452 Z7.019 A332.1457 B0.1161 
N548 X-310.511 Y38.469 Z8.339 A336.9847 B0.1319 
N549 X-310.511 Y38.299 Z9.691 A341.8400 B0.1427 
N550 X-310.511 Y37.902 Z10.986 A346.4138 B0.1479 
N551 X-310.511 Y37.255 Z12.099 A350.2577 B0.1471 
N552 X-310.511 Y36.362 Z12.913 A352.9392 B0.1404 
N553 X-310.511 Y35.244 Z13.380 A354.2471 B0.1281 
N554 X-310.511 Y33.920 Z13.624 A354.6203 B0.1105 
N555 X-310.512 Y32.396 Z13.815 A354.7066 B0.0854 
N556 X-310.512 Y30.673 Z14.036 A354.8400 B0.0507 
N557 X-310.512 Y28.750 Z14.338 A355.2443 B0.0170 
N558 X-310.512 Y26.632 Z14.740 A356.0641 B0.0022 
N559 X-310.512 Y24.325 Z15.248 A357.4234 B0.0000 
N560 X-310.512 Y21.838 Z15.758 A359.0012 B0.0000 
N561 X-310.512 Y19.197 Z16.161 A0.4015 
N562 X-310.512 Y16.442 Z16.348 A1.1337 
N563 X-310.512 Y13.623 Z16.362 A1.2303 
N564 X-310.512 Y10.780 Z16.351 A1.2304 
N565 X-310.512 Y7.959 Z16.339 
N566 X-310.512 Y5.205 Z16.328 
N567 X-310.512 Y2.561 Z16.318 
N568 X-310.512 Y0.061 Z16.308 
N569 X-310.512 Y-2.262 Z16.298 
N570 X-310.512 Y-4.388 Z16.290 
N571 X-310.512 Y-6.303 Z16.282 
N572 X-310.512 Y-8.000 Z16.275 
N573 X-310.512 Y-9.482 Z16.269 A1.2304 
N574 X-310.512 Y-10.758 Z16.277 A1.2855 
N575 X-310.512 Y-11.845 Z16.393 A1.7897 
N576 X-310.512 Y-12.771 Z16.747 A3.3233 
N577 X-310.512 Y-13.581 Z17.392 A6.1443 
N578 X-310.512 Y-14.338 Z18.290 A10.1406 
N579 X-310.512 Y-15.093 Z19.338 A14.9214 
N580 X-310.512 Y-15.879 Z20.440 A20.1207 
N581 X-310.512 Y-16.711 Z21.532 A25.4961 
N582 X-310.512 Y-17.583 Z22.555 A30.8131 
N583 X-310.512 Y-18.471 Z23.464 A35.8640 
N584 X-310.512 Y-19.354 Z24.244 A40.5584 
N585 X-310.512 Y-20.232 Z24.914 A44.9665 
N586 X-310.512 Y-21.132 Z25.507 A49.2696 
N587 X-310.512 Y-22.090 Z26.047 A53.6678 
N588 X-310.512 Y-23.124 Z26.531 A58.2401 
N589 X-310.512 Y-24.220 Z26.930 A62.9008 
N590 X-310.512 Y-25.355 Z27.223 A67.5735 
N591 X-310.512 Y-26.505 Z27.391 A72.1794 
N592 X-310.512 Y-27.650 Z27.426 A76.6832 
N593 X-310.512 Y-28.791 Z27.323 A81.1318 
N594 X-310.512 Y-29.901 Z27.074 A85.4660 
N595 X-310.512 Y-30.915 Z26.674 A89.4836 
N596 X-310.512 Y-31.768 Z26.135 A92.9617 
N597 X-310.512 Y-32.394 Z25.479 A95.6590 
N598 X-310.512 Y-32.747 Z24.733 A97.3834 B0.0001 
N599 X-310.512 Y-32.860 Z23.910 A98.2389 B0.0013 
N600 X-310.512 Y-32.823 Z23.005 A98.5676 B0.0063 
N601 X-310.512 Y-32.716 Z22.008 A98.6742 B0.0189 
N602 X-310.512 Y-32.587 Z20.919 A98.7476 B0.0398 
N603 X-310.512 Y-32.444 Z19.747 A98.8177 B0.0649 
N604 X-310.512 Y-32.286 Z18.504 A98.8698 B0.0873 
N605 X-310.511 Y-32.119 Z17.209 A98.9193 B0.1055 
N606 X-310.511 Y-31.946 Z15.880 A98.9721 B0.1226 
N607 X-310.511 Y-31.771 Z14.539 A99.0259 B0.1399 
N608 X-310.511 Y-31.596 Z13.208 A99.0786 B0.1571 
N609 X-310.511 Y-31.423 Z11.908 A99.1261 B0.1740 
N610 X-310.511 Y-31.253 Z10.660 A99.1613 B0.1905 
N611 X-310.511 Y-31.090 Z9.478 A99.1873 B0.2062 
N612 X-310.511 Y-30.948 Z8.374 A99.2574 B0.2207 
N613 X-310.511 Y-30.874 Z7.348 A99.5690 B0.2329 
N614 X-310.511 Y-30.967 Z6.386 A100.5532 B0.2400 
N615 X-310.511 Y-31.306 Z5.462 A102.5884 B0.2391 
N616 X-310.511 Y-31.892 Z4.543 A105.7516 B0.2284 
N617 X-310.511 Y-32.664 Z3.599 A109.8602 B0.2072 
N618 X-310.511 Y-33.515 Z2.616 A114.5228 B0.1767 
N619 X-310.511 Y-34.351 Z1.603 A119.3768 B0.1389 
N620 X-310.512 Y-35.115 Z0.574 A124.1837 B0.0955 
N621 X-310.512 Y-35.785 Z-0.462 A128.8456 B0.0474 
N622 X-310.512 Y-36.369 Z-1.513 A133.4128 B-0.0049 
N623 X-310.512 Y-36.876 Z-2.600 A137.9844 B-0.0606 
N624 X-310.512 Y-37.307 Z-3.746 A142.6558 B-0.1184 
N625 X-310.513 Y-37.651 Z-4.972 A147.5143 B-0.1775 
N626 X-310.513 Y-37.883 Z-6.290 A152.5948 B-0.2375 
N627 X-310.513 Y-37.967 Z-7.692 A157.8729 B-0.2979 
N628 X-310.513 Y-37.853 Z-9.130 A163.1898 B-0.3575 
N629 X-310.514 Y-37.501 Z-10.512 A168.2354 B-0.4141 
N630 X-310.514 Y-36.890 Z-11.696 A172.5146 B-0.4649 
N631 X-310.514 Y-36.035 Z-12.554 A175.5640 B-0.5080 
N632 X-310.514 Y-34.964 Z-13.039 A177.1899 B-0.5427 
N633 X-310.514 Y-33.694 Z-13.272 A177.8266 B-0.5688 
N634 X-310.514 Y-32.225 Z-13.453 A178.2523 B-0.5838 
N635 X-310.514 Y-30.552 Z-13.701 A178.9708 B-0.5887 
N636 X-310.514 Y-28.666 Z-13.980 A179.8962 B-0.5907 
N637 X-310.514 Y-26.572 Z-14.218 A180.7677 B-0.5948 
N638 X-310.514 Y-24.283 Z-14.346 A181.2975 B-0.6001 
N639 X-310.514 Y-21.824 Z-14.362 A181.4293 B-0.6042 
N640 X-310.515 Y-19.224 Z-14.343 A181.4327 B-0.6077 
N641 X-310.515 Y-16.519 Z-14.322 B-0.6114 
N642 X-310.515 Y-13.751 Z-14.301 B-0.6151 
N643 X-310.515 Y-10.967 Z-14.280 B-0.6188 
N644 X-310.515 Y-8.214 Z-14.260 B-0.6225 
N645 X-310.515 Y-5.539 Z-14.239 B-0.6261 
N646 X-310.515 Y-2.984 Z-14.220 B-0.6295 
N647 X-310.515 Y-0.585 Z-14.202 B-0.6328 
N648 X-310.515 Y1.630 Z-14.185 A181.4327 B-0.6357 
N649 X-310.515 Y3.641 Z-14.170 B-0.6384 
N650 X-310.515 Y5.436 Z-14.157 B-0.6408 
N651 X-310.515 Y7.014 Z-14.145 A181.4329 B-0.6430 
N652 X-310.515 Y8.380 Z-14.138 A181.4490 B-0.6450 
N653 X-310.515 Y9.546 Z-14.166 A181.6047 B-0.6487 
N654 X-310.515 Y10.534 Z-14.364 A182.4724 B-0.6611 
N655 X-310.515 Y11.386 Z-14.905 A184.8194 B-0.6915 
N656 X-310.515 Y12.165 Z-15.764 A188.5998 B-0.7393 
N657 X-310.515 Y12.929 Z-16.811 A193.3211 B-0.7978 
N658 X-310.516 Y13.716 Z-17.927 A198.5231 B-0.8600 
N659 X-310.516 Y14.544 Z-19.036 A203.9147 B-0.9204 
N660 X-310.516 Y15.420 Z-20.098 A209.3440 B-0.9756 
N661 X-310.516 Y16.335 Z-21.074 A214.6593 B-1.0226 
N662 X-310.516 Y17.275 Z-21.940 A219.7551 B-1.0586 
N663 X-310.517 Y18.236 Z-22.700 A224.6528 B-1.0803 
N664 X-310.517 Y19.233 Z-23.368 A229.4511 B-1.0843 
N665 X-310.516 Y20.274 Z-23.949 A234.2237 B-1.0688 
N666 X-310.516 Y21.357 Z-24.433 A238.9690 B-1.0348 
N667 X-310.516 Y22.474 Z-24.810 A243.6679 B-0.9864 
N668 X-310.516 Y23.616 Z-25.069 A248.3207 B-0.9286 
N669 X-310.516 Y24.760 Z-25.199 A252.8641 B-0.8659 
N670 X-310.515 Y25.886 Z-25.193 A257.2598 B-0.8017 
N671 X-310.515 Y26.970 Z-25.047 A261.4551 B-0.7390 
N672 X-310.515 Y27.961 Z-24.759 A265.2917 B-0.6814 
N673 X-310.515 Y28.795 Z-24.339 A268.5568 B-0.6323 
N674 X-310.514 Y29.408 Z-23.805 A271.0042 B-0.5952 
N675 X-310.514 Y29.757 Z-23.179 A272.4596 B-0.5722 
N676 X-310.514 Y29.893 Z-22.474 A273.1025 B-0.5603 
N677 X-310.514 Y29.924 Z-21.689 A273.3545 B-0.5536 
N678 X-310.514 Y29.951 Z-20.821 A273.6153 B-0.5468 
N679 X-310.514 Y30.035 Z-19.870 A274.1464 B-0.5366 
N680 X-310.514 Y30.167 Z-18.842 A274.9410 B-0.5229 
N681 X-310.514 Y30.297 Z-17.751 A275.8040 B-0.5081 
N682 X-310.514 Y30.365 Z-16.618 A276.4967 B-0.4946 
N683 X-310.514 Y30.363 Z-15.460 A276.9576 B-0.4831 
N684 X-310.514 Y30.316 Z-14.294 A277.2734 B-0.4723 
N685 X-310.514 Y30.249 Z-13.136 A277.5270 B-0.4612 
N686 X-310.514 Y30.168 Z-12.001 A277.7353 B-0.4497 
N687 X-310.514 Y30.076 Z-10.906 A277.8892 B-0.4379 
N688 X-310.514 Y29.982 Z-9.863 A278.0243 B-0.4257 
N689 X-310.514 Y29.933 Z-8.874 A278.3289 B-0.4116 
N690 X-310.514 Y30.000 Z-7.937 A279.1041 B-0.3929 
N691 X-310.513 Y30.243 Z-7.037 A280.6392 B-0.3676 
N692 X-310.513 Y30.698 Z-6.152 A283.1263 B-0.3342 
N693 X-310.513 Y31.345 Z-5.253 A286.5501 B-0.2928 
N694 X-310.513 Y32.130 Z-4.313 A290.7438 B-0.2447 
N695 X-310.513 Y32.969 Z-3.323 A295.4111 B-0.1923 
N696 X-310.513 Y33.774 Z-2.292 A300.2200 B-0.1388 
N697 X-310.512 Y34.487 Z-1.244 A304.9181 B-0.0871 
N698 X-310.512 Y35.079 Z-0.201 A309.3600 B-0.0387 
N699 X-310.512 Y35.555 Z0.836 A313.5670 B0.0059 
N700 X-310.512 Y35.931 Z1.881 A317.6404 B0.0463 
N701 X-310.512 Y36.219 Z2.957 A321.6963 B0.0820 
N702 X-310.511 Y36.422 Z4.090 A325.8624 B0.1128 
N703 X-310.511 Y36.528 Z5.301 A330.2277 B0.1389 
N704 X-310.511 Y36.511 Z6.593 A334.8101 B0.1604 
N705 X-310.511 Y36.326 Z7.926 A339.4617 B0.1761 
N706 X-310.511 Y35.923 Z9.200 A343.8064 B0.1843 
N707 X-310.511 Y35.273 Z10.275 A347.3260 B0.1835 
N708 X-310.511 Y34.380 Z11.039 A349.5773 B0.1736 
N709 X-310.511 Y33.266 Z11.495 A350.5453 B0.1558 
N710 X-310.511 Y31.962 Z11.800 A350.8188 B0.1329 
N711 X-310.511 Y30.482 Z12.101 A350.9647 B0.1041 
N712 X-310.512 Y28.833 Z12.493 A351.3884 B0.0651 
N713 X-310.512 Y27.019 Z13.032 A352.3761 B0.0240 
N714 X-310.512 Y25.037 Z13.725 A354.0675 B0.0024 
N715 X-310.512 Y22.877 Z14.530 A356.4417 B0.0000 
N716 X-310.512 Y20.535 Z15.247 A358.7948 
N717 X-310.512 Y18.041 Z15.736 A0.5607 
N718 X-310.512 Y15.443 Z15.895 A1.2033 
N719 X-310.512 Y12.786 Z15.894 A1.2437 
N720 X-310.512 Y10.106 Z15.883 
N721 X-310.512 Y7.443 Z15.871 
N722 X-310.512 Y4.838 Z15.860 
N723 X-310.512 Y2.329 Z15.850 
N724 X-310.512 Y-0.050 Z15.839 
N725 X-310.512 Y-2.269 Z15.830 
N726 X-310.512 Y-4.308 Z15.821 
N727 X-310.512 Y-6.152 Z15.813 
N728 X-310.512 Y-7.794 Z15.806 
N729 X-310.512 Y-9.234 Z15.800 A1.2437 
N730 X-310.512 Y-10.479 Z15.803 A1.2778 
N731 X-310.512 Y-11.543 Z15.886 A1.6446 
N732 X-310.512 Y-12.449 Z16.171 A2.8769 
N733 X-310.512 Y-13.235 Z16.732 A5.3178 
N734 X-310.512 Y-13.958 Z17.560 A8.9709 
N735 X-310.512 Y-14.671 Z18.566 A13.5019 
N736 X-310.512 Y-15.411 Z19.651 A18.5398 
N737 X-310.512 Y-16.200 Z20.754 A23.8490 
N738 X-310.512 Y-17.039 Z21.811 A29.1936 
N739 X-310.512 Y-17.904 Z22.766 A34.3286 
N740 X-310.512 Y-18.769 Z23.591 A39.1013 
N741 X-310.512 Y-19.619 Z24.293 A43.5102 
N742 X-310.512 Y-20.465 Z24.898 A47.6734 
N743 X-310.512 Y-21.331 Z25.434 A51.7588 
N744 X-310.512 Y-22.247 Z25.918 A55.9111 
N745 X-310.512 Y-23.222 Z26.346 A60.1826 
N746 X-310.512 Y-24.254 Z26.701 A64.5543 
N747 X-310.512 Y-25.329 Z26.967 A68.9831 
N748 X-310.512 Y-26.416 Z27.123 A73.3551 
N749 X-310.512 Y-27.507 Z27.163 A77.6699 
N750 X-310.512 Y-28.613 Z27.084 A82.0184 
N751 X-310.512 Y-29.717 Z26.873 A86.3728 
N752 X-310.512 Y-30.766 Z26.522 A90.5701 
N753 X-310.512 Y-31.696 Z26.035 A94.4051 B0.0001 
N754 X-310.512 Y-32.437 Z25.433 A97.6199 B0.0004 
N755 X-310.512 Y-32.916 Z24.746 A99.9323 B0.0018 
N756 X-310.512 Y-33.130 Z23.998 A101.2995 B0.0057 
N757 X-310.512 Y-33.143 Z23.189 A101.9633 B0.0153 
N758 X-310.512 Y-33.036 Z22.307 A102.2260 B0.0333 
N759 X-310.512 Y-32.874 Z21.342 A102.3493 B0.0572 
N760 X-310.512 Y-32.687 Z20.296 A102.4461 B0.0800 
N761 X-310.511 Y-32.477 Z19.178 A102.5133 B0.0996 
N762 X-310.511 Y-32.250 Z18.001 A102.5671 B0.1191 
N763 X-310.511 Y-32.014 Z16.781 A102.6242 B0.1394 
N764 X-310.511 Y-31.773 Z15.537 A102.6839 B0.1603 
N765 X-310.511 Y-31.529 Z14.289 A102.7439 B0.1813 
N766 X-310.511 Y-31.287 Z13.056 A102.8004 B0.2023 
N767 X-310.511 Y-31.047 Z11.859 A102.8464 B0.2228 
N768 X-310.511 Y-30.815 Z10.713 A102.8785 B0.2427 
N769 X-310.511 Y-30.604 Z9.630 A102.9501 B0.2613 
N770 X-310.511 Y-30.460 Z8.607 A103.2459 B0.2769 
N771 X-310.511 Y-30.476 Z7.629 A104.1787 B0.2858 
N772 X-310.511 Y-30.742 Z6.663 A106.1780 B0.2831 
N773 X-310.511 Y-31.255 Z5.679 A109.3193 B0.2663 
N774 X-310.511 Y-31.946 Z4.654 A113.3985 B0.2350 
N775 X-310.511 Y-32.708 Z3.583 A118.0269 B0.1912 
N776 X-310.511 Y-33.446 Z2.484 A122.8323 B0.1379 
N777 X-310.512 Y-34.101 Z1.378 A127.5619 B0.0779 
N778 X-310.512 Y-34.659 Z0.272 A132.1426 B0.0129 
N779 X-310.512 Y-35.127 Z-0.846 A136.6481 B-0.0565 
N780 X-310.512 Y-35.516 Z-2.001 A141.1884 B-0.1289 
N781 X-310.513 Y-35.825 Z-3.223 A145.8960 B-0.2044 
N782 X-310.513 Y-36.040 Z-4.540 A150.8758 B-0.2835 
N783 X-310.513 Y-36.128 Z-5.958 A156.1543 B-0.3668 
N784 X-310.514 Y-36.032 Z-7.435 A161.5697 B-0.4518 
N785 X-310.514 Y-35.698 Z-8.858 A166.7192 B-0.5339 
N786 X-310.515 Y-35.100 Z-10.062 A170.9986 B-0.6068 
N787 X-310.515 Y-34.254 Z-10.914 A173.9203 B-0.6668 
N788 X-310.515 Y-33.195 Z-11.408 A175.4535 B-0.7126 
N789 X-310.515 Y-31.946 Z-11.721 A176.2666 B-0.7442 
N790 X-310.515 Y-30.512 Z-12.047 A177.1513 B-0.7602 
N791 X-310.515 Y-28.886 Z-12.456 A178.4401 B-0.7683 
N792 X-310.515 Y-27.057 Z-12.860 A179.8409 B-0.7771 
N793 X-310.515 Y-25.031 Z-13.146 A180.9193 B-0.7869 
N794 X-310.515 Y-22.828 Z-13.250 A181.3767 B-0.7937 
N795 X-310.515 Y-20.470 Z-13.247 A181.4342 B-0.7974 
N796 X-310.515 Y-17.985 Z-13.228 A181.4343 B-0.8008 
N797 X-310.515 Y-15.408 Z-13.209 B-0.8043 
N798 X-310.515 Y-12.778 Z-13.189 B-0.8078 
N799 X-310.515 Y-10.141 Z-13.169 B-0.8114 
N800 X-310.515 Y-7.540 Z-13.149 B-0.8149 
N801 X-310.515 Y-5.018 Z-13.130 B-0.8183 
N802 X-310.515 Y-2.615 Z-13.112 A181.4343 B-0.8216 
N803 X-310.515 Y-0.363 Z-13.095 B-0.8246 
N804 X-310.515 Y1.711 Z-13.079 B-0.8274 
N805 X-310.515 Y3.590 Z-13.065 B-0.8299 
N806 X-310.515 Y5.265 Z-13.052 B-0.8322 
N807 X-310.515 Y6.734 Z-13.041 A181.4346 B-0.8342 
N808 X-310.515 Y8.003 Z-13.037 A181.4568 B-0.8363 
N809 X-310.516 Y9.084 Z-13.074 A181.6474 B-0.8408 
N810 X-310.516 Y9.999 Z-13.290 A182.5911 B-0.8566 
N811 X-310.516 Y10.792 Z-13.857 A185.0417 B-0.8946 
N812 X-310.516 Y11.523 Z-14.738 A188.9031 B-0.9525 
N813 X-310.516 Y12.250 Z-15.794 A193.6458 B-1.0209 
N814 X-310.517 Y13.005 Z-16.910 A198.8271 B-1.0912 
N815 X-310.517 Y13.806 Z-18.022 A204.1982 B-1.1577 
N816 X-310.517 Y14.662 Z-19.093 A209.6308 B-1.2166 
N817 X-310.517 Y15.564 Z-20.082 A214.9701 B-1.2650 
N818 X-310.517 Y16.495 Z-20.962 A220.0950 B-1.3004 
N819 X-310.518 Y17.446 Z-21.731 A224.9978 B-1.3205 
N820 X-310.518 Y18.418 Z-22.399 A229.7298 B-1.3232 
N821 X-310.518 Y19.416 Z-22.970 A234.3416 B-1.3074 
N822 X-310.517 Y20.442 Z-23.447 A238.8787 B-1.2739 
N823 X-310.517 Y21.504 Z-23.832 A243.4011 B-1.2251 
N824 X-310.517 Y22.601 Z-24.118 A247.9251 B-1.1645 
N825 X-310.517 Y23.700 Z-24.286 A252.3441 B-1.0967 
N826 X-310.516 Y24.782 Z-24.331 A256.6116 B-1.0255 
N827 X-310.516 Y25.836 Z-24.253 A260.7317 B-0.9536 
N828 X-310.516 Y26.828 Z-24.050 A264.6033 B-0.8844 
N829 X-310.515 Y27.705 Z-23.724 A268.0476 B-0.8219 
N830 X-310.515 Y28.404 Z-23.291 A270.8434 B-0.7704 
N831 X-310.515 Y28.868 Z-22.771 A272.7600 B-0.7340 
N832 X-310.515 Y29.104 Z-22.182 A273.8155 B-0.7122 
N833 X-310.515 Y29.189 Z-21.527 A274.3041 B-0.7000 
N834 X-310.515 Y29.231 Z-20.800 A274.6532 B-0.6901 
N835 X-310.515 Y29.331 Z-19.997 A275.2826 B-0.6756 
N836 X-310.515 Y29.510 Z-19.117 A276.3070 B-0.6547 
N837 X-310.515 Y29.717 Z-18.168 A277.5421 B-0.6301 
N838 X-310.515 Y29.872 Z-17.170 A278.6700 B-0.6066 
N839 X-310.514 Y29.927 Z-16.146 A279.4769 B-0.5873 
N840 X-310.514 Y29.898 Z-15.110 A280.0032 B-0.5713 
N841 X-310.514 Y29.822 Z-14.072 A280.3694 B-0.5567 
N842 X-310.514 Y29.718 Z-13.045 A280.6414 B-0.5423 
N843 X-310.514 Y29.593 Z-12.042 A280.8331 B-0.5278 
N844 X-310.514 Y29.468 Z-11.070 A281.0131 B-0.5127 
N845 X-310.514 Y29.387 Z-10.133 A281.3609 B-0.4946 
N846 X-310.514 Y29.419 Z-9.220 A282.1759 B-0.4702 
N847 X-310.514 Y29.621 Z-8.319 A283.7345 B-0.4365 
N848 X-310.514 Y30.024 Z-7.406 A286.2134 B-0.3919 
N849 X-310.513 Y30.610 Z-6.456 A289.6117 B-0.3366 
N850 X-310.513 Y31.324 Z-5.447 A293.7678 B-0.2726 
N851 X-310.513 Y32.081 Z-4.375 A298.4002 B-0.2039 
N852 X-310.512 Y32.791 Z-3.259 A303.1574 B-0.1351 
N853 X-310.512 Y33.388 Z-2.135 A307.7411 B-0.0708 
N854 X-310.512 Y33.842 Z-1.034 A311.9874 B-0.0133 
N855 X-310.512 Y34.165 Z0.044 A315.9335 B0.0368 
N856 X-310.512 Y34.379 Z1.118 A319.7125 B0.0795 
N857 X-310.511 Y34.509 Z2.226 A323.5252 B0.1159 
N858 X-310.511 Y34.561 Z3.406 A327.5548 B0.1475 
N859 X-310.511 Y34.517 Z4.674 A331.8676 B0.1745 
N860 X-310.511 Y34.328 Z5.989 A336.2849 B0.1951 
N861 X-310.511 Y33.933 Z7.236 A340.3472 B0.2059 
N862 X-310.511 Y33.299 Z8.276 A343.5069 B0.2048 
N863 X-310.511 Y32.427 Z9.015 A345.3853 B0.1918 
N864 X-310.511 Y31.349 Z9.502 A346.1503 B0.1696 
N865 X-310.511 Y30.103 Z9.891 A346.3920 B0.1421 
N866 X-310.511 Y28.718 Z10.333 A346.7243 B0.1114 
N867 X-310.512 Y27.210 Z10.937 A347.6396 B0.0728 
N868 X-310.512 Y25.578 Z11.750 A349.4245 B0.0247 
N869 X-310.512 Y23.801 Z12.761 A352.1800 B0.0017 
N870 X-310.512 Y21.841 Z13.847 A355.5740 B0.0000 
N871 X-310.512 Y19.684 Z14.753 A358.6616 B0.0000 
N872 X-310.512 Y17.369 Z15.291 A0.6479 
N873 X-310.512 Y14.955 Z15.434 A1.2350 
N874 X-310.512 Y12.479 Z15.429 A1.2609 
N875 X-310.512 Y9.971 Z15.417 
N876 X-310.512 Y7.466 Z15.406 
N877 X-310.512 Y5.000 Z15.395 
N878 X-310.512 Y2.608 Z15.384 
N879 X-310.512 Y0.324 Z15.374 
N880 X-310.512 Y-1.825 Z15.364 
N881 X-310.512 Y-3.815 Z15.355 
N882 X-310.512 Y-5.629 Z15.346 
N883 X-310.512 Y-7.258 Z15.339 
N884 X-310.512 Y-8.699 Z15.332 
N885 X-310.512 Y-9.954 Z15.329 A1.2688 
N886 X-310.512 Y-11.033 Z15.364 A1.4380 
N887 X-310.512 Y-11.952 Z15.540 A2.1996 
N888 X-310.512 Y-12.739 Z15.953 A3.9879 
N889 X-310.512 Y-13.441 Z16.645 A7.0056 
N890 X-310.512 Y-14.114 Z17.562 A11.0730 
N891 X-310.512 Y-14.800 Z18.606 A15.8131 
N892 X-310.512 Y-15.531 Z19.707 A20.9715 
N893 X-310.512 Y-16.323 Z20.807 A26.3334 
N894 X-310.512 Y-17.161 Z21.837 A31.6284 
N895 X-310.512 Y-18.015 Z22.747 A36.6207 
N896 X-310.512 Y-18.858 Z23.522 A41.2079 
N897 X-310.512 Y-19.680 Z24.177 A45.4290 
N898 X-310.512 Y-20.494 Z24.741 A49.4007 
N899 X-310.512 Y-21.318 Z25.236 A53.2632 
N900 X-310.512 Y-22.175 Z25.677 A57.1366 
N901 X-310.512 Y-23.080 Z26.069 A61.1015 
N902 X-310.512 Y-24.045 Z26.405 A65.2051 
N903 X-310.512 Y-25.060 Z26.670 A69.4170 
N904 X-310.512 Y-26.089 Z26.840 A73.5904 
N905 X-310.512 Y-27.122 Z26.910 A77.7134 
N906 X-310.512 Y-28.182 Z26.879 A81.9171 
N907 X-310.512 Y-29.270 Z26.735 A86.2356 
N908 X-310.512 Y-30.352 Z26.463 A90.5773 
N909 X-310.512 Y-31.374 Z26.058 A94.7780 B0.0000 
N910 X-310.512 Y-32.271 Z25.531 A98.6209 B0.0004 
N911 X-310.512 Y-32.956 Z24.908 A101.7792 B0.0019 
N912 X-310.512 Y-33.373 Z24.227 A104.0103 B0.0062 
N913 X-310.512 Y-33.536 Z23.507 A105.3496 B0.0150 
N914 X-310.512 Y-33.508 Z22.742 A106.0323 B0.0298 
N915 X-310.512 Y-33.362 Z21.916 A106.3392 B0.0499 
N916 X-310.512 Y-33.159 Z21.016 A106.5166 B0.0720 
N917 X-310.512 Y-32.919 Z20.043 A106.6413 B0.0931 
N918 X-310.511 Y-32.647 Z19.005 A106.7155 B0.1136 
N919 X-310.511 Y-32.354 Z17.912 A106.7749 B0.1351 
N920 X-310.511 Y-32.049 Z16.778 A106.8390 B0.1575 
N921 X-310.511 Y-31.737 Z15.620 A106.9062 B0.1806 
N922 X-310.511 Y-31.422 Z14.456 A106.9738 B0.2039 
N923 X-310.511 Y-31.108 Z13.304 A107.0376 B0.2272 
N924 X-310.511 Y-30.798 Z12.182 A107.0884 B0.2500 
N925 X-310.511 Y-30.498 Z11.103 A107.1347 B0.2721 
N926 X-310.511 Y-30.242 Z10.070 A107.3062 B0.2919 
N927 X-310.511 Y-30.104 Z9.069 A107.9285 B0.3054 
N928 X-310.511 Y-30.191 Z8.064 A109.4982 B0.3060 
N929 X-310.511 Y-30.537 Z7.020 A112.2567 B0.2884 
N930 X-310.511 Y-31.082 Z5.921 A116.0443 B0.2516 
N931 X-310.511 Y-31.717 Z4.768 A120.4819 B0.1979 
N932 X-310.511 Y-32.334 Z3.588 A125.1345 B0.1321 
N933 X-310.512 Y-32.860 Z2.417 A129.6831 B0.0589 
N934 X-310.512 Y-33.283 Z1.264 A134.0471 B-0.0194 
N935 X-310.512 Y-33.620 Z0.107 A138.3478 B-0.1022 
N936 X-310.513 Y-33.894 Z-1.100 A142.8028 B-0.1906 
N937 X-310.513 Y-34.112 Z-2.409 A147.6382 B-0.2877 
N938 X-310.514 Y-34.244 Z-3.852 A152.9520 B-0.3950 
N939 X-310.514 Y-34.218 Z-5.388 A158.5559 B-0.5090 
N940 X-310.515 Y-33.960 Z-6.886 A163.9346 B-0.6207 
N941 X-310.515 Y-33.429 Z-8.160 A168.3960 B-0.7197 
N942 X-310.515 Y-32.642 Z-9.079 A171.4591 B-0.7998 
N943 X-310.516 Y-31.644 Z-9.676 A173.2558 B-0.8607 
N944 X-310.516 Y-30.467 Z-10.139 A174.5327 B-0.9018 
N945 X-310.516 Y-29.120 Z-10.651 A176.0526 B-0.9255 
N946 X-310.516 Y-27.589 Z-11.229 A177.9649 B-0.9441 
N947 X-310.516 Y-25.862 Z-11.749 A179.8215 B-0.9636 
N948 X-310.516 Y-23.947 Z-12.060 A181.0193 B-0.9790 
N949 X-310.516 Y-21.868 Z-12.146 A181.4091 B-0.9865 
N950 X-310.516 Y-19.645 Z-12.137 A181.4382 B-0.9900 
N951 X-310.516 Y-17.302 Z-12.119 B-0.9932 
N952 X-310.516 Y-14.870 Z-12.100 B-0.9965 
N953 X-310.516 Y-12.387 Z-12.081 B-0.9999 
N954 X-310.516 Y-9.894 Z-12.062 B-1.0033 
N955 X-310.516 Y-7.432 Z-12.043 A181.4382 B-1.0067 
N956 X-310.516 Y-5.041 Z-12.025 B-1.0099 
N957 X-310.516 Y-2.759 Z-12.007 B-1.0130 
N958 X-310.516 Y-0.618 Z-11.991 B-1.0160 
N959 X-310.516 Y1.358 Z-11.976 B-1.0187 
N960 X-310.516 Y3.150 Z-11.962 B-1.0211 
N961 X-310.516 Y4.750 Z-11.950 A181.4382 B-1.0233 
N962 X-310.516 Y6.155 Z-11.939 A181.4383 B-1.0252 
N963 X-310.516 Y7.369 Z-11.934 A181.4542 B-1.0272 
N964 X-310.516 Y8.405 Z-11.963 A181.6093 B-1.0315 
N965 X-310.516 Y9.281 Z-12.138 A182.3747 B-1.0466 
N966 X-310.517 Y10.034 Z-12.642 A184.5437 B-1.0862 
N967 X-310.517 Y10.724 Z-13.482 A188.2001 B-1.1501 
N968 X-310.517 Y11.408 Z-14.520 A192.8127 B-1.2268 
N969 X-310.518 Y12.121 Z-15.634 A197.9160 B-1.3057 
N970 X-310.518 Y12.883 Z-16.755 A203.2422 B-1.3797 
N971 X-310.518 Y13.706 Z-17.847 A208.6752 B-1.4446 
N972 X-310.518 Y14.585 Z-18.870 A214.0696 B-1.4972 
N973 X-310.518 Y15.500 Z-19.789 A219.2717 B-1.5352 
N974 X-310.519 Y16.435 Z-20.593 A224.2280 B-1.5574 
N975 X-310.519 Y17.380 Z-21.285 A228.9381 B-1.5626 
N976 X-310.519 Y18.329 Z-21.868 A233.4165 B-1.5507 
N977 X-310.518 Y19.284 Z-22.353 A237.7225 B-1.5223 
N978 X-310.518 Y20.268 Z-22.758 A241.9930 B-1.4783 
N979 X-310.518 Y21.299 Z-23.086 A246.3378 B-1.4196 
N980 X-310.518 Y22.353 Z-23.319 A250.6562 B-1.3500 
N981 X-310.517 Y23.389 Z-23.442 A254.8127 B-1.2744 
N982 X-310.517 Y24.409 Z-23.457 A258.8465 B-1.1955 
N983 X-310.517 Y25.402 Z-23.365 A262.7535 B-1.1157 
N984 X-310.516 Y26.332 Z-23.164 A266.4163 B-1.0387 
N985 X-310.516 Y27.148 Z-22.859 A269.6674 B-0.9689 
N986 X-310.516 Y27.788 Z-22.464 A272.2670 B-0.9116 
N987 X-310.516 Y28.210 Z-22.001 A274.0561 B-0.8706 
N988 X-310.516 Y28.442 Z-21.483 A275.1298 B-0.8441 
N989 X-310.515 Y28.560 Z-20.909 A275.7886 B-0.8262 
N990 X-310.515 Y28.669 Z-20.271 A276.4631 B-0.8080 
N991 X-310.515 Y28.852 Z-19.560 A277.5003 B-0.7827 
N992 X-310.515 Y29.109 Z-18.772 A278.9397 B-0.7490 
N993 X-310.515 Y29.383 Z-17.917 A280.5693 B-0.7110 
N994 X-310.515 Y29.580 Z-17.021 A282.0091 B-0.6760 
N995 X-310.515 Y29.651 Z-16.106 A283.0344 B-0.6482 
N996 X-310.515 Y29.615 Z-15.187 A283.6930 B-0.6265 
N997 X-310.515 Y29.512 Z-14.267 A284.1207 B-0.6081 
N998 X-310.514 Y29.368 Z-13.353 A284.4047 B-0.5910 
N999 X-310.514 Y29.205 Z-12.452 A284.6155 B-0.5740 
N1000 X-310.514 Y29.061 Z-11.563 A284.9079 B-0.5544 
N1001 X-310.514 Y28.999 Z-10.677 A285.5424 B-0.5282 
N1002 X-310.514 Y29.086 Z-9.775 A286.8411 B-0.4906 
N1003 X-310.514 Y29.365 Z-8.837 A289.0306 B-0.4389 
N1004 X-310.514 Y29.832 Z-7.835 A292.1794 B-0.3726 
N1005 X-310.513 Y30.433 Z-6.754 A296.1483 B-0.2948 
N1006 X-310.513 Y31.082 Z-5.594 A300.6571 B-0.2107 
N1007 X-310.512 Y31.675 Z-4.387 A305.3017 B-0.1279 
N1008 X-310.512 Y32.131 Z-3.186 A309.6943 B-0.0532 
N1009 X-310.512 Y32.416 Z-2.035 A313.6234 B0.0096 
N1010 X-310.512 Y32.555 Z-0.932 A317.1596 B0.0605 
N1011 X-310.511 Y32.593 Z0.163 A320.5660 B0.1021 
N1012 X-310.511 Y32.571 Z1.315 A324.1668 B0.1383 
N1013 X-310.511 Y32.489 Z2.557 A328.1146 B0.1704 
N1014 X-310.511 Y32.292 Z3.848 A332.2118 B0.1957 
N1015 X-310.511 Y31.911 Z5.068 A335.9366 B0.2094 
N1016 X-310.511 Y31.304 Z6.085 A338.7404 B0.2085 
N1017 X-310.511 Y30.474 Z6.833 A340.3418 B0.1938 
N1018 X-310.511 Y29.460 Z7.375 A340.9800 B0.1695 
N1019 X-310.511 Y28.313 Z7.863 A341.2603 B0.1402 
N1020 X-310.511 Y27.081 Z8.467 A341.9060 B0.1085 
N1021 X-310.512 Y25.786 Z9.295 A343.4352 B0.0690 
N1022 X-310.512 Y24.413 Z10.383 A346.1105 B0.0246 
N1023 X-310.512 Y22.914 Z11.698 A349.9435 B0.0033 
N1024 X-310.512 Y21.218 Z13.059 A354.3503 B0.0001 
N1025 X-310.512 Y19.298 Z14.161 A358.1842 B0.0000 
N1026 X-310.512 Y17.206 Z14.791 A0.5229 
N1027 X-310.512 Y15.008 Z14.968 A1.2396 
N1028 X-310.512 Y12.739 Z14.967 A1.2825 
N1029 X-310.512 Y10.420 Z14.956 
N1030 X-310.512 Y8.081 Z14.944 
N1031 X-310.512 Y5.752 Z14.933 
N1032 X-310.512 Y3.466 Z14.922 
N1033 X-310.512 Y1.255 Z14.911 
N1034 X-310.512 Y-0.852 Z14.900 
N1035 X-310.512 Y-2.830 Z14.891 
N1036 X-310.512 Y-4.656 Z14.882 
N1037 X-310.512 Y-6.318 Z14.873 
N1038 X-310.512 Y-7.805 Z14.866 
N1039 X-310.512 Y-9.116 Z14.860 A1.2826 
N1040 X-310.512 Y-10.255 Z14.861 A1.3137 
N1041 X-310.512 Y-11.231 Z14.925 A1.5993 
N1042 X-310.512 Y-12.062 Z15.146 A2.5555 
N1043 X-310.512 Y-12.779 Z15.612 A4.5735 
N1044 X-310.512 Y-13.428 Z16.349 A7.7852 
N1045 X-310.512 Y-14.060 Z17.287 A11.9438 
N1046 X-310.512 Y-14.719 Z18.343 A16.7331 
N1047 X-310.512 Y-15.436 Z19.460 A21.9565 
N1048 X-310.512 Y-16.221 Z20.571 A27.3747 
N1049 X-310.512 Y-17.055 Z21.604 A32.6870 
N1050 X-310.512 Y-17.901 Z22.507 A37.6549 
N1051 X-310.512 Y-18.732 Z23.271 A42.1900 
N1052 X-310.512 Y-19.537 Z23.913 A46.3323 
N1053 X-310.512 Y-20.323 Z24.458 A50.1821 
N1054 X-310.512 Y-21.104 Z24.930 A53.8571 
N1055 X-310.512 Y-21.899 Z25.346 A57.4682 
N1056 X-310.512 Y-22.728 Z25.716 A61.1238 
N1057 X-310.512 Y-23.615 Z26.044 A64.9328 
N1058 X-310.512 Y-24.568 Z26.324 A68.9337 
N1059 X-310.512 Y-25.550 Z26.528 A72.9658 
N1060 X-310.512 Y-26.527 Z26.644 A76.9115 
N1061 X-310.512 Y-27.523 Z26.673 A80.8942 
N1062 X-310.512 Y-28.561 Z26.610 A85.0346 
N1063 X-310.512 Y-29.633 Z26.440 A89.3364 
N1064 X-310.512 Y-30.707 Z26.148 A93.7151 B0.0000 
N1065 X-310.512 Y-31.737 Z25.728 A98.0316 B0.0001 
N1066 X-310.512 Y-32.653 Z25.192 A102.0538 B0.0008 
N1067 X-310.512 Y-33.364 Z24.572 A105.4297 B0.0034 
N1068 X-310.512 Y-33.812 Z23.909 A107.9149 B0.0096 
N1069 X-310.512 Y-34.007 Z23.225 A109.5179 B0.0209 
N1070 X-310.512 Y-33.999 Z22.516 A110.4273 B0.0367 
N1071 X-310.512 Y-33.854 Z21.765 A110.8979 B0.0543 
N1072 X-310.512 Y-33.632 Z20.950 A111.1870 B0.0721 
N1073 X-310.512 Y-33.358 Z20.069 A111.3855 B0.0903 
N1074 X-310.511 Y-33.035 Z19.128 A111.4905 B0.1098 
N1075 X-310.511 Y-32.679 Z18.131 A111.5565 B0.1309 
N1076 X-310.511 Y-32.306 Z17.088 A111.6264 B0.1533 
N1077 X-310.511 Y-31.920 Z16.013 A111.7017 B0.1764 
N1078 X-310.511 Y-31.527 Z14.922 A111.7789 B0.2000 
N1079 X-310.511 Y-31.132 Z13.831 A111.8549 B0.2237 
N1080 X-310.511 Y-30.740 Z12.757 A111.9199 B0.2472 
N1081 X-310.511 Y-30.356 Z11.713 A111.9829 B0.2701 
N1082 X-310.511 Y-30.026 Z10.694 A112.2200 B0.2899 
N1083 X-310.511 Y-29.840 Z9.672 A113.0415 B0.3002 
N1084 X-310.511 Y-29.898 Z8.601 A114.9508 B0.2916 
N1085 X-310.511 Y-30.196 Z7.456 A118.0386 B0.2590 
N1086 X-310.511 Y-30.635 Z6.241 A121.9876 B0.2039 
N1087 X-310.511 Y-31.087 Z4.997 A126.2878 B0.1325 
N1088 X-310.512 Y-31.453 Z3.778 A130.4787 B0.0528 
N1089 X-310.512 Y-31.710 Z2.606 A134.4114 B-0.0310 
N1090 X-310.512 Y-31.900 Z1.440 A138.3262 B-0.1212 
N1091 X-310.513 Y-32.079 Z0.186 A142.6714 B-0.2252 
N1092 X-310.513 Y-32.253 Z-1.238 A147.7757 B-0.3502 
N1093 X-310.514 Y-32.344 Z-2.821 A153.5149 B-0.4932 
N1094 X-310.515 Y-32.233 Z-4.430 A159.2774 B-0.6403 
N1095 X-310.515 Y-31.846 Z-5.856 A164.2390 B-0.7740 
N1096 X-310.516 Y-31.187 Z-6.956 A167.8752 B-0.8845 
N1097 X-310.516 Y-30.310 Z-7.757 A170.3339 B-0.9713 
N1098 X-310.516 Y-29.259 Z-8.440 A172.3568 B-1.0339 
N1099 X-310.517 Y-28.050 Z-9.166 A174.6355 B-1.0763 
N1100 X-310.517 Y-26.663 Z-9.930 A177.2315 B-1.1128 
N1101 X-310.517 Y-25.081 Z-10.581 A179.5951 B-1.1470 
N1102 X-310.517 Y-23.319 Z-10.945 A180.9966 B-1.1695 
N1103 X-310.517 Y-21.402 Z-11.039 A181.4140 B-1.1785 
N1104 X-310.517 Y-19.346 Z-11.030 A181.4433 B-1.1819 
N1105 X-310.517 Y-17.171 Z-11.013 B-1.1849 
N1106 X-310.517 Y-14.903 Z-10.996 B-1.1880 
N1107 X-310.517 Y-12.575 Z-10.978 B-1.1912 
N1108 X-310.517 Y-10.225 Z-10.960 B-1.1945 
N1109 X-310.517 Y-7.891 Z-10.941 A181.4433 B-1.1977 
N1110 X-310.517 Y-5.611 Z-10.924 B-1.2009 
N1111 X-310.517 Y-3.421 Z-10.907 B-1.2039 
N1112 X-310.517 Y-1.355 Z-10.891 B-1.2068 
N1113 X-310.517 Y0.564 Z-10.876 B-1.2094 
N1114 X-310.517 Y2.314 Z-10.863 A181.4433 B-1.2119 
N1115 X-310.517 Y3.884 Z-10.850 B-1.2140 
N1116 X-310.517 Y5.271 Z-10.840 B-1.2160 
N1117 X-310.517 Y6.475 Z-10.831 A181.4469 B-1.2177 
N1118 X-310.517 Y7.505 Z-10.842 A181.5258 B-1.2208 
N1119 X-310.517 Y8.377 Z-10.941 A181.9718 B-1.2314 
N1120 X-310.517 Y9.116 Z-11.289 A183.4657 B-1.2633 
N1121 X-310.518 Y9.774 Z-11.993 A186.4993 B-1.3249 
N1122 X-310.518 Y10.410 Z-12.959 A190.7260 B-1.4065 
N1123 X-310.518 Y11.068 Z-14.052 A195.6292 B-1.4942 
N1124 X-310.519 Y11.773 Z-15.180 A200.8529 B-1.5782 
N1125 X-310.519 Y12.541 Z-16.299 A206.2481 B-1.6530 
N1126 X-310.519 Y13.378 Z-17.375 A211.7058 B-1.7146 
N1127 X-310.519 Y14.267 Z-18.364 A217.0499 B-1.7603 
N1128 X-310.520 Y15.185 Z-19.238 A222.1528 B-1.7889 
N1129 X-310.520 Y16.112 Z-19.991 A226.9659 B-1.8003 
N1130 X-310.520 Y17.029 Z-20.621 A231.4514 B-1.7955 
N1131 X-310.520 Y17.923 Z-21.138 A235.6138 B-1.7758 
N1132 X-310.519 Y18.812 Z-21.566 A239.5857 B-1.7421 
N1133 X-310.519 Y19.741 Z-21.932 A243.6051 B-1.6933 
N1134 X-310.519 Y20.733 Z-22.241 A247.7863 B-1.6286 
N1135 X-310.519 Y21.737 Z-22.462 A251.9160 B-1.5526 
N1136 X-310.518 Y22.714 Z-22.583 A255.8566 B-1.4707 
N1137 X-310.518 Y23.678 Z-22.613 A259.6988 B-1.3850 
N1138 X-310.517 Y24.626 Z-22.552 A263.4556 B-1.2973 
N1139 X-310.517 Y25.527 Z-22.397 A267.0381 B-1.2108 
N1140 X-310.517 Y26.341 Z-22.152 A270.3047 B-1.1297 
N1141 X-310.516 Y27.010 Z-21.829 A273.0388 B-1.0599 
N1142 X-310.516 Y27.498 Z-21.447 A275.1033 B-1.0054 
N1143 X-310.516 Y27.819 Z-21.018 A276.5511 B-0.9656 
N1144 X-310.516 Y28.030 Z-20.543 A277.6099 B-0.9353 
N1145 X-310.516 Y28.221 Z-20.012 A278.6485 B-0.9056 
N1146 X-310.516 Y28.469 Z-19.411 A279.9954 B-0.8686 
N1147 X-310.515 Y28.789 Z-18.733 A281.7461 B-0.8215 
N1148 X-310.515 Y29.140 Z-17.980 A283.7682 B-0.7669 
N1149 X-310.515 Y29.429 Z-17.177 A285.6863 B-0.7139 
N1150 X-310.515 Y29.576 Z-16.356 A287.1513 B-0.6708 
N1151 X-310.515 Y29.578 Z-15.535 A288.1146 B-0.6390 
N1152 X-310.515 Y29.473 Z-14.716 A288.7053 B-0.6149 
N1153 X-310.514 Y29.302 Z-13.896 A289.0690 B-0.5947 
N1154 X-310.514 Y29.101 Z-13.072 A289.3363 B-0.5753 
N1155 X-310.514 Y28.918 Z-12.235 A289.7116 B-0.5520 
N1156 X-310.514 Y28.822 Z-11.364 A290.4964 B-0.5190 
N1157 X-310.514 Y28.885 Z-10.432 A292.0474 B-0.4696 
N1158 X-310.514 Y29.142 Z-9.407 A294.5889 B-0.4008 
N1159 X-310.513 Y29.561 Z-8.273 A298.0965 B-0.3147 
N1160 X-310.513 Y30.049 Z-7.038 A302.2700 B-0.2191 
N1161 X-310.512 Y30.484 Z-5.748 A306.6360 B-0.1250 
N1162 X-310.512 Y30.763 Z-4.479 A310.6866 B-0.0434 
N1163 X-310.512 Y30.847 Z-3.292 A314.1363 B0.0202 
N1164 X-310.512 Y30.776 Z-2.176 A317.1182 B0.0679 
N1165 X-310.511 Y30.631 Z-1.058 A320.0767 B0.1068 
N1166 X-310.511 Y30.462 Z0.135 A323.3913 B0.1421 
N1167 X-310.511 Y30.234 Z1.392 A326.9894 B0.1721 
N1168 X-310.511 Y29.866 Z2.601 A330.3484 B0.1902 
N1169 X-310.511 Y29.299 Z3.635 A332.8844 B0.1922 
N1170 X-310.511 Y28.528 Z4.433 A334.3288 B0.1790 
N1171 X-310.511 Y27.599 Z5.057 A334.9271 B0.1558 
N1172 X-310.511 Y26.580 Z5.659 A335.3206 B0.1289 
N1173 X-310.511 Y25.541 Z6.411 A336.2818 B0.1013 
N1174 X-310.512 Y24.511 Z7.428 A338.3750 B0.0686 
N1175 X-310.512 Y23.462 Z8.746 A341.8489 B0.0311 
N1176 X-310.512 Y22.311 Z10.320 A346.6191 B0.0065 
N1177 X-310.512 Y20.954 Z11.972 A352.0844 B0.0002 
N1178 X-310.512 Y19.333 Z13.339 A356.8700 B0.0000 
N1179 X-310.512 Y17.505 Z14.177 A359.9600 
N1180 X-310.512 Y15.554 Z14.481 A1.1531 
N1181 X-310.512 Y13.518 Z14.509 A1.3074 
N1182 X-310.512 Y11.412 Z14.498 A1.3080 
N1183 X-310.512 Y9.256 Z14.486 
N1184 X-310.512 Y7.075 Z14.475 
N1185 X-310.512 Y4.898 Z14.463 
N1186 X-310.512 Y2.754 Z14.452 
N1187 X-310.512 Y0.675 Z14.440 
N1188 X-310.512 Y-1.311 Z14.430 
N1189 X-310.512 Y-3.179 Z14.420 
N1190 X-310.512 Y-4.908 Z14.410 
N1191 X-310.512 Y-6.483 Z14.402 
N1192 X-310.512 Y-7.895 Z14.394 
N1193 X-310.512 Y-9.140 Z14.388 A1.3082 
N1194 X-310.512 Y-10.221 Z14.391 A1.3443 
N1195 X-310.512 Y-11.148 Z14.451 A1.6204 
N1196 X-310.512 Y-11.935 Z14.655 A2.5046 
N1197 X-310.512 Y-12.612 Z15.091 A4.3834 
N1198 X-310.512 Y-13.221 Z15.787 A7.4087 
N1199 X-310.512 Y-13.811 Z16.690 A11.3830 
N1200 X-310.512 Y-14.429 Z17.731 A16.0583 
N1201 X-310.512 Y-15.111 Z18.859 A21.2668 
N1202 X-310.512 Y-15.873 Z20.003 A26.7544 
N1203 X-310.512 Y-16.696 Z21.077 A32.1870 
N1204 X-310.512 Y-17.541 Z22.023 A37.2897 
N1205 X-310.512 Y-18.373 Z22.823 A41.9404 
N1206 X-310.512 Y-19.177 Z23.491 A46.1521 
N1207 X-310.512 Y-19.951 Z24.050 A50.0036 
N1208 X-310.512 Y-20.704 Z24.525 A53.5949 
N1209 X-310.512 Y-21.449 Z24.934 A57.0249 
N1210 X-310.512 Y-22.204 Z25.293 A60.3974 
N1211 X-310.512 Y-22.995 Z25.615 A63.8432 
N1212 X-310.512 Y-23.857 Z25.906 A67.5138 
N1213 X-310.512 Y-24.792 Z26.156 A71.4208 
N1214 X-310.512 Y-25.742 Z26.332 A75.3201 
N1215 X-310.512 Y-26.678 Z26.428 A79.1069 
N1216 X-310.512 Y-27.634 Z26.446 A82.9444 
N1217 X-310.512 Y-28.632 Z26.383 A86.9526 B0.0000 
N1218 X-310.512 Y-29.672 Z26.224 A91.1548 B0.0000 
N1219 X-310.512 Y-30.735 Z25.952 A95.5145 B0.0002 
N1220 X-310.512 Y-31.784 Z25.558 A99.9382 B0.0005 
N1221 X-310.512 Y-32.761 Z25.046 A104.2377 B0.0013 
N1222 X-310.512 Y-33.578 Z24.443 A108.0832 B0.0035 
N1223 X-310.512 Y-34.158 Z23.794 A111.1632 B0.0083 
N1224 X-310.512 Y-34.485 Z23.134 A113.3764 B0.0168 
N1225 X-310.512 Y-34.589 Z22.470 A114.8249 B0.0289 
N1226 X-310.512 Y-34.517 Z21.790 A115.6963 B0.0430 
N1227 X-310.512 Y-34.328 Z21.069 A116.2378 B0.0570 
N1228 X-310.512 Y-34.063 Z20.290 A116.6248 B0.0709 
N1229 X-310.512 Y-33.725 Z19.458 A116.8577 B0.0864 
N1230 X-310.511 Y-33.323 Z18.574 A116.9584 B0.1041 
N1231 X-310.511 Y-32.885 Z17.636 A117.0296 B0.1233 
N1232 X-310.511 Y-32.425 Z16.651 A117.1108 B0.1437 
N1233 X-310.511 Y-31.949 Z15.632 A117.1982 B0.1647 
N1234 X-310.511 Y-31.461 Z14.594 A117.2877 B0.1862 
N1235 X-310.511 Y-30.969 Z13.551 A117.3745 B0.2078 
N1236 X-310.511 Y-30.478 Z12.519 A117.4511 B0.2292 
N1237 X-310.511 Y-30.018 Z11.498 A117.6332 B0.2486 
N1238 X-310.511 Y-29.677 Z10.453 A118.3166 B0.2585 
N1239 X-310.511 Y-29.558 Z9.330 A120.0392 B0.2469 
N1240 X-310.511 Y-29.657 Z8.111 A122.8907 B0.2076 
N1241 X-310.511 Y-29.859 Z6.833 A126.4487 B0.1445 
N1242 X-310.512 Y-30.024 Z5.571 A130.0874 B0.0687 
N1243 X-310.512 Y-30.077 Z4.390 A133.3841 B-0.0096 
N1244 X-310.512 Y-30.070 Z3.248 A136.5835 B-0.0938 
N1245 X-310.513 Y-30.123 Z1.992 A140.4865 B-0.2028 
N1246 X-310.513 Y-30.265 Z0.493 A145.6411 B-0.3520 
N1247 X-310.514 Y-30.358 Z-1.199 A151.6540 B-0.5317 
N1248 X-310.515 Y-30.228 Z-2.866 A157.4899 B-0.7136 
N1249 X-310.516 Y-29.806 Z-4.292 A162.2857 B-0.8749 
N1250 X-310.516 Y-29.131 Z-5.430 A165.9244 B-1.0095 
N1251 X-310.517 Y-28.273 Z-6.427 A169.0502 B-1.1169 
N1252 X-310.517 Y-27.257 Z-7.429 A172.3180 B-1.1969 
N1253 X-310.517 Y-26.063 Z-8.429 A175.7638 B-1.2625 
N1254 X-310.518 Y-24.672 Z-9.280 A178.8628 B-1.3194 
N1255 X-310.518 Y-23.101 Z-9.775 A180.7565 B-1.3553 
N1256 X-310.518 Y-21.383 Z-9.925 A181.3817 B-1.3692 
N1257 X-310.518 Y-19.530 Z-9.927 A181.4493 B-1.3732 
N1258 X-310.518 Y-17.555 Z-9.912 A181.4494 B-1.3759 
N1259 X-310.518 Y-15.479 Z-9.896 B-1.3789 
N1260 X-310.518 Y-13.327 Z-9.879 B-1.3819 
N1261 X-310.518 Y-11.132 Z-9.862 B-1.3850 
N1262 X-310.518 Y-8.928 Z-9.844 A181.4494 B-1.3881 
N1263 X-310.518 Y-6.752 Z-9.827 B-1.3912 
N1264 X-310.518 Y-4.639 Z-9.811 B-1.3941 
N1265 X-310.518 Y-2.621 Z-9.795 B-1.3970 
N1266 X-310.518 Y-0.727 Z-9.780 B-1.3997 
N1267 X-310.518 Y1.021 Z-9.766 A181.4494 B-1.4021 
N1268 X-310.518 Y2.606 Z-9.754 B-1.4044 
N1269 X-310.518 Y4.020 Z-9.743 B-1.4064 
N1270 X-310.518 Y5.260 Z-9.733 B-1.4081 
N1271 X-310.518 Y6.331 Z-9.727 A181.4605 B-1.4099 
N1272 X-310.518 Y7.242 Z-9.757 A181.6130 B-1.4147 
N1273 X-310.518 Y8.010 Z-9.913 A182.2941 B-1.4319 
N1274 X-310.518 Y8.666 Z-10.345 A184.1466 B-1.4758 
N1275 X-310.519 Y9.261 Z-11.112 A187.4495 B-1.5503 
N1276 X-310.519 Y9.853 Z-12.106 A191.7988 B-1.6425 
N1277 X-310.519 Y10.480 Z-13.209 A196.7434 B-1.7380 
N1278 X-310.520 Y11.164 Z-14.342 A201.9889 B-1.8271 
N1279 X-310.520 Y11.921 Z-15.469 A207.4170 B-1.9042 
N1280 X-310.520 Y12.754 Z-16.550 A212.9046 B-1.9654 
N1281 X-310.521 Y13.642 Z-17.539 A218.2595 B-2.0078 
N1282 X-310.521 Y14.556 Z-18.408 A223.3491 B-2.0313 
N1283 X-310.521 Y15.470 Z-19.147 A228.0985 B-2.0372 
N1284 X-310.521 Y16.355 Z-19.754 A232.4333 B-2.0280 
N1285 X-310.521 Y17.193 Z-20.239 A236.3414 B-2.0066 
N1286 X-310.520 Y18.002 Z-20.634 A239.9728 B-1.9742 
N1287 X-310.520 Y18.842 Z-20.980 A243.6389 B-1.9280 
N1288 X-310.520 Y19.772 Z-21.296 A247.6027 B-1.8637 
N1289 X-310.520 Y20.743 Z-21.546 A251.6502 B-1.7839 
N1290 X-310.519 Y21.675 Z-21.703 A255.4542 B-1.6975 
N1291 X-310.519 Y22.584 Z-21.780 A259.1177 B-1.6069 
N1292 X-310.518 Y23.489 Z-21.781 A262.7392 B-1.5127 
N1293 X-310.518 Y24.378 Z-21.705 A266.2946 B-1.4166 
N1294 X-310.518 Y25.226 Z-21.551 A269.7024 B-1.3217 
N1295 X-310.517 Y25.990 Z-21.324 A272.8109 B-1.2325 
N1296 X-310.517 Y26.630 Z-21.036 A275.4747 B-1.1540 
N1297 X-310.517 Y27.136 Z-20.699 A277.6513 B-1.0882 
N1298 X-310.516 Y27.525 Z-20.322 A279.4203 B-1.0336 
N1299 X-310.516 Y27.848 Z-19.899 A280.9939 B-0.9845 
N1300 X-310.516 Y28.173 Z-19.418 A282.6581 B-0.9329 
N1301 X-310.516 Y28.540 Z-18.864 A284.6047 B-0.8729 
N1302 X-310.515 Y28.951 Z-18.225 A286.8769 B-0.8026 
N1303 X-310.515 Y29.359 Z-17.508 A289.3211 B-0.7261 
N1304 X-310.515 Y29.667 Z-16.747 A291.5314 B-0.6552 
N1305 X-310.514 Y29.804 Z-15.981 A293.1868 B-0.5996 
N1306 X-310.514 Y29.774 Z-15.224 A294.2660 B-0.5600 
N1307 X-310.514 Y29.618 Z-14.471 A294.9116 B-0.5317 
N1308 X-310.514 Y29.383 Z-13.706 A295.3072 B-0.5091 
N1309 X-310.514 Y29.124 Z-12.910 A295.6925 B-0.4852 
N1310 X-310.514 Y28.917 Z-12.050 A296.4060 B-0.4513 
N1311 X-310.514 Y28.843 Z-11.083 A297.8638 B-0.3979 
N1312 X-310.513 Y28.944 Z-9.973 A300.3446 B-0.3204 
N1313 X-310.513 Y29.163 Z-8.724 A303.7191 B-0.2252 
N1314 X-310.512 Y29.363 Z-7.395 A307.4543 B-0.1282 
N1315 X-310.512 Y29.416 Z-6.086 A310.9159 B-0.0455 
N1316 X-310.512 Y29.267 Z-4.873 A313.7184 B0.0147 
N1317 X-310.512 Y28.960 Z-3.750 A315.9833 B0.0558 
N1318 X-310.512 Y28.600 Z-2.629 A318.2485 B0.0888 
N1319 X-310.511 Y28.242 Z-1.446 A320.8894 B0.1194 
N1320 X-310.511 Y27.836 Z-0.247 A323.6590 B0.1428 
N1321 X-310.511 Y27.297 Z0.845 A325.9486 B0.1519 
N1322 X-310.511 Y26.586 Z1.744 A327.3404 B0.1450 
N1323 X-310.511 Y25.737 Z2.478 A327.9387 B0.1273 
N1324 X-310.511 Y24.837 Z3.185 A328.3652 B0.1063 
N1325 X-310.512 Y23.986 Z4.043 A329.4761 B0.0872 
N1326 X-310.512 Y23.232 Z5.181 A331.9140 B0.0676 
N1327 X-310.512 Y22.540 Z6.648 A335.9312 B0.0420 
N1328 X-310.512 Y21.797 Z8.401 A341.3622 B0.0147 
N1329 X-310.512 Y20.874 Z10.341 A347.8722 B0.0013 
N1330 X-310.512 Y19.644 Z12.075 A353.9482 B0.0000 
N1331 X-310.512 Y18.142 Z13.294 A358.3918 
N1332 X-310.512 Y16.471 Z13.887 A0.6470 
N1333 X-310.512 Y14.697 Z14.043 A1.2886 
N1334 X-310.512 Y12.835 Z14.044 A1.3346 
N1335 X-310.512 Y10.895 Z14.033 
N1336 X-310.512 Y8.893 Z14.021 
N1337 X-310.512 Y6.852 Z14.009 
N1338 X-310.512 Y4.798 Z13.997 
N1339 X-310.512 Y2.760 Z13.985 
N1340 X-310.512 Y0.769 Z13.973 
N1341 X-310.512 Y-1.147 Z13.962 
N1342 X-310.512 Y-2.960 Z13.952 
N1343 X-310.512 Y-4.649 Z13.942 
N1344 X-310.512 Y-6.195 Z13.933 
N1345 X-310.512 Y-7.588 Z13.925 
N1346 X-310.512 Y-8.821 Z13.917 A1.3346 
N1347 X-310.512 Y-9.896 Z13.915 A1.3527 
N1348 X-310.512 Y-10.819 Z13.952 A1.5275 
N1349 X-310.512 Y-11.602 Z14.095 A2.1517 
N1350 X-310.512 Y-12.269 Z14.425 A3.5746 
N1351 X-310.512 Y-12.852 Z14.992 A6.0277 
N1352 X-310.512 Y-13.397 Z15.780 A9.4641 
N1353 X-310.512 Y-13.953 Z16.747 A13.7360 
N1354 X-310.512 Y-14.567 Z17.852 A18.7217 
N1355 X-310.512 Y-15.271 Z19.027 A24.1943 
N1356 X-310.512 Y-16.060 Z20.176 A29.7960 
N1357 X-310.512 Y-16.898 Z21.218 A35.1856 
N1358 X-310.512 Y-17.743 Z22.112 A40.1513 
N1359 X-310.512 Y-18.564 Z22.860 A44.6376 
N1360 X-310.512 Y-19.351 Z23.480 A48.6864 
N1361 X-310.512 Y-20.105 Z23.997 A52.3805 
N1362 X-310.512 Y-20.833 Z24.434 A55.8109 
N1363 X-310.512 Y-21.546 Z24.807 A59.0624 
N1364 X-310.512 Y-22.258 Z25.130 A62.2242 
N1365 X-310.512 Y-22.994 Z25.417 A65.4168 
N1366 X-310.512 Y-23.795 Z25.680 A68.8231 
N1367 X-310.512 Y-24.698 Z25.919 A72.6036 
N1368 X-310.512 Y-25.656 Z26.103 A76.5508 
N1369 X-310.512 Y-26.589 Z26.206 A80.3430 
N1370 X-310.512 Y-27.510 Z26.236 A84.0587 
N1371 X-310.512 Y-28.456 Z26.193 A87.8723 B0.0000 
N1372 X-310.512 Y-29.438 Z26.067 A91.8538 B0.0001 
N1373 X-310.512 Y-30.455 Z25.846 A96.0273 B0.0002 
N1374 X-310.512 Y-31.492 Z25.514 A100.3769 B0.0006 
N1375 X-310.512 Y-32.513 Z25.065 A104.8110 B0.0013 
N1376 X-310.512 Y-33.456 Z24.506 A109.1190 B0.0028 
N1377 X-310.512 Y-34.231 Z23.874 A112.9633 B0.0054 
N1378 X-310.512 Y-34.781 Z23.215 A116.0826 B0.0097 
N1379 X-310.512 Y-35.097 Z22.557 A118.4172 B0.0162 
N1380 X-310.512 Y-35.209 Z21.904 A120.0774 B0.0246 
N1381 X-310.512 Y-35.155 Z21.242 A121.2193 B0.0337 
N1382 X-310.512 Y-34.975 Z20.551 A122.0238 B0.0425 
N1383 X-310.512 Y-34.696 Z19.816 A122.6072 B0.0513 
N1384 X-310.512 Y-34.314 Z19.042 A122.9450 B0.0615 
N1385 X-310.512 Y-33.842 Z18.228 A123.0717 B0.0740 
N1386 X-310.512 Y-33.318 Z17.358 A123.1477 B0.0880 
N1387 X-310.511 Y-32.762 Z16.433 A123.2397 B0.1027 
N1388 X-310.511 Y-32.179 Z15.463 A123.3412 B0.1180 
N1389 X-310.511 Y-31.575 Z14.463 A123.4471 B0.1337 
N1390 X-310.511 Y-30.958 Z13.446 A123.5529 B0.1494 
N1391 X-310.511 Y-30.339 Z12.426 A123.6661 B0.1648 
N1392 X-310.511 Y-29.763 Z11.389 A123.9827 B0.1759 
N1393 X-310.511 Y-29.326 Z10.284 A124.9722 B0.1715 
N1394 X-310.511 Y-29.070 Z9.081 A126.9095 B0.1416 
N1395 X-310.512 Y-28.905 Z7.832 A129.4406 B0.0895 
N1396 X-310.512 Y-28.705 Z6.630 A131.9347 B0.0288 
N1397 X-310.512 Y-28.414 Z5.535 A134.0318 B-0.0297 
N1398 X-310.512 Y-28.159 Z4.423 A136.4359 B-0.1042 
N1399 X-310.513 Y-28.122 Z3.049 A140.4372 B-0.2353 
N1400 X-310.514 Y-28.224 Z1.362 A146.1079 B-0.4300 
N1401 X-310.515 Y-28.206 Z-0.430 A152.2585 B-0.6529 
N1402 X-310.516 Y-27.924 Z-2.092 A157.8388 B-0.8696 
N1403 X-310.516 Y-27.390 Z-3.575 A162.7117 B-1.0650 
N1404 X-310.517 Y-26.671 Z-5.031 A167.6070 B-1.2304 
N1405 X-310.518 Y-25.745 Z-6.426 A172.4614 B-1.3569 
N1406 X-310.518 Y-24.598 Z-7.640 A176.8592 B-1.4581 
N1407 X-310.518 Y-23.250 Z-8.451 A179.9165 B-1.5264 
N1408 X-310.519 Y-21.752 Z-8.772 A181.1864 B-1.5557 
N1409 X-310.519 Y-20.130 Z-8.825 A181.4463 B-1.5637 
N1410 X-310.519 Y-18.387 Z-8.814 A181.4558 B-1.5664 
N1411 X-310.519 Y-16.533 Z-8.799 B-1.5691 
N1412 X-310.519 Y-14.586 Z-8.784 B-1.5719 
N1413 X-310.519 Y-12.569 Z-8.768 B-1.5748 
N1414 X-310.519 Y-10.512 Z-8.751 A181.4558 B-1.5777 
N1415 X-310.519 Y-8.447 Z-8.735 B-1.5807 
N1416 X-310.519 Y-6.408 Z-8.719 B-1.5836 
N1417 X-310.519 Y-4.428 Z-8.703 B-1.5865 
N1418 X-310.519 Y-2.538 Z-8.688 A181.4558 B-1.5892 
N1419 X-310.519 Y-0.764 Z-8.674 B-1.5917 
N1420 X-310.519 Y0.872 Z-8.661 B-1.5941 
N1421 X-310.519 Y2.355 Z-8.649 B-1.5962 
N1422 X-310.519 Y3.676 Z-8.638 B-1.5981 
N1423 X-310.519 Y4.833 Z-8.629 A181.4559 B-1.5997 
N1424 X-310.519 Y5.830 Z-8.623 A181.4642 B-1.6014 
N1425 X-310.519 Y6.677 Z-8.653 A181.6157 B-1.6065 
N1426 X-310.519 Y7.390 Z-8.812 A182.3061 B-1.6256 
N1427 X-310.519 Y7.996 Z-9.220 A184.0504 B-1.6717 
N1428 X-310.519 Y8.541 Z-9.932 A187.1056 B-1.7487 
N1429 X-310.520 Y9.080 Z-10.873 A191.1978 B-1.8453 
N1430 X-310.520 Y9.652 Z-11.944 A195.9495 B-1.9473 
N1431 X-310.521 Y10.286 Z-13.071 A201.0888 B-2.0440 
N1432 X-310.521 Y10.999 Z-14.208 A206.4718 B-2.1283 
N1433 X-310.521 Y11.797 Z-15.316 A211.9717 B-2.1953 
N1434 X-310.522 Y12.661 Z-16.342 A217.3908 B-2.2416 
N1435 X-310.522 Y13.560 Z-17.251 A222.5611 B-2.2668 
N1436 X-310.522 Y14.465 Z-18.030 A227.3913 B-2.2731 
N1437 X-310.522 Y15.341 Z-18.671 A231.7835 B-2.2640 
N1438 X-310.522 Y16.157 Z-19.180 A235.6769 B-2.2439 
N1439 X-310.521 Y16.906 Z-19.578 A239.1069 B-2.2160 
N1440 X-310.521 Y17.621 Z-19.903 A242.2796 B-2.1806 
N1441 X-310.521 Y18.380 Z-20.200 A245.5756 B-2.1323 
N1442 X-310.521 Y19.281 Z-20.498 A249.4157 B-2.0608 
N1443 X-310.520 Y20.250 Z-20.746 A253.4622 B-1.9692 
N1444 X-310.520 Y21.137 Z-20.898 A257.1009 B-1.8737 
N1445 X-310.520 Y21.990 Z-20.979 A260.5590 B-1.7757 
N1446 X-310.519 Y22.848 Z-20.998 A264.0152 B-1.6737 
N1447 X-310.519 Y23.708 Z-20.954 A267.4786 B-1.5682 
N1448 X-310.518 Y24.555 Z-20.844 A270.9055 B-1.4606 
N1449 X-310.518 Y25.364 Z-20.667 A274.2138 B-1.3538 
N1450 X-310.517 Y26.112 Z-20.428 A277.3228 B-1.2510 
N1451 X-310.517 Y26.784 Z-20.134 A280.1880 B-1.1543 
N1452 X-310.516 Y27.381 Z-19.789 A282.8307 B-1.0637 
N1453 X-310.516 Y27.923 Z-19.390 A285.3420 B-0.9768 
N1454 X-310.516 Y28.432 Z-18.928 A287.8415 B-0.8898 
N1455 X-310.515 Y28.924 Z-18.394 A290.4180 B-0.7993 
N1456 X-310.515 Y29.401 Z-17.776 A293.1190 B-0.7035 
N1457 X-310.514 Y29.844 Z-17.074 A295.9083 B-0.6033 
N1458 X-310.514 Y30.184 Z-16.315 A298.5108 B-0.5084 
N1459 X-310.514 Y30.345 Z-15.548 A300.5814 B-0.4315 
N1460 X-310.514 Y30.317 Z-14.793 A302.0304 B-0.3757 
N1461 X-310.513 Y30.116 Z-14.050 A302.9136 B-0.3387 
N1462 X-310.513 Y29.788 Z-13.298 A303.4126 B-0.3137 
N1463 X-310.513 Y29.411 Z-12.489 A303.8962 B-0.2883 
N1464 X-310.513 Y29.077 Z-11.563 A304.8275 B-0.2487 
N1465 X-310.513 Y28.838 Z-10.481 A306.5267 B-0.1879 
N1466 X-310.512 Y28.644 Z-9.272 A308.8295 B-0.1145 
N1467 X-310.512 Y28.373 Z-8.031 A311.1454 B-0.0477 
N1468 X-310.512 Y27.946 Z-6.849 A312.9981 B-0.0000 
N1469 X-310.512 Y27.376 Z-5.746 A314.3355 B0.0291 
N1470 X-310.512 Y26.740 Z-4.673 A315.4970 B0.0488 
N1471 X-310.512 Y26.110 Z-3.574 A316.8592 B0.0668 
N1472 X-310.512 Y25.475 Z-2.473 A318.3379 B0.0808 
N1473 X-310.512 Y24.772 Z-1.450 A319.5112 B0.0848 
N1474 X-310.512 Y23.971 Z-0.561 A320.0886 B0.0779 
N1475 X-310.512 Y23.122 Z0.249 A320.3259 B0.0660 
N1476 X-310.512 Y22.353 Z1.136 A321.0463 B0.0569 
N1477 X-310.512 Y21.777 Z2.267 A323.1394 B0.0526 
N1478 X-310.512 Y21.399 Z3.739 A327.0724 B0.0472 
N1479 X-310.512 Y21.092 Z5.534 A332.6642 B0.0309 
N1480 X-310.512 Y20.702 Z7.615 A339.6696 B0.0089 
N1481 X-310.512 Y20.054 Z9.810 A347.3964 B0.0004 
N1482 X-310.512 Y19.029 Z11.649 A354.0208 B0.0000 
N1483 X-310.512 Y17.720 Z12.851 A358.4732 
N1484 X-310.512 Y16.249 Z13.419 A0.6468 
N1485 X-310.512 Y14.675 Z13.577 A1.2952 
N1486 X-310.512 Y13.006 Z13.582 A1.3553 
N1487 X-310.512 Y11.245 Z13.571 A1.3554 
N1488 X-310.512 Y9.404 Z13.559 
N1489 X-310.512 Y7.501 Z13.548 
N1490 X-310.512 Y5.559 Z13.535 
N1491 X-310.512 Y3.605 Z13.523 
N1492 X-310.512 Y1.670 Z13.511 
N1493 X-310.512 Y-0.215 Z13.500 
N1494 X-310.512 Y-2.023 Z13.488 
N1495 X-310.512 Y-3.727 Z13.478 
N1496 X-310.512 Y-5.306 Z13.468 
N1497 X-310.512 Y-6.743 Z13.459 
N1498 X-310.512 Y-8.030 Z13.451 
N1499 X-310.512 Y-9.162 Z13.445 A1.3566 
N1500 X-310.512 Y-10.143 Z13.450 A1.4039 
N1501 X-310.512 Y-10.979 Z13.508 A1.6691 
N1502 X-310.512 Y-11.686 Z13.683 A2.4314 
N1503 X-310.512 Y-12.286 Z14.050 A4.0099 
N1504 X-310.512 Y-12.815 Z14.646 A6.5820 
N1505 X-310.512 Y-13.319 Z15.454 A10.0942 
N1506 X-310.512 Y-13.843 Z16.435 A14.4191 
N1507 X-310.512 Y-14.434 Z17.546 A19.4187 
N1508 X-310.512 Y-15.118 Z18.717 A24.8564 
N1509 X-310.512 Y-15.888 Z19.857 A30.4008 
N1510 X-310.512 Y-16.708 Z20.892 A35.7356 
N1511 X-310.512 Y-17.537 Z21.784 A40.6599 
N1512 X-310.512 Y-18.346 Z22.532 A45.1163 
N1513 X-310.512 Y-19.122 Z23.156 A49.1477 
N1514 X-310.512 Y-19.869 Z23.680 A52.8393 
N1515 X-310.512 Y-20.593 Z24.126 A56.2826 
N1516 X-310.512 Y-21.305 Z24.510 A59.5572 
N1517 X-310.512 Y-22.013 Z24.842 A62.7270 
N1518 X-310.512 Y-22.729 Z25.132 A65.8558 
N1519 X-310.512 Y-23.469 Z25.385 A69.0232 
N1520 X-310.512 Y-24.265 Z25.610 A72.3701 
N1521 X-310.512 Y-25.186 Z25.813 A76.1928 
N1522 X-310.512 Y-26.259 Z25.973 A80.5904 
N1523 X-310.512 Y-27.319 Z26.044 A84.8973 
N1524 X-310.512 Y-28.297 Z26.024 A88.8525 
N1525 X-310.512 Y-29.241 Z25.927 A92.6878 B0.0000 
N1526 X-310.512 Y-30.179 Z25.752 A96.5390 B0.0001 
N1527 X-310.512 Y-31.121 Z25.491 A100.4721 B0.0003 
N1528 X-310.512 Y-32.062 Z25.136 A104.5079 B0.0007 
N1529 X-310.512 Y-32.982 Z24.680 A108.6068 B0.0016 
N1530 X-310.512 Y-33.842 Z24.129 A112.6510 B0.0031 
N1531 X-310.512 Y-34.585 Z23.505 A116.4343 B0.0053 
N1532 X-310.512 Y-35.164 Z22.838 A119.7646 B0.0082 
N1533 X-310.512 Y-35.564 Z22.153 A122.5712 B0.0118 
N1534 X-310.512 Y-35.791 Z21.457 A124.8775 B0.0153 
N1535 X-310.512 Y-35.853 Z20.752 A126.7233 B0.0179 
N1536 X-310.512 Y-35.756 Z20.041 A128.1210 B0.0192 
N1537 X-310.512 Y-35.501 Z19.328 A129.0711 B0.0201 
N1538 X-310.512 Y-35.095 Z18.609 A129.5928 B0.0219 
N1539 X-310.512 Y-34.565 Z17.870 A129.7871 B0.0255 
N1540 X-310.512 Y-33.954 Z17.080 A129.8665 B0.0302 
N1541 X-310.512 Y-33.294 Z16.224 A129.9661 B0.0349 
N1542 X-310.512 Y-32.591 Z15.311 A130.0825 B0.0395 
N1543 X-310.512 Y-31.852 Z14.354 A130.2067 B0.0439 
N1544 X-310.512 Y-31.086 Z13.367 A130.3386 B0.0478 
N1545 X-310.512 Y-30.307 Z12.362 A130.4856 B0.0510 
N1546 X-310.512 Y-29.542 Z11.337 A130.7429 B0.0511 
N1547 X-310.512 Y-28.831 Z10.278 A131.2952 B0.0426 
N1548 X-310.512 Y-28.172 Z9.202 A132.1149 B0.0242 
N1549 X-310.512 Y-27.522 Z8.160 A132.9475 B0.0016 
N1550 X-310.512 Y-26.848 Z7.190 A133.5713 B-0.0182 
N1551 X-310.512 Y-26.221 Z6.227 A134.3672 B-0.0464 
N1552 X-310.513 Y-25.921 Z4.970 A137.0780 B-0.1463 
N1553 X-310.513 Y-25.911 Z3.336 A142.0176 B-0.3399 
N1554 X-310.515 Y-25.945 Z1.435 A148.3556 B-0.6059 
N1555 X-310.516 Y-25.833 Z-0.610 A155.3972 B-0.9154 
N1556 X-310.517 Y-25.503 Z-2.820 A163.2455 B-1.2265 
N1557 X-310.518 Y-24.812 Z-4.872 A170.6703 B-1.4633 
N1558 X-310.519 Y-23.779 Z-6.469 A176.5846 B-1.6271 
N1559 X-310.519 Y-22.517 Z-7.378 A180.0571 B-1.7174 
N1560 X-310.519 Y-21.126 Z-7.676 A181.2471 B-1.7488 
N1561 X-310.519 Y-19.632 Z-7.716 A181.4540 B-1.7562 
N1562 X-310.519 Y-18.030 Z-7.705 A181.4600 B-1.7587 
N1563 X-310.519 Y-16.325 Z-7.691 B-1.7612 
N1564 X-310.519 Y-14.528 Z-7.677 B-1.7638 
N1565 X-310.519 Y-12.659 Z-7.662 B-1.7665 
N1566 X-310.519 Y-10.741 Z-7.647 A181.4600 B-1.7693 
N1567 X-310.519 Y-8.803 Z-7.631 B-1.7721 
N1568 X-310.520 Y-6.877 Z-7.616 B-1.7749 
N1569 X-310.520 Y-4.995 Z-7.601 B-1.7777 
N1570 X-310.520 Y-3.186 Z-7.586 A181.4600 B-1.7803 
N1571 X-310.520 Y-1.477 Z-7.572 B-1.7828 
N1572 X-310.520 Y0.108 Z-7.560 B-1.7851 
N1573 X-310.520 Y1.553 Z-7.548 B-1.7872 
N1574 X-310.520 Y2.848 Z-7.538 B-1.7891 
N1575 X-310.520 Y3.987 Z-7.529 A181.4600 B-1.7907 
N1576 X-310.520 Y4.974 Z-7.521 A181.4603 B-1.7922 
N1577 X-310.520 Y5.814 Z-7.527 A181.5155 B-1.7950 
N1578 X-310.520 Y6.520 Z-7.628 A181.9589 B-1.8088 
N1579 X-310.520 Y7.115 Z-7.933 A183.2622 B-1.8470 
N1580 X-310.520 Y7.631 Z-8.483 A185.6142 B-1.9138 
N1581 X-310.520 Y8.113 Z-9.262 A188.9695 B-2.0041 
N1582 X-310.521 Y8.607 Z-10.213 A193.1235 B-2.1073 
N1583 X-310.521 Y9.149 Z-11.280 A197.8694 B-2.2125 
N1584 X-310.522 Y9.771 Z-12.412 A203.0477 B-2.3104 
N1585 X-310.522 Y10.482 Z-13.547 A208.4465 B-2.3925 
N1586 X-310.522 Y11.270 Z-14.625 A213.8443 B-2.4534 
N1587 X-310.523 Y12.109 Z-15.604 A219.0603 B-2.4914 
N1588 X-310.523 Y12.970 Z-16.461 A223.9811 B-2.5082 
N1589 X-310.523 Y13.824 Z-17.190 A228.5310 B-2.5070 
N1590 X-310.523 Y14.643 Z-17.790 A232.6456 B-2.4922 
N1591 X-310.522 Y15.405 Z-18.274 A236.3057 B-2.4683 
N1592 X-310.522 Y16.102 Z-18.658 A239.5280 B-2.4389 
N1593 X-310.522 Y16.738 Z-18.963 A242.3856 B-2.4060 
N1594 X-310.522 Y17.340 Z-19.214 A245.0269 B-2.3693 
N1595 X-310.522 Y17.966 Z-19.443 A247.7265 B-2.3238 
N1596 X-310.522 Y18.800 Z-19.710 A251.2792 B-2.2497 
N1597 X-310.521 Y20.107 Z-20.039 A256.7501 B-2.1081 
N1598 X-310.520 Y21.127 Z-20.192 A260.9314 B-1.9752 
N1599 X-310.520 Y22.037 Z-20.255 A264.6288 B-1.8512 
N1600 X-310.519 Y22.973 Z-20.253 A268.4212 B-1.7219 
N1601 X-310.519 Y23.939 Z-20.179 A272.3413 B-1.5847 
N1602 X-310.518 Y24.927 Z-20.023 A276.3879 B-1.4390 
N1603 X-310.517 Y25.915 Z-19.780 A280.4956 B-1.2867 
N1604 X-310.517 Y26.882 Z-19.444 A284.6197 B-1.1301 
N1605 X-310.516 Y27.811 Z-19.016 A288.7263 B-0.9709 
N1606 X-310.515 Y28.675 Z-18.499 A292.7411 B-0.8128 
N1607 X-310.515 Y29.438 Z-17.907 A296.5479 B-0.6612 
N1608 X-310.514 Y30.073 Z-17.259 A300.0475 B-0.5204 
N1609 X-310.514 Y30.562 Z-16.570 A303.1881 B-0.3932 
N1610 X-310.513 Y30.912 Z-15.842 A306.0100 B-0.2784 
N1611 X-310.513 Y31.109 Z-15.091 A308.4598 B-0.1789 
N1612 X-310.512 Y31.133 Z-14.337 A310.4449 B-0.0992 
N1613 X-310.512 Y30.970 Z-13.600 A311.8737 B-0.0428 
N1614 X-310.512 Y30.579 Z-12.925 A312.4893 B-0.0188 
N1615 X-310.512 Y30.027 Z-12.261 A312.5989 B-0.0141 
N1616 X-310.512 Y29.388 Z-11.541 A312.6005 B-0.0134 
N1617 X-310.512 Y28.687 Z-10.751 B-0.0126 
N1618 X-310.512 Y27.930 Z-9.899 B-0.0118 
N1619 X-310.512 Y27.126 Z-8.993 B-0.0109 
N1620 X-310.512 Y26.285 Z-8.047 B-0.0099 
N1621 X-310.512 Y25.420 Z-7.072 B-0.0090 
N1622 X-310.512 Y24.543 Z-6.084 B-0.0080 
N1623 X-310.512 Y23.665 Z-5.095 B-0.0070 
N1624 X-310.512 Y22.798 Z-4.118 B-0.0061 
N1625 X-310.512 Y21.949 Z-3.162 B-0.0051 
N1626 X-310.512 Y21.129 Z-2.229 A312.6265 B-0.0039 
N1627 X-310.512 Y20.420 Z-1.248 A313.1378 B0.0012 
N1628 X-310.512 Y19.985 Z-0.048 A315.1654 B0.0135 
N1629 X-310.512 Y19.887 Z1.518 A319.4770 B0.0269 
N1630 X-310.512 Y19.955 Z3.446 A325.7832 B0.0274 
N1631 X-310.512 Y19.975 Z5.688 A333.6045 B0.0119 
N1632 X-310.512 Y19.762 Z8.198 A342.6739 B0.0012 
N1633 X-310.512 Y19.084 Z10.424 A350.7813 B0.0000 
N1634 X-310.512 Y18.020 Z11.984 A356.5376 
N1635 X-310.512 Y16.740 Z12.812 A359.6559 
N1636 X-310.512 Y15.342 Z13.130 A0.8877 
N1637 X-310.512 Y13.846 Z13.189 A1.1325 
N1638 X-310.512 Y12.250 Z13.187 A1.1410 
N1639 X-310.512 Y10.558 Z13.183 
N1640 X-310.512 Y8.782 Z13.179 
N1641 X-310.512 Y6.941 Z13.174 
N1642 X-310.512 Y5.057 Z13.169 
N1643 X-310.512 Y3.160 Z13.165 
N1644 X-310.512 Y1.280 Z13.160 
N1645 X-310.512 Y-0.554 Z13.156 
N1646 X-310.512 Y-2.311 Z13.151 
N1647 X-310.512 Y-3.966 Z13.147 
N1648 X-310.512 Y-5.498 Z13.143 
N1649 X-310.512 Y-6.891 Z13.140 
N1650 X-310.512 Y-8.136 Z13.137 
N1651 X-310.512 Y-9.230 Z13.135 A1.1433 
N1652 X-310.512 Y-10.176 Z13.146 A1.1990 
N1653 X-310.512 Y-10.981 Z13.209 A1.4734 
N1654 X-310.512 Y-11.659 Z13.388 A2.2371 
N1655 X-310.512 Y-12.233 Z13.760 A3.8257 
N1656 X-310.512 Y-12.740 Z14.367 A6.4302 
N1657 X-310.512 Y-13.224 Z15.183 A9.9638 
N1658 X-310.512 Y-13.728 Z16.157 A14.2386 
N1659 X-310.512 Y-14.291 Z17.244 A19.1096 
N1660 X-310.512 Y-14.944 Z18.392 A24.4116 
N1661 X-310.512 Y-15.684 Z19.524 A29.8622 
N1662 X-310.512 Y-16.480 Z20.561 A35.1481 
N1663 X-310.512 Y-17.289 Z21.462 A40.0459 
N1664 X-310.512 Y-18.079 Z22.220 A44.4793 
N1665 X-310.512 Y-18.839 Z22.853 A48.4847 
N1666 X-310.512 Y-19.568 Z23.387 A52.1461 
N1667 X-310.512 Y-20.276 Z23.843 A55.5572 
N1668 X-310.512 Y-20.972 Z24.239 A58.8041 
N1669 X-310.512 Y-21.669 Z24.586 A61.9577 
N1670 X-310.512 Y-22.376 Z24.892 A65.0831 
N1671 X-310.512 Y-23.110 Z25.164 A68.2557 
N1672 X-310.512 Y-23.893 Z25.406 A71.5773 
N1673 X-310.512 Y-24.768 Z25.622 A75.2290 
N1674 X-310.512 Y-25.834 Z25.812 A79.6221 
N1675 X-310.512 Y-27.148 Z25.938 A84.9786 
N1676 X-310.512 Y-28.367 Z25.934 A89.9241 
N1677 X-310.512 Y-29.373 Z25.831 A94.0182 
N1678 X-310.512 Y-30.297 Z25.655 A97.8220 B0.0000 
N1679 X-310.512 Y-31.192 Z25.403 A101.5715 B0.0001 
N1680 X-310.512 Y-32.069 Z25.072 A105.3430 B0.0004 
N1681 X-310.512 Y-32.922 Z24.654 A109.1438 B0.0011 
N1682 X-310.512 Y-33.730 Z24.149 A112.9325 B0.0023 
N1683 X-310.512 Y-34.462 Z23.564 A116.6158 B0.0042 
N1684 X-310.512 Y-35.083 Z22.917 A120.0673 B0.0066 
N1685 X-310.512 Y-35.570 Z22.221 A123.2113 B0.0092 
N1686 X-310.512 Y-35.912 Z21.491 A126.0139 B0.0112 
N1687 X-310.512 Y-36.096 Z20.739 A128.4238 B0.0115 
N1688 X-310.512 Y-36.102 Z19.988 A130.3407 B0.0096 
N1689 X-310.512 Y-35.911 Z19.266 A131.6329 B0.0066 
N1690 X-310.512 Y-35.524 Z18.578 A132.2809 B0.0044 
N1691 X-310.512 Y-34.988 Z17.889 A132.5010 B0.0039 
N1692 X-310.512 Y-34.352 Z17.157 A132.5393 B0.0044 
N1693 X-310.512 Y-33.649 Z16.363 A132.5399 B0.0053 
N1694 X-310.512 Y-32.892 Z15.508 B0.0063 
N1695 X-310.512 Y-32.089 Z14.602 B0.0074 
N1696 X-310.512 Y-31.251 Z13.657 B0.0085 
N1697 X-310.512 Y-30.391 Z12.686 B0.0096 
N1698 X-310.512 Y-29.521 Z11.703 B0.0107 
N1699 X-310.512 Y-28.651 Z10.722 B0.0119 
N1700 X-310.512 Y-27.794 Z9.754 B0.0130 
N1701 X-310.512 Y-26.956 Z8.809 B0.0141 
N1702 X-310.512 Y-26.143 Z7.891 A132.5400 B0.0152 
N1703 X-310.512 Y-25.397 Z6.965 A132.7692 B0.0081 
N1704 X-310.512 Y-25.001 Z5.750 A134.9275 B-0.0719 
N1705 X-310.513 Y-24.979 Z4.120 A139.6392 B-0.2615 
N1706 X-310.514 Y-25.120 Z2.090 A146.4871 B-0.5584 
N1707 X-310.516 Y-25.168 Z-0.260 A154.8221 B-0.9307 
N1708 X-310.517 Y-24.930 Z-2.864 A164.3323 B-1.2996 
N1709 X-310.519 Y-24.181 Z-5.053 A172.3704 B-1.5536 
N1710 X-310.519 Y-23.062 Z-6.523 A177.8724 B-1.7076 
N1711 X-310.519 Y-21.752 Z-7.156 A180.2839 B-1.7706 
N1712 X-310.520 Y-20.335 Z-7.311 A180.8841 B-1.7860 
N1713 X-310.520 Y-18.819 Z-7.327 A180.9404 B-1.7874 
N1714 X-310.520 Y-17.199 Z-7.329 A180.9404 B-1.7872 
N1715 X-310.520 Y-15.482 Z-7.331 B-1.7870 
N1716 X-310.520 Y-13.682 Z-7.333 B-1.7868 
N1717 X-310.520 Y-11.818 Z-7.335 B-1.7866 
N1718 X-310.520 Y-9.914 Z-7.337 B-1.7864 
N1719 X-310.520 Y-8.001 Z-7.339 B-1.7861 
N1720 X-310.520 Y-6.108 Z-7.341 B-1.7859 
N1721 X-310.520 Y-4.268 Z-7.343 B-1.7857 
N1722 X-310.520 Y-2.509 Z-7.344 B-1.7855 
N1723 X-310.520 Y-0.857 Z-7.346 B-1.7853 
N1724 X-310.520 Y0.668 Z-7.348 B-1.7852 
N1725 X-310.520 Y2.050 Z-7.349 B-1.7850 
N1726 X-310.520 Y3.282 Z-7.350 B-1.7849 
N1727 X-310.520 Y4.361 Z-7.352 B-1.7848 
N1728 X-310.520 Y5.289 Z-7.354 A180.9453 B-1.7848 
N1729 X-310.520 Y6.077 Z-7.389 A181.0865 B-1.7888 
N1730 X-310.520 Y6.737 Z-7.560 A181.8008 B-1.8095 
N1731 X-310.520 Y7.294 Z-7.957 A183.4712 B-1.8577 
N1732 X-310.520 Y7.785 Z-8.592 A186.1752 B-1.9334 
N1733 X-310.521 Y8.257 Z-9.436 A189.8082 B-2.0295 
N1734 X-310.521 Y8.751 Z-10.430 A194.1570 B-2.1349 
N1735 X-310.521 Y9.307 Z-11.527 A199.0567 B-2.2396 
N1736 X-310.522 Y9.950 Z-12.677 A204.3513 B-2.3346 
N1737 X-310.522 Y10.688 Z-13.818 A209.8327 B-2.4121 
N1738 X-310.522 Y11.508 Z-14.899 A215.3196 B-2.4677 
N1739 X-310.523 Y12.398 Z-15.890 A220.7124 B-2.5003 
N1740 X-310.523 Y13.347 Z-16.784 A225.9960 B-2.5105 
N1741 X-310.523 Y14.342 Z-17.571 A231.1404 B-2.4996 
N1742 X-310.522 Y15.364 Z-18.244 A236.1005 B-2.4717 
N1743 G00 X-312.679 Y56.826 Z-46.105 
;RAPORT("TB011430","Spiral Rough Rhombic:105 End")
;trailer : concat=None
; points cnt = 1698
N1745 MSG (" --- GROUPED OF SUBPROGRAM --- ")
N1746 FGROUP()
N1747 TRAFOOF
; PROGRAM NAME: B01143014
; ORDER       : B011430
; OPER. NAME  : Spiral Finish Rhombic:106
; OPER. DESCR.: Spiral Finish rhombic shroud
; OPER. TYPE  : rhombMillFinish
; GEO. OPTION : 2
; MACHINE     : HSTM_500_SIM840D_Py
;             : HSTM500 - HAMUEL: 5-axis milling machine - SIM840D Traori PP_Script
; CONTROL     : SINUMERIK 840D
; created:   2022-10-26 13:19:10.128036
;-------DODATKOWE DANE-------------------
; PROGRAMISTA : Zbigniew Papierowski
; PARTID      : 135T006774P1021_-
;  ae         : 24.0
;  lean_angle : 1.0
;  pln_offset : 0.25
;----------------------------------------
;RAPORT("TB011430","Spiral Finish Rhombic:106")
N10 TRAFOOF
N11 D0
N12 G90 G94
N13 G0 G53 D0 Z550 B0
N14 STOPRE
M9 ; chlodziwo wyl
; --- Spiral Finish Rhombic:106 - Spiral Finish rhombic shroud ---
N16 ;ToolChange : concat=None ,current_tdmid=None, PP.tdmId=941293
N17 TRAFOOF
N18 G0 G53 D0 Z550 B0
N19 STOPRE
N20 MSG(" TLID=941293 D=40.0 R=6.0 Ang=0.0 Len=90.0 ")
N21 S2148 M03
N22 STOPRE
N23 CYCLE832(0.01,1,1)
N24 G0 G53 A1.0000 B-0.0000
N25 TRAORI
N26 G54 D1
N27 D1 
N28 X-310.512 Y40.799 Z61.875 A1.0000 
N29 M348 ; chlodziwo mgla
N30 X-310.512 Y41.671 Z11.883 
N31 G01 X-310.512 Y31.671 Z11.883 F800 
N32 X-310.512 Y26.671 Z11.883 
N33 X-310.512 Y26.405 Z11.883 
N34 X-310.512 Y26.138 Z11.883 
N35 X-310.512 Y25.871 Z11.883 
N36 X-310.512 Y25.605 Z11.883 
N37 X-310.512 Y25.338 Z11.883 
N38 X-310.512 Y25.071 Z11.883 
N39 X-310.512 Y24.805 Z11.883 
N40 X-310.512 Y24.538 Z11.883 
N41 X-310.512 Y24.271 Z11.883 
N42 X-310.512 Y24.005 Z11.883 
N43 X-310.512 Y23.738 Z11.883 
N44 X-310.512 Y23.471 Z11.883 
N45 X-310.512 Y23.205 Z11.883 
N46 X-310.512 Y22.938 Z11.883 
N47 X-310.512 Y22.671 Z11.883 
N48 X-310.512 Y22.405 Z11.883 
N49 X-310.512 Y22.138 Z11.883 
N50 X-310.512 Y21.871 Z11.883 
N51 X-310.512 Y21.605 Z11.883 
N52 X-310.512 Y21.338 Z11.883 
N53 X-310.512 Y21.071 Z11.883 
N54 X-310.512 Y20.805 Z11.883 
N55 X-310.512 Y20.538 Z11.883 
N56 X-310.512 Y20.271 Z11.883 
N57 X-310.512 Y20.005 Z11.883 
N58 X-310.512 Y19.738 Z11.883 
N59 X-310.512 Y19.471 Z11.883 
N60 X-310.512 Y19.205 Z11.883 
N61 X-310.512 Y18.938 Z11.883 
N62 X-310.512 Y18.671 Z11.883 
N63 X-310.512 Y18.405 Z11.883 
N64 X-310.512 Y18.138 Z11.883 
N65 X-310.512 Y17.871 Z11.883 
N66 X-310.512 Y17.605 Z11.883 
N67 X-310.512 Y17.338 Z11.883 
N68 X-310.512 Y17.071 Z11.883 
N69 X-310.512 Y16.805 Z11.883 
N70 X-310.512 Y16.538 Z11.883 
N71 X-310.512 Y16.271 Z11.883 
N72 X-310.512 Y16.005 Z11.883 
N73 X-310.512 Y15.738 Z11.883 
N74 X-310.512 Y15.471 Z11.883 
N75 X-310.512 Y15.205 Z11.883 
N76 X-310.512 Y14.938 Z11.883 
N77 X-310.512 Y14.671 Z11.883 
N78 X-310.512 Y14.405 Z11.883 
N79 X-310.512 Y14.138 Z11.883 
N80 X-310.512 Y13.871 Z11.883 
N81 X-310.512 Y13.605 Z11.883 
N82 X-310.512 Y13.338 Z11.883 
N83 X-310.512 Y13.071 Z11.883 
N84 X-310.512 Y12.805 Z11.883 
N85 X-310.512 Y12.538 Z11.883 
N86 X-310.512 Y12.271 Z11.883 
N87 X-310.512 Y12.005 Z11.883 
N88 X-310.512 Y11.738 Z11.883 
N89 X-310.512 Y11.471 Z11.883 
N90 X-310.512 Y11.205 Z11.883 
N91 X-310.512 Y10.938 Z11.883 
N92 X-310.512 Y10.671 Z11.883 
N93 X-310.512 Y10.405 Z11.883 
N94 X-310.512 Y10.138 Z11.883 
N95 X-310.512 Y9.871 Z11.883 
N96 X-310.512 Y9.605 Z11.883 
N97 X-310.512 Y9.338 Z11.883 
N98 X-310.512 Y9.071 Z11.883 
N99 X-310.512 Y8.805 Z11.883 
N100 X-310.512 Y8.538 Z11.883 
N101 X-310.512 Y8.271 Z11.883 
N102 X-310.512 Y8.005 Z11.883 
N103 X-310.512 Y7.738 Z11.883 
N104 X-310.512 Y7.471 Z11.883 
N105 X-310.512 Y7.205 Z11.883 
N106 X-310.512 Y6.938 Z11.883 
N107 X-310.512 Y6.671 Z11.883 
N108 X-310.512 Y-26.969 Z11.883 
N109 X-310.512 Y-27.236 Z11.883 
N110 X-310.512 Y-27.503 Z11.883 
N111 X-310.512 Y-27.769 Z11.883 
N112 X-310.512 Y-28.036 Z11.883 
N113 X-310.512 Y-28.303 Z11.883 
N114 X-310.512 Y-28.569 Z11.883 
N115 X-310.512 Y-28.836 Z11.883 
N116 X-310.512 Y-29.103 Z11.883 
N117 X-310.512 Y-29.369 Z11.883 
N118 X-310.512 Y-29.636 Z11.883 
N119 X-310.512 Y-29.903 Z11.883 
N120 X-310.512 Y-30.169 Z11.883 
N121 X-310.512 Y-30.436 Z11.883 
N122 X-310.512 Y-30.703 Z11.883 
N123 X-310.512 Y-30.969 Z11.883 
N124 X-310.512 Y-31.236 Z11.883 
N125 X-310.512 Y-31.503 Z11.883 
N126 X-310.512 Y-31.769 Z11.883 
N127 X-310.512 Y-32.036 Z11.883 
N128 X-310.512 Y-32.303 Z11.883 
N129 X-310.512 Y-32.569 Z11.883 
N130 X-310.512 Y-32.836 Z11.883 
N131 X-310.512 Y-33.103 Z11.883 
N132 X-310.512 Y-33.369 Z11.883 
N133 X-310.512 Y-33.636 Z11.883 
N134 X-310.512 Y-33.903 Z11.883 
N135 X-310.512 Y-34.169 Z11.883 
N136 X-310.512 Y-34.436 Z11.883 
N137 X-310.512 Y-34.703 Z11.883 
N138 X-310.512 Y-34.969 Z11.883 
N139 X-310.512 Y-35.236 Z11.883 
N140 X-310.512 Y-35.503 Z11.883 
N141 X-310.512 Y-35.769 Z11.883 
N142 X-310.512 Y-36.036 Z11.883 
N143 X-310.512 Y-36.303 Z11.883 
N144 X-310.512 Y-36.569 Z11.883 
N145 X-310.512 Y-36.836 Z11.883 
N146 X-310.512 Y-37.103 Z11.883 
N147 X-310.512 Y-37.369 Z11.883 
N148 X-310.512 Y-37.636 Z11.883 
N149 X-310.512 Y-37.903 Z11.883 
N150 X-310.512 Y-38.169 Z11.883 
N151 X-310.512 Y-38.436 Z11.883 
N152 X-310.512 Y-38.703 Z11.883 
N153 X-310.512 Y-38.969 Z11.883 
N154 X-310.512 Y-39.236 Z11.883 
N155 X-310.512 Y-39.503 Z11.883 
N156 X-310.512 Y-39.769 Z11.883 
N157 X-310.512 Y-40.036 Z11.883 
N158 X-310.512 Y-40.303 Z11.883 
N159 X-310.512 Y-40.569 Z11.883 
N160 X-310.512 Y-40.836 Z11.883 
N161 X-310.512 Y-41.103 Z11.883 
N162 X-310.512 Y-41.369 Z11.883 
N163 X-310.512 Y-41.636 Z11.883 
N164 X-310.512 Y-41.903 Z11.883 
N165 X-310.512 Y-42.169 Z11.883 
N166 X-310.512 Y-42.436 Z11.883 
N167 X-310.512 Y-42.703 Z11.883 
N168 X-310.512 Y-42.969 Z11.883 
N169 X-310.512 Y-43.236 Z11.883 
N170 X-310.512 Y-43.503 Z11.883 
N171 X-310.512 Y-43.769 Z11.883 
N172 X-310.512 Y-44.036 Z11.883 
N173 X-310.512 Y-44.303 Z11.883 
N174 X-310.512 Y-44.569 Z11.883 
N175 X-310.512 Y-44.836 Z11.883 
N176 X-310.512 Y-45.103 Z11.883 
N177 X-310.512 Y-45.369 Z11.883 
N178 X-310.512 Y-45.636 Z11.883 
N179 X-310.512 Y-45.903 Z11.883 
N180 X-310.512 Y-46.169 Z11.883 
N181 X-310.512 Y-46.436 Z11.883 
N182 X-310.512 Y-46.703 Z11.883 
N183 X-310.512 Y-46.969 Z11.883 
N184 X-310.512 Y-47.144 Z21.881 
N185 G00 X-310.512 Y-48.017 Z71.874 
N186 ; DELTA A > 40.1
N187 TRAFOOF
N188 D1
N189 STOPRE
N190 G00 G54 Z296.000
N191 G01 A133.0000 F10000
N192 TRAORI
N193 G54 D1
N194 STOPRE
N195 TRANS 
N196 G00 X-310.512 Y-88.118 Z-11.209 A133.0000 
N197 X-310.512 Y-51.551 Z22.891 
N198 G01 X-310.512 Y-44.237 Z29.711 F800 
N199 X-310.512 Y-40.891 Z25.995 
N200 X-310.512 Y-40.713 Z25.797 
N201 X-310.512 Y-40.534 Z25.599 
N202 X-310.512 Y-40.356 Z25.401 
N203 X-310.512 Y-40.178 Z25.203 
N204 X-310.512 Y-39.999 Z25.005 
N205 X-310.512 Y-39.821 Z24.806 
N206 X-310.512 Y-39.642 Z24.608 
N207 X-310.512 Y-39.464 Z24.410 
N208 X-310.512 Y-39.285 Z24.212 
N209 X-310.512 Y-39.107 Z24.014 
N210 X-310.512 Y-38.929 Z23.816 
N211 X-310.512 Y-38.750 Z23.617 
N212 X-310.512 Y-38.572 Z23.419 
N213 X-310.512 Y-38.393 Z23.221 
N214 X-310.512 Y-38.215 Z23.023 
N215 X-310.512 Y-38.036 Z22.825 
N216 X-310.512 Y-37.858 Z22.627 
N217 X-310.512 Y-37.680 Z22.428 
N218 X-310.512 Y-37.501 Z22.230 
N219 X-310.512 Y-37.323 Z22.032 
N220 X-310.512 Y-37.144 Z21.834 
N221 X-310.512 Y-36.966 Z21.636 
N222 X-310.512 Y-36.787 Z21.438 
N223 X-310.512 Y-36.609 Z21.239 
N224 X-310.512 Y-36.430 Z21.041 
N225 X-310.512 Y-36.252 Z20.843 
N226 X-310.512 Y-36.074 Z20.645 
N227 X-310.512 Y-35.895 Z20.447 
N228 X-310.512 Y-35.717 Z20.248 
N229 X-310.512 Y-35.538 Z20.050 
N230 X-310.512 Y-35.360 Z19.852 
N231 X-310.512 Y-35.181 Z19.654 
N232 X-310.512 Y-35.003 Z19.456 
N233 X-310.512 Y-34.825 Z19.258 
N234 X-310.512 Y-34.646 Z19.059 
N235 X-310.512 Y-34.468 Z18.861 
N236 X-310.512 Y-34.289 Z18.663 
N237 X-310.512 Y-34.111 Z18.465 
N238 X-310.512 Y-33.932 Z18.267 
N239 X-310.512 Y-33.754 Z18.069 
N240 X-310.512 Y-33.576 Z17.870 
N241 X-310.512 Y-33.397 Z17.672 
N242 X-310.512 Y-33.219 Z17.474 
N243 X-310.512 Y-33.040 Z17.276 
N244 X-310.512 Y-32.862 Z17.078 
N245 X-310.512 Y-32.683 Z16.880 
N246 X-310.512 Y-32.505 Z16.681 
N247 X-310.512 Y-32.326 Z16.483 
N248 X-310.512 Y-32.148 Z16.285 
N249 X-310.512 Y-31.970 Z16.087 
N250 X-310.512 Y-31.791 Z15.889 
N251 X-310.512 Y-31.613 Z15.691 
N252 X-310.512 Y-31.434 Z15.492 
N253 X-310.512 Y-31.256 Z15.294 
N254 X-310.512 Y-31.077 Z15.096 
N255 X-310.512 Y-30.899 Z14.898 
N256 X-310.512 Y-30.721 Z14.700 
N257 X-310.512 Y-30.542 Z14.502 
N258 X-310.512 Y-30.364 Z14.303 
N259 X-310.512 Y-30.185 Z14.105 
N260 X-310.512 Y-30.007 Z13.907 
N261 X-310.512 Y-29.828 Z13.709 
N262 X-310.512 Y-29.650 Z13.511 
N263 X-310.512 Y-29.472 Z13.312 
N264 X-310.512 Y-29.293 Z13.114 
N265 X-310.512 Y-29.115 Z12.916 
N266 X-310.512 Y-28.936 Z12.718 
N267 X-310.512 Y-28.758 Z12.520 
N268 X-310.512 Y-28.579 Z12.322 
N269 X-310.512 Y-28.401 Z12.123 
N270 X-310.512 Y-28.222 Z11.925 
N271 X-310.512 Y-28.044 Z11.727 
N272 X-310.512 Y-27.866 Z11.529 
N273 X-310.512 Y-27.687 Z11.331 
N274 X-310.512 Y-27.509 Z11.133 
N275 X-310.512 Y-12.194 Z-5.876 
N276 X-310.512 Y-12.015 Z-6.075 
N277 X-310.512 Y-11.837 Z-6.273 
N278 X-310.512 Y-11.658 Z-6.471 
N279 X-310.512 Y-11.480 Z-6.669 
N280 X-310.512 Y-11.302 Z-6.867 
N281 X-310.512 Y-11.123 Z-7.065 
N282 X-310.512 Y-10.945 Z-7.264 
N283 X-310.512 Y-10.766 Z-7.462 
N284 X-310.512 Y-10.588 Z-7.660 
N285 X-310.512 Y-10.409 Z-7.858 
N286 X-310.512 Y-10.231 Z-8.056 
N287 X-310.512 Y-10.053 Z-8.255 
N288 X-310.512 Y-9.874 Z-8.453 
N289 X-310.512 Y-9.696 Z-8.651 
N290 X-310.512 Y-9.517 Z-8.849 
N291 X-310.512 Y-9.339 Z-9.047 
N292 X-310.512 Y-9.160 Z-9.245 
N293 X-310.512 Y-8.982 Z-9.444 
N294 X-310.512 Y-8.803 Z-9.642 
N295 X-310.512 Y-8.625 Z-9.840 
N296 X-310.512 Y-8.447 Z-10.038 
N297 X-310.512 Y-8.268 Z-10.236 
N298 X-310.512 Y-8.090 Z-10.434 
N299 X-310.512 Y-7.911 Z-10.633 
N300 X-310.512 Y-7.733 Z-10.831 
N301 X-310.512 Y-7.554 Z-11.029 
N302 X-310.512 Y-7.376 Z-11.227 
N303 X-310.512 Y-7.198 Z-11.425 
N304 X-310.512 Y-7.019 Z-11.623 
N305 X-310.512 Y-6.841 Z-11.822 
N306 X-310.512 Y-6.662 Z-12.020 
N307 X-310.512 Y-6.484 Z-12.218 
N308 X-310.512 Y-6.305 Z-12.416 
N309 X-310.512 Y-6.127 Z-12.614 
N310 X-310.512 Y-5.949 Z-12.812 
N311 X-310.512 Y-5.770 Z-13.011 
N312 X-310.512 Y-5.592 Z-13.209 
N313 X-310.512 Y-5.413 Z-13.407 
N314 X-310.512 Y-5.235 Z-13.605 
N315 X-310.512 Y-5.056 Z-13.803 
N316 X-310.512 Y-4.878 Z-14.001 
N317 X-310.512 Y-4.699 Z-14.200 
N318 X-310.512 Y-4.521 Z-14.398 
N319 X-310.512 Y-4.343 Z-14.596 
N320 X-310.512 Y-4.164 Z-14.794 
N321 X-310.512 Y-3.986 Z-14.992 
N322 X-310.512 Y-3.807 Z-15.191 
N323 X-310.512 Y-3.629 Z-15.389 
N324 X-310.512 Y-3.450 Z-15.587 
N325 X-310.512 Y-3.272 Z-15.785 
N326 X-310.512 Y-3.094 Z-15.983 
N327 X-310.512 Y-2.915 Z-16.181 
N328 X-310.512 Y-2.737 Z-16.380 
N329 X-310.512 Y-2.558 Z-16.578 
N330 X-310.512 Y-2.380 Z-16.776 
N331 X-310.512 Y-2.201 Z-16.974 
N332 X-310.512 Y-2.023 Z-17.172 
N333 X-310.512 Y-1.845 Z-17.370 
N334 X-310.512 Y-1.666 Z-17.569 
N335 X-310.512 Y-1.488 Z-17.767 
N336 X-310.512 Y-1.309 Z-17.965 
N337 X-310.512 Y-1.131 Z-18.163 
N338 X-310.512 Y-0.952 Z-18.361 
N339 X-310.512 Y-0.774 Z-18.559 
N340 X-310.512 Y-0.595 Z-18.758 
N341 X-310.512 Y-0.417 Z-18.956 
N342 X-310.512 Y-0.239 Z-19.154 
N343 X-310.512 Y-0.060 Z-19.352 
N344 X-310.512 Y0.118 Z-19.550 
N345 X-310.512 Y0.297 Z-19.748 
N346 X-310.512 Y0.475 Z-19.947 
N347 X-310.512 Y0.654 Z-20.145 
N348 X-310.512 Y0.832 Z-20.343 
N349 X-310.512 Y1.010 Z-20.541 
N350 X-310.512 Y1.189 Z-20.739 
N351 X-310.512 Y-6.125 Z-27.559 
N352 G00 X-310.512 Y-42.692 Z-61.659 
N353 ; DELTA A > 40.1
N354 TRAFOOF
N355 D1
N356 STOPRE
N357 G00 G54 Z296.000
N358 G01 A180.9711 F10000
N359 TRAORI
N360 G54 D1
N361 STOPRE
N362 TRANS 
N363 G00 X-312.556 Y-35.844 Z-66.060 A180.9711 B-1.9360 
N364 X-310.866 Y-36.691 Z-16.096 
N365 G01 X-310.529 Y-36.860 Z-6.103 F800 
N366 X-310.529 Y-31.860 Z-6.106 
N367 X-310.529 Y-31.593 Z-6.106 
N368 X-310.529 Y-31.327 Z-6.106 
N369 X-310.529 Y-31.060 Z-6.106 
N370 X-310.529 Y-30.793 Z-6.106 
N371 X-310.529 Y-30.527 Z-6.107 
N372 X-310.529 Y-30.260 Z-6.107 
N373 X-310.529 Y-29.993 Z-6.107 
N374 X-310.529 Y-29.727 Z-6.107 
N375 X-310.529 Y-29.460 Z-6.107 
N376 X-310.529 Y-29.193 Z-6.107 
N377 X-310.529 Y-28.927 Z-6.107 
N378 X-310.529 Y-28.660 Z-6.108 
N379 X-310.529 Y-28.393 Z-6.108 
N380 X-310.529 Y-28.127 Z-6.108 
N381 X-310.529 Y-27.860 Z-6.108 
N382 X-310.529 Y-27.593 Z-6.108 
N383 X-310.529 Y-27.327 Z-6.108 
N384 X-310.529 Y-27.060 Z-6.108 
N385 X-310.529 Y-26.793 Z-6.109 
N386 X-310.529 Y-26.527 Z-6.109 
N387 X-310.529 Y-26.260 Z-6.109 
N388 X-310.529 Y-25.993 Z-6.109 
N389 X-310.529 Y-25.727 Z-6.109 
N390 X-310.529 Y-25.460 Z-6.109 
N391 X-310.529 Y-25.193 Z-6.109 
N392 X-310.529 Y-24.927 Z-6.109 
N393 X-310.529 Y-24.660 Z-6.110 
N394 X-310.529 Y-24.393 Z-6.110 
N395 X-310.529 Y-24.127 Z-6.110 
N396 X-310.529 Y-23.860 Z-6.110 
N397 X-310.529 Y-23.593 Z-6.110 
N398 X-310.529 Y-23.327 Z-6.110 
N399 X-310.529 Y-23.060 Z-6.110 
N400 X-310.529 Y-22.793 Z-6.111 
N401 X-310.529 Y-22.527 Z-6.111 
N402 X-310.529 Y-22.260 Z-6.111 
N403 X-310.529 Y-21.993 Z-6.111 
N404 X-310.529 Y-21.727 Z-6.111 
N405 X-310.529 Y-21.460 Z-6.111 
N406 X-310.529 Y-21.193 Z-6.111 
N407 X-310.529 Y-20.927 Z-6.112 
N408 X-310.529 Y-20.660 Z-6.112 
N409 X-310.529 Y-20.393 Z-6.112 
N410 X-310.529 Y-20.127 Z-6.112 
N411 X-310.529 Y-19.860 Z-6.112 
N412 X-310.529 Y-19.593 Z-6.112 
N413 X-310.529 Y-19.327 Z-6.112 
N414 X-310.529 Y-19.060 Z-6.113 
N415 X-310.529 Y-18.793 Z-6.113 
N416 X-310.529 Y-18.527 Z-6.113 
N417 X-310.529 Y-18.260 Z-6.113 
N418 X-310.529 Y-17.993 Z-6.113 
N419 X-310.529 Y-17.727 Z-6.113 
N420 X-310.529 Y-17.460 Z-6.113 
N421 X-310.529 Y-17.193 Z-6.113 
N422 X-310.529 Y-16.927 Z-6.114 
N423 X-310.529 Y-16.660 Z-6.114 
N424 X-310.529 Y-16.393 Z-6.114 
N425 X-310.529 Y-16.127 Z-6.114 
N426 X-310.529 Y-15.860 Z-6.114 
N427 X-310.529 Y-15.593 Z-6.114 
N428 X-310.529 Y-15.327 Z-6.114 
N429 X-310.529 Y-15.060 Z-6.115 
N430 X-310.529 Y-14.793 Z-6.115 
N431 X-310.529 Y-14.527 Z-6.115 
N432 X-310.529 Y-14.260 Z-6.115 
N433 X-310.529 Y-13.993 Z-6.115 
N434 X-310.529 Y-13.727 Z-6.115 
N435 X-310.529 Y-13.460 Z-6.115 
N436 X-310.529 Y-13.193 Z-6.116 
N437 X-310.529 Y-12.927 Z-6.116 
N438 X-310.529 Y-12.660 Z-6.116 
N439 X-310.529 Y-12.393 Z-6.116 
N440 X-310.529 Y-12.127 Z-6.116 
N441 X-310.529 Y-11.860 Z-6.116 
N442 X-310.529 Y21.797 Z-6.134 
N443 X-310.529 Y22.063 Z-6.134 
N444 X-310.529 Y22.330 Z-6.134 
N445 X-310.529 Y22.597 Z-6.134 
N446 X-310.529 Y22.863 Z-6.134 
N447 X-310.529 Y23.130 Z-6.134 
N448 X-310.529 Y23.397 Z-6.134 
N449 X-310.529 Y23.663 Z-6.134 
N450 X-310.529 Y23.930 Z-6.135 
N451 X-310.529 Y24.197 Z-6.135 
N452 X-310.529 Y24.463 Z-6.135 
N453 X-310.529 Y24.730 Z-6.135 
N454 X-310.529 Y24.997 Z-6.135 
N455 X-310.529 Y25.263 Z-6.135 
N456 X-310.529 Y25.530 Z-6.135 
N457 X-310.529 Y25.797 Z-6.136 
N458 X-310.529 Y26.063 Z-6.136 
N459 X-310.529 Y26.330 Z-6.136 
N460 X-310.529 Y26.597 Z-6.136 
N461 X-310.529 Y26.863 Z-6.136 
N462 X-310.529 Y27.130 Z-6.136 
N463 X-310.529 Y27.397 Z-6.136 
N464 X-310.529 Y27.663 Z-6.137 
N465 X-310.529 Y27.930 Z-6.137 
N466 X-310.529 Y28.197 Z-6.137 
N467 X-310.529 Y28.463 Z-6.137 
N468 X-310.529 Y28.730 Z-6.137 
N469 X-310.529 Y28.997 Z-6.137 
N470 X-310.529 Y29.263 Z-6.137 
N471 X-310.529 Y29.530 Z-6.138 
N472 X-310.529 Y29.797 Z-6.138 
N473 X-310.529 Y30.063 Z-6.138 
N474 X-310.529 Y30.330 Z-6.138 
N475 X-310.529 Y30.597 Z-6.138 
N476 X-310.529 Y30.863 Z-6.138 
N477 X-310.529 Y31.130 Z-6.138 
N478 X-310.529 Y31.397 Z-6.138 
N479 X-310.529 Y31.663 Z-6.139 
N480 X-310.529 Y31.930 Z-6.139 
N481 X-310.529 Y32.197 Z-6.139 
N482 X-310.529 Y32.463 Z-6.139 
N483 X-310.529 Y32.730 Z-6.139 
N484 X-310.529 Y32.997 Z-6.139 
N485 X-310.529 Y33.263 Z-6.139 
N486 X-310.529 Y33.530 Z-6.140 
N487 X-310.529 Y33.797 Z-6.140 
N488 X-310.529 Y34.063 Z-6.140 
N489 X-310.529 Y34.330 Z-6.140 
N490 X-310.529 Y34.597 Z-6.140 
N491 X-310.529 Y34.863 Z-6.140 
N492 X-310.529 Y35.130 Z-6.140 
N493 X-310.529 Y35.397 Z-6.141 
N494 X-310.529 Y35.663 Z-6.141 
N495 X-310.529 Y35.930 Z-6.141 
N496 X-310.529 Y36.197 Z-6.141 
N497 X-310.529 Y36.463 Z-6.141 
N498 X-310.529 Y36.730 Z-6.141 
N499 X-310.529 Y36.997 Z-6.141 
N500 X-310.529 Y37.263 Z-6.141 
N501 X-310.529 Y37.530 Z-6.142 
N502 X-310.529 Y37.797 Z-6.142 
N503 X-310.529 Y38.063 Z-6.142 
N504 X-310.529 Y38.330 Z-6.142 
N505 X-310.529 Y38.597 Z-6.142 
N506 X-310.529 Y38.863 Z-6.142 
N507 X-310.529 Y39.130 Z-6.142 
N508 X-310.529 Y39.397 Z-6.143 
N509 X-310.529 Y39.663 Z-6.143 
N510 X-310.529 Y39.930 Z-6.143 
N511 X-310.529 Y40.197 Z-6.143 
N512 X-310.529 Y40.463 Z-6.143 
N513 X-310.529 Y40.730 Z-6.143 
N514 X-310.529 Y40.997 Z-6.143 
N515 X-310.529 Y41.263 Z-6.144 
N516 X-310.529 Y41.530 Z-6.144 
N517 X-310.529 Y41.797 Z-6.144 
N518 X-310.866 Y41.966 Z-16.137 
N519 G00 X-312.556 Y42.813 Z-66.101 
N520 ; DELTA A > 40.1
N521 TRAFOOF
N522 D1
N523 STOPRE
N524 G00 G54 Z296.000
N525 G01 A313.0000 F10000
N526 TRAORI
N527 G54 D1
N528 STOPRE
N529 TRANS 
N530 G00 X-310.512 Y82.946 Z16.958 A313.0000 B-0.0000 
N531 X-310.512 Y46.378 Z-17.142 
N532 G01 X-310.512 Y39.064 Z-23.962 F800 
N533 X-310.512 Y35.719 Z-20.246 
N534 X-310.512 Y35.540 Z-20.048 
N535 X-310.512 Y35.362 Z-19.850 
N536 X-310.512 Y35.183 Z-19.652 
N537 X-310.512 Y35.005 Z-19.454 
N538 X-310.512 Y34.826 Z-19.255 
N539 X-310.512 Y34.648 Z-19.057 
N540 X-310.512 Y34.470 Z-18.859 
N541 X-310.512 Y34.291 Z-18.661 
N542 X-310.512 Y34.113 Z-18.463 
N543 X-310.512 Y33.934 Z-18.265 
N544 X-310.512 Y33.756 Z-18.066 
N545 X-310.512 Y33.577 Z-17.868 
N546 X-310.512 Y33.399 Z-17.670 
N547 X-310.512 Y33.221 Z-17.472 
N548 X-310.512 Y33.042 Z-17.274 
N549 X-310.512 Y32.864 Z-17.076 
N550 X-310.512 Y32.685 Z-16.877 
N551 X-310.512 Y32.507 Z-16.679 
N552 X-310.512 Y32.328 Z-16.481 
N553 X-310.512 Y32.150 Z-16.283 
N554 X-310.512 Y31.972 Z-16.085 
