; PROGRAM NAME: B01143038
; ORDER       : B011430
; OPER. NAME  : Side Milling:142
; OPER. DESCR.: Side Milling/czolo nozki po luku zgr
; OPER. TYPE  : sideMill
; GEO. OPTION : 1
; MACHINE     : HSTM_500_SIM840D_Py
;             : HSTM500 - HAMUEL: 5-axis milling machine - SIM840D Traori PP_Script
; CONTROL     : SINUMERIK 840D
; created:   2022-10-26 13:22:04.491306
;-------DODATKOWE DANE-------------------
; PROGRAMISTA : Zbigniew Papierowski
; PARTID      : 135T006774P1021_-
;  ap         : 4.4
;  ae         : 1.0
;  lean_angle : 0.0
;  fin_offset : -3.5
;----------------------------------------
;RAPORT("TB011430","Side Milling:142")
N10 TRAFOOF
N11 D0
N12 G90 G94
N13 G0 G53 D0 Z550 B0
N14 STOPRE
M9 ; chlodziwo wyl
; --- Side Milling:142 - Side Milling/czolo nozki po luku zgr ---
N16 ;ToolChange : concat=None ,current_tdmid=None, PP.tdmId=957774
N17 TRAFOOF
N18 G0 G53 D0 X-200 Y150 Z550 B0
N19 T="7757774"
;RAPORT("TB011430","ToolChangeStart 7757774")
N20 M6
;RAPORT("TB011430","ToolChangeEnd")
N21 STOPRE
N22 MSG(" TLID=957774 D=10.0 R=0.0 Ang=0.0 Len=129.0 ")
N23 ; (Preloading tool)
N24 T="7757453"
N25 S2864 M03
N26 STOPRE
N27 CYCLE832(0.01,1,1)
N28 G0 G53 A312.0000 B-0.0000
N29 TRAORI
N30 G54 D1
;tol5=0.15
N31 D1 
STOPRE
E_ZDARZ=500001
;ACS_ROUGH_ROOT_FRONT=7757774
STOPRE
;UWAGA : ZMIENIONA TOLERANCJA OSI A i B, ruchy osi A i B beda usuniete : TOL5=0.15
N32 ; DELTA A > 40.1
N33 TRAFOOF
N34 D1
N35 STOPRE
N36 G00 G54 Z257.000
N37 G01 A312.0000 F10000
N38 TRAORI
N39 G54 D1
N40 STOPRE
N41 TRANS 
N42 G00 X-134.974 Y68.440 Z12.166 A312.0000 
N43 M342 ; chlodziwo woda
N44 X-134.974 Y31.282 Z-21.290 
N45 ;FSE_1
N46 G01 G41 X-134.932 Y30.614 Z-20.548 F458
N47 G01 X-134.932 Y30.614 Z-20.548 F458 
N48 X-134.926 Y30.514 Z-20.436 
N49 X-134.920 Y30.413 Z-20.325 
N50 X-134.913 Y30.313 Z-20.214 
N51 X-134.907 Y30.213 Z-20.102 
N52 X-134.901 Y30.112 Z-19.991 
N53 X-134.894 Y30.012 Z-19.880 
N54 X-134.888 Y29.912 Z-19.768 
N55 X-134.882 Y29.812 Z-19.657 
N56 X-134.876 Y29.711 Z-19.545 
N57 X-134.869 Y29.611 Z-19.434 
N58 X-134.863 Y29.511 Z-19.323 
N59 X-134.857 Y29.411 Z-19.211 
N60 X-134.850 Y29.310 Z-19.100 
N61 X-134.844 Y29.210 Z-18.989 
N62 X-134.838 Y29.110 Z-18.877 
N63 X-134.831 Y29.009 Z-18.766 
N64 X-134.825 Y28.909 Z-18.654 
N65 X-134.819 Y28.809 Z-18.543 
N66 X-134.813 Y28.709 Z-18.432 
N67 X-134.806 Y28.608 Z-18.320 
N68 X-134.800 Y28.507 Z-18.208 
N69 X-134.794 Y28.406 Z-18.095 
N70 X-134.787 Y28.304 Z-17.983 
N71 X-134.781 Y28.203 Z-17.870 
N72 X-134.774 Y28.102 Z-17.758 
N73 X-134.768 Y28.000 Z-17.645 
N74 X-134.762 Y27.899 Z-17.533 
N75 X-134.755 Y27.798 Z-17.420 
N76 X-134.749 Y27.697 Z-17.308 
N77 X-134.743 Y27.595 Z-17.195 
N78 X-134.736 Y27.494 Z-17.083 
N79 X-134.730 Y27.393 Z-16.970 
N80 X-134.724 Y27.291 Z-16.858 
N81 X-134.717 Y27.190 Z-16.745 
N82 X-134.711 Y27.089 Z-16.633 
N83 X-134.704 Y26.988 Z-16.520 
N84 X-134.698 Y26.886 Z-16.408 
N85 X-134.692 Y26.785 Z-16.295 
N86 X-134.685 Y26.684 Z-16.183 
N87 X-134.679 Y26.582 Z-16.070 
N88 X-134.673 Y26.481 Z-15.958 
N89 X-134.666 Y26.380 Z-15.845 
N90 X-134.660 Y26.278 Z-15.733 
N91 X-134.654 Y26.177 Z-15.620 
N92 X-134.647 Y26.076 Z-15.508 
N93 X-134.641 Y25.975 Z-15.395 
N94 X-134.635 Y25.873 Z-15.283 
N95 X-134.628 Y25.772 Z-15.170 
N96 X-134.622 Y25.671 Z-15.058 
N97 X-134.615 Y25.569 Z-14.945 
N98 X-134.609 Y25.468 Z-14.833 
N99 X-134.603 Y25.367 Z-14.720 
N100 X-134.596 Y25.266 Z-14.608 
N101 X-134.590 Y25.163 Z-14.494 
N102 X-134.583 Y25.061 Z-14.381 
N103 X-134.577 Y24.959 Z-14.267 
N104 X-134.571 Y24.857 Z-14.154 
N105 X-134.564 Y24.755 Z-14.040 
N106 X-134.558 Y24.652 Z-13.927 
N107 X-134.551 Y24.550 Z-13.813 
N108 X-134.545 Y24.448 Z-13.700 
N109 X-134.539 Y24.346 Z-13.587 
N110 X-134.532 Y24.244 Z-13.473 
N111 X-134.526 Y24.142 Z-13.360 
N112 X-134.519 Y24.039 Z-13.246 
N113 X-134.513 Y23.937 Z-13.133 
N114 X-134.506 Y23.835 Z-13.019 
N115 X-134.500 Y23.733 Z-12.906 
N116 X-134.494 Y23.631 Z-12.792 
N117 X-134.487 Y23.529 Z-12.679 
N118 X-134.481 Y23.426 Z-12.565 
N119 X-134.474 Y23.324 Z-12.452 
N120 X-134.468 Y23.222 Z-12.338 
N121 X-134.462 Y23.120 Z-12.225 
N122 X-134.455 Y23.018 Z-12.111 
N123 X-134.449 Y22.915 Z-11.998 
N124 X-134.442 Y22.813 Z-11.884 
N125 X-134.436 Y22.711 Z-11.771 
N126 X-134.429 Y22.609 Z-11.657 
N127 X-134.423 Y22.507 Z-11.544 
N128 X-134.417 Y22.405 Z-11.430 
N129 X-134.410 Y22.302 Z-11.317 
N130 X-134.404 Y22.200 Z-11.203 
N131 X-134.397 Y22.098 Z-11.090 
N132 X-134.391 Y21.996 Z-10.977 
N133 X-134.385 Y21.894 Z-10.863 
N134 X-134.378 Y21.792 Z-10.750 
N135 X-134.372 Y21.689 Z-10.636 
N136 X-134.365 Y21.587 Z-10.523 
N137 X-134.359 Y21.485 Z-10.409 
N138 X-134.352 Y21.383 Z-10.296 
N139 X-134.346 Y21.281 Z-10.182 
N140 X-134.340 Y21.179 Z-10.069 
N141 X-134.333 Y21.076 Z-9.955 
N142 X-134.327 Y20.974 Z-9.842 
N143 X-134.320 Y20.872 Z-9.728 
N144 X-134.315 Y20.770 Z-9.615 
N145 X-134.310 Y20.668 Z-9.501 
N146 X-134.305 Y20.565 Z-9.388 
N147 X-134.301 Y20.463 Z-9.274 
N148 X-134.296 Y20.361 Z-9.161 
N149 X-134.291 Y20.259 Z-9.047 
N150 X-134.287 Y20.156 Z-8.934 
N151 X-134.282 Y20.054 Z-8.820 
N152 X-134.277 Y19.952 Z-8.707 
N153 X-134.272 Y19.850 Z-8.593 
N154 X-134.268 Y19.748 Z-8.480 
N155 X-134.263 Y19.645 Z-8.366 
N156 X-134.258 Y19.543 Z-8.252 
N157 X-134.253 Y19.441 Z-8.139 
N158 X-134.249 Y19.339 Z-8.025 
N159 X-134.244 Y19.237 Z-7.912 
N160 X-134.239 Y19.134 Z-7.798 
N161 X-134.234 Y19.032 Z-7.685 
N162 X-134.230 Y18.930 Z-7.571 
N163 X-134.225 Y18.828 Z-7.458 
N164 X-134.220 Y18.725 Z-7.344 
N165 X-134.215 Y18.623 Z-7.231 
N166 X-134.211 Y18.521 Z-7.117 
N167 X-134.206 Y18.419 Z-7.004 
N168 X-134.201 Y18.317 Z-6.890 
N169 X-134.196 Y18.214 Z-6.777 
N170 X-134.192 Y18.112 Z-6.663 
N171 X-134.187 Y18.010 Z-6.550 
N172 X-134.182 Y17.908 Z-6.436 
N173 X-134.178 Y17.805 Z-6.323 
N174 X-134.173 Y17.703 Z-6.209 
N175 X-134.168 Y17.601 Z-6.096 
N176 X-134.163 Y17.499 Z-5.982 
N177 X-134.159 Y17.397 Z-5.868 
N178 X-134.154 Y17.294 Z-5.755 
N179 X-134.149 Y17.192 Z-5.641 
N180 X-134.144 Y17.090 Z-5.528 
N181 X-134.140 Y16.988 Z-5.414 
N182 X-134.135 Y16.886 Z-5.301 
N183 X-134.130 Y16.783 Z-5.187 
N184 X-134.125 Y16.681 Z-5.074 
N185 X-134.121 Y16.579 Z-4.960 
N186 X-134.116 Y16.477 Z-4.847 
N187 X-134.111 Y16.374 Z-4.733 
N188 X-134.106 Y16.272 Z-4.620 
N189 X-134.102 Y16.170 Z-4.506 
N190 X-134.097 Y16.068 Z-4.393 
N191 X-134.092 Y15.966 Z-4.279 
N192 X-134.087 Y15.863 Z-4.166 
N193 X-134.083 Y15.761 Z-4.052 
N194 X-134.078 Y15.659 Z-3.939 
N195 X-134.073 Y15.557 Z-3.825 
N196 X-134.068 Y15.454 Z-3.712 
N197 X-134.064 Y15.352 Z-3.598 
N198 X-134.060 Y15.250 Z-3.484 
N199 X-134.056 Y15.148 Z-3.371 
N200 X-134.053 Y15.046 Z-3.257 
N201 X-134.050 Y14.943 Z-3.144 
N202 X-134.047 Y14.841 Z-3.030 
N203 X-134.043 Y14.739 Z-2.917 
N204 X-134.040 Y14.637 Z-2.803 
N205 X-134.037 Y14.534 Z-2.690 
N206 X-134.034 Y14.432 Z-2.576 
N207 X-134.031 Y14.330 Z-2.462 
N208 X-134.027 Y14.228 Z-2.349 
N209 X-134.024 Y14.125 Z-2.235 
N210 X-134.021 Y14.023 Z-2.122 
N211 X-134.018 Y13.921 Z-2.008 
N212 X-134.015 Y13.819 Z-1.895 
N213 X-134.011 Y13.716 Z-1.781 
N214 X-134.008 Y13.614 Z-1.668 
N215 X-134.005 Y13.512 Z-1.554 
N216 X-134.002 Y13.410 Z-1.441 
N217 X-133.998 Y13.307 Z-1.327 
N218 X-133.995 Y13.205 Z-1.213 
N219 X-133.992 Y13.103 Z-1.100 
N220 X-133.989 Y13.001 Z-0.986 
N221 X-133.986 Y12.898 Z-0.873 
N222 X-133.982 Y12.796 Z-0.759 
N223 X-133.979 Y12.694 Z-0.646 
N224 X-133.976 Y12.592 Z-0.532 
N225 X-133.973 Y12.489 Z-0.419 
N226 X-133.969 Y12.387 Z-0.305 
N227 X-133.966 Y12.285 Z-0.191 
N228 X-133.963 Y12.183 Z-0.078 
N229 X-133.960 Y12.080 Z0.036 
N230 X-133.957 Y11.978 Z0.149 
N231 X-133.953 Y11.876 Z0.263 
N232 X-133.950 Y11.774 Z0.376 
N233 X-133.948 Y11.671 Z0.490 
N234 X-133.947 Y11.569 Z0.603 
N235 X-133.945 Y11.467 Z0.717 
N236 X-133.943 Y11.365 Z0.831 
N237 X-133.941 Y11.262 Z0.944 
N238 X-133.939 Y11.160 Z1.058 
N239 X-133.937 Y11.058 Z1.171 
N240 X-133.935 Y10.956 Z1.285 
N241 X-133.933 Y10.853 Z1.398 
N242 X-133.931 Y10.751 Z1.512 
N243 X-133.929 Y10.649 Z1.626 
N244 X-133.927 Y10.547 Z1.739 
N245 X-133.925 Y10.444 Z1.853 
N246 X-133.924 Y10.342 Z1.966 
N247 X-133.922 Y10.240 Z2.080 
N248 X-133.920 Y10.138 Z2.193 
N249 X-133.918 Y10.035 Z2.307 
N250 X-133.916 Y9.933 Z2.421 
N251 X-133.914 Y9.831 Z2.534 
N252 X-133.912 Y9.729 Z2.648 
N253 X-133.910 Y9.626 Z2.761 
N254 X-133.908 Y9.524 Z2.875 
N255 X-133.906 Y9.422 Z2.988 
N256 X-133.904 Y9.320 Z3.102 
N257 X-133.903 Y9.217 Z3.216 
N258 X-133.901 Y9.115 Z3.329 
N259 X-133.899 Y9.013 Z3.443 
N260 X-133.897 Y8.910 Z3.556 
N261 X-133.895 Y8.808 Z3.670 
N262 X-133.893 Y8.706 Z3.783 
N263 X-133.891 Y8.604 Z3.897 
N264 X-133.889 Y8.501 Z4.011 
N265 X-133.887 Y8.399 Z4.124 
N266 X-133.885 Y8.297 Z4.238 
N267 X-133.883 Y8.195 Z4.351 
N268 X-133.882 Y8.092 Z4.465 
N269 X-133.880 Y7.990 Z4.578 
N270 X-133.878 Y7.888 Z4.692 
N271 X-133.876 Y7.786 Z4.806 
N272 X-133.874 Y7.683 Z4.919 
N273 X-133.872 Y7.581 Z5.033 
N274 X-133.871 Y7.479 Z5.146 
N275 X-133.870 Y7.377 Z5.260 
N276 X-133.870 Y7.274 Z5.373 
N277 X-133.869 Y7.172 Z5.487 
N278 X-133.869 Y7.070 Z5.601 
N279 X-133.869 Y6.968 Z5.714 
N280 X-133.868 Y6.865 Z5.828 
N281 X-133.868 Y6.763 Z5.941 
N282 X-133.868 Y6.661 Z6.055 
N283 X-133.867 Y6.558 Z6.168 
N284 X-133.867 Y6.456 Z6.282 
N285 X-133.867 Y6.354 Z6.396 
N286 X-133.866 Y6.252 Z6.509 
N287 X-133.866 Y6.149 Z6.623 
N288 X-133.866 Y6.047 Z6.736 
N289 X-133.865 Y5.945 Z6.850 
N290 X-133.865 Y5.843 Z6.964 
N291 X-133.865 Y5.740 Z7.077 
N292 X-133.864 Y5.638 Z7.191 
N293 X-133.864 Y5.536 Z7.304 
N294 X-133.863 Y5.434 Z7.418 
N295 X-133.863 Y5.331 Z7.531 
N296 X-133.863 Y5.229 Z7.645 
N297 X-133.862 Y5.127 Z7.759 
N298 X-133.862 Y5.024 Z7.872 
N299 X-133.862 Y4.922 Z7.986 
N300 X-133.861 Y4.820 Z8.099 
N301 X-133.861 Y4.718 Z8.213 
N302 X-133.861 Y4.615 Z8.326 
N303 X-133.860 Y4.513 Z8.440 
N304 X-133.860 Y4.411 Z8.554 
N305 X-133.860 Y4.309 Z8.667 
N306 X-133.859 Y4.206 Z8.781 
N307 X-133.859 Y4.104 Z8.894 
N308 X-133.859 Y4.002 Z9.008 
N309 X-133.858 Y3.900 Z9.122 
N310 X-133.858 Y3.797 Z9.235 
N311 X-133.858 Y3.695 Z9.349 
N312 X-133.857 Y3.593 Z9.462 
N313 X-133.857 Y3.490 Z9.576 
N314 X-133.856 Y3.388 Z9.689 
N315 X-133.856 Y3.286 Z9.803 
N316 X-133.856 Y3.184 Z9.917 
N317 X-133.855 Y3.081 Z10.030 
N318 X-133.855 Y2.979 Z10.144 
N319 X-133.855 Y2.877 Z10.257 
N320 X-133.854 Y2.775 Z10.371 
N321 X-133.854 Y2.672 Z10.484 
N322 X-133.854 Y2.570 Z10.598 
N323 X-133.854 Y2.468 Z10.712 
N324 X-133.855 Y2.366 Z10.825 
N325 X-133.857 Y2.263 Z10.939 
N326 X-133.858 Y2.161 Z11.052 
N327 X-133.859 Y2.059 Z11.166 
N328 X-133.860 Y1.957 Z11.279 
N329 X-133.862 Y1.854 Z11.393 
N330 X-133.863 Y1.752 Z11.507 
N331 X-133.864 Y1.650 Z11.620 
N332 X-133.866 Y1.547 Z11.734 
N333 X-133.867 Y1.445 Z11.847 
N334 X-133.868 Y1.343 Z11.961 
N335 X-133.869 Y1.241 Z12.074 
N336 X-133.871 Y1.138 Z12.188 
N337 X-133.872 Y1.036 Z12.302 
N338 X-133.873 Y0.934 Z12.415 
N339 X-133.874 Y0.832 Z12.529 
N340 X-133.876 Y0.729 Z12.642 
N341 X-133.877 Y0.627 Z12.756 
N342 X-133.878 Y0.525 Z12.870 
N343 X-133.879 Y0.423 Z12.983 
N344 X-133.881 Y0.320 Z13.097 
N345 X-133.882 Y0.218 Z13.210 
N346 X-133.883 Y0.116 Z13.324 
N347 X-133.885 Y0.014 Z13.437 
N348 X-133.886 Y-0.089 Z13.551 
N349 X-133.887 Y-0.191 Z13.665 
N350 X-133.888 Y-0.293 Z13.778 
N351 X-133.890 Y-0.396 Z13.892 
N352 X-133.891 Y-0.498 Z14.005 
N353 X-133.892 Y-0.600 Z14.119 
N354 X-133.893 Y-0.702 Z14.232 
N355 X-133.895 Y-0.805 Z14.346 
N356 X-133.896 Y-0.907 Z14.460 
N357 X-133.897 Y-1.009 Z14.573 
N358 X-133.899 Y-1.111 Z14.687 
N359 X-133.900 Y-1.214 Z14.800 
N360 X-133.901 Y-1.316 Z14.914 
N361 X-133.902 Y-1.418 Z15.027 
N362 X-133.904 Y-1.520 Z15.141 
N363 X-133.905 Y-1.623 Z15.255 
N364 X-133.906 Y-1.725 Z15.368 
N365 X-133.907 Y-1.827 Z15.482 
N366 X-133.909 Y-1.929 Z15.595 
N367 X-133.910 Y-2.032 Z15.709 
N368 X-133.911 Y-2.134 Z15.822 
N369 X-133.912 Y-2.235 Z15.935 
N370 X-133.914 Y-2.337 Z16.048 
N371 X-133.915 Y-2.438 Z16.160 
N372 X-133.916 Y-2.540 Z16.273 
N373 X-133.918 Y-2.641 Z16.385 
N374 X-133.919 Y-2.742 Z16.498 
N375 X-133.920 Y-2.844 Z16.611 
N376 X-133.921 Y-2.945 Z16.723 
N377 X-133.923 Y-3.046 Z16.836 
N378 X-133.924 Y-3.148 Z16.948 
N379 X-133.925 Y-3.249 Z17.061 
N380 X-133.926 Y-3.351 Z17.174 
N381 X-133.928 Y-3.452 Z17.286 
N382 X-133.929 Y-3.553 Z17.399 
N383 X-133.930 Y-3.655 Z17.511 
N384 X-133.931 Y-3.756 Z17.624 
N385 X-133.933 Y-3.857 Z17.737 
N386 X-133.934 Y-3.959 Z17.849 
N387 X-133.935 Y-4.060 Z17.962 
N388 X-133.936 Y-4.162 Z18.074 
N389 X-133.938 Y-4.263 Z18.187 
N390 X-133.939 Y-4.364 Z18.300 
N391 X-133.940 Y-4.466 Z18.412 
N392 X-133.941 Y-4.567 Z18.525 
N393 X-133.943 Y-4.668 Z18.637 
N394 X-133.944 Y-4.770 Z18.750 
N395 X-133.945 Y-4.871 Z18.862 
N396 X-133.946 Y-4.973 Z18.975 
N397 X-133.948 Y-5.074 Z19.088 
N398 X-133.949 Y-5.175 Z19.200 
N399 X-133.950 Y-5.277 Z19.313 
N400 X-133.952 Y-5.378 Z19.425 
N401 X-133.953 Y-5.480 Z19.538 
N402 G40 X-133.961 Y-6.149 Z20.281 F458
N403 X-133.961 Y-6.149 Z20.281 
N404 G00 X-133.961 Y31.009 Z53.738 
;RAPORT("TB011430","Side Milling:142 End")
;trailer : concat=None
; points cnt = 356
N406 MSG (" --- GROUPED OF SUBPROGRAM --- ")
N407 FGROUP()
N408 TRAFOOF
; PROGRAM NAME: B01143038
; ORDER       : B011430
; OPER. NAME  : Side Milling:143
; OPER. DESCR.: rough face root outlet FSA
; OPER. TYPE  : sideMill
; GEO. OPTION : 1
; MACHINE     : HSTM_500_SIM840D_Py
;             : HSTM500 - HAMUEL: 5-axis milling machine - SIM840D Traori PP_Script
; CONTROL     : SINUMERIK 840D
; created:   2022-10-26 13:22:09.859349
;-------DODATKOWE DANE-------------------
; PROGRAMISTA : Zbigniew Papierowski
; PARTID      : 135T006774P1021_-
;  ap         : 4.4
;  ae         : 1.0
;  lean_angle : 0.0
;  fin_offset : -3.5
;----------------------------------------
;RAPORT("TB011430","Side Milling:143")
N10 TRAFOOF
N11 D0
N12 G90 G94
N13 G0 G53 D0 Z550 B0
N14 STOPRE
M9 ; chlodziwo wyl
; --- Side Milling:143 - rough face root outlet FSA ---
N16 ;ToolChange : concat=None ,current_tdmid=None, PP.tdmId=957774
N17 TRAFOOF
N18 G0 G53 D0 Z550 B0
N19 STOPRE
N20 MSG(" TLID=957774 D=10.0 R=0.0 Ang=0.0 Len=129.0 ")
N21 S2864 M03
N22 STOPRE
N23 CYCLE832(0.01,1,1)
N24 G0 G53 A132.0000 B0.0000
N25 TRAORI
N26 G54 D2
;tol5=0.15
N27 D2 
STOPRE
E_ZDARZ=500001
;ACS_ROUGH_ROOT_FRONT=7757774
STOPRE
;UWAGA : ZMIENIONA TOLERANCJA OSI A i B, ruchy osi A i B beda usuniete : TOL5=0.15
N28 ; DELTA A > 40.1
N29 TRAFOOF
N30 D2
N31 STOPRE
N32 G00 G54 Z257.000
N33 G01 A132.0000 F10000
N34 TRAORI
N35 G54 D2
N36 STOPRE
N37 TRANS 
N38 G00 X-134.532 Y-68.400 Z-12.206 A132.0000 
N39 M342 ; chlodziwo woda
N40 X-134.532 Y-31.243 Z21.250 
N41 ;FSA_1
N42 G01 G41 X-134.502 Y-30.574 Z20.507 F458
N43 G01 X-134.502 Y-30.574 Z20.507 F458 
N44 X-134.497 Y-30.473 Z20.396 
N45 X-134.493 Y-30.373 Z20.284 
N46 X-134.488 Y-30.273 Z20.173 
N47 X-134.484 Y-30.172 Z20.062 
N48 X-134.479 Y-30.072 Z19.950 
N49 X-134.475 Y-29.972 Z19.839 
N50 X-134.470 Y-29.871 Z19.727 
N51 X-134.466 Y-29.771 Z19.616 
N52 X-134.461 Y-29.671 Z19.505 
N53 X-134.457 Y-29.570 Z19.393 
N54 X-134.452 Y-29.470 Z19.282 
N55 X-134.448 Y-29.370 Z19.170 
N56 X-134.443 Y-29.269 Z19.059 
N57 X-134.439 Y-29.169 Z18.947 
N58 X-134.434 Y-29.069 Z18.836 
N59 X-134.430 Y-28.968 Z18.725 
N60 X-134.425 Y-28.868 Z18.613 
N61 X-134.421 Y-28.768 Z18.502 
N62 X-134.416 Y-28.668 Z18.390 
N63 X-134.412 Y-28.567 Z18.279 
N64 X-134.407 Y-28.466 Z18.166 
N65 X-134.403 Y-28.365 Z18.054 
N66 X-134.398 Y-28.263 Z17.941 
N67 X-134.394 Y-28.162 Z17.829 
N68 X-134.389 Y-28.061 Z17.716 
N69 X-134.384 Y-27.959 Z17.604 
N70 X-134.380 Y-27.858 Z17.491 
N71 X-134.375 Y-27.757 Z17.379 
N72 X-134.371 Y-27.655 Z17.266 
N73 X-134.366 Y-27.554 Z17.153 
N74 X-134.362 Y-27.452 Z17.041 
N75 X-134.357 Y-27.351 Z16.928 
N76 X-134.353 Y-27.250 Z16.816 
N77 X-134.348 Y-27.148 Z16.703 
N78 X-134.343 Y-27.047 Z16.591 
N79 X-134.339 Y-26.946 Z16.478 
N80 X-134.334 Y-26.844 Z16.366 
N81 X-134.330 Y-26.743 Z16.253 
N82 X-134.325 Y-26.642 Z16.141 
N83 X-134.321 Y-26.540 Z16.028 
N84 X-134.316 Y-26.439 Z15.915 
N85 X-134.312 Y-26.338 Z15.803 
N86 X-134.307 Y-26.236 Z15.690 
N87 X-134.302 Y-26.135 Z15.578 
N88 X-134.298 Y-26.034 Z15.465 
N89 X-134.293 Y-25.932 Z15.353 
N90 X-134.289 Y-25.831 Z15.240 
N91 X-134.284 Y-25.730 Z15.128 
N92 X-134.280 Y-25.628 Z15.015 
N93 X-134.275 Y-25.527 Z14.903 
N94 X-134.271 Y-25.426 Z14.790 
N95 X-134.266 Y-25.324 Z14.677 
N96 X-134.261 Y-25.223 Z14.565 
N97 X-134.257 Y-25.121 Z14.451 
N98 X-134.252 Y-25.019 Z14.338 
N99 X-134.248 Y-24.916 Z14.224 
N100 X-134.243 Y-24.814 Z14.111 
N101 X-134.238 Y-24.712 Z13.997 
N102 X-134.234 Y-24.610 Z13.884 
N103 X-134.229 Y-24.508 Z13.770 
N104 X-134.225 Y-24.405 Z13.657 
N105 X-134.220 Y-24.303 Z13.543 
N106 X-134.215 Y-24.201 Z13.430 
N107 X-134.211 Y-24.099 Z13.316 
N108 X-134.206 Y-23.996 Z13.203 
N109 X-134.202 Y-23.894 Z13.089 
N110 X-134.197 Y-23.792 Z12.975 
N111 X-134.192 Y-23.690 Z12.862 
N112 X-134.188 Y-23.588 Z12.748 
N113 X-134.183 Y-23.485 Z12.635 
N114 X-134.179 Y-23.383 Z12.521 
N115 X-134.174 Y-23.281 Z12.408 
N116 X-134.169 Y-23.179 Z12.294 
N117 X-134.165 Y-23.076 Z12.181 
N118 X-134.160 Y-22.974 Z12.067 
N119 X-134.156 Y-22.872 Z11.954 
N120 X-134.151 Y-22.770 Z11.840 
N121 X-134.146 Y-22.668 Z11.727 
N122 X-134.142 Y-22.565 Z11.613 
N123 X-134.137 Y-22.463 Z11.500 
N124 X-134.133 Y-22.361 Z11.386 
N125 X-134.128 Y-22.259 Z11.273 
N126 X-134.124 Y-22.156 Z11.159 
N127 X-134.119 Y-22.054 Z11.045 
N128 X-134.114 Y-21.952 Z10.932 
N129 X-134.110 Y-21.850 Z10.818 
N130 X-134.105 Y-21.748 Z10.705 
N131 X-134.101 Y-21.645 Z10.591 
N132 X-134.096 Y-21.543 Z10.478 
N133 X-134.091 Y-21.441 Z10.364 
N134 X-134.087 Y-21.339 Z10.251 
N135 X-134.082 Y-21.236 Z10.137 
N136 X-134.078 Y-21.134 Z10.024 
N137 X-134.073 Y-21.032 Z9.910 
N138 X-134.068 Y-20.930 Z9.797 
N139 X-134.065 Y-20.828 Z9.683 
N140 X-134.063 Y-20.725 Z9.570 
N141 X-134.060 Y-20.623 Z9.456 
N142 X-134.057 Y-20.521 Z9.342 
N143 X-134.054 Y-20.419 Z9.229 
N144 X-134.051 Y-20.316 Z9.115 
N145 X-134.049 Y-20.214 Z9.002 
N146 X-134.046 Y-20.112 Z8.888 
N147 X-134.043 Y-20.010 Z8.775 
N148 X-134.040 Y-19.907 Z8.661 
N149 X-134.037 Y-19.805 Z8.548 
N150 X-134.035 Y-19.703 Z8.434 
N151 X-134.032 Y-19.601 Z8.320 
N152 X-134.029 Y-19.498 Z8.207 
N153 X-134.026 Y-19.396 Z8.093 
N154 X-134.023 Y-19.294 Z7.980 
N155 X-134.020 Y-19.192 Z7.866 
N156 X-134.018 Y-19.089 Z7.753 
N157 X-134.015 Y-18.987 Z7.639 
N158 X-134.012 Y-18.885 Z7.525 
N159 X-134.009 Y-18.783 Z7.412 
N160 X-134.006 Y-18.680 Z7.298 
N161 X-134.004 Y-18.578 Z7.185 
N162 X-134.001 Y-18.476 Z7.071 
N163 X-133.998 Y-18.374 Z6.958 
N164 X-133.995 Y-18.271 Z6.844 
N165 X-133.992 Y-18.169 Z6.731 
N166 X-133.990 Y-18.067 Z6.617 
N167 X-133.987 Y-17.965 Z6.503 
N168 X-133.984 Y-17.862 Z6.390 
N169 X-133.981 Y-17.760 Z6.276 
N170 X-133.978 Y-17.658 Z6.163 
N171 X-133.976 Y-17.556 Z6.049 
N172 X-133.973 Y-17.453 Z5.936 
N173 X-133.970 Y-17.351 Z5.822 
N174 X-133.967 Y-17.249 Z5.709 
N175 X-133.964 Y-17.146 Z5.595 
N176 X-133.961 Y-17.044 Z5.481 
N177 X-133.959 Y-16.942 Z5.368 
N178 X-133.956 Y-16.840 Z5.254 
N179 X-133.953 Y-16.737 Z5.141 
N180 X-133.950 Y-16.635 Z5.027 
N181 X-133.947 Y-16.533 Z4.914 
N182 X-133.945 Y-16.431 Z4.800 
N183 X-133.942 Y-16.328 Z4.686 
N184 X-133.939 Y-16.226 Z4.573 
N185 X-133.936 Y-16.124 Z4.459 
N186 X-133.933 Y-16.022 Z4.346 
N187 X-133.931 Y-15.919 Z4.232 
N188 X-133.928 Y-15.817 Z4.119 
N189 X-133.925 Y-15.715 Z4.005 
N190 X-133.922 Y-15.613 Z3.892 
N191 X-133.919 Y-15.510 Z3.778 
N192 X-133.916 Y-15.408 Z3.664 
N193 X-133.914 Y-15.306 Z3.551 
N194 X-133.911 Y-15.204 Z3.437 
N195 X-133.908 Y-15.101 Z3.324 
N196 X-133.905 Y-14.999 Z3.210 
N197 X-133.902 Y-14.897 Z3.097 
N198 X-133.900 Y-14.795 Z2.983 
N199 X-133.897 Y-14.692 Z2.869 
N200 X-133.894 Y-14.590 Z2.756 
N201 X-133.893 Y-14.488 Z2.642 
N202 X-133.893 Y-14.386 Z2.529 
N203 X-133.892 Y-14.283 Z2.415 
N204 X-133.891 Y-14.181 Z2.302 
N205 X-133.890 Y-14.079 Z2.188 
N206 X-133.889 Y-13.977 Z2.074 
N207 X-133.888 Y-13.874 Z1.961 
N208 X-133.887 Y-13.772 Z1.847 
N209 X-133.887 Y-13.670 Z1.734 
N210 X-133.886 Y-13.568 Z1.620 
N211 X-133.885 Y-13.465 Z1.507 
N212 X-133.884 Y-13.363 Z1.393 
N213 X-133.883 Y-13.261 Z1.279 
N214 X-133.882 Y-13.159 Z1.166 
N215 X-133.881 Y-13.056 Z1.052 
N216 X-133.881 Y-12.954 Z0.939 
N217 X-133.880 Y-12.852 Z0.825 
N218 X-133.879 Y-12.749 Z0.712 
N219 X-133.878 Y-12.647 Z0.598 
N220 X-133.877 Y-12.545 Z0.484 
N221 X-133.876 Y-12.443 Z0.371 
N222 X-133.875 Y-12.340 Z0.257 
N223 X-133.875 Y-12.238 Z0.144 
N224 X-133.874 Y-12.136 Z0.030 
N225 X-133.873 Y-12.034 Z-0.084 
N226 X-133.872 Y-11.931 Z-0.197 
N227 X-133.871 Y-11.829 Z-0.311 
N228 X-133.870 Y-11.727 Z-0.424 
N229 X-133.869 Y-11.625 Z-0.538 
N230 X-133.869 Y-11.522 Z-0.651 
N231 X-133.868 Y-11.420 Z-0.765 
N232 X-133.867 Y-11.318 Z-0.879 
N233 X-133.866 Y-11.215 Z-0.992 
N234 X-133.865 Y-11.113 Z-1.106 
N235 X-133.864 Y-11.011 Z-1.219 
N236 X-133.863 Y-10.909 Z-1.333 
N237 X-133.863 Y-10.806 Z-1.446 
N238 X-133.862 Y-10.704 Z-1.560 
N239 X-133.861 Y-10.602 Z-1.674 
N240 X-133.860 Y-10.500 Z-1.787 
N241 X-133.859 Y-10.397 Z-1.901 
N242 X-133.858 Y-10.295 Z-2.014 
N243 X-133.857 Y-10.193 Z-2.128 
N244 X-133.857 Y-10.091 Z-2.242 
N245 X-133.856 Y-9.988 Z-2.355 
N246 X-133.855 Y-9.886 Z-2.469 
N247 X-133.854 Y-9.784 Z-2.582 
N248 X-133.853 Y-9.681 Z-2.696 
N249 X-133.852 Y-9.579 Z-2.809 
N250 X-133.851 Y-9.477 Z-2.923 
N251 X-133.851 Y-9.375 Z-3.037 
N252 X-133.850 Y-9.272 Z-3.150 
N253 X-133.851 Y-9.170 Z-3.264 
N254 X-133.852 Y-9.068 Z-3.377 
N255 X-133.853 Y-8.966 Z-3.491 
N256 X-133.854 Y-8.863 Z-3.604 
N257 X-133.855 Y-8.761 Z-3.718 
N258 X-133.856 Y-8.659 Z-3.832 
N259 X-133.857 Y-8.557 Z-3.945 
N260 X-133.858 Y-8.454 Z-4.059 
N261 X-133.859 Y-8.352 Z-4.172 
N262 X-133.860 Y-8.250 Z-4.286 
N263 X-133.860 Y-8.147 Z-4.399 
N264 X-133.861 Y-8.045 Z-4.513 
N265 X-133.862 Y-7.943 Z-4.627 
N266 X-133.863 Y-7.841 Z-4.740 
N267 X-133.864 Y-7.738 Z-4.854 
N268 X-133.865 Y-7.636 Z-4.967 
N269 X-133.866 Y-7.534 Z-5.081 
N270 X-133.867 Y-7.432 Z-5.195 
N271 X-133.868 Y-7.329 Z-5.308 
N272 X-133.869 Y-7.227 Z-5.422 
N273 X-133.870 Y-7.125 Z-5.535 
N274 X-133.870 Y-7.023 Z-5.649 
N275 X-133.871 Y-6.920 Z-5.762 
N276 X-133.872 Y-6.818 Z-5.876 
N277 X-133.873 Y-6.716 Z-5.990 
N278 X-133.874 Y-6.613 Z-6.103 
N279 X-133.875 Y-6.511 Z-6.217 
N280 X-133.876 Y-6.409 Z-6.330 
N281 X-133.877 Y-6.307 Z-6.444 
N282 X-133.878 Y-6.204 Z-6.557 
N283 X-133.879 Y-6.102 Z-6.671 
N284 X-133.880 Y-6.000 Z-6.785 
N285 X-133.880 Y-5.898 Z-6.898 
N286 X-133.881 Y-5.795 Z-7.012 
N287 X-133.882 Y-5.693 Z-7.125 
N288 X-133.883 Y-5.591 Z-7.239 
N289 X-133.884 Y-5.489 Z-7.353 
N290 X-133.885 Y-5.386 Z-7.466 
N291 X-133.886 Y-5.284 Z-7.580 
N292 X-133.887 Y-5.182 Z-7.693 
N293 X-133.888 Y-5.080 Z-7.807 
N294 X-133.889 Y-4.977 Z-7.920 
N295 X-133.890 Y-4.875 Z-8.034 
N296 X-133.891 Y-4.773 Z-8.148 
N297 X-133.891 Y-4.670 Z-8.261 
N298 X-133.892 Y-4.568 Z-8.375 
N299 X-133.893 Y-4.466 Z-8.488 
N300 X-133.894 Y-4.364 Z-8.602 
N301 X-133.895 Y-4.261 Z-8.715 
N302 X-133.896 Y-4.159 Z-8.829 
N303 X-133.897 Y-4.057 Z-8.943 
N304 X-133.900 Y-3.955 Z-9.056 
N305 X-133.903 Y-3.852 Z-9.170 
N306 X-133.906 Y-3.750 Z-9.283 
N307 X-133.909 Y-3.648 Z-9.397 
N308 X-133.912 Y-3.546 Z-9.510 
N309 X-133.914 Y-3.443 Z-9.624 
N310 X-133.917 Y-3.341 Z-9.738 
N311 X-133.920 Y-3.239 Z-9.851 
N312 X-133.923 Y-3.137 Z-9.965 
N313 X-133.926 Y-3.034 Z-10.078 
N314 X-133.929 Y-2.932 Z-10.192 
N315 X-133.932 Y-2.830 Z-10.305 
N316 X-133.934 Y-2.728 Z-10.419 
N317 X-133.937 Y-2.625 Z-10.532 
N318 X-133.940 Y-2.523 Z-10.646 
N319 X-133.943 Y-2.421 Z-10.760 
N320 X-133.946 Y-2.319 Z-10.873 
N321 X-133.949 Y-2.216 Z-10.987 
N322 X-133.951 Y-2.114 Z-11.100 
N323 X-133.954 Y-2.012 Z-11.214 
N324 X-133.957 Y-1.910 Z-11.327 
N325 X-133.960 Y-1.807 Z-11.441 
N326 X-133.963 Y-1.705 Z-11.554 
N327 X-133.966 Y-1.603 Z-11.668 
N328 X-133.969 Y-1.501 Z-11.782 
N329 X-133.971 Y-1.398 Z-11.895 
N330 X-133.974 Y-1.296 Z-12.009 
N331 X-133.977 Y-1.194 Z-12.122 
N332 X-133.980 Y-1.092 Z-12.236 
N333 X-133.983 Y-0.989 Z-12.349 
N334 X-133.986 Y-0.887 Z-12.463 
N335 X-133.988 Y-0.785 Z-12.577 
N336 X-133.991 Y-0.683 Z-12.690 
N337 X-133.994 Y-0.580 Z-12.804 
N338 X-133.997 Y-0.478 Z-12.917 
N339 X-134.000 Y-0.376 Z-13.031 
N340 X-134.003 Y-0.274 Z-13.144 
N341 X-134.005 Y-0.171 Z-13.258 
N342 X-134.008 Y-0.069 Z-13.371 
N343 X-134.011 Y0.033 Z-13.485 
N344 X-134.014 Y0.135 Z-13.599 
N345 X-134.017 Y0.238 Z-13.712 
N346 X-134.020 Y0.340 Z-13.826 
N347 X-134.023 Y0.442 Z-13.939 
N348 X-134.025 Y0.544 Z-14.053 
N349 X-134.028 Y0.647 Z-14.166 
N350 X-134.031 Y0.749 Z-14.280 
N351 X-134.034 Y0.851 Z-14.393 
N352 X-134.037 Y0.953 Z-14.507 
N353 X-134.040 Y1.056 Z-14.621 
N354 X-134.042 Y1.158 Z-14.734 
N355 X-134.045 Y1.260 Z-14.848 
N356 X-134.048 Y1.362 Z-14.961 
N357 X-134.051 Y1.465 Z-15.075 
N358 X-134.054 Y1.567 Z-15.188 
N359 X-134.057 Y1.669 Z-15.302 
N360 X-134.060 Y1.771 Z-15.416 
N361 X-134.062 Y1.874 Z-15.529 
N362 X-134.065 Y1.976 Z-15.643 
N363 X-134.068 Y2.078 Z-15.756 
N364 X-134.071 Y2.180 Z-15.870 
N365 X-134.074 Y2.282 Z-15.982 
N366 X-134.077 Y2.383 Z-16.095 
N367 X-134.079 Y2.484 Z-16.207 
N368 X-134.082 Y2.586 Z-16.320 
N369 X-134.085 Y2.687 Z-16.433 
N370 X-134.088 Y2.789 Z-16.545 
N371 X-134.091 Y2.890 Z-16.658 
N372 X-134.093 Y2.991 Z-16.770 
N373 X-134.096 Y3.093 Z-16.883 
N374 X-134.099 Y3.194 Z-16.996 
N375 X-134.102 Y3.295 Z-17.108 
N376 X-134.105 Y3.397 Z-17.221 
N377 X-134.108 Y3.498 Z-17.333 
N378 X-134.110 Y3.600 Z-17.446 
N379 X-134.113 Y3.701 Z-17.558 
N380 X-134.116 Y3.802 Z-17.671 
N381 X-134.119 Y3.904 Z-17.784 
N382 X-134.122 Y4.005 Z-17.896 
N383 X-134.124 Y4.106 Z-18.009 
N384 X-134.127 Y4.208 Z-18.121 
N385 X-134.130 Y4.309 Z-18.234 
N386 X-134.133 Y4.410 Z-18.346 
N387 X-134.136 Y4.512 Z-18.459 
N388 X-134.139 Y4.613 Z-18.572 
N389 X-134.141 Y4.715 Z-18.684 
N390 X-134.144 Y4.816 Z-18.797 
N391 X-134.147 Y4.917 Z-18.909 
N392 X-134.150 Y5.019 Z-19.022 
N393 X-134.153 Y5.120 Z-19.135 
N394 X-134.156 Y5.221 Z-19.247 
N395 X-134.158 Y5.323 Z-19.360 
N396 X-134.161 Y5.424 Z-19.472 
N397 X-134.164 Y5.525 Z-19.585 
N398 G40 X-134.183 Y6.194 Z-20.328 F458
N399 X-134.183 Y6.194 Z-20.328 
N400 G00 X-134.183 Y-30.963 Z-53.784 
;RAPORT("TB011430","Side Milling:143 End")
;trailer : concat=None
; points cnt = 356
N402 M9 ; chlodziwo wyl.
N403 MSG (" --- KONIEC PODPROGRAMU --- ")
N404 FGROUP()
N405 TRAFOOF
N406 STOPRE
N407 G0 G53 D0 Z550.0 M9 M5
N408 G0 G53 Y150 A0 B0
N409 M17
