; PROGRAM NAME: B01143085
; ORDER       : B011430
; OPER. NAME  : Side Milling:101
; OPER. DESCR.: FEEEND : POMA D1
; OPER. TYPE  : sideMill
; GEO. OPTION : 1
; MACHINE     : HSTM_500_SIM840D_Py
;             : HSTM500 - HAMUEL: 5-axis milling machine - SIM840D Traori PP_Script
; CONTROL     : SINUMERIK 840D
; created:   2022-10-26 13:17:41.202330
;-------DODATKOWE DANE-------------------
; PROGRAMISTA : Zbigniew Papierowski
; PARTID      : 135T006774P1021_-
;  ap         : 5.0
;  ae         : 5.0
;  lean_angle : 0.0
;  fin_offset : 0.0
;----------------------------------------
;RAPORT("TB011430","Side Milling:101")
N10 TRAFOOF
N11 D0
N12 G90 G94
N13 G0 G53 D0 Z550 B0
N14 STOPRE
M9 ; chlodziwo wyl
; --- Side Milling:101 - FEEEND : POMA D1 ---
N16 ;ToolChange : concat=None ,current_tdmid=None, PP.tdmId=940983
N17 TRAFOOF
N18 G0 G53 D0 X-200 Y150 Z550 B0
N19 T="7740983"
;RAPORT("TB011430","ToolChangeStart 7740983")
N20 M6
;RAPORT("TB011430","ToolChangeEnd")
N21 STOPRE
N22 MSG(" TLID=940983 D=10.0 R=0.0 Ang=0.0 Len=116.0 ")
N23 ; (Preloading tool)
N24 T="7740984"
N25 S5411 M03
N26 STOPRE
N27 CYCLE832(0.01,1,1)
N28 G0 G53 A222.0000 B-1.6490
N29 TRAORI
N30 G54 D1
N31 D1 
N32 TRANS  X=R20
N33 ; DELTA A > 40.1
N34 TRAFOOF
N35 D1
N36 STOPRE
N37 G00 G54 Z270.000
N38 G01 A222.0000 F10000
N39 TRAORI
N40 G54 D1
N41 STOPRE
N42 TRANS  X=R20
N43 G00 X-135.520 Y100.277 Z2.211 A222.0000 B-1.6490 
N44 M342 ; chlodziwo woda
N45 X-134.081 Y66.834 Z39.352 
N46 D1 
N47 G01 G41 X-134.081 Y59.403 Z32.661 F670
N48 G01 X-134.081 Y59.403 Z32.661 F670 
N49 X-134.081 Y59.031 Z32.327 
N50 X-134.081 Y58.784 Z32.104 
N51 X-134.081 Y58.536 Z31.880 
N52 X-134.081 Y58.288 Z31.657 
N53 X-134.081 Y58.040 Z31.434 
N54 X-134.081 Y57.793 Z31.211 
N55 X-134.081 Y57.545 Z30.988 
N56 X-134.081 Y57.297 Z30.765 
N57 X-134.081 Y57.050 Z30.542 
N58 X-134.081 Y56.802 Z30.319 
N59 X-134.081 Y56.554 Z30.096 
N60 X-134.081 Y56.306 Z29.873 
N61 X-134.081 Y56.059 Z29.650 
N62 X-134.081 Y55.811 Z29.427 
N63 X-134.081 Y55.563 Z29.204 
N64 X-134.081 Y55.316 Z28.981 
N65 X-134.081 Y55.067 Z28.757 
N66 X-134.081 Y54.818 Z28.533 
N67 X-134.081 Y54.569 Z28.309 
N68 X-134.081 Y54.320 Z28.085 
N69 X-134.081 Y54.071 Z27.861 
N70 X-134.081 Y53.823 Z27.637 
N71 X-134.081 Y53.574 Z27.413 
N72 X-134.081 Y53.325 Z27.189 
N73 X-134.081 Y53.076 Z26.965 
N74 X-134.081 Y52.827 Z26.740 
N75 X-134.081 Y52.579 Z26.516 
N76 X-134.081 Y52.330 Z26.292 
N77 X-134.081 Y52.081 Z26.068 
N78 X-134.081 Y51.832 Z25.844 
N79 X-134.081 Y51.583 Z25.620 
N80 X-134.081 Y51.334 Z25.396 
N81 X-134.081 Y51.086 Z25.172 
N82 X-134.081 Y50.837 Z24.948 
N83 X-134.081 Y50.588 Z24.724 
N84 X-134.081 Y50.339 Z24.500 
N85 X-134.081 Y50.090 Z24.276 
N86 X-134.081 Y49.841 Z24.052 
N87 X-134.081 Y49.593 Z23.828 
N88 X-134.081 Y49.344 Z23.604 
N89 X-134.081 Y49.095 Z23.380 
N90 X-134.081 Y48.846 Z23.156 
N91 X-134.081 Y48.597 Z22.932 
N92 X-134.081 Y48.349 Z22.708 
N93 X-134.081 Y48.100 Z22.484 
N94 X-134.081 Y47.851 Z22.260 
N95 X-134.081 Y47.602 Z22.036 
N96 X-134.081 Y47.353 Z21.812 
N97 X-134.081 Y47.104 Z21.588 
N98 X-134.081 Y46.856 Z21.364 
N99 X-134.081 Y46.607 Z21.139 
N100 X-134.081 Y46.358 Z20.915 
N101 X-134.081 Y46.109 Z20.691 
N102 X-134.081 Y45.860 Z20.467 
N103 X-134.081 Y45.612 Z20.243 
N104 X-134.081 Y45.363 Z20.019 
N105 X-134.081 Y45.114 Z19.795 
N106 X-134.081 Y44.865 Z19.571 
N107 X-134.081 Y44.616 Z19.347 
N108 X-134.081 Y44.367 Z19.123 
N109 X-134.081 Y44.119 Z18.899 
N110 X-134.081 Y43.870 Z18.675 
N111 X-134.081 Y43.621 Z18.451 
N112 X-134.081 Y43.372 Z18.227 
N113 X-134.081 Y43.123 Z18.003 
N114 X-134.081 Y42.874 Z17.779 
N115 X-134.081 Y42.626 Z17.555 
N116 X-134.081 Y42.377 Z17.331 
N117 X-134.081 Y42.128 Z17.107 
N118 X-134.081 Y41.879 Z16.883 
N119 X-134.081 Y41.630 Z16.659 
N120 X-134.081 Y41.382 Z16.435 
N121 X-134.081 Y41.133 Z16.211 
N122 X-134.081 Y40.884 Z15.987 
N123 X-134.081 Y40.635 Z15.763 
N124 X-134.081 Y40.386 Z15.538 
N125 X-134.081 Y40.137 Z15.314 
N126 X-134.081 Y39.889 Z15.090 
N127 X-134.081 Y39.640 Z14.866 
N128 X-134.081 Y39.391 Z14.642 
N129 X-134.081 Y39.142 Z14.418 
N130 X-134.081 Y38.893 Z14.194 
N131 X-134.081 Y38.645 Z13.970 
N132 X-134.081 Y38.396 Z13.746 
N133 X-134.081 Y38.147 Z13.522 
N134 X-134.081 Y37.898 Z13.298 
N135 X-134.081 Y37.649 Z13.074 
N136 X-134.081 Y37.400 Z12.850 
N137 X-134.081 Y37.152 Z12.626 
N138 X-134.081 Y36.903 Z12.402 
N139 X-134.081 Y36.654 Z12.178 
N140 X-134.081 Y36.405 Z11.954 
N141 X-134.081 Y36.156 Z11.730 
N142 X-134.081 Y35.907 Z11.506 
N143 X-134.081 Y35.659 Z11.282 
N144 X-134.081 Y35.410 Z11.058 
N145 X-134.081 Y35.161 Z10.834 
N146 X-134.081 Y34.912 Z10.610 
N147 X-134.081 Y34.663 Z10.386 
N148 X-134.081 Y34.415 Z10.162 
N149 X-134.081 Y34.166 Z9.937 
N150 X-134.081 Y33.917 Z9.713 
N151 X-134.081 Y33.668 Z9.489 
N152 X-134.081 Y33.419 Z9.265 
N153 X-134.081 Y33.170 Z9.041 
N154 X-134.081 Y32.922 Z8.817 
N155 X-134.081 Y32.673 Z8.593 
N156 X-134.081 Y32.424 Z8.369 
N157 X-134.081 Y32.175 Z8.145 
N158 X-134.081 Y31.926 Z7.921 
N159 X-134.081 Y31.678 Z7.697 
N160 X-134.081 Y31.429 Z7.473 
N161 X-134.081 Y31.180 Z7.249 
N162 X-134.081 Y30.931 Z7.025 
N163 X-134.081 Y30.682 Z6.801 
N164 X-134.081 Y30.433 Z6.577 
N165 X-134.081 Y30.185 Z6.353 
N166 X-134.081 Y29.936 Z6.129 
N167 X-134.081 Y29.687 Z5.905 
N168 X-134.081 Y29.438 Z5.681 
N169 X-134.081 Y29.189 Z5.457 
N170 X-134.081 Y28.940 Z5.233 
N171 X-134.081 Y28.692 Z5.009 
N172 X-134.081 Y28.443 Z4.785 
N173 X-134.081 Y28.194 Z4.561 
N174 X-134.081 Y27.945 Z4.336 
N175 X-134.081 Y27.696 Z4.112 
N176 X-134.081 Y27.448 Z3.888 
N177 X-134.081 Y27.199 Z3.664 
N178 X-134.081 Y26.950 Z3.440 
N179 X-134.081 Y26.701 Z3.216 
N180 X-134.081 Y26.452 Z2.992 
N181 X-134.081 Y26.203 Z2.768 
N182 X-134.082 Y25.955 Z2.544 
N183 X-134.096 Y25.706 Z2.321 
N184 X-134.136 Y25.458 Z2.099 
N185 X-134.204 Y25.213 Z1.881 
N186 X-134.297 Y24.972 Z1.668 
N187 X-134.415 Y24.737 Z1.461 
N188 X-134.558 Y24.510 Z1.262 
N189 X-134.724 Y24.291 Z1.071 
N190 X-134.913 Y24.082 Z0.890 
N191 X-135.124 Y23.885 Z0.721 
N192 X-135.354 Y23.700 Z0.563 
N193 X-135.603 Y23.529 Z0.419 
N194 X-135.869 Y23.373 Z0.289 
N195 X-136.151 Y23.233 Z0.174 
N196 X-136.446 Y23.110 Z0.074 
N197 X-136.752 Y23.004 Z-0.009 
N198 X-137.069 Y22.917 Z-0.075 
N199 X-137.392 Y22.848 Z-0.125 
N200 X-137.722 Y22.799 Z-0.156 
N201 X-138.055 Y22.770 Z-0.170 
N202 X-138.390 Y22.759 Z-0.166 
N203 X-138.724 Y22.752 Z-0.159 
N204 X-139.059 Y22.746 Z-0.152 
N205 X-139.394 Y22.739 Z-0.145 
N206 X-139.729 Y22.733 Z-0.138 
N207 X-140.063 Y22.726 Z-0.131 
N208 X-140.398 Y22.720 Z-0.124 
N209 X-140.733 Y22.713 Z-0.117 
N210 X-141.067 Y22.707 Z-0.109 
N211 X-141.402 Y22.701 Z-0.102 
N212 X-141.737 Y22.694 Z-0.095 
N213 X-142.071 Y22.688 Z-0.088 
N214 X-142.406 Y22.681 Z-0.081 
N215 X-142.741 Y22.675 Z-0.074 
N216 X-143.075 Y22.668 Z-0.066 
N217 X-143.410 Y22.662 Z-0.059 
N218 X-143.745 Y22.655 Z-0.052 
N219 X-144.079 Y22.649 Z-0.045 
N220 X-144.414 Y22.643 Z-0.038 
N221 X-144.749 Y22.636 Z-0.031 
N222 X-145.083 Y22.630 Z-0.023 
N223 X-145.418 Y22.623 Z-0.016 
N224 X-145.753 Y22.617 Z-0.009 
N225 X-146.088 Y22.610 Z-0.002 
N226 X-146.422 Y22.604 Z0.005 
N227 X-146.757 Y22.597 Z0.012 
N228 X-147.092 Y22.591 Z0.020 
N229 X-147.426 Y22.585 Z0.027 
N230 X-147.761 Y22.578 Z0.034 
N231 X-148.096 Y22.572 Z0.041 
N232 X-148.430 Y22.565 Z0.048 
N233 X-148.765 Y22.559 Z0.055 
N234 X-149.100 Y22.552 Z0.062 
N235 X-149.434 Y22.546 Z0.070 
N236 X-149.769 Y22.539 Z0.077 
N237 X-150.104 Y22.533 Z0.084 
N238 X-150.438 Y22.526 Z0.091 
N239 X-150.773 Y22.520 Z0.098 
N240 X-151.108 Y22.514 Z0.105 
N241 X-151.442 Y22.507 Z0.113 
N242 X-151.777 Y22.501 Z0.120 
N243 X-152.112 Y22.494 Z0.127 
N244 X-152.447 Y22.488 Z0.134 
N245 X-152.781 Y22.481 Z0.141 
N246 X-153.116 Y22.475 Z0.148 
N247 X-153.451 Y22.468 Z0.156 
N248 X-153.785 Y22.462 Z0.163 
N249 X-154.120 Y22.456 Z0.170 
N250 X-154.455 Y22.449 Z0.177 
N251 X-154.789 Y22.443 Z0.184 
N252 X-155.124 Y22.436 Z0.191 
N253 X-155.459 Y22.430 Z0.199 
N254 X-155.793 Y22.423 Z0.206 
N255 X-156.128 Y22.417 Z0.213 
N256 X-156.463 Y22.410 Z0.220 
N257 X-156.797 Y22.404 Z0.227 
N258 X-157.132 Y22.398 Z0.234 
N259 X-157.467 Y22.391 Z0.241 
N260 X-157.801 Y22.385 Z0.249 
N261 X-158.136 Y22.378 Z0.256 
N262 X-158.471 Y22.372 Z0.263 
N263 X-158.806 Y22.365 Z0.270 
N264 X-159.140 Y22.359 Z0.277 
N265 X-159.475 Y22.352 Z0.284 
N266 X-159.810 Y22.346 Z0.292 
N267 X-160.144 Y22.340 Z0.299 
N268 X-160.479 Y22.333 Z0.306 
N269 X-160.814 Y22.327 Z0.313 
N270 X-161.148 Y22.320 Z0.320 
N271 X-161.483 Y22.314 Z0.327 
N272 X-161.818 Y22.307 Z0.335 
N273 X-162.152 Y22.301 Z0.342 
N274 X-162.487 Y22.294 Z0.349 
N275 X-162.822 Y22.288 Z0.356 
N276 X-163.156 Y22.281 Z0.363 
N277 X-163.491 Y22.275 Z0.370 
N278 X-163.826 Y22.269 Z0.378 
N279 X-164.160 Y22.262 Z0.385 
N280 X-164.495 Y22.256 Z0.392 
N281 X-164.830 Y22.249 Z0.399 
N282 X-165.165 Y22.243 Z0.406 
N283 X-165.499 Y22.236 Z0.413 
N284 X-165.834 Y22.230 Z0.420 
N285 X-166.169 Y22.223 Z0.428 
N286 X-166.503 Y22.217 Z0.435 
N287 X-166.838 Y22.211 Z0.442 
N288 X-167.173 Y22.204 Z0.449 
N289 X-167.507 Y22.198 Z0.456 
N290 X-167.842 Y22.191 Z0.463 
N291 X-168.177 Y22.185 Z0.471 
N292 X-168.511 Y22.178 Z0.478 
N293 X-168.846 Y22.172 Z0.485 
N294 X-169.181 Y22.165 Z0.492 
N295 X-169.515 Y22.159 Z0.499 
N296 X-169.850 Y22.153 Z0.506 
N297 X-170.185 Y22.146 Z0.514 
N298 X-170.519 Y22.140 Z0.521 
N299 X-170.854 Y22.133 Z0.528 
N300 X-171.189 Y22.127 Z0.535 
N301 X-171.524 Y22.120 Z0.542 
N302 X-171.858 Y22.114 Z0.549 
N303 X-172.193 Y22.107 Z0.557 
N304 X-172.528 Y22.101 Z0.564 
N305 X-172.862 Y22.095 Z0.571 
N306 X-173.197 Y22.088 Z0.578 
N307 X-173.532 Y22.082 Z0.585 
N308 X-173.866 Y22.075 Z0.592 
N309 X-174.201 Y22.069 Z0.599 
N310 X-174.536 Y22.062 Z0.607 
N311 X-174.870 Y22.056 Z0.614 
N312 X-175.205 Y22.049 Z0.621 
N313 X-175.540 Y22.043 Z0.628 
N314 X-175.874 Y22.037 Z0.635 
N315 X-176.209 Y22.030 Z0.642 
N316 X-176.544 Y22.024 Z0.650 
N317 X-176.878 Y22.017 Z0.657 
N318 X-177.213 Y22.011 Z0.664 
N319 X-177.548 Y22.004 Z0.671 
N320 X-177.883 Y21.998 Z0.678 
N321 X-178.217 Y21.991 Z0.685 
N322 X-178.552 Y21.985 Z0.693 
N323 X-178.887 Y21.978 Z0.700 
N324 X-179.221 Y21.972 Z0.707 
N325 X-179.556 Y21.966 Z0.714 
N326 X-179.891 Y21.959 Z0.721 
N327 X-180.225 Y21.953 Z0.728 
N328 X-180.560 Y21.946 Z0.736 
N329 X-180.895 Y21.940 Z0.743 
N330 X-181.229 Y21.933 Z0.750 
N331 X-181.564 Y21.936 Z0.765 
N332 X-181.896 Y21.957 Z0.797 
N333 X-182.225 Y21.999 Z0.847 
N334 X-182.547 Y22.059 Z0.914 
N335 X-182.861 Y22.139 Z0.999 
N336 X-183.165 Y22.238 Z1.099 
N337 X-183.456 Y22.354 Z1.215 
N338 X-183.734 Y22.488 Z1.346 
N339 X-183.996 Y22.637 Z1.491 
N340 X-184.240 Y22.802 Z1.649 
N341 X-184.466 Y22.982 Z1.819 
N342 X-184.671 Y23.174 Z2.000 
N343 X-184.855 Y23.379 Z2.192 
N344 X-185.015 Y23.594 Z2.392 
N345 X-185.152 Y23.818 Z2.599 
N346 X-185.264 Y24.050 Z2.812 
N347 X-185.350 Y24.289 Z3.031 
N348 X-185.411 Y24.533 Z3.252 
N349 X-185.445 Y24.779 Z3.476 
N350 X-185.453 Y25.028 Z3.700 
N351 X-185.453 Y25.277 Z3.924 
N352 X-185.453 Y25.526 Z4.148 
N353 X-185.453 Y25.774 Z4.372 
N354 X-185.453 Y26.023 Z4.596 
N355 X-185.453 Y26.272 Z4.820 
N356 X-185.453 Y26.521 Z5.044 
N357 X-185.453 Y26.770 Z5.268 
N358 X-185.453 Y27.019 Z5.492 
N359 X-185.453 Y27.267 Z5.716 
N360 X-185.453 Y27.516 Z5.940 
N361 X-185.453 Y27.765 Z6.164 
N362 X-185.453 Y28.014 Z6.388 
N363 X-185.453 Y28.263 Z6.612 
N364 X-185.453 Y28.511 Z6.836 
N365 X-185.453 Y28.760 Z7.060 
N366 X-185.453 Y29.009 Z7.285 
N367 X-185.453 Y29.258 Z7.509 
N368 X-185.453 Y29.507 Z7.733 
N369 X-185.453 Y29.756 Z7.957 
N370 X-185.453 Y30.004 Z8.181 
N371 X-185.453 Y30.253 Z8.405 
N372 X-185.453 Y30.502 Z8.629 
N373 X-185.453 Y30.751 Z8.853 
N374 X-185.453 Y31.000 Z9.077 
N375 X-185.453 Y31.248 Z9.301 
N376 X-185.453 Y31.497 Z9.525 
N377 X-185.453 Y31.746 Z9.749 
N378 X-185.453 Y31.995 Z9.973 
N379 X-185.453 Y32.244 Z10.197 
N380 X-185.453 Y32.493 Z10.421 
N381 X-185.453 Y32.741 Z10.645 
N382 X-185.453 Y32.990 Z10.869 
N383 X-185.453 Y33.239 Z11.093 
N384 X-185.453 Y33.488 Z11.317 
N385 X-185.453 Y33.737 Z11.541 
N386 X-185.453 Y33.986 Z11.765 
N387 X-185.453 Y34.234 Z11.989 
N388 X-185.453 Y34.483 Z12.213 
N389 X-185.453 Y34.732 Z12.437 
N390 X-185.453 Y34.981 Z12.661 
N391 X-185.453 Y35.230 Z12.886 
N392 X-185.453 Y35.478 Z13.110 
N393 X-185.453 Y35.727 Z13.334 
N394 X-185.453 Y35.976 Z13.558 
N395 X-185.453 Y36.225 Z13.782 
N396 X-185.453 Y36.474 Z14.006 
N397 X-185.453 Y36.723 Z14.230 
N398 X-185.453 Y36.971 Z14.454 
N399 X-185.453 Y37.220 Z14.678 
N400 X-185.453 Y37.469 Z14.902 
N401 X-185.453 Y37.718 Z15.126 
N402 X-185.453 Y37.967 Z15.350 
N403 X-185.453 Y38.216 Z15.574 
N404 X-185.453 Y38.464 Z15.798 
N405 X-185.453 Y38.713 Z16.022 
N406 X-185.453 Y38.962 Z16.246 
N407 X-185.453 Y39.211 Z16.470 
N408 X-185.453 Y39.460 Z16.694 
N409 X-185.453 Y39.708 Z16.918 
N410 X-185.453 Y39.957 Z17.142 
N411 X-185.453 Y40.206 Z17.366 
N412 X-185.453 Y40.454 Z17.589 
N413 X-185.453 Y40.702 Z17.812 
N414 X-185.453 Y40.949 Z18.035 
N415 X-185.453 Y41.197 Z18.259 
N416 X-185.453 Y41.445 Z18.482 
N417 X-185.453 Y41.692 Z18.705 
N418 X-185.453 Y41.940 Z18.928 
N419 X-185.453 Y42.188 Z19.151 
N420 X-185.453 Y42.436 Z19.374 
N421 X-185.453 Y42.683 Z19.597 
N422 X-185.453 Y42.931 Z19.820 
N423 X-185.453 Y43.179 Z20.043 
N424 X-185.453 Y43.426 Z20.266 
N425 X-185.453 Y43.674 Z20.489 
N426 X-185.453 Y43.922 Z20.712 
N427 G40 X-185.453 Y51.353 Z27.403 F670
N428 X-185.453 Y51.353 Z27.403 
N429 G00 X-186.892 Y84.796 Z-9.739 
;RAPORT("TB011430","Side Milling:101 End")
;trailer : concat=None
; points cnt = 380
N431 MSG (" --- GROUPED OF SUBPROGRAM --- ")
N432 FGROUP()
N433 TRAFOOF
; PROGRAM NAME: B01143085
; ORDER       : B011430
; OPER. NAME  : Side Milling:102
; OPER. DESCR.: FSSEND : POMA D2
; OPER. TYPE  : sideMill
; GEO. OPTION : 1
; MACHINE     : HSTM_500_SIM840D_Py
;             : HSTM500 - HAMUEL: 5-axis milling machine - SIM840D Traori PP_Script
; CONTROL     : SINUMERIK 840D
; created:   2022-10-26 13:17:45.153482
;-------DODATKOWE DANE-------------------
; PROGRAMISTA : Zbigniew Papierowski
; PARTID      : 135T006774P1021_-
;  ap         : 5.0
;  ae         : 5.0
;  lean_angle : 0.0
;  fin_offset : 0.0
;----------------------------------------
;RAPORT("TB011430","Side Milling:102")
N10 TRAFOOF
N11 D0
N12 G90 G94
N13 G0 G53 D0 Z550 B0
N14 STOPRE
M9 ; chlodziwo wyl
; --- Side Milling:102 - FSSEND : POMA D2 ---
N16 ;ToolChange : concat=None ,current_tdmid=None, PP.tdmId=940983
N17 TRAFOOF
N18 G0 G53 D0 Z550 B0
N19 STOPRE
N20 MSG(" TLID=940983 D=10.0 R=0.0 Ang=0.0 Len=116.0 ")
N21 S5411 M03
N22 STOPRE
N23 CYCLE832(0.01,1,1)
N24 G0 G53 A222.0000 B-1.6490
N25 TRAORI
N26 G54 D1
N27 D2 
N28 ; DELTA A > 40.1
N29 TRAFOOF
N30 D2
N31 STOPRE
N32 G00 G54 Z270.000
N33 G01 A222.0000 F10000
N34 TRAORI
N35 G54 D2
N36 STOPRE
N37 TRANS 
N38 G00 X-136.420 Y31.087 Z-60.054 A222.0000 B-1.6490 
N39 M342 ; chlodziwo woda
N40 X-134.981 Y-2.356 Z-22.912 
N41 D2 
N42 G01 G41 X-134.981 Y5.076 Z-16.220 F670
N43 G01 X-134.981 Y5.076 Z-16.220 F670 
N44 X-134.981 Y7.305 Z-14.213 
N45 X-134.981 Y11.021 Z-10.867 
N46 X-134.981 Y22.601 Z-0.441 
N47 X-134.981 Y26.316 Z2.905 
N48 G40 X-134.981 Y33.748 Z9.596 F670
N49 X-134.981 Y33.748 Z9.596 
N50 G00 X-136.420 Y67.190 Z-27.546 
;RAPORT("TB011430","Side Milling:102 End")
;trailer : concat=None
; points cnt = 6
N52 MSG (" --- GROUPED OF SUBPROGRAM --- ")
N53 FGROUP()
N54 TRAFOOF
; PROGRAM NAME: B01143085
; ORDER       : B011430
; OPER. NAME  : Side Milling:103
; OPER. DESCR.: DFAZEND 
; OPER. TYPE  : sideMill
; GEO. OPTION : 1
; MACHINE     : HSTM_500_SIM840D_Py
;             : HSTM500 - HAMUEL: 5-axis milling machine - SIM840D Traori PP_Script
; CONTROL     : SINUMERIK 840D
; created:   2022-10-26 13:17:48.291609
;-------DODATKOWE DANE-------------------
; PROGRAMISTA : Zbigniew Papierowski
; PARTID      : 135T006774P1021_-
;  ap         : 5.0
;  ae         : 5.0
;  lean_angle : 0.0
;  fin_offset : 0.0
;----------------------------------------
;RAPORT("TB011430","Side Milling:103")
N10 TRAFOOF
N11 D0
N12 G90 G94
N13 G0 G53 D0 Z550 B0
N14 STOPRE
M9 ; chlodziwo wyl
; --- Side Milling:103 - DFAZEND  ---
N16 ;ToolChange : concat=None ,current_tdmid=None, PP.tdmId=940984
N17 TRAFOOF
N18 G0 G53 D0 X-200 Y150 Z550 B0
N19 T="7740984"
;RAPORT("TB011430","ToolChangeStart 7740984")
N20 M6
;RAPORT("TB011430","ToolChangeEnd")
N21 STOPRE
N22 MSG(" TLID=940984 D=12.0 R=0.0 Ang=0.0 Len=120.0 ")
N23 ; (Preloading tool)
N24 T="7740664"
N25 S5305 M03
N26 STOPRE
N27 CYCLE832(0.01,1,1)
N28 G0 G53 A222.0000 B-1.6490
N29 TRAORI
N30 G54 D1
N31 D1 
N32 TRANS  X=R21
N33 ; DELTA A > 40.1
N34 TRAFOOF
N35 D1
N36 STOPRE
N37 G00 G54 Z266.000
N38 G01 A222.0000 F10000
N39 TRAORI
N40 G54 D1
N41 STOPRE
N42 TRANS  X=R21
N43 G00 X-140.718 Y14.717 Z-74.626 A222.0000 B-1.6490 
N44 M342 ; chlodziwo woda
N45 X-139.279 Y-18.725 Z-37.484 
N46 G01 X-139.279 Y-11.294 Z-30.793 F795 
N47 X-139.279 Y-10.179 Z-29.789 
N48 X-139.279 Y-9.064 Z-28.786 
N49 X-139.279 Y-8.173 Z-27.983 
N50 X-139.279 Y-7.281 Z-27.180 
N51 X-139.279 Y-6.389 Z-26.377 
N52 X-139.279 Y-5.497 Z-25.574 
N53 X-139.279 Y-4.606 Z-24.771 
N54 X-139.279 Y-3.660 Z-23.919 
N55 X-139.279 Y-2.714 Z-23.068 
N56 X-139.279 Y-1.768 Z-22.216 
N57 X-139.279 Y-0.823 Z-21.365 
N58 X-139.279 Y0.123 Z-20.513 
N59 X-139.279 Y1.069 Z-19.662 
N60 X-139.279 Y2.014 Z-18.810 
N61 X-139.279 Y2.960 Z-17.959 
N62 X-139.279 Y3.906 Z-17.107 
N63 X-139.279 Y4.851 Z-16.256 
N64 X-139.279 Y5.797 Z-15.404 
N65 X-139.279 Y6.689 Z-14.602 
N66 X-139.279 Y7.581 Z-13.799 
N67 X-139.279 Y8.472 Z-12.996 
N68 X-139.279 Y9.364 Z-12.193 
N69 X-139.279 Y10.256 Z-11.390 
N70 X-139.567 Y16.944 Z-18.818 F1000 
N71 G00 X-140.718 Y43.699 Z-48.532 
;RAPORT("TB011430","Side Milling:103 End")
;trailer : concat=None
; points cnt = 25
N73 MSG (" --- GROUPED OF SUBPROGRAM --- ")
N74 FGROUP()
N75 TRAFOOF
; PROGRAM NAME: B01143085
; ORDER       : B011430
; OPER. NAME  : Side Milling:104
; OPER. DESCR.: NNTEEND : Lejek D5
; OPER. TYPE  : sideMill
; GEO. OPTION : 1
; MACHINE     : HSTM_500_SIM840D_Py
;             : HSTM500 - HAMUEL: 5-axis milling machine - SIM840D Traori PP_Script
; CONTROL     : SINUMERIK 840D
; created:   2022-10-26 13:17:51.959799
;-------DODATKOWE DANE-------------------
; PROGRAMISTA : Zbigniew Papierowski
; PARTID      : 135T006774P1021_-
;  ap         : 5.0
;  ae         : 5.0
;  lean_angle : 0.0
;  fin_offset : 0.0
;----------------------------------------
;RAPORT("TB011430","Side Milling:104")
N10 TRAFOOF
N11 D0
N12 G90 G94
N13 G0 G53 D0 Z550 B0
N14 STOPRE
M9 ; chlodziwo wyl
; --- Side Milling:104 - NNTEEND : Lejek D5 ---
N16 ;ToolChange : concat=None ,current_tdmid=None, PP.tdmId=940664
N17 TRAFOOF
N18 G0 G53 D0 X-200 Y150 Z550 B0
N19 T="7740664"
;RAPORT("TB011430","ToolChangeStart 7740664")
N20 M6
;RAPORT("TB011430","ToolChangeEnd")
N21 STOPRE
N22 MSG(" TLID=940664 D=6.0 R=0.6 Ang=0.0 Len=100.0 ")
N23 ; (Preloading tool)
N24 T="7740983"
N25 S9018 M03
N26 STOPRE
N27 CYCLE832(0.01,1,1)
N28 G0 G53 A312.0000 B-0.0000
N29 TRAORI
N30 G54 D1
N31 ; DELTA A > 40.1
N32 TRAFOOF
N33 D1
N34 STOPRE
N35 G00 G54 Z286.000
N36 G01 A312.0000 F10000
N37 TRAORI
N38 G54 D1
N39 STOPRE
N40 TRANS 
N41 G00 X-151.789 Y71.505 Z8.015 A312.0000 
N42 M342 ; chlodziwo woda
N43 X-151.789 Y34.348 Z-25.442 
N44 D5 
N45 G01 G41 X-150.521 Y27.711 Z-18.070 F541
N46 G01 X-150.521 Y27.711 Z-18.070 F541 
N47 X-150.141 Y25.719 Z-15.859 
N48 X-149.761 Y23.728 Z-13.648 
N49 X-148.779 Y18.587 Z-7.937 
N50 X-148.398 Y16.595 Z-5.726 
N51 G40 X-148.398 Y16.595 Z-5.726 F541
N52 
N53 G00 X-148.398 Y53.753 Z27.731 
;RAPORT("TB011430","Side Milling:104 End")
;trailer : concat=None
; points cnt = 6
N55 MSG (" --- GROUPED OF SUBPROGRAM --- ")
N56 FGROUP()
N57 TRAFOOF
; PROGRAM NAME: B01143085
; ORDER       : B011430
; OPER. NAME  : Side Milling:105
; OPER. DESCR.: NNTEEND : Lejek D6
; OPER. TYPE  : sideMill
; GEO. OPTION : 1
; MACHINE     : HSTM_500_SIM840D_Py
;             : HSTM500 - HAMUEL: 5-axis milling machine - SIM840D Traori PP_Script
; CONTROL     : SINUMERIK 840D
; created:   2022-10-26 13:17:55.337465
;-------DODATKOWE DANE-------------------
; PROGRAMISTA : Zbigniew Papierowski
; PARTID      : 135T006774P1021_-
;  ap         : 5.0
;  ae         : 5.0
;  lean_angle : 0.0
;  fin_offset : 0.0
;----------------------------------------
;RAPORT("TB011430","Side Milling:105")
N10 TRAFOOF
N11 D0
N12 G90 G94
N13 G0 G53 D0 Z550 B0
N14 STOPRE
M9 ; chlodziwo wyl
; --- Side Milling:105 - NNTEEND : Lejek D6 ---
N16 ;ToolChange : concat=None ,current_tdmid=None, PP.tdmId=940664
N17 TRAFOOF
N18 G0 G53 D0 Z550 B0
N19 STOPRE
N20 MSG(" TLID=940664 D=6.0 R=0.6 Ang=0.0 Len=100.0 ")
N21 S9018 M03
N22 STOPRE
N23 CYCLE832(0.01,1,1)
N24 G0 G53 A312.0000 B-0.0000
N25 TRAORI
N26 G54 D1
N27 ; DELTA A > 40.1
N28 TRAFOOF
N29 D1
N30 STOPRE
N31 G00 G54 Z286.000
N32 G01 A312.0000 F10000
N33 TRAORI
N34 G54 D1
N35 STOPRE
N36 TRANS 
N37 G00 X-146.237 Y71.699 Z7.800 A312.0000 
N38 M342 ; chlodziwo woda
N39 X-146.237 Y34.541 Z-25.657 
N40 D6 
N41 G01 G42 X-146.919 Y27.866 Z-18.243 F541
N42 G01 X-146.919 Y27.866 Z-18.243 F541 
N43 X-146.987 Y27.198 Z-17.501 
N44 X-147.055 Y26.530 Z-16.760 
N45 X-147.124 Y25.863 Z-16.018 
N46 X-147.192 Y25.195 Z-15.277 
N47 X-147.260 Y24.528 Z-14.536 
N48 X-147.328 Y23.860 Z-13.794 
N49 X-147.388 Y23.276 Z-13.145 
N50 X-147.447 Y22.692 Z-12.496 
N51 X-147.507 Y22.107 Z-11.848 
N52 X-147.567 Y21.523 Z-11.199 
N53 X-147.626 Y20.939 Z-10.550 
N54 X-147.686 Y20.355 Z-9.901 
N55 X-147.746 Y19.770 Z-9.252 
N56 X-147.805 Y19.186 Z-8.603 
N57 X-147.865 Y18.602 Z-7.954 
N58 X-147.933 Y17.934 Z-7.213 
N59 X-148.001 Y17.267 Z-6.472 
N60 X-148.070 Y16.599 Z-5.730 
N61 G40 X-148.070 Y16.599 Z-5.730 F541
N62 
N63 G00 X-148.070 Y53.756 Z27.726 
;RAPORT("TB011430","Side Milling:105 End")
;trailer : concat=None
; points cnt = 20
N65 M9 ; chlodziwo wyl.
N66 MSG (" --- KONIEC PODPROGRAMU --- ")
N67 FGROUP()
N68 TRAFOOF
N69 STOPRE
N70 G0 G53 D0 Z550.0 M9 M5
N71 G0 G53 Y150 A0 B0
N72 M17
