; PROGRAM NAME: B01143037
; ORDER       : B011430
; OPER. NAME  : Side Milling:134
; OPER. DESCR.: Side Milling/rowek wyk
; OPER. TYPE  : sideMill
; GEO. OPTION : 3
; MACHINE     : HSTM_500_SIM840D_Py
;             : HSTM500 - HAMUEL: 5-axis milling machine - SIM840D Traori PP_Script
; CONTROL     : SINUMERIK 840D
; created:   2022-10-26 13:20:52.167037
;-------DODATKOWE DANE-------------------
; PROGRAMISTA : Zbigniew Papierowski
; PARTID      : 135T006774P1021_-
;  ap         : 5.0
;  ae         : 5.0
;  lean_angle : 0.02
;  fin_offset : 0.0
;----------------------------------------
;RAPORT("TB011430","Side Milling:134")
N10 TRAFOOF
N11 D0
N12 G90 G94
N13 G0 G53 D0 Z550 B0
N14 STOPRE
M9 ; chlodziwo wyl
; --- Side Milling:134 - Side Milling/rowek wyk ---
N16 ;ToolChange : concat=None ,current_tdmid=None, PP.tdmId=940664
N17 TRAFOOF
N18 G0 G53 D0 X-200 Y150 Z550 B0
N19 T="7740664"
;RAPORT("TB011430","ToolChangeStart 7740664")
N20 M6
;RAPORT("TB011430","ToolChangeEnd")
N21 STOPRE
N22 MSG(" TLID=940664 D=6.0 R=0.6 Ang=0.0 Len=100.0 ")
N23 ; (Preloading tool)
N24 T="7740783"
N25 S9018 M03
N26 STOPRE
N27 CYCLE832(0.01,1,1)
N28 G0 G53 A311.9800 B0.0001
N29 TRAORI
N30 G54 D1
;tol5=0.03
STOPRE
E_ZDARZ=300010
;ACS_FINISH_SLOT=7740664
STOPRE
;UWAGA : ZMIENIONA TOLERANCJA OSI A i B, ruchy osi A i B beda usuniete : TOL5=0.03
N31 ; DELTA A > 40.1
N32 TRAFOOF
N33 D1
N34 STOPRE
N35 G00 G54 Z286.000
N36 G01 A311.9800 F10000
N37 TRAORI
N38 G54 D1
N39 STOPRE
N40 TRANS 
N41 G00 X-147.921 Y27.355 Z57.049 A311.9800 
N42 M342 ; chlodziwo woda
N43 X-147.921 Y-9.814 Z23.606 
N44 ;rowek od strony mocowania
N45 D2 
N46 G01 G41 X-147.866 Y-3.122 Z16.174 F541
N47 G01 X-147.866 Y-3.122 Z16.174 F541 
N48 X-147.864 Y-2.940 Z15.972 
N49 X-147.863 Y-2.758 Z15.769 
N50 X-147.861 Y-2.575 Z15.566 
N51 X-147.860 Y-2.393 Z15.364 
N52 X-147.858 Y-2.210 Z15.161 
N53 X-147.857 Y-2.028 Z14.958 
N54 X-147.855 Y-1.845 Z14.756 
N55 X-147.854 Y-1.663 Z14.553 
N56 X-147.852 Y-1.480 Z14.350 
N57 X-147.851 Y-1.298 Z14.148 
N58 X-147.849 Y-1.115 Z13.945 
N59 X-147.847 Y-0.933 Z13.742 
N60 X-147.846 Y-0.750 Z13.540 
N61 X-147.844 Y-0.568 Z13.337 
N62 X-147.843 Y-0.385 Z13.134 
N63 X-147.841 Y-0.203 Z12.932 
N64 X-147.840 Y-0.020 Z12.729 
N65 X-147.838 Y0.162 Z12.526 
N66 X-147.837 Y0.345 Z12.323 
N67 X-147.835 Y0.527 Z12.121 
N68 X-147.834 Y0.710 Z11.918 
N69 X-147.832 Y0.892 Z11.715 
N70 X-147.831 Y1.074 Z11.514 
N71 X-147.829 Y1.255 Z11.313 
N72 X-147.828 Y1.436 Z11.111 
N73 X-147.827 Y1.617 Z10.910 
N74 X-147.825 Y1.799 Z10.709 
N75 X-147.824 Y1.980 Z10.507 
N76 X-147.824 Y2.161 Z10.306 
N77 X-147.823 Y2.343 Z10.105 
N78 X-147.822 Y2.524 Z9.903 
N79 X-147.821 Y2.705 Z9.702 
N80 X-147.821 Y2.886 Z9.501 
N81 X-147.821 Y3.068 Z9.299 
N82 X-147.820 Y3.249 Z9.098 
N83 X-147.820 Y3.430 Z8.897 
N84 X-147.820 Y3.611 Z8.695 
N85 X-147.820 Y3.793 Z8.494 
N86 X-147.820 Y3.974 Z8.293 
N87 X-147.821 Y4.155 Z8.091 
N88 X-147.821 Y4.337 Z7.890 
N89 X-147.821 Y4.518 Z7.689 
N90 X-147.822 Y4.699 Z7.487 
N91 X-147.823 Y4.880 Z7.286 
N92 X-147.824 Y5.062 Z7.085 
N93 X-147.825 Y5.243 Z6.883 
N94 X-147.826 Y5.424 Z6.682 
N95 X-147.827 Y5.606 Z6.481 
N96 X-147.828 Y5.787 Z6.279 
N97 X-147.829 Y5.968 Z6.078 
N98 X-147.831 Y6.149 Z5.877 
N99 X-147.833 Y6.331 Z5.675 
N100 X-147.834 Y6.512 Z5.474 
N101 X-147.836 Y6.693 Z5.273 
N102 X-147.838 Y6.875 Z5.071 
N103 X-147.840 Y7.056 Z4.870 
N104 X-147.842 Y7.237 Z4.669 
N105 X-147.845 Y7.418 Z4.467 
N106 X-147.847 Y7.600 Z4.266 
N107 X-147.849 Y7.781 Z4.065 
N108 X-147.852 Y7.962 Z3.863 
N109 X-147.855 Y8.144 Z3.662 
N110 X-147.858 Y8.325 Z3.461 
N111 X-147.861 Y8.506 Z3.259 
N112 X-147.864 Y8.687 Z3.058 
N113 X-147.867 Y8.869 Z2.857 
N114 X-147.870 Y9.050 Z2.655 
N115 X-147.873 Y9.231 Z2.454 
N116 X-147.877 Y9.412 Z2.253 
N117 X-147.880 Y9.594 Z2.052 
N118 X-147.884 Y9.775 Z1.850 
N119 X-147.888 Y9.956 Z1.649 
N120 X-147.892 Y10.138 Z1.448 
N121 X-147.896 Y10.319 Z1.246 
N122 X-147.900 Y10.500 Z1.045 
N123 X-147.904 Y10.681 Z0.844 
N124 X-147.909 Y10.863 Z0.642 
N125 X-147.913 Y11.044 Z0.441 
N126 X-147.918 Y11.225 Z0.240 
N127 X-147.922 Y11.406 Z0.038 
N128 X-147.927 Y11.588 Z-0.163 
N129 X-147.932 Y11.769 Z-0.364 
N130 X-147.937 Y11.950 Z-0.566 
N131 X-147.942 Y12.131 Z-0.767 
N132 X-147.948 Y12.313 Z-0.968 
N133 X-147.953 Y12.494 Z-1.169 
N134 X-147.958 Y12.675 Z-1.371 
N135 X-147.964 Y12.856 Z-1.572 
N136 X-147.970 Y13.038 Z-1.773 
N137 X-147.976 Y13.219 Z-1.975 
N138 X-147.981 Y13.400 Z-2.176 
N139 X-147.987 Y13.581 Z-2.377 
N140 X-147.994 Y13.763 Z-2.578 
N141 X-148.000 Y13.944 Z-2.780 
N142 X-148.006 Y14.125 Z-2.981 
N143 X-148.013 Y14.306 Z-3.182 
N144 X-148.019 Y14.487 Z-3.384 
N145 X-148.026 Y14.669 Z-3.585 
N146 X-148.033 Y14.850 Z-3.786 
N147 X-148.040 Y15.031 Z-3.987 
N148 X-148.047 Y15.212 Z-4.189 
N149 X-148.054 Y15.394 Z-4.390 
N150 X-148.061 Y15.575 Z-4.591 
N151 X-148.068 Y15.756 Z-4.792 
N152 X-148.076 Y15.937 Z-4.994 
N153 X-148.083 Y16.118 Z-5.195 
N154 X-148.091 Y16.300 Z-5.396 
N155 X-148.099 Y16.481 Z-5.597 
N156 X-148.107 Y16.662 Z-5.799 
N157 X-148.115 Y16.843 Z-6.000 
N158 X-148.123 Y17.025 Z-6.201 
N159 X-148.131 Y17.206 Z-6.402 
N160 X-148.139 Y17.387 Z-6.604 
N161 X-148.148 Y17.568 Z-6.805 
N162 X-148.156 Y17.749 Z-7.006 
N163 X-148.165 Y17.930 Z-7.207 
N164 X-148.174 Y18.112 Z-7.409 
N165 X-148.183 Y18.293 Z-7.610 
N166 X-148.192 Y18.474 Z-7.811 
N167 X-148.201 Y18.655 Z-8.012 
N168 X-148.210 Y18.836 Z-8.214 
N169 X-148.219 Y19.018 Z-8.415 
N170 X-148.229 Y19.199 Z-8.616 
N171 X-148.238 Y19.380 Z-8.817 
N172 X-148.248 Y19.561 Z-9.018 
N173 X-148.258 Y19.742 Z-9.220 
N174 X-148.268 Y19.923 Z-9.421 
N175 X-148.278 Y20.105 Z-9.622 
N176 X-148.288 Y20.286 Z-9.823 
N177 X-148.298 Y20.467 Z-10.024 
N178 X-148.308 Y20.648 Z-10.226 
N179 X-148.319 Y20.829 Z-10.427 
N180 X-148.329 Y21.010 Z-10.628 
N181 X-148.340 Y21.192 Z-10.829 
N182 X-148.351 Y21.373 Z-11.030 
N183 X-148.362 Y21.554 Z-11.231 
N184 X-148.373 Y21.735 Z-11.433 
N185 X-148.384 Y21.916 Z-11.634 
N186 X-148.395 Y22.097 Z-11.835 
N187 X-148.406 Y22.278 Z-12.036 
N188 X-148.418 Y22.459 Z-12.237 
N189 X-148.429 Y22.642 Z-12.440 
N190 X-148.441 Y22.824 Z-12.642 
N191 X-148.452 Y23.006 Z-12.845 
N192 X-148.463 Y23.189 Z-13.047 
N193 X-148.475 Y23.371 Z-13.250 
N194 X-148.486 Y23.553 Z-13.452 
N195 X-148.498 Y23.736 Z-13.655 
N196 X-148.509 Y23.918 Z-13.857 
N197 X-148.520 Y24.100 Z-14.060 
N198 X-148.532 Y24.283 Z-14.262 
N199 X-148.543 Y24.465 Z-14.465 
N200 G40 X-148.556 Y24.668 Z-14.690 F795
N201 X-148.556 Y24.668 Z-14.690 
N202 X-148.579 Y25.036 Z-15.099 F1557 
N203 X-148.623 Y25.733 Z-15.873 F2828 
N204 X-148.696 Y26.870 Z-17.136 F4099 
N205 X-148.796 Y28.337 Z-18.765 F4861 
N206 X-148.925 Y29.968 Z-20.576 F5115 
N207 X-149.130 Y31.666 Z-22.462 
N208 X-149.157 Y30.311 Z-20.957 F4861 
N209 X-149.072 Y28.794 Z-19.273 A312.0124 F4099 
N210 X-149.006 Y27.700 Z-18.058 F2828 
N211 X-148.964 Y27.030 Z-17.314 F1557 
N212 X-148.941 Y26.665 Z-16.908 F795 
N213 ;rowek od strony piora
N214 D1 
N215 G01 G41 X-148.928 Y26.451 Z-16.670 F541
N216 X-148.928 Y26.451 Z-16.670 F541 
N217 X-148.916 Y26.268 Z-16.467 
N218 X-148.905 Y26.086 Z-16.265 
N219 X-148.893 Y25.904 Z-16.062 
N220 X-148.882 Y25.721 Z-15.860 
N221 X-148.871 Y25.539 Z-15.657 
N222 X-148.859 Y25.357 Z-15.455 
N223 X-148.848 Y25.174 Z-15.252 
N224 X-148.836 Y24.992 Z-15.050 
N225 X-148.825 Y24.810 Z-14.847 
N226 X-148.814 Y24.627 Z-14.645 
N227 X-148.802 Y24.445 Z-14.442 
N228 X-148.791 Y24.263 Z-14.240 
N229 X-148.779 Y24.080 Z-14.037 
N230 X-148.768 Y23.898 Z-13.835 
N231 X-148.757 Y23.716 Z-13.632 
N232 X-148.745 Y23.533 Z-13.430 
N233 X-148.734 Y23.351 Z-13.227 
N234 X-148.722 Y23.169 Z-13.025 
N235 X-148.711 Y22.986 Z-12.822 
N236 X-148.699 Y22.804 Z-12.620 
N237 X-148.688 Y22.622 Z-12.417 
N238 X-148.677 Y22.439 Z-12.215 
N239 X-148.665 Y22.258 Z-12.014 
N240 X-148.654 Y22.077 Z-11.813 
N241 X-148.643 Y21.896 Z-11.611 
N242 X-148.632 Y21.715 Z-11.410 
N243 X-148.621 Y21.533 Z-11.209 
N244 X-148.610 Y21.352 Z-11.008 
N245 X-148.599 Y21.171 Z-10.806 
N246 X-148.588 Y20.990 Z-10.605 
N247 X-148.578 Y20.809 Z-10.404 
N248 X-148.567 Y20.628 Z-10.203 
N249 X-148.557 Y20.446 Z-10.002 
N250 X-148.547 Y20.265 Z-9.800 
N251 X-148.537 Y20.084 Z-9.599 
N252 X-148.527 Y19.903 Z-9.398 
N253 X-148.517 Y19.722 Z-9.197 
N254 X-148.507 Y19.540 Z-8.995 
N255 X-148.497 Y19.359 Z-8.794 
N256 X-148.488 Y19.178 Z-8.593 
N257 X-148.478 Y18.997 Z-8.392 
N258 X-148.469 Y18.816 Z-8.190 
N259 X-148.460 Y18.634 Z-7.989 
N260 X-148.451 Y18.453 Z-7.788 
N261 X-148.442 Y18.272 Z-7.587 
N262 X-148.433 Y18.091 Z-7.385 
N263 X-148.424 Y17.909 Z-7.184 
N264 X-148.416 Y17.728 Z-6.983 
N265 X-148.407 Y17.547 Z-6.781 
N266 X-148.399 Y17.366 Z-6.580 
N267 X-148.390 Y17.185 Z-6.379 
N268 X-148.382 Y17.003 Z-6.178 
N269 X-148.374 Y16.822 Z-5.976 
N270 X-148.366 Y16.641 Z-5.775 
N271 X-148.358 Y16.460 Z-5.574 
N272 X-148.350 Y16.278 Z-5.372 
N273 X-148.343 Y16.097 Z-5.171 
N274 X-148.335 Y15.916 Z-4.970 
N275 X-148.328 Y15.735 Z-4.769 
N276 X-148.320 Y15.553 Z-4.567 
N277 X-148.313 Y15.372 Z-4.366 
N278 X-148.306 Y15.191 Z-4.165 
N279 X-148.299 Y15.010 Z-3.963 
N280 X-148.292 Y14.828 Z-3.762 
N281 X-148.285 Y14.647 Z-3.561 
N282 X-148.279 Y14.466 Z-3.359 
N283 X-148.272 Y14.284 Z-3.158 
N284 X-148.265 Y14.103 Z-2.957 
N285 X-148.259 Y13.922 Z-2.755 
N286 X-148.253 Y13.741 Z-2.554 
N287 X-148.247 Y13.559 Z-2.353 
N288 X-148.241 Y13.378 Z-2.151 
N289 X-148.235 Y13.197 Z-1.950 
N290 X-148.229 Y13.016 Z-1.749 
N291 X-148.223 Y12.834 Z-1.548 
N292 X-148.218 Y12.653 Z-1.346 
N293 X-148.212 Y12.472 Z-1.145 
N294 X-148.207 Y12.290 Z-0.944 
N295 X-148.202 Y12.109 Z-0.742 
N296 X-148.197 Y11.928 Z-0.541 
N297 X-148.192 Y11.747 Z-0.339 
N298 X-148.187 Y11.565 Z-0.138 
N299 X-148.182 Y11.384 Z0.063 
N300 X-148.177 Y11.203 Z0.265 
N301 X-148.173 Y11.021 Z0.466 
N302 X-148.168 Y10.840 Z0.667 
N303 X-148.164 Y10.659 Z0.869 
N304 X-148.160 Y10.478 Z1.070 
N305 X-148.155 Y10.296 Z1.271 
N306 X-148.151 Y10.115 Z1.473 
N307 X-148.148 Y9.934 Z1.674 
N308 X-148.144 Y9.752 Z1.875 
N309 X-148.140 Y9.571 Z2.077 
N310 X-148.136 Y9.390 Z2.278 
N311 X-148.133 Y9.208 Z2.479 
N312 X-148.130 Y9.027 Z2.681 
N313 X-148.126 Y8.846 Z2.882 
N314 X-148.123 Y8.664 Z3.084 
N315 X-148.120 Y8.483 Z3.285 
N316 X-148.117 Y8.302 Z3.486 
N317 X-148.114 Y8.121 Z3.688 
N318 X-148.112 Y7.939 Z3.889 
N319 X-148.109 Y7.758 Z4.090 
N320 X-148.107 Y7.577 Z4.292 
N321 X-148.104 Y7.395 Z4.493 
N322 X-148.102 Y7.214 Z4.694 
N323 X-148.100 Y7.033 Z4.896 
N324 X-148.098 Y6.851 Z5.097 
N325 X-148.096 Y6.670 Z5.299 
N326 X-148.094 Y6.489 Z5.500 
N327 X-148.092 Y6.307 Z5.701 
N328 X-148.091 Y6.126 Z5.903 
N329 X-148.089 Y5.945 Z6.104 
N330 X-148.088 Y5.763 Z6.305 
N331 X-148.087 Y5.582 Z6.507 
N332 X-148.086 Y5.401 Z6.708 
N333 X-148.085 Y5.220 Z6.910 
N334 X-148.084 Y5.038 Z7.111 
N335 X-148.083 Y4.857 Z7.312 
N336 X-148.082 Y4.676 Z7.514 
N337 X-148.081 Y4.494 Z7.715 
N338 X-148.081 Y4.313 Z7.916 
N339 X-148.081 Y4.132 Z8.118 
N340 X-148.080 Y3.950 Z8.319 
N341 X-148.080 Y3.769 Z8.521 
N342 X-148.080 Y3.588 Z8.722 
N343 X-148.080 Y3.406 Z8.923 
N344 X-148.080 Y3.225 Z9.125 
N345 X-148.081 Y3.044 Z9.326 
N346 X-148.081 Y2.862 Z9.527 
N347 X-148.081 Y2.681 Z9.729 
N348 X-148.082 Y2.500 Z9.930 
N349 X-148.083 Y2.318 Z10.132 
N350 X-148.084 Y2.137 Z10.333 
N351 X-148.085 Y1.956 Z10.534 
N352 X-148.086 Y1.774 Z10.736 
N353 X-148.087 Y1.593 Z10.937 
N354 X-148.088 Y1.412 Z11.138 
N355 X-148.089 Y1.230 Z11.340 
N356 X-148.091 Y1.049 Z11.541 
N357 X-148.093 Y0.868 Z11.743 
N358 X-148.094 Y0.685 Z11.945 
N359 X-148.096 Y0.503 Z12.148 
N360 X-148.097 Y0.320 Z12.351 
N361 X-148.099 Y0.138 Z12.553 
N362 X-148.100 Y-0.045 Z12.756 
N363 X-148.102 Y-0.227 Z12.959 
N364 X-148.103 Y-0.410 Z13.161 
N365 X-148.105 Y-0.592 Z13.364 
N366 X-148.106 Y-0.775 Z13.567 
N367 X-148.108 Y-0.957 Z13.769 
N368 X-148.109 Y-1.140 Z13.972 
N369 G40 X-148.166 Y-7.831 Z21.403 F541
N370 X-148.166 Y-7.831 Z21.403 
N371 G00 X-148.166 Y29.315 Z54.873 
;RAPORT("TB011430","Side Milling:134 End")
;trailer : concat=None
; points cnt = 319
N373 MSG (" --- GROUPED OF SUBPROGRAM --- ")
N374 FGROUP()
N375 TRAFOOF
; PROGRAM NAME: B01143037
; ORDER       : B011430
; OPER. NAME  : Side Milling:135
; OPER. DESCR.: finish slot NGE
; OPER. TYPE  : sideMill
; GEO. OPTION : 3
; MACHINE     : HSTM_500_SIM840D_Py
;             : HSTM500 - HAMUEL: 5-axis milling machine - SIM840D Traori PP_Script
; CONTROL     : SINUMERIK 840D
; created:   2022-10-26 13:20:58.388731
;-------DODATKOWE DANE-------------------
; PROGRAMISTA : Zbigniew Papierowski
; PARTID      : 135T006774P1021_-
;  ap         : 5.0
;  ae         : 5.0
;  lean_angle : 0.02
;  fin_offset : 0.03
;----------------------------------------
;RAPORT("TB011430","Side Milling:135")
N10 TRAFOOF
N11 D0
N12 G90 G94
N13 G0 G53 D0 Z550 B0
N14 STOPRE
M9 ; chlodziwo wyl
; --- Side Milling:135 - finish slot NGE ---
N16 ;ToolChange : concat=None ,current_tdmid=None, PP.tdmId=940664
N17 TRAFOOF
N18 G0 G53 D0 Z550 B0
N19 STOPRE
N20 MSG(" TLID=940664 D=6.0 R=0.6 Ang=0.0 Len=100.0 ")
N21 S9018 M03
N22 STOPRE
N23 CYCLE832(0.01,1,1)
N24 G0 G53 A311.9800 B0.0001
N25 TRAORI
N26 G54 D1
;tol5=0.03
STOPRE
E_ZDARZ=300010
;ACS_FINISH_SLOT=7740664
STOPRE
;UWAGA : ZMIENIONA TOLERANCJA OSI A i B, ruchy osi A i B beda usuniete : TOL5=0.03
N27 ; DELTA A > 40.1
N28 TRAFOOF
N29 D1
N30 STOPRE
N31 G00 G54 Z286.000
N32 G01 A311.9800 F10000
N33 TRAORI
N34 G54 D1
N35 STOPRE
N36 TRANS 
N37 G00 X-147.901 Y27.377 Z57.069 A311.9800 
N38 M342 ; chlodziwo woda
N39 X-147.901 Y-9.791 Z23.626 
N40 ;rowek od strony mocowania
N41 D2 
N42 G01 G41 X-147.846 Y-3.100 Z16.194 F541
N43 G01 X-147.846 Y-3.100 Z16.194 F541 
N44 X-147.844 Y-2.918 Z15.992 
N45 X-147.843 Y-2.735 Z15.789 
N46 X-147.841 Y-2.553 Z15.586 
N47 X-147.840 Y-2.370 Z15.384 
N48 X-147.838 Y-2.188 Z15.181 
N49 X-147.837 Y-2.005 Z14.978 
N50 X-147.835 Y-1.823 Z14.776 
N51 X-147.834 Y-1.640 Z14.573 
N52 X-147.832 Y-1.458 Z14.370 
N53 X-147.831 Y-1.275 Z14.168 
N54 X-147.829 Y-1.093 Z13.965 
N55 X-147.827 Y-0.910 Z13.762 
N56 X-147.826 Y-0.728 Z13.560 
N57 X-147.824 Y-0.545 Z13.357 
N58 X-147.823 Y-0.363 Z13.154 
N59 X-147.821 Y-0.180 Z12.952 
N60 X-147.820 Y0.002 Z12.749 
N61 X-147.818 Y0.185 Z12.546 
N62 X-147.817 Y0.367 Z12.344 
N63 X-147.815 Y0.549 Z12.141 
N64 X-147.814 Y0.732 Z11.938 
N65 X-147.812 Y0.914 Z11.736 
N66 X-147.811 Y1.096 Z11.534 
N67 X-147.809 Y1.277 Z11.333 
N68 X-147.808 Y1.458 Z11.132 
N69 X-147.807 Y1.640 Z10.930 
N70 X-147.805 Y1.821 Z10.729 
N71 X-147.804 Y2.002 Z10.528 
N72 X-147.804 Y2.183 Z10.326 
N73 X-147.803 Y2.365 Z10.125 
N74 X-147.802 Y2.546 Z9.924 
N75 X-147.801 Y2.727 Z9.722 
N76 X-147.801 Y2.909 Z9.521 
N77 X-147.801 Y3.090 Z9.320 
N78 X-147.800 Y3.271 Z9.118 
N79 X-147.800 Y3.452 Z8.917 
N80 X-147.800 Y3.634 Z8.716 
N81 X-147.800 Y3.815 Z8.514 
N82 X-147.800 Y3.996 Z8.313 
N83 X-147.801 Y4.178 Z8.111 
N84 X-147.801 Y4.359 Z7.910 
N85 X-147.801 Y4.540 Z7.709 
N86 X-147.802 Y4.722 Z7.507 
N87 X-147.803 Y4.903 Z7.306 
N88 X-147.804 Y5.084 Z7.105 
N89 X-147.805 Y5.265 Z6.903 
N90 X-147.806 Y5.447 Z6.702 
N91 X-147.807 Y5.628 Z6.501 
N92 X-147.808 Y5.809 Z6.299 
N93 X-147.809 Y5.991 Z6.098 
N94 X-147.811 Y6.172 Z5.897 
N95 X-147.813 Y6.353 Z5.695 
N96 X-147.814 Y6.534 Z5.494 
N97 X-147.816 Y6.716 Z5.293 
N98 X-147.818 Y6.897 Z5.091 
N99 X-147.820 Y7.078 Z4.890 
N100 X-147.822 Y7.260 Z4.689 
N101 X-147.825 Y7.441 Z4.487 
N102 X-147.827 Y7.622 Z4.286 
N103 X-147.829 Y7.803 Z4.085 
N104 X-147.832 Y7.985 Z3.883 
N105 X-147.835 Y8.166 Z3.682 
N106 X-147.838 Y8.347 Z3.481 
N107 X-147.841 Y8.529 Z3.279 
N108 X-147.844 Y8.710 Z3.078 
N109 X-147.847 Y8.891 Z2.877 
N110 X-147.850 Y9.072 Z2.675 
N111 X-147.853 Y9.254 Z2.474 
N112 X-147.857 Y9.435 Z2.273 
N113 X-147.860 Y9.616 Z2.071 
N114 X-147.864 Y9.797 Z1.870 
N115 X-147.868 Y9.979 Z1.669 
N116 X-147.872 Y10.160 Z1.467 
N117 X-147.876 Y10.341 Z1.266 
N118 X-147.880 Y10.523 Z1.065 
N119 X-147.884 Y10.704 Z0.863 
N120 X-147.889 Y10.885 Z0.662 
N121 X-147.893 Y11.066 Z0.461 
N122 X-147.898 Y11.248 Z0.260 
N123 X-147.902 Y11.429 Z0.058 
N124 X-147.907 Y11.610 Z-0.143 
N125 X-147.912 Y11.791 Z-0.344 
N126 X-147.917 Y11.973 Z-0.546 
N127 X-147.922 Y12.154 Z-0.747 
N128 X-147.928 Y12.335 Z-0.948 
N129 X-147.933 Y12.516 Z-1.150 
N130 X-147.938 Y12.698 Z-1.351 
N131 X-147.944 Y12.879 Z-1.552 
N132 X-147.950 Y13.060 Z-1.754 
N133 X-147.956 Y13.241 Z-1.955 
N134 X-147.961 Y13.423 Z-2.156 
N135 X-147.967 Y13.604 Z-2.357 
N136 X-147.974 Y13.785 Z-2.559 
N137 X-147.980 Y13.966 Z-2.760 
N138 X-147.986 Y14.148 Z-2.961 
N139 X-147.993 Y14.329 Z-3.163 
N140 X-147.999 Y14.510 Z-3.364 
N141 X-148.006 Y14.691 Z-3.565 
N142 X-148.013 Y14.873 Z-3.766 
N143 X-148.020 Y15.054 Z-3.968 
N144 X-148.027 Y15.235 Z-4.169 
N145 X-148.034 Y15.416 Z-4.370 
N146 X-148.041 Y15.597 Z-4.572 
N147 X-148.048 Y15.779 Z-4.773 
N148 X-148.056 Y15.960 Z-4.974 
N149 X-148.063 Y16.141 Z-5.175 
N150 X-148.071 Y16.322 Z-5.377 
N151 X-148.079 Y16.504 Z-5.578 
N152 X-148.087 Y16.685 Z-5.779 
N153 X-148.095 Y16.866 Z-5.980 
N154 X-148.103 Y17.047 Z-6.182 
N155 X-148.111 Y17.228 Z-6.383 
N156 X-148.119 Y17.410 Z-6.584 
N157 X-148.128 Y17.591 Z-6.785 
N158 X-148.136 Y17.772 Z-6.987 
N159 X-148.145 Y17.953 Z-7.188 
N160 X-148.154 Y18.134 Z-7.389 
N161 X-148.163 Y18.316 Z-7.590 
N162 X-148.172 Y18.497 Z-7.792 
N163 X-148.181 Y18.678 Z-7.993 
N164 X-148.190 Y18.859 Z-8.194 
N165 X-148.199 Y19.040 Z-8.395 
N166 X-148.209 Y19.222 Z-8.596 
N167 X-148.218 Y19.403 Z-8.798 
N168 X-148.228 Y19.584 Z-8.999 
N169 X-148.238 Y19.765 Z-9.200 
N170 X-148.248 Y19.946 Z-9.401 
N171 X-148.258 Y20.127 Z-9.602 
N172 X-148.268 Y20.309 Z-9.804 
N173 X-148.278 Y20.490 Z-10.005 
N174 X-148.288 Y20.671 Z-10.206 
N175 X-148.299 Y20.852 Z-10.407 
N176 X-148.309 Y21.033 Z-10.608 
N177 X-148.320 Y21.214 Z-10.810 
N178 X-148.331 Y21.395 Z-11.011 
N179 X-148.342 Y21.577 Z-11.212 
N180 X-148.353 Y21.758 Z-11.413 
N181 X-148.364 Y21.939 Z-11.614 
N182 X-148.375 Y22.120 Z-11.816 
N183 X-148.386 Y22.301 Z-12.017 
N184 X-148.398 Y22.482 Z-12.218 
N185 X-148.409 Y22.665 Z-12.420 
N186 X-148.421 Y22.847 Z-12.623 
N187 X-148.432 Y23.029 Z-12.825 
N188 X-148.443 Y23.212 Z-13.028 
N189 X-148.455 Y23.394 Z-13.230 
N190 X-148.466 Y23.576 Z-13.433 
N191 X-148.478 Y23.759 Z-13.635 
N192 X-148.489 Y23.941 Z-13.838 
N193 X-148.500 Y24.123 Z-14.040 
N194 X-148.512 Y24.306 Z-14.243 
N195 X-148.523 Y24.488 Z-14.445 
N196 G40 X-148.536 Y24.691 Z-14.671 F795
N197 X-148.536 Y24.691 Z-14.671 
N198 X-148.559 Y25.059 Z-15.079 F1558 
N199 X-148.603 Y25.757 Z-15.854 F2829 
N200 X-148.678 Y26.894 Z-17.118 F4100 
N201 X-148.781 Y28.362 Z-18.748 F4863 
N202 X-148.923 Y29.993 Z-20.559 F5117 
N203 X-149.173 Y31.688 Z-22.442 
N204 X-149.252 Y30.332 Z-20.936 F4863 
N205 X-149.171 Y28.823 Z-19.260 A312.0124 F4100 
N206 X-149.105 Y27.721 Z-18.036 F2829 
N207 X-149.064 Y27.049 Z-17.290 F1558 
N208 X-149.041 Y26.684 Z-16.884 F795 
N209 ;rowek od strony piora
N210 D1 
N211 G01 G41 X-149.028 Y26.470 Z-16.647 F541
N212 X-149.028 Y26.470 Z-16.647 F541 
N213 X-149.016 Y26.288 Z-16.444 
N214 X-149.005 Y26.105 Z-16.242 
N215 X-148.993 Y25.923 Z-16.039 
N216 X-148.982 Y25.741 Z-15.837 
N217 X-148.971 Y25.558 Z-15.634 
N218 X-148.959 Y25.376 Z-15.432 
N219 X-148.948 Y25.194 Z-15.229 
N220 X-148.936 Y25.011 Z-15.027 
N221 X-148.925 Y24.829 Z-14.824 
N222 X-148.913 Y24.647 Z-14.622 
N223 X-148.902 Y24.464 Z-14.419 
N224 X-148.891 Y24.282 Z-14.217 
N225 X-148.879 Y24.100 Z-14.014 
N226 X-148.868 Y23.917 Z-13.812 
N227 X-148.856 Y23.735 Z-13.609 
N228 X-148.845 Y23.553 Z-13.407 
N229 X-148.834 Y23.370 Z-13.204 
N230 X-148.822 Y23.188 Z-13.002 
N231 X-148.811 Y23.006 Z-12.799 
N232 X-148.799 Y22.823 Z-12.597 
N233 X-148.788 Y22.641 Z-12.394 
N234 X-148.777 Y22.459 Z-12.192 
N235 X-148.765 Y22.278 Z-11.991 
N236 X-148.754 Y22.096 Z-11.789 
N237 X-148.743 Y21.915 Z-11.588 
N238 X-148.732 Y21.734 Z-11.387 
N239 X-148.721 Y21.553 Z-11.186 
N240 X-148.710 Y21.372 Z-10.985 
N241 X-148.699 Y21.191 Z-10.783 
N242 X-148.688 Y21.010 Z-10.582 
N243 X-148.678 Y20.828 Z-10.381 
N244 X-148.667 Y20.647 Z-10.180 
N245 X-148.657 Y20.466 Z-9.979 
N246 X-148.647 Y20.285 Z-9.777 
N247 X-148.637 Y20.104 Z-9.576 
N248 X-148.627 Y19.923 Z-9.375 
N249 X-148.617 Y19.741 Z-9.174 
N250 X-148.607 Y19.560 Z-8.973 
N251 X-148.597 Y19.379 Z-8.771 
N252 X-148.588 Y19.198 Z-8.570 
N253 X-148.578 Y19.017 Z-8.369 
N254 X-148.569 Y18.836 Z-8.168 
N255 X-148.560 Y18.654 Z-7.967 
N256 X-148.551 Y18.473 Z-7.765 
N257 X-148.542 Y18.292 Z-7.564 
N258 X-148.533 Y18.111 Z-7.363 
N259 X-148.524 Y17.930 Z-7.162 
N260 X-148.515 Y17.748 Z-6.960 
N261 X-148.507 Y17.567 Z-6.759 
N262 X-148.498 Y17.386 Z-6.558 
N263 X-148.490 Y17.205 Z-6.357 
N264 X-148.482 Y17.024 Z-6.155 
N265 X-148.474 Y16.842 Z-5.954 
N266 X-148.466 Y16.661 Z-5.753 
N267 X-148.458 Y16.480 Z-5.552 
N268 X-148.450 Y16.299 Z-5.350 
N269 X-148.443 Y16.117 Z-5.149 
N270 X-148.435 Y15.936 Z-4.948 
N271 X-148.428 Y15.755 Z-4.746 
N272 X-148.420 Y15.574 Z-4.545 
N273 X-148.413 Y15.393 Z-4.344 
N274 X-148.406 Y15.211 Z-4.143 
N275 X-148.399 Y15.030 Z-3.941 
N276 X-148.392 Y14.849 Z-3.740 
N277 X-148.385 Y14.668 Z-3.539 
N278 X-148.378 Y14.486 Z-3.338 
N279 X-148.372 Y14.305 Z-3.136 
N280 X-148.365 Y14.124 Z-2.935 
N281 X-148.359 Y13.943 Z-2.734 
N282 X-148.353 Y13.761 Z-2.532 
N283 X-148.347 Y13.580 Z-2.331 
N284 X-148.341 Y13.399 Z-2.130 
N285 X-148.335 Y13.218 Z-1.928 
N286 X-148.329 Y13.036 Z-1.727 
N287 X-148.323 Y12.855 Z-1.526 
N288 X-148.318 Y12.674 Z-1.325 
N289 X-148.312 Y12.493 Z-1.123 
N290 X-148.307 Y12.311 Z-0.922 
N291 X-148.302 Y12.130 Z-0.721 
N292 X-148.297 Y11.949 Z-0.519 
N293 X-148.292 Y11.768 Z-0.318 
N294 X-148.287 Y11.586 Z-0.117 
N295 X-148.282 Y11.405 Z0.085 
N296 X-148.277 Y11.224 Z0.286 
N297 X-148.273 Y11.043 Z0.487 
N298 X-148.268 Y10.861 Z0.689 
N299 X-148.264 Y10.680 Z0.890 
N300 X-148.260 Y10.499 Z1.091 
N301 X-148.255 Y10.318 Z1.292 
N302 X-148.251 Y10.136 Z1.494 
N303 X-148.248 Y9.955 Z1.695 
N304 X-148.244 Y9.774 Z1.896 
N305 X-148.240 Y9.592 Z2.098 
N306 X-148.236 Y9.411 Z2.299 
N307 X-148.233 Y9.230 Z2.500 
N308 X-148.230 Y9.049 Z2.702 
N309 X-148.226 Y8.867 Z2.903 
N310 X-148.223 Y8.686 Z3.104 
N311 X-148.220 Y8.505 Z3.306 
N312 X-148.217 Y8.323 Z3.507 
N313 X-148.214 Y8.142 Z3.708 
N314 X-148.212 Y7.961 Z3.910 
N315 X-148.209 Y7.780 Z4.111 
N316 X-148.207 Y7.598 Z4.312 
N317 X-148.204 Y7.417 Z4.514 
N318 X-148.202 Y7.236 Z4.715 
N319 X-148.200 Y7.054 Z4.916 
N320 X-148.198 Y6.873 Z5.118 
N321 X-148.196 Y6.692 Z5.319 
N322 X-148.194 Y6.511 Z5.521 
N323 X-148.192 Y6.329 Z5.722 
N324 X-148.191 Y6.148 Z5.923 
N325 X-148.189 Y5.967 Z6.125 
N326 X-148.188 Y5.785 Z6.326 
N327 X-148.187 Y5.604 Z6.527 
N328 X-148.186 Y5.423 Z6.729 
N329 X-148.185 Y5.242 Z6.930 
N330 X-148.184 Y5.060 Z7.131 
N331 X-148.183 Y4.879 Z7.333 
N332 X-148.182 Y4.698 Z7.534 
N333 X-148.181 Y4.516 Z7.735 
N334 X-148.181 Y4.335 Z7.937 
N335 X-148.181 Y4.154 Z8.138 
N336 X-148.180 Y3.973 Z8.339 
N337 X-148.180 Y3.791 Z8.541 
N338 X-148.180 Y3.610 Z8.742 
N339 X-148.180 Y3.429 Z8.943 
N340 X-148.180 Y3.247 Z9.145 
N341 X-148.181 Y3.066 Z9.346 
N342 X-148.181 Y2.885 Z9.547 
N343 X-148.181 Y2.703 Z9.749 
N344 X-148.182 Y2.522 Z9.950 
N345 X-148.183 Y2.341 Z10.151 
N346 X-148.184 Y2.160 Z10.353 
N347 X-148.185 Y1.978 Z10.554 
N348 X-148.186 Y1.797 Z10.755 
N349 X-148.187 Y1.616 Z10.957 
N350 X-148.188 Y1.434 Z11.158 
N351 X-148.189 Y1.253 Z11.360 
N352 X-148.191 Y1.072 Z11.561 
N353 X-148.193 Y0.891 Z11.762 
N354 X-148.194 Y0.708 Z11.965 
N355 X-148.196 Y0.526 Z12.168 
N356 X-148.197 Y0.343 Z12.370 
N357 X-148.199 Y0.161 Z12.573 
N358 X-148.200 Y-0.022 Z12.776 
N359 X-148.202 Y-0.204 Z12.978 
N360 X-148.203 Y-0.387 Z13.181 
N361 X-148.205 Y-0.569 Z13.384 
N362 X-148.206 Y-0.752 Z13.586 
N363 X-148.208 Y-0.934 Z13.789 
N364 X-148.209 Y-1.117 Z13.992 
N365 G40 X-148.266 Y-7.808 Z21.423 F541
N366 X-148.266 Y-7.808 Z21.423 
N367 G00 X-148.266 Y29.338 Z54.892 
;RAPORT("TB011430","Side Milling:135 End")
;trailer : concat=None
; points cnt = 319
N369 MSG (" --- GROUPED OF SUBPROGRAM --- ")
N370 FGROUP()
N371 TRAFOOF
; PROGRAM NAME: B01143037
; ORDER       : B011430
; OPER. NAME  : Side Milling:136
; OPER. DESCR.: semifinish slot NGA
; OPER. TYPE  : sideMill
; GEO. OPTION : 3
; MACHINE     : HSTM_500_SIM840D_Py
;             : HSTM500 - HAMUEL: 5-axis milling machine - SIM840D Traori PP_Script
; CONTROL     : SINUMERIK 840D
; created:   2022-10-26 13:21:04.012923
;-------DODATKOWE DANE-------------------
; PROGRAMISTA : Zbigniew Papierowski
; PARTID      : 135T006774P1021_-
;  ap         : 5.0
;  ae         : 5.0
;  lean_angle : 0.02
;  fin_offset : 0.0
;----------------------------------------
;RAPORT("TB011430","Side Milling:136")
N10 TRAFOOF
N11 D0
N12 G90 G94
N13 G0 G53 D0 Z550 B0
N14 STOPRE
M9 ; chlodziwo wyl
; --- Side Milling:136 - semifinish slot NGA ---
N16 ;ToolChange : concat=None ,current_tdmid=None, PP.tdmId=940664
N17 TRAFOOF
N18 G0 G53 D0 Z550 B0
N19 STOPRE
N20 MSG(" TLID=940664 D=6.0 R=0.6 Ang=0.0 Len=100.0 ")
N21 S9018 M03
N22 STOPRE
N23 CYCLE832(0.01,1,1)
N24 G0 G53 A131.9800 B0.0004
N25 TRAORI
N26 G54 D1
;tol5=0.03
STOPRE
E_ZDARZ=300010
;ACS_FINISH_SLOT=7740664
STOPRE
;UWAGA : ZMIENIONA TOLERANCJA OSI A i B, ruchy osi A i B beda usuniete : TOL5=0.03
N27 ; DELTA A > 40.1
N28 TRAFOOF
N29 D1
N30 STOPRE
N31 G00 G54 Z286.000
N32 G01 A131.9800 F10000
N33 TRAORI
N34 G54 D1
N35 STOPRE
N36 TRANS 
N37 G00 X-148.206 Y-27.552 Z-56.827 A131.9800 
N38 M342 ; chlodziwo woda
N39 X-148.207 Y9.617 Z-23.383 
N40 ;rowek od strony mocowania
N41 D4 
N42 G01 G41 X-148.031 Y2.927 Z-15.953 F541
N43 G01 X-148.031 Y2.927 Z-15.953 F541 
N44 X-148.027 Y2.744 Z-15.750 
N45 X-148.022 Y2.562 Z-15.547 
N46 X-148.017 Y2.379 Z-15.345 
N47 X-148.012 Y2.197 Z-15.142 
N48 X-148.007 Y2.014 Z-14.939 
N49 X-148.003 Y1.832 Z-14.737 
N50 X-147.998 Y1.649 Z-14.534 
N51 X-147.993 Y1.467 Z-14.331 
N52 X-147.988 Y1.285 Z-14.129 
N53 X-147.984 Y1.102 Z-13.926 
N54 X-147.979 Y0.920 Z-13.724 
N55 X-147.974 Y0.737 Z-13.521 
N56 X-147.969 Y0.555 Z-13.318 
N57 X-147.964 Y0.372 Z-13.116 
N58 X-147.960 Y0.190 Z-12.913 
N59 X-147.955 Y0.007 Z-12.710 
N60 X-147.950 Y-0.175 Z-12.508 
N61 X-147.945 Y-0.358 Z-12.305 
N62 X-147.940 Y-0.540 Z-12.102 
N63 X-147.936 Y-0.723 Z-11.900 
N64 X-147.931 Y-0.905 Z-11.697 
N65 X-147.926 Y-1.087 Z-11.494 
N66 X-147.921 Y-1.269 Z-11.293 
N67 X-147.917 Y-1.450 Z-11.092 
N68 X-147.912 Y-1.631 Z-10.891 
N69 X-147.908 Y-1.812 Z-10.689 
N70 X-147.903 Y-1.994 Z-10.488 
N71 X-147.899 Y-2.175 Z-10.287 
N72 X-147.895 Y-2.356 Z-10.085 
N73 X-147.891 Y-2.538 Z-9.884 
N74 X-147.887 Y-2.719 Z-9.683 
N75 X-147.883 Y-2.900 Z-9.481 
N76 X-147.880 Y-3.081 Z-9.280 
N77 X-147.876 Y-3.263 Z-9.079 
N78 X-147.873 Y-3.444 Z-8.877 
N79 X-147.869 Y-3.625 Z-8.676 
N80 X-147.866 Y-3.806 Z-8.475 
N81 X-147.863 Y-3.988 Z-8.273 
N82 X-147.860 Y-4.169 Z-8.072 
N83 X-147.857 Y-4.350 Z-7.871 
N84 X-147.854 Y-4.532 Z-7.669 
N85 X-147.851 Y-4.713 Z-7.468 
N86 X-147.849 Y-4.894 Z-7.267 
N87 X-147.846 Y-5.075 Z-7.065 
N88 X-147.844 Y-5.257 Z-6.864 
N89 X-147.842 Y-5.438 Z-6.663 
N90 X-147.840 Y-5.619 Z-6.461 
N91 X-147.838 Y-5.801 Z-6.260 
N92 X-147.836 Y-5.982 Z-6.059 
N93 X-147.834 Y-6.163 Z-5.857 
N94 X-147.832 Y-6.344 Z-5.656 
N95 X-147.831 Y-6.526 Z-5.455 
N96 X-147.829 Y-6.707 Z-5.253 
N97 X-147.828 Y-6.888 Z-5.052 
N98 X-147.827 Y-7.070 Z-4.851 
N99 X-147.825 Y-7.251 Z-4.649 
N100 X-147.824 Y-7.432 Z-4.448 
N101 X-147.823 Y-7.613 Z-4.247 
N102 X-147.823 Y-7.795 Z-4.045 
N103 X-147.822 Y-7.976 Z-3.844 
N104 X-147.821 Y-8.157 Z-3.643 
N105 X-147.821 Y-8.339 Z-3.441 
N106 X-147.820 Y-8.520 Z-3.240 
N107 X-147.820 Y-8.701 Z-3.039 
N108 X-147.820 Y-8.882 Z-2.837 
N109 X-147.820 Y-9.064 Z-2.636 
N110 X-147.820 Y-9.245 Z-2.435 
N111 X-147.820 Y-9.426 Z-2.233 
N112 X-147.821 Y-9.608 Z-2.032 
N113 X-147.821 Y-9.789 Z-1.831 
N114 X-147.821 Y-9.970 Z-1.629 
N115 X-147.822 Y-10.151 Z-1.428 
N116 X-147.823 Y-10.333 Z-1.227 
N117 X-147.824 Y-10.514 Z-1.025 
N118 X-147.825 Y-10.695 Z-0.824 
N119 X-147.826 Y-10.877 Z-0.623 
N120 X-147.827 Y-11.058 Z-0.421 
N121 X-147.828 Y-11.239 Z-0.220 
N122 X-147.830 Y-11.420 Z-0.019 
N123 X-147.831 Y-11.602 Z0.183 
N124 X-147.833 Y-11.783 Z0.384 
N125 X-147.834 Y-11.964 Z0.585 
N126 X-147.836 Y-12.146 Z0.787 
N127 X-147.838 Y-12.327 Z0.988 
N128 X-147.840 Y-12.508 Z1.189 
N129 X-147.842 Y-12.689 Z1.391 
N130 X-147.845 Y-12.871 Z1.592 
N131 X-147.847 Y-13.052 Z1.793 
N132 X-147.850 Y-13.233 Z1.995 
N133 X-147.852 Y-13.415 Z2.196 
N134 X-147.855 Y-13.596 Z2.397 
N135 X-147.858 Y-13.777 Z2.599 
N136 X-147.861 Y-13.958 Z2.800 
N137 X-147.864 Y-14.140 Z3.001 
N138 X-147.867 Y-14.321 Z3.203 
N139 X-147.870 Y-14.502 Z3.404 
N140 X-147.874 Y-14.683 Z3.605 
N141 X-147.877 Y-14.865 Z3.807 
N142 X-147.881 Y-15.046 Z4.008 
N143 X-147.884 Y-15.227 Z4.209 
N144 X-147.888 Y-15.409 Z4.411 
N145 X-147.892 Y-15.590 Z4.612 
N146 X-147.896 Y-15.771 Z4.813 
N147 X-147.900 Y-15.952 Z5.015 
N148 X-147.905 Y-16.134 Z5.216 
N149 X-147.909 Y-16.315 Z5.417 
N150 X-147.913 Y-16.496 Z5.619 
N151 X-147.918 Y-16.677 Z5.820 
N152 X-147.923 Y-16.859 Z6.021 
N153 X-147.928 Y-17.040 Z6.223 
N154 X-147.932 Y-17.221 Z6.424 
N155 X-147.938 Y-17.402 Z6.625 
N156 X-147.943 Y-17.584 Z6.826 
N157 X-147.948 Y-17.765 Z7.028 
N158 X-147.953 Y-17.946 Z7.229 
N159 X-147.959 Y-18.127 Z7.430 
N160 X-147.964 Y-18.309 Z7.632 
N161 X-147.970 Y-18.490 Z7.833 
N162 X-147.976 Y-18.671 Z8.034 
N163 X-147.982 Y-18.852 Z8.236 
N164 X-147.988 Y-19.034 Z8.437 
N165 X-147.994 Y-19.215 Z8.638 
N166 X-148.000 Y-19.396 Z8.839 
N167 X-148.007 Y-19.577 Z9.041 
N168 X-148.013 Y-19.759 Z9.242 
N169 X-148.020 Y-19.940 Z9.443 
N170 X-148.026 Y-20.121 Z9.645 
N171 X-148.033 Y-20.302 Z9.846 
N172 X-148.040 Y-20.484 Z10.047 
N173 X-148.047 Y-20.665 Z10.248 
N174 X-148.054 Y-20.846 Z10.450 
N175 X-148.061 Y-21.027 Z10.651 
N176 X-148.069 Y-21.208 Z10.852 
N177 X-148.076 Y-21.390 Z11.053 
N178 X-148.084 Y-21.571 Z11.255 
N179 X-148.092 Y-21.752 Z11.456 
N180 X-148.099 Y-21.933 Z11.657 
N181 X-148.107 Y-22.114 Z11.858 
N182 X-148.115 Y-22.296 Z12.060 
N183 X-148.123 Y-22.477 Z12.261 
N184 X-148.132 Y-22.658 Z12.462 
N185 X-148.140 Y-22.841 Z12.665 
N186 X-148.148 Y-23.023 Z12.867 
N187 X-148.156 Y-23.205 Z13.070 
N188 X-148.164 Y-23.388 Z13.273 
N189 X-148.173 Y-23.570 Z13.475 
N190 X-148.181 Y-23.753 Z13.678 
N191 X-148.189 Y-23.935 Z13.880 
N192 X-148.197 Y-24.117 Z14.083 
N193 X-148.206 Y-24.300 Z14.285 
N194 X-148.214 Y-24.482 Z14.488 
N195 X-148.222 Y-24.665 Z14.691 
N196 G40 X-148.231 Y-24.868 Z14.917 F796
N197 X-148.231 Y-24.868 Z14.917 
N198 X-148.248 Y-25.237 Z15.327 F1561 
N199 X-148.280 Y-25.938 Z16.105 F2836 
N200 X-148.334 Y-27.081 Z17.374 F4111 
N201 X-148.409 Y-28.555 Z19.012 F4876 
N202 X-148.510 Y-30.195 Z20.833 F5131 
N203 X-148.681 Y-31.901 Z22.727 
N204 X-148.743 Y-30.658 Z21.347 F4876 
N205 X-148.685 Y-29.156 Z19.679 A132.0124 F4111 
N206 X-148.636 Y-28.031 Z18.429 F2836 
N207 X-148.606 Y-27.365 Z17.690 F1561 
N208 X-148.590 Y-27.005 Z17.290 F796 
N209 ;rowek od strony piora
N210 D3 
N211 G01 G41 X-148.580 Y-26.796 Z17.057 F541
N212 X-148.580 Y-26.796 Z17.057 F541 
N213 X-148.572 Y-26.613 Z16.855 
N214 X-148.563 Y-26.431 Z16.652 
N215 X-148.555 Y-26.248 Z16.450 
N216 X-148.547 Y-26.066 Z16.247 
N217 X-148.539 Y-25.884 Z16.044 
N218 X-148.530 Y-25.701 Z15.842 
N219 X-148.522 Y-25.519 Z15.639 
N220 X-148.514 Y-25.336 Z15.437 
N221 X-148.505 Y-25.154 Z15.234 
N222 X-148.497 Y-24.972 Z15.032 
N223 X-148.489 Y-24.789 Z14.829 
N224 X-148.480 Y-24.607 Z14.626 
N225 X-148.472 Y-24.424 Z14.424 
N226 X-148.464 Y-24.242 Z14.221 
N227 X-148.456 Y-24.060 Z14.019 
N228 X-148.447 Y-23.877 Z13.816 
N229 X-148.439 Y-23.695 Z13.613 
N230 X-148.431 Y-23.512 Z13.411 
N231 X-148.422 Y-23.330 Z13.208 
N232 X-148.414 Y-23.147 Z13.006 
N233 X-148.406 Y-22.965 Z12.803 
N234 X-148.397 Y-22.783 Z12.601 
N235 X-148.389 Y-22.601 Z12.399 
N236 X-148.381 Y-22.420 Z12.198 
N237 X-148.373 Y-22.239 Z11.997 
N238 X-148.365 Y-22.058 Z11.795 
N239 X-148.357 Y-21.876 Z11.594 
N240 X-148.349 Y-21.695 Z11.393 
N241 X-148.342 Y-21.514 Z11.191 
N242 X-148.334 Y-21.333 Z10.990 
N243 X-148.327 Y-21.151 Z10.789 
N244 X-148.319 Y-20.970 Z10.588 
N245 X-148.312 Y-20.789 Z10.386 
N246 X-148.305 Y-20.608 Z10.185 
N247 X-148.298 Y-20.426 Z9.984 
N248 X-148.291 Y-20.245 Z9.782 
N249 X-148.284 Y-20.064 Z9.581 
N250 X-148.278 Y-19.883 Z9.380 
N251 X-148.271 Y-19.701 Z9.178 
N252 X-148.265 Y-19.520 Z8.977 
N253 X-148.258 Y-19.339 Z8.776 
N254 X-148.252 Y-19.158 Z8.574 
N255 X-148.246 Y-18.976 Z8.373 
N256 X-148.240 Y-18.795 Z8.172 
N257 X-148.234 Y-18.614 Z7.970 
N258 X-148.228 Y-18.432 Z7.769 
N259 X-148.223 Y-18.251 Z7.568 
N260 X-148.217 Y-18.070 Z7.366 
N261 X-148.212 Y-17.889 Z7.165 
N262 X-148.206 Y-17.707 Z6.964 
N263 X-148.201 Y-17.526 Z6.762 
N264 X-148.196 Y-17.345 Z6.561 
N265 X-148.191 Y-17.163 Z6.360 
N266 X-148.186 Y-16.982 Z6.158 
N267 X-148.181 Y-16.801 Z5.957 
N268 X-148.177 Y-16.619 Z5.756 
N269 X-148.172 Y-16.438 Z5.554 
N270 X-148.168 Y-16.257 Z5.353 
N271 X-148.163 Y-16.076 Z5.152 
N272 X-148.159 Y-15.894 Z4.950 
N273 X-148.155 Y-15.713 Z4.749 
N274 X-148.151 Y-15.532 Z4.548 
N275 X-148.147 Y-15.350 Z4.346 
N276 X-148.143 Y-15.169 Z4.145 
N277 X-148.139 Y-14.988 Z3.943 
N278 X-148.136 Y-14.806 Z3.742 
N279 X-148.132 Y-14.625 Z3.541 
N280 X-148.129 Y-14.444 Z3.339 
N281 X-148.126 Y-14.263 Z3.138 
N282 X-148.123 Y-14.081 Z2.937 
N283 X-148.120 Y-13.900 Z2.735 
N284 X-148.117 Y-13.719 Z2.534 
N285 X-148.114 Y-13.537 Z2.333 
N286 X-148.111 Y-13.356 Z2.131 
N287 X-148.109 Y-13.175 Z1.930 
N288 X-148.106 Y-12.993 Z1.728 
N289 X-148.104 Y-12.812 Z1.527 
N290 X-148.102 Y-12.631 Z1.326 
N291 X-148.100 Y-12.449 Z1.124 
N292 X-148.098 Y-12.268 Z0.923 
N293 X-148.096 Y-12.087 Z0.722 
N294 X-148.094 Y-11.905 Z0.520 
N295 X-148.092 Y-11.724 Z0.319 
N296 X-148.091 Y-11.543 Z0.117 
N297 X-148.089 Y-11.361 Z-0.084 
N298 X-148.088 Y-11.180 Z-0.285 
N299 X-148.087 Y-10.999 Z-0.487 
N300 X-148.085 Y-10.818 Z-0.688 
N301 X-148.084 Y-10.636 Z-0.889 
N302 X-148.083 Y-10.455 Z-1.091 
N303 X-148.083 Y-10.274 Z-1.292 
N304 X-148.082 Y-10.092 Z-1.494 
N305 X-148.081 Y-9.911 Z-1.695 
N306 X-148.081 Y-9.730 Z-1.896 
N307 X-148.080 Y-9.548 Z-2.098 
N308 X-148.080 Y-9.367 Z-2.299 
N309 X-148.080 Y-9.186 Z-2.501 
N310 X-148.080 Y-9.004 Z-2.702 
N311 X-148.080 Y-8.823 Z-2.903 
N312 X-148.080 Y-8.642 Z-3.105 
N313 X-148.081 Y-8.460 Z-3.306 
N314 X-148.081 Y-8.279 Z-3.507 
N315 X-148.082 Y-8.098 Z-3.709 
N316 X-148.082 Y-7.916 Z-3.910 
N317 X-148.083 Y-7.735 Z-4.112 
N318 X-148.084 Y-7.554 Z-4.313 
N319 X-148.085 Y-7.372 Z-4.514 
N320 X-148.086 Y-7.191 Z-4.716 
N321 X-148.087 Y-7.010 Z-4.917 
N322 X-148.088 Y-6.828 Z-5.118 
N323 X-148.090 Y-6.647 Z-5.320 
N324 X-148.091 Y-6.466 Z-5.521 
N325 X-148.093 Y-6.284 Z-5.723 
N326 X-148.095 Y-6.103 Z-5.924 
N327 X-148.096 Y-5.922 Z-6.125 
N328 X-148.098 Y-5.741 Z-6.327 
N329 X-148.100 Y-5.559 Z-6.528 
N330 X-148.103 Y-5.378 Z-6.729 
N331 X-148.105 Y-5.197 Z-6.931 
N332 X-148.107 Y-5.015 Z-7.132 
N333 X-148.110 Y-4.834 Z-7.334 
N334 X-148.112 Y-4.653 Z-7.535 
N335 X-148.115 Y-4.471 Z-7.736 
N336 X-148.118 Y-4.290 Z-7.938 
N337 X-148.121 Y-4.109 Z-8.139 
N338 X-148.124 Y-3.927 Z-8.340 
N339 X-148.127 Y-3.746 Z-8.542 
N340 X-148.130 Y-3.565 Z-8.743 
N341 X-148.134 Y-3.383 Z-8.945 
N342 X-148.137 Y-3.202 Z-9.146 
N343 X-148.141 Y-3.021 Z-9.347 
N344 X-148.145 Y-2.840 Z-9.549 
N345 X-148.148 Y-2.658 Z-9.750 
N346 X-148.152 Y-2.477 Z-9.951 
N347 X-148.156 Y-2.296 Z-10.153 
N348 X-148.161 Y-2.114 Z-10.354 
N349 X-148.165 Y-1.933 Z-10.555 
N350 X-148.169 Y-1.752 Z-10.757 
N351 X-148.174 Y-1.570 Z-10.958 
N352 X-148.178 Y-1.389 Z-11.159 
N353 X-148.183 Y-1.208 Z-11.361 
N354 X-148.188 Y-1.025 Z-11.563 
N355 X-148.192 Y-0.843 Z-11.766 
N356 X-148.197 Y-0.660 Z-11.969 
N357 X-148.202 Y-0.478 Z-12.171 
N358 X-148.207 Y-0.295 Z-12.374 
N359 X-148.211 Y-0.113 Z-12.577 
N360 X-148.216 Y0.069 Z-12.779 
N361 X-148.221 Y0.252 Z-12.982 
N362 X-148.225 Y0.434 Z-13.185 
N363 X-148.230 Y0.617 Z-13.387 
N364 X-148.235 Y0.799 Z-13.590 
N365 G40 X-148.407 Y7.490 Z-21.020 F541
N366 X-148.407 Y7.490 Z-21.020 
N367 G00 X-148.408 Y-29.656 Z-54.490 
;RAPORT("TB011430","Side Milling:136 End")
;trailer : concat=None
; points cnt = 319
N369 MSG (" --- GROUPED OF SUBPROGRAM --- ")
N370 FGROUP()
N371 TRAFOOF
; PROGRAM NAME: B01143037
; ORDER       : B011430
; OPER. NAME  : Side Milling:137
; OPER. DESCR.: finish slot NGA
; OPER. TYPE  : sideMill
; GEO. OPTION : 3
; MACHINE     : HSTM_500_SIM840D_Py
;             : HSTM500 - HAMUEL: 5-axis milling machine - SIM840D Traori PP_Script
; CONTROL     : SINUMERIK 840D
; created:   2022-10-26 13:21:09.683322
;-------DODATKOWE DANE-------------------
; PROGRAMISTA : Zbigniew Papierowski
; PARTID      : 135T006774P1021_-
;  ap         : 5.0
;  ae         : 5.0
;  lean_angle : 0.02
;  fin_offset : 0.03
;----------------------------------------
;RAPORT("TB011430","Side Milling:137")
N10 TRAFOOF
N11 D0
N12 G90 G94
N13 G0 G53 D0 Z550 B0
N14 STOPRE
M9 ; chlodziwo wyl
; --- Side Milling:137 - finish slot NGA ---
N16 ;ToolChange : concat=None ,current_tdmid=None, PP.tdmId=940664
N17 TRAFOOF
N18 G0 G53 D0 Z550 B0
N19 STOPRE
N20 MSG(" TLID=940664 D=6.0 R=0.6 Ang=0.0 Len=100.0 ")
N21 S9018 M03
N22 STOPRE
N23 CYCLE832(0.01,1,1)
N24 G0 G53 A131.9800 B0.0004
N25 TRAORI
N26 G54 D1
;tol5=0.03
STOPRE
E_ZDARZ=300010
;ACS_FINISH_SLOT=7740664
STOPRE
;UWAGA : ZMIENIONA TOLERANCJA OSI A i B, ruchy osi A i B beda usuniete : TOL5=0.03
N27 ; DELTA A > 40.1
N28 TRAFOOF
N29 D1
N30 STOPRE
N31 G00 G54 Z286.000
N32 G01 A131.9800 F10000
N33 TRAORI
N34 G54 D1
N35 STOPRE
N36 TRANS 
N37 G00 X-148.186 Y-27.574 Z-56.847 A131.9800 
N38 M342 ; chlodziwo woda
N39 X-148.187 Y9.595 Z-23.403 
N40 ;rowek od strony mocowania
N41 D4 
N42 G01 G41 X-148.011 Y2.905 Z-15.973 F541
N43 G01 X-148.011 Y2.905 Z-15.973 F541 
N44 X-148.007 Y2.722 Z-15.770 
N45 X-148.002 Y2.540 Z-15.568 
N46 X-147.997 Y2.357 Z-15.365 
N47 X-147.992 Y2.175 Z-15.162 
N48 X-147.987 Y1.992 Z-14.960 
N49 X-147.983 Y1.810 Z-14.757 
N50 X-147.978 Y1.627 Z-14.554 
N51 X-147.973 Y1.445 Z-14.352 
N52 X-147.968 Y1.263 Z-14.149 
N53 X-147.964 Y1.080 Z-13.947 
N54 X-147.959 Y0.898 Z-13.744 
N55 X-147.954 Y0.715 Z-13.541 
N56 X-147.949 Y0.533 Z-13.339 
N57 X-147.944 Y0.350 Z-13.136 
N58 X-147.940 Y0.168 Z-12.933 
N59 X-147.935 Y-0.015 Z-12.731 
N60 X-147.930 Y-0.197 Z-12.528 
N61 X-147.925 Y-0.380 Z-12.325 
N62 X-147.920 Y-0.562 Z-12.123 
N63 X-147.916 Y-0.745 Z-11.920 
N64 X-147.911 Y-0.927 Z-11.717 
N65 X-147.906 Y-1.110 Z-11.515 
N66 X-147.901 Y-1.291 Z-11.313 
N67 X-147.897 Y-1.472 Z-11.112 
N68 X-147.892 Y-1.653 Z-10.911 
N69 X-147.888 Y-1.835 Z-10.710 
N70 X-147.883 Y-2.016 Z-10.508 
N71 X-147.879 Y-2.197 Z-10.307 
N72 X-147.875 Y-2.378 Z-10.106 
N73 X-147.871 Y-2.560 Z-9.904 
N74 X-147.867 Y-2.741 Z-9.703 
N75 X-147.863 Y-2.922 Z-9.502 
N76 X-147.860 Y-3.103 Z-9.300 
N77 X-147.856 Y-3.285 Z-9.099 
N78 X-147.853 Y-3.466 Z-8.898 
N79 X-147.849 Y-3.647 Z-8.696 
N80 X-147.846 Y-3.829 Z-8.495 
N81 X-147.843 Y-4.010 Z-8.294 
N82 X-147.840 Y-4.191 Z-8.092 
N83 X-147.837 Y-4.372 Z-7.891 
N84 X-147.834 Y-4.554 Z-7.690 
N85 X-147.831 Y-4.735 Z-7.488 
N86 X-147.829 Y-4.916 Z-7.287 
N87 X-147.826 Y-5.098 Z-7.086 
N88 X-147.824 Y-5.279 Z-6.884 
N89 X-147.822 Y-5.460 Z-6.683 
N90 X-147.820 Y-5.641 Z-6.482 
N91 X-147.818 Y-5.823 Z-6.280 
N92 X-147.816 Y-6.004 Z-6.079 
N93 X-147.814 Y-6.185 Z-5.878 
N94 X-147.812 Y-6.367 Z-5.676 
N95 X-147.811 Y-6.548 Z-5.475 
N96 X-147.809 Y-6.729 Z-5.274 
N97 X-147.808 Y-6.910 Z-5.072 
N98 X-147.807 Y-7.092 Z-4.871 
N99 X-147.805 Y-7.273 Z-4.669 
N100 X-147.804 Y-7.454 Z-4.468 
N101 X-147.803 Y-7.636 Z-4.267 
N102 X-147.803 Y-7.817 Z-4.065 
N103 X-147.802 Y-7.998 Z-3.864 
N104 X-147.801 Y-8.180 Z-3.663 
N105 X-147.801 Y-8.361 Z-3.461 
N106 X-147.800 Y-8.542 Z-3.260 
N107 X-147.800 Y-8.723 Z-3.059 
N108 X-147.800 Y-8.905 Z-2.857 
N109 X-147.800 Y-9.086 Z-2.656 
N110 X-147.800 Y-9.267 Z-2.455 
N111 X-147.800 Y-9.449 Z-2.253 
N112 X-147.801 Y-9.630 Z-2.052 
N113 X-147.801 Y-9.811 Z-1.851 
N114 X-147.801 Y-9.992 Z-1.649 
N115 X-147.802 Y-10.174 Z-1.448 
N116 X-147.803 Y-10.355 Z-1.247 
N117 X-147.804 Y-10.536 Z-1.045 
N118 X-147.805 Y-10.718 Z-0.844 
N119 X-147.806 Y-10.899 Z-0.643 
N120 X-147.807 Y-11.080 Z-0.441 
N121 X-147.808 Y-11.261 Z-0.240 
N122 X-147.810 Y-11.443 Z-0.039 
N123 X-147.811 Y-11.624 Z0.163 
N124 X-147.813 Y-11.805 Z0.364 
N125 X-147.814 Y-11.987 Z0.565 
N126 X-147.816 Y-12.168 Z0.767 
N127 X-147.818 Y-12.349 Z0.968 
N128 X-147.820 Y-12.531 Z1.170 
N129 X-147.822 Y-12.712 Z1.371 
N130 X-147.825 Y-12.893 Z1.572 
N131 X-147.827 Y-13.074 Z1.774 
N132 X-147.830 Y-13.256 Z1.975 
N133 X-147.832 Y-13.437 Z2.176 
N134 X-147.835 Y-13.618 Z2.378 
N135 X-147.838 Y-13.799 Z2.579 
N136 X-147.841 Y-13.981 Z2.780 
N137 X-147.844 Y-14.162 Z2.982 
N138 X-147.847 Y-14.343 Z3.183 
N139 X-147.850 Y-14.525 Z3.384 
N140 X-147.854 Y-14.706 Z3.586 
N141 X-147.857 Y-14.887 Z3.787 
N142 X-147.861 Y-15.068 Z3.988 
N143 X-147.864 Y-15.250 Z4.190 
N144 X-147.868 Y-15.431 Z4.391 
N145 X-147.872 Y-15.612 Z4.592 
N146 X-147.876 Y-15.794 Z4.793 
N147 X-147.880 Y-15.975 Z4.995 
N148 X-147.885 Y-16.156 Z5.196 
N149 X-147.889 Y-16.337 Z5.397 
N150 X-147.893 Y-16.519 Z5.599 
N151 X-147.898 Y-16.700 Z5.800 
N152 X-147.903 Y-16.881 Z6.001 
N153 X-147.908 Y-17.062 Z6.203 
N154 X-147.912 Y-17.244 Z6.404 
N155 X-147.918 Y-17.425 Z6.605 
N156 X-147.923 Y-17.606 Z6.807 
N157 X-147.928 Y-17.787 Z7.008 
N158 X-147.933 Y-17.969 Z7.209 
N159 X-147.939 Y-18.150 Z7.411 
N160 X-147.944 Y-18.331 Z7.612 
N161 X-147.950 Y-18.512 Z7.813 
N162 X-147.956 Y-18.694 Z8.014 
N163 X-147.962 Y-18.875 Z8.216 
N164 X-147.968 Y-19.056 Z8.417 
N165 X-147.974 Y-19.237 Z8.618 
N166 X-147.980 Y-19.419 Z8.820 
N167 X-147.987 Y-19.600 Z9.021 
N168 X-147.993 Y-19.781 Z9.222 
N169 X-148.000 Y-19.962 Z9.424 
N170 X-148.006 Y-20.144 Z9.625 
N171 X-148.013 Y-20.325 Z9.826 
N172 X-148.020 Y-20.506 Z10.027 
N173 X-148.027 Y-20.687 Z10.229 
N174 X-148.034 Y-20.869 Z10.430 
N175 X-148.041 Y-21.050 Z10.631 
N176 X-148.049 Y-21.231 Z10.832 
N177 X-148.056 Y-21.412 Z11.034 
N178 X-148.064 Y-21.594 Z11.235 
N179 X-148.072 Y-21.775 Z11.436 
N180 X-148.079 Y-21.956 Z11.638 
N181 X-148.087 Y-22.137 Z11.839 
N182 X-148.095 Y-22.318 Z12.040 
N183 X-148.103 Y-22.500 Z12.241 
N184 X-148.112 Y-22.681 Z12.443 
N185 X-148.120 Y-22.863 Z12.645 
N186 X-148.128 Y-23.046 Z12.848 
N187 X-148.136 Y-23.228 Z13.050 
N188 X-148.144 Y-23.410 Z13.253 
N189 X-148.153 Y-23.593 Z13.455 
N190 X-148.161 Y-23.775 Z13.658 
N191 X-148.169 Y-23.958 Z13.861 
N192 X-148.177 Y-24.140 Z14.063 
N193 X-148.186 Y-24.322 Z14.266 
N194 X-148.194 Y-24.505 Z14.468 
N195 X-148.202 Y-24.687 Z14.671 
N196 G40 X-148.211 Y-24.891 Z14.897 F796
N197 X-148.211 Y-24.891 Z14.897 
N198 X-148.228 Y-25.260 Z15.307 F1561 
N199 X-148.260 Y-25.961 Z16.086 F2837 
N200 X-148.315 Y-27.105 Z17.356 F4113 
N201 X-148.394 Y-28.580 Z18.994 F4878 
N202 X-148.508 Y-30.220 Z20.816 F5133 
N203 X-148.721 Y-31.924 Z22.708 
N204 X-148.837 Y-30.681 Z21.328 F4878 
N205 X-148.784 Y-29.183 Z19.664 A132.0124 F4113 
N206 X-148.736 Y-28.053 Z18.409 F2837 
N207 X-148.706 Y-27.386 Z17.668 F1561 
N208 X-148.690 Y-27.025 Z17.267 F796 
N209 ;rowek od strony piora
N210 D3 
N211 G01 G41 X-148.680 Y-26.816 Z17.035 F541
N212 X-148.680 Y-26.816 Z17.035 F541 
N213 X-148.672 Y-26.633 Z16.832 
N214 X-148.663 Y-26.451 Z16.630 
N215 X-148.655 Y-26.269 Z16.427 
N216 X-148.647 Y-26.086 Z16.225 
N217 X-148.639 Y-25.904 Z16.022 
N218 X-148.630 Y-25.721 Z15.819 
N219 X-148.622 Y-25.539 Z15.617 
N220 X-148.614 Y-25.357 Z15.414 
N221 X-148.605 Y-25.174 Z15.212 
N222 X-148.597 Y-24.992 Z15.009 
N223 X-148.589 Y-24.809 Z14.807 
N224 X-148.580 Y-24.627 Z14.604 
N225 X-148.572 Y-24.445 Z14.401 
N226 X-148.564 Y-24.262 Z14.199 
N227 X-148.555 Y-24.080 Z13.996 
N228 X-148.547 Y-23.897 Z13.794 
N229 X-148.539 Y-23.715 Z13.591 
N230 X-148.531 Y-23.533 Z13.388 
N231 X-148.522 Y-23.350 Z13.186 
N232 X-148.514 Y-23.168 Z12.983 
N233 X-148.506 Y-22.985 Z12.781 
N234 X-148.497 Y-22.803 Z12.578 
N235 X-148.489 Y-22.622 Z12.377 
N236 X-148.481 Y-22.440 Z12.176 
N237 X-148.473 Y-22.259 Z11.974 
N238 X-148.465 Y-22.078 Z11.773 
N239 X-148.457 Y-21.897 Z11.572 
N240 X-148.449 Y-21.716 Z11.371 
N241 X-148.441 Y-21.534 Z11.169 
N242 X-148.434 Y-21.353 Z10.968 
N243 X-148.426 Y-21.172 Z10.767 
N244 X-148.419 Y-20.991 Z10.565 
N245 X-148.412 Y-20.809 Z10.364 
N246 X-148.405 Y-20.628 Z10.163 
N247 X-148.398 Y-20.447 Z9.962 
N248 X-148.391 Y-20.266 Z9.760 
N249 X-148.384 Y-20.085 Z9.559 
N250 X-148.378 Y-19.903 Z9.358 
N251 X-148.371 Y-19.722 Z9.157 
N252 X-148.365 Y-19.541 Z8.955 
N253 X-148.358 Y-19.360 Z8.754 
N254 X-148.352 Y-19.178 Z8.553 
N255 X-148.346 Y-18.997 Z8.351 
N256 X-148.340 Y-18.816 Z8.150 
N257 X-148.334 Y-18.635 Z7.949 
N258 X-148.328 Y-18.453 Z7.747 
N259 X-148.323 Y-18.272 Z7.546 
N260 X-148.317 Y-18.091 Z7.345 
N261 X-148.312 Y-17.910 Z7.143 
N262 X-148.306 Y-17.728 Z6.942 
N263 X-148.301 Y-17.547 Z6.741 
N264 X-148.296 Y-17.366 Z6.540 
N265 X-148.291 Y-17.184 Z6.338 
N266 X-148.286 Y-17.003 Z6.137 
N267 X-148.281 Y-16.822 Z5.936 
N268 X-148.277 Y-16.641 Z5.734 
N269 X-148.272 Y-16.459 Z5.533 
N270 X-148.268 Y-16.278 Z5.332 
N271 X-148.263 Y-16.097 Z5.130 
N272 X-148.259 Y-15.916 Z4.929 
N273 X-148.255 Y-15.734 Z4.728 
N274 X-148.251 Y-15.553 Z4.526 
N275 X-148.247 Y-15.372 Z4.325 
N276 X-148.243 Y-15.190 Z4.124 
N277 X-148.239 Y-15.009 Z3.922 
N278 X-148.236 Y-14.828 Z3.721 
N279 X-148.232 Y-14.647 Z3.520 
N280 X-148.229 Y-14.465 Z3.318 
N281 X-148.226 Y-14.284 Z3.117 
N282 X-148.223 Y-14.103 Z2.916 
N283 X-148.220 Y-13.921 Z2.714 
N284 X-148.217 Y-13.740 Z2.513 
N285 X-148.214 Y-13.559 Z2.312 
N286 X-148.211 Y-13.378 Z2.110 
N287 X-148.209 Y-13.196 Z1.909 
N288 X-148.206 Y-13.015 Z1.708 
N289 X-148.204 Y-12.834 Z1.506 
N290 X-148.202 Y-12.652 Z1.305 
N291 X-148.200 Y-12.471 Z1.104 
N292 X-148.198 Y-12.290 Z0.902 
N293 X-148.196 Y-12.109 Z0.701 
N294 X-148.194 Y-11.927 Z0.500 
N295 X-148.192 Y-11.746 Z0.298 
N296 X-148.191 Y-11.565 Z0.097 
N297 X-148.189 Y-11.383 Z-0.104 
N298 X-148.188 Y-11.202 Z-0.306 
N299 X-148.187 Y-11.021 Z-0.507 
N300 X-148.185 Y-10.840 Z-0.708 
N301 X-148.184 Y-10.658 Z-0.910 
N302 X-148.183 Y-10.477 Z-1.111 
N303 X-148.183 Y-10.296 Z-1.313 
N304 X-148.182 Y-10.114 Z-1.514 
N305 X-148.181 Y-9.933 Z-1.715 
N306 X-148.181 Y-9.752 Z-1.917 
N307 X-148.180 Y-9.570 Z-2.118 
N308 X-148.180 Y-9.389 Z-2.319 
N309 X-148.180 Y-9.208 Z-2.521 
N310 X-148.180 Y-9.027 Z-2.722 
N311 X-148.180 Y-8.845 Z-2.923 
N312 X-148.180 Y-8.664 Z-3.125 
N313 X-148.181 Y-8.483 Z-3.326 
N314 X-148.181 Y-8.301 Z-3.527 
N315 X-148.182 Y-8.120 Z-3.729 
N316 X-148.182 Y-7.939 Z-3.930 
N317 X-148.183 Y-7.758 Z-4.131 
N318 X-148.184 Y-7.576 Z-4.333 
N319 X-148.185 Y-7.395 Z-4.534 
N320 X-148.186 Y-7.214 Z-4.735 
N321 X-148.187 Y-7.032 Z-4.937 
N322 X-148.188 Y-6.851 Z-5.138 
N323 X-148.190 Y-6.670 Z-5.340 
N324 X-148.191 Y-6.488 Z-5.541 
N325 X-148.193 Y-6.307 Z-5.742 
N326 X-148.195 Y-6.126 Z-5.944 
N327 X-148.196 Y-5.945 Z-6.145 
N328 X-148.198 Y-5.763 Z-6.346 
N329 X-148.200 Y-5.582 Z-6.548 
N330 X-148.203 Y-5.401 Z-6.749 
N331 X-148.205 Y-5.219 Z-6.950 
N332 X-148.207 Y-5.038 Z-7.152 
N333 X-148.210 Y-4.857 Z-7.353 
N334 X-148.212 Y-4.676 Z-7.554 
N335 X-148.215 Y-4.494 Z-7.756 
N336 X-148.218 Y-4.313 Z-7.957 
N337 X-148.221 Y-4.132 Z-8.158 
N338 X-148.224 Y-3.950 Z-8.360 
N339 X-148.227 Y-3.769 Z-8.561 
N340 X-148.230 Y-3.588 Z-8.762 
N341 X-148.234 Y-3.407 Z-8.964 
N342 X-148.237 Y-3.225 Z-9.165 
N343 X-148.241 Y-3.044 Z-9.366 
N344 X-148.245 Y-2.863 Z-9.568 
N345 X-148.248 Y-2.681 Z-9.769 
N346 X-148.252 Y-2.500 Z-9.970 
N347 X-148.256 Y-2.319 Z-10.172 
N348 X-148.261 Y-2.138 Z-10.373 
N349 X-148.265 Y-1.956 Z-10.574 
N350 X-148.269 Y-1.775 Z-10.776 
N351 X-148.274 Y-1.594 Z-10.977 
N352 X-148.278 Y-1.413 Z-11.178 
N353 X-148.283 Y-1.231 Z-11.380 
N354 X-148.288 Y-1.049 Z-11.582 
N355 X-148.292 Y-0.866 Z-11.785 
N356 X-148.297 Y-0.684 Z-11.987 
N357 X-148.302 Y-0.501 Z-12.190 
N358 X-148.307 Y-0.319 Z-12.393 
N359 X-148.311 Y-0.137 Z-12.595 
N360 X-148.316 Y0.046 Z-12.798 
N361 X-148.321 Y0.228 Z-13.001 
N362 X-148.325 Y0.411 Z-13.203 
N363 X-148.330 Y0.593 Z-13.406 
N364 X-148.335 Y0.776 Z-13.609 
N365 G40 X-148.507 Y7.466 Z-21.039 F541
N366 X-148.507 Y7.466 Z-21.039 
N367 G00 X-148.508 Y-29.679 Z-54.508 
;RAPORT("TB011430","Side Milling:137 End")
;trailer : concat=None
; points cnt = 319
N369 M9 ; chlodziwo wyl.
N370 MSG (" --- KONIEC PODPROGRAMU --- ")
N371 FGROUP()
N372 TRAFOOF
N373 STOPRE
N374 G0 G53 D0 Z550.0 M9 M5
N375 G0 G53 Y150 A0 B0
N376 M17
