; PROGRAM NAME: B01143033
; ORDER       : B011430
; OPER. NAME  : Flank Milling Transition:138
; OPER. DESCR.: finish flank root/promienie przejsc wk
; OPER. TYPE  : preFinFlank
; GEO. OPTION : 2
; MACHINE     : HSTM_500_SIM840D_Py
;             : HSTM500 - HAMUEL: 5-axis milling machine - SIM840D Traori PP_Script
; CONTROL     : SINUMERIK 840D
; created:   2022-10-26 13:21:23.062249
;-------DODATKOWE DANE-------------------
; PROGRAMISTA : Zbigniew Papierowski
; PARTID      : 135T006774P1021_-
;  dec_value  : 0.7
;  lean_angle : 15.0
;  tilt_angle : 0.0
;  airf_offset: 0.05
;  firstoffset: 2.9
;----------------------------------------
;RAPORT("TB011430","Flank Milling Transition:138")
N10 TRAFOOF
N11 D0
N12 G90 G94
N13 G0 G53 D0 Z550 B0
N14 STOPRE
M9 ; chlodziwo wyl
; --- Flank Milling Transition:138 - finish flank root/promienie przejsc wk ---
N16 ;ToolChange : concat=None ,current_tdmid=None, PP.tdmId=940783
N17 TRAFOOF
N18 G0 G53 D0 X-200 Y150 Z550 B0
N19 T="7740783"
;RAPORT("TB011430","ToolChangeStart 7740783")
N20 M6
;RAPORT("TB011430","ToolChangeEnd")
N21 STOPRE
N22 MSG(" TLID=940783 D=3.85986 R=2.3 Ang=10.0 Len=175.0 ")
N23 ; (Preloading tool)
N24 T="7757163"
N25 S9978 M03
N26 STOPRE
N27 CYCLE832(0.01,1,1)
N28 G0 G53 A123.2819 B11.5143
N29 TRAORI
N30 G54 D3
N31 D3 
N32 TRANS  X=R9 A=R25
STOPRE
E_ZDARZ=300017
;ACS_FINISH_UBG_PLATFORM_XLB_ROOT=7740783
STOPRE
N33 ; DELTA A > 40.1
N34 TRAFOOF
N35 D3
N36 STOPRE
N37 G00 G54 Z211.000
N38 G01 A123.2819 F10000
N39 TRAORI
N40 G54 D3
N41 STOPRE
N42 TRANS  X=R9 A=R25
N43 G00 X-174.850 Y-63.965 Z-31.622 A123.2819 B11.5143 
N44 M342 ; chlodziwo woda
N45 X-184.830 Y-23.008 Z-4.737 
N46 G01 X-184.824 Y-21.313 Z-2.107 F878 
N47 X-184.806 Y-20.513 Z0.918 
N48 X-184.778 Y-20.687 Z4.042 
N49 X-184.742 Y-21.819 Z6.959 
N50 M342 ; chlodziwo woda
N51 X-184.703 Y-23.796 Z9.383 
N52 X-184.688 Y-23.795 Z9.336 A119.6974 B11.1664 
N53 X-184.669 Y-23.785 Z9.270 A115.9636 B10.7145 
N54 X-184.650 Y-23.777 Z9.200 A112.3942 B10.1979 
N55 X-184.630 Y-23.774 Z9.132 A109.0480 B9.6395 
N56 X-184.610 Y-23.777 Z9.067 A105.9210 B9.0536 
N57 X-184.589 Y-23.785 Z9.007 A102.9887 B8.4488 
N58 X-184.568 Y-23.797 Z8.951 A100.2206 B7.8298 
N59 X-184.546 Y-23.814 Z8.899 A97.5870 B7.1982 
N60 X-184.524 Y-23.835 Z8.852 A95.0620 B6.5546 
N61 X-184.501 Y-23.859 Z8.808 A92.6241 B5.8988 
N62 X-184.479 Y-23.887 Z8.768 A90.2563 B5.2303 
N63 X-184.456 Y-23.918 Z8.731 A87.9453 B4.5488 
N64 X-184.433 Y-23.952 Z8.699 A85.6811 B3.8544 
N65 X-184.411 Y-23.989 Z8.670 A83.4565 B3.1473 
N66 X-184.389 Y-24.028 Z8.644 A81.2667 B2.4283 
N67 X-184.368 Y-24.069 Z8.623 A79.1086 B1.6984 
N68 X-184.347 Y-24.113 Z8.605 A76.9803 B0.9590 
N69 X-184.328 Y-24.158 Z8.592 A74.8820 B0.2081 
N70 X-184.309 Y-24.204 Z8.582 A72.8132 B-0.5524 
N71 X-184.292 Y-24.252 Z8.577 A70.7727 B-1.3193 
N72 X-184.276 Y-24.300 Z8.575 A68.7568 B-2.0810 
N73 X-184.262 Y-24.349 Z8.577 A66.7649 B-2.8355 
N74 X-184.250 Y-24.398 Z8.583 A64.8004 B-3.5907 
N75 X-184.238 Y-24.447 Z8.593 A62.8633 B-4.3471 
N76 X-184.228 Y-24.496 Z8.606 A60.9536 B-5.1053 
N77 X-184.219 Y-24.544 Z8.622 A59.0658 B-5.8609 
N78 X-184.210 Y-24.592 Z8.642 A57.1923 B-6.6156 
N79 X-184.200 Y-24.639 Z8.664 A55.3255 B-7.3715 
N80 X-184.189 Y-24.686 Z8.691 A53.4583 B-8.1302 
N81 X-184.175 Y-24.731 Z8.720 A51.5877 B-8.8918 
N82 X-184.160 Y-24.776 Z8.752 A49.7141 B-9.6553 
N83 X-184.143 Y-24.820 Z8.788 A47.8371 B-10.4195 
N84 X-184.125 Y-24.862 Z8.826 A45.9560 B-11.1837 
N85 X-184.107 Y-24.903 Z8.867 A44.0690 B-11.9475 
N86 X-184.087 Y-24.942 Z8.911 A42.1742 B-12.7106 
N87 X-184.068 Y-24.980 Z8.957 A40.2696 B-13.4726 
N88 X-184.048 Y-25.015 Z9.006 A38.3532 B-14.2331 
N89 X-184.029 Y-25.049 Z9.057 A36.4235 B-14.9917 
N90 X-184.009 Y-25.080 Z9.110 A34.4807 B-15.7519 
N91 X-183.990 Y-25.109 Z9.165 A32.5204 B-16.5052 
N92 X-183.972 Y-25.136 Z9.223 A30.5428 B-17.2543 
N93 X-183.955 Y-25.160 Z9.282 A28.5468 B-17.9981 
N94 X-183.939 Y-25.182 Z9.342 A26.5314 B-18.7357 
N95 X-183.925 Y-25.201 Z9.405 A24.4958 B-19.4661 
N96 X-183.912 Y-25.216 Z9.468 A22.4392 B-20.1882 
N97 X-183.901 Y-25.230 Z9.532 A20.3607 B-20.9009 
N98 X-183.891 Y-25.239 Z9.598 A18.2596 B-21.6031 
N99 X-183.885 Y-25.246 Z9.664 A16.1350 B-22.2936 
N100 X-183.880 Y-25.250 Z9.730 A13.9859 B-22.9715 
N101 X-183.879 Y-25.251 Z9.797 A11.8108 B-23.6356 
N102 X-183.880 Y-25.248 Z9.864 A9.6082 B-24.2850 
N103 X-183.885 Y-25.242 Z9.932 A7.3759 B-24.9187 
N104 X-183.892 Y-25.232 Z9.999 A5.1114 B-25.5360 
N105 X-183.903 Y-25.219 Z10.065 A2.8116 B-26.1360 
N106 X-183.917 Y-25.203 Z10.132 A0.4723 B-26.7180 
N107 X-183.934 Y-25.182 Z10.197 A358.0887 B-27.2812 
N108 X-183.954 Y-25.158 Z10.262 A355.6552 B-27.8248 
N109 X-183.978 Y-25.130 Z10.327 A353.1651 B-28.3478 
N110 X-184.006 Y-25.097 Z10.390 A350.6111 B-28.8490 
N111 X-184.037 Y-25.061 Z10.451 A347.9850 B-29.3271 
N112 X-184.073 Y-25.019 Z10.512 A345.2782 B-29.7799 
N113 X-184.113 Y-24.972 Z10.570 A342.4810 B-30.2052 
N114 X-184.157 Y-24.920 Z10.626 A339.5817 B-30.6000 
N115 X-184.205 Y-24.861 Z10.679 A336.5678 B-30.9609 
N116 X-184.258 Y-24.796 Z10.728 A333.4293 B-31.2828 
N117 X-184.316 Y-24.724 Z10.772 A330.1642 B-31.5593 
N118 X-184.377 Y-24.645 Z10.809 A326.7900 B-31.7827 
N119 X-184.443 Y-24.557 Z10.837 A323.3712 B-31.9443 
N120 X-184.511 Y-24.459 Z10.851 A320.1272 B-32.0373 
N121 X-184.579 Y-24.344 Z10.835 A317.8375 B-32.0675 
N122 X-184.644 Y-24.208 Z10.777 A317.3685 B-32.0692 
N123 X-184.706 Y-24.059 Z10.697 A317.5705 B-32.0667 
N124 X-184.769 Y-23.901 Z10.608 A317.8206 B-32.0635 
N125 X-184.832 Y-23.733 Z10.514 A318.0704 B-32.0598 
N126 X-184.894 Y-23.554 Z10.414 A318.3316 B-32.0553 
N127 X-184.956 Y-23.364 Z10.309 A318.6108 B-32.0500 
N128 X-185.017 Y-23.163 Z10.199 A318.9074 B-32.0438 
N129 X-185.076 Y-22.950 Z10.083 A319.2214 B-32.0365 
N130 X-185.132 Y-22.726 Z9.963 A319.5548 B-32.0280 
N131 X-185.186 Y-22.490 Z9.837 A319.9125 B-32.0180 
N132 X-185.235 Y-22.243 Z9.707 A320.3012 B-32.0062 
N133 X-185.278 Y-21.985 Z9.572 A320.7286 B-31.9921 
N134 X-185.316 Y-21.715 Z9.434 A321.2023 B-31.9752 
N135 X-185.353 Y-21.437 Z9.292 A321.7267 B-31.9552 
N136 X-185.392 Y-21.150 Z9.148 A322.3020 B-31.9314 
N137 X-185.434 Y-20.854 Z9.002 A322.9242 B-31.9033 
N138 X-185.477 Y-20.552 Z8.856 A323.5876 B-31.8708 
N139 X-185.522 Y-20.243 Z8.710 A324.2860 B-31.8335 
N140 X-185.569 Y-19.929 Z8.564 A325.0144 B-31.7914 
N141 X-185.617 Y-19.609 Z8.420 A325.7720 B-31.7442 
N142 X-185.668 Y-19.286 Z8.277 A326.5608 B-31.6912 
N143 X-185.720 Y-18.960 Z8.137 A327.3826 B-31.6320 
N144 X-185.774 Y-18.631 Z8.000 A328.2391 B-31.5659 
N145 X-185.829 Y-18.301 Z7.866 A329.1318 B-31.4923 
N146 X-185.886 Y-17.969 Z7.736 A330.0610 B-31.4107 
N147 X-185.945 Y-17.637 Z7.610 A331.0271 B-31.3204 
N148 X-186.005 Y-17.304 Z7.488 A332.0288 B-31.2209 
N149 X-186.066 Y-16.972 Z7.370 A333.0637 B-31.1119 
N150 X-186.129 Y-16.639 Z7.258 A334.1286 B-30.9931 
N151 X-186.193 Y-16.308 Z7.151 A335.2198 B-30.8644 
N152 X-186.259 Y-15.977 Z7.048 A336.3346 B-30.7257 
N153 X-186.326 Y-15.646 Z6.952 A337.4710 B-30.5767 
N154 X-186.395 Y-15.317 Z6.860 A338.6279 B-30.4173 
N155 X-186.465 Y-14.989 Z6.775 A339.8050 B-30.2470 
N156 X-186.536 Y-14.661 Z6.694 A341.0018 B-30.0656 
N157 X-186.609 Y-14.333 Z6.620 A342.2173 B-29.8727 
N158 X-186.684 Y-14.007 Z6.550 A343.4501 B-29.6684 
N159 X-186.760 Y-13.680 Z6.487 A344.6984 B-29.4525 
N160 X-186.838 Y-13.354 Z6.429 A345.9599 B-29.2251 
N161 X-186.918 Y-13.028 Z6.377 A347.2320 B-28.9865 
N162 X-186.999 Y-12.701 Z6.331 A348.5121 B-28.7370 
N163 X-187.082 Y-12.375 Z6.291 A349.7972 B-28.4770 
N164 X-187.168 Y-12.047 Z6.258 A351.0839 B-28.2072 
N165 X-187.255 Y-11.720 Z6.230 A352.3689 B-27.9282 
N166 X-187.345 Y-11.391 Z6.209 A353.6486 B-27.6410 
N167 X-187.436 Y-11.061 Z6.194 A354.9195 B-27.3465 
N168 X-187.531 Y-10.730 Z6.186 A356.1778 B-27.0458 
N169 X-187.627 Y-10.398 Z6.184 A357.4199 B-26.7401 
N170 X-187.726 Y-10.065 Z6.190 A358.6416 B-26.4309 
N171 X-187.828 Y-9.729 Z6.202 A359.8397 B-26.1194 
N172 X-187.932 Y-9.392 Z6.221 A1.0113 B-25.8069 
N173 X-188.039 Y-9.054 Z6.248 A2.1538 B-25.4946 
N174 X-188.148 Y-8.713 Z6.282 A3.2651 B-25.1838 
N175 X-188.260 Y-8.371 Z6.323 A4.3430 B-24.8755 
N176 X-188.375 Y-8.026 Z6.372 A5.3844 B-24.5714 
N177 X-188.493 Y-7.680 Z6.428 A6.3849 B-24.2734 
N178 X-188.613 Y-7.332 Z6.492 A7.3392 B-23.9836 
N179 X-188.736 Y-6.983 Z6.563 A8.2409 B-23.7047 
N180 X-188.861 Y-6.634 Z6.641 A9.0836 B-23.4393 
N181 X-188.988 Y-6.284 Z6.727 A9.8620 B-23.1900 
N182 X-189.117 Y-5.934 Z6.819 A10.5719 B-22.9587 
N183 X-189.248 Y-5.585 Z6.917 A11.2101 B-22.7474 
N184 X-189.380 Y-5.237 Z7.021 A11.7740 B-22.5541 
N185 X-189.515 Y-4.892 Z7.129 A12.2393 B-22.3171 
N186 X-189.655 Y-4.550 Z7.239 A12.5874 B-21.9865 
N187 X-189.803 Y-4.197 Z7.359 A12.7061 B-21.6264 
N188 X-189.949 Y-3.842 Z7.484 A12.7246 B-21.2987 
N189 X-190.091 Y-3.489 Z7.613 A12.6832 B-20.9912 
N190 X-190.228 Y-3.140 Z7.744 A12.5848 B-20.7023 
N191 X-190.360 Y-2.795 Z7.876 A12.4332 B-20.4304 
N192 X-190.488 Y-2.455 Z8.009 A12.2327 B-20.1740 
N193 X-190.610 Y-2.119 Z8.142 A11.9879 B-19.9317 
N194 X-190.727 Y-1.789 Z8.274 A11.7028 B-19.7016 
N195 X-190.839 Y-1.464 Z8.404 A11.3807 B-19.4827 
N196 X-190.945 Y-1.146 Z8.532 A11.0234 B-19.2743 
N197 X-191.047 Y-0.833 Z8.658 A10.6226 B-19.0320 
N198 X-191.139 Y-0.525 Z8.781 A10.1824 B-18.8164 
N199 X-191.222 Y-0.224 Z8.901 A9.6951 B-18.6122 
N200 X-191.295 Y0.071 Z9.018 A9.1533 B-18.4198 
N201 X-191.360 Y0.359 Z9.132 A8.5491 B-18.2397 
N202 X-191.418 Y0.639 Z9.242 A7.8751 B-18.0722 
N203 X-191.469 Y0.912 Z9.348 A7.1267 B-17.9167 
N204 X-191.513 Y1.176 Z9.449 A6.3053 B-17.7719 
N205 X-191.552 Y1.433 Z9.546 A5.4129 B-17.6363 
N206 X-191.586 Y1.681 Z9.637 A4.4505 B-17.5089 
N207 X-191.616 Y1.920 Z9.723 A3.4171 B-17.3891 
N208 X-191.643 Y2.151 Z9.803 A2.3054 B-17.2772 
N209 X-191.667 Y2.371 Z9.877 A1.1036 B-17.1742 
N210 X-191.689 Y2.582 Z9.946 A359.8137 B-17.0789 
N211 X-191.709 Y2.782 Z10.010 A358.4575 B-16.9884 
N212 X-191.729 Y2.973 Z10.067 A357.0566 B-16.8999 
N213 X-191.749 Y3.155 Z10.119 A355.6058 B-16.8144 
N214 X-191.769 Y3.326 Z10.165 A354.0778 B-16.7347 
N215 X-191.789 Y3.486 Z10.207 A352.4508 B-16.6625 
N216 X-191.810 Y3.635 Z10.245 A350.7270 B-16.5971 
N217 X-191.832 Y3.772 Z10.278 A348.9157 B-16.5369 
N218 X-191.855 Y3.899 Z10.308 A347.0237 B-16.4812 
N219 X-191.880 Y4.016 Z10.335 A345.0542 B-16.4294 
N220 X-191.905 Y4.124 Z10.358 A343.0115 B-16.3809 
N221 X-191.932 Y4.222 Z10.380 A340.9052 B-16.3347 
N222 X-191.957 Y4.312 Z10.399 A338.7399 B-16.3463 
N223 X-191.980 Y4.392 Z10.418 A336.5752 B-16.4481 
N224 X-192.004 Y4.467 Z10.435 A334.3924 B-16.5431 
N225 X-192.029 Y4.536 Z10.450 A332.2053 B-16.6299 
N226 X-192.054 Y4.602 Z10.463 A330.0270 B-16.7076 
N227 X-192.079 Y4.664 Z10.473 A327.8662 B-16.7761 
N228 X-192.104 Y4.724 Z10.482 A325.7283 B-16.8353 
N229 X-192.130 Y4.782 Z10.490 A323.6163 B-16.8854 
N230 X-192.155 Y4.837 Z10.495 A321.5298 B-16.9267 
N231 X-192.178 Y4.891 Z10.498 A319.4607 B-16.9595 
N232 X-192.198 Y4.943 Z10.500 A317.3992 B-16.9840 
N233 X-192.213 Y4.995 Z10.499 A315.3383 B-17.0004 
N234 X-192.223 Y5.046 Z10.497 A313.2768 B-17.0088 
N235 X-192.229 Y5.096 Z10.493 A311.2139 B-17.0090 
N236 X-192.231 Y5.146 Z10.489 A309.1475 B-17.0011 
N237 X-192.230 Y5.194 Z10.481 A307.0745 B-16.9849 
N238 X-192.228 Y5.242 Z10.471 A304.9907 B-16.9605 
N239 X-192.226 Y5.290 Z10.460 A302.8911 B-16.9275 
N240 X-192.225 Y5.337 Z10.446 A300.7716 B-16.8858 
N241 X-192.226 Y5.383 Z10.430 A298.6299 B-16.8351 
N242 X-192.228 Y5.430 Z10.413 A296.4650 B-16.7751 
N243 X-192.232 Y5.475 Z10.393 A294.2764 B-16.7056 
N244 X-192.236 Y5.520 Z10.371 A292.0643 B-16.6265 
N245 X-192.242 Y5.565 Z10.346 A289.8298 B-16.5375 
N246 X-192.250 Y5.608 Z10.319 A287.5743 B-16.4386 
N247 X-192.258 Y5.651 Z10.289 A285.2999 B-16.3298 
N248 X-192.268 Y5.693 Z10.257 A283.0093 B-16.2110 
N249 X-192.279 Y5.733 Z10.220 A280.7049 B-16.0825 
N250 X-192.290 Y5.772 Z10.181 A278.3898 B-15.9444 
N251 X-192.302 Y5.811 Z10.139 A276.0673 B-15.7970 
N252 X-192.315 Y5.848 Z10.093 A273.7418 B-15.6407 
N253 X-192.327 Y5.883 Z10.042 A271.4192 B-15.4761 
N254 X-192.340 Y5.918 Z9.986 A269.1079 B-15.3043 
N255 X-192.351 Y5.950 Z9.925 A266.8199 B-15.1266 
N256 X-192.361 Y5.981 Z9.856 A264.5713 B-14.9448 
N257 X-192.369 Y6.009 Z9.780 A262.3798 B-14.7612 
N258 X-192.374 Y6.035 Z9.696 A260.2608 B-14.5779 
N259 X-192.375 Y6.057 Z9.602 A258.2244 B-14.3969 
N260 X-192.372 Y6.077 Z9.499 A256.2676 B-14.2186 
N261 X-192.362 Y6.094 Z9.383 A254.3172 B-14.0872 
N262 X-192.351 Y6.108 Z9.260 A252.3402 B-13.9568 
N263 X-192.339 Y6.120 Z9.131 A250.2609 B-13.8113 
N264 X-192.326 Y6.131 Z9.000 A248.0264 B-13.6436 
N265 X-192.312 Y6.141 Z8.864 A245.6587 B-13.4547 
N266 X-192.297 Y6.149 Z8.720 A243.2606 B-13.2557 
N267 X-192.278 Y6.152 Z8.563 A240.9694 B-13.0638 
N268 X-192.257 Y6.147 Z8.388 A238.9216 B-12.8978 
N269 X-192.231 Y6.130 Z8.192 A237.2171 B-12.7731 
N270 X-192.200 Y6.101 Z7.976 A235.8923 B-12.6965 
N271 X-192.165 Y6.057 Z7.742 A234.9157 B-12.6651 
N272 X-192.125 Y6.001 Z7.493 A234.2118 B-12.6700 
N273 X-192.082 Y5.935 Z7.233 A233.6899 B-12.6997 
N274 X-192.034 Y5.859 Z6.964 A233.2692 B-12.7441 
N275 X-191.983 Y5.776 Z6.692 A232.8801 B-12.7946 
N276 X-191.929 Y5.687 Z6.416 A232.4639 B-12.8444 
N277 X-191.872 Y5.593 Z6.141 A231.9734 B-12.8883 
N278 X-191.812 Y5.496 Z5.868 A231.3745 B-12.9238 
N279 X-191.748 Y5.396 Z5.597 A230.6490 B-12.9515 
N280 X-191.681 Y5.293 Z5.329 A229.7996 B-12.9768 
N281 X-191.611 Y5.188 Z5.065 A228.8517 B-12.9859 
N282 X-191.541 Y5.077 Z4.803 A227.8527 B-12.9081 
N283 X-191.469 Y4.962 Z4.543 A226.8174 B-12.7918 
N284 X-191.396 Y4.843 Z4.286 A225.7647 B-12.6392 
N285 X-191.320 Y4.718 Z4.030 A224.7057 B-12.4521 
N286 X-191.242 Y4.589 Z3.778 A223.6467 B-12.2326 
N287 X-191.162 Y4.455 Z3.528 A222.5916 B-11.9824 
N288 X-191.080 Y4.316 Z3.282 A221.5424 B-11.7030 
N289 X-190.996 Y4.173 Z3.039 A220.4999 B-11.3956 
N290 X-190.909 Y4.025 Z2.800 A219.4629 B-11.0605 
N291 X-190.821 Y3.873 Z2.566 A218.4288 B-10.6979 
N292 X-190.730 Y3.717 Z2.336 A217.3957 B-10.3074 
N293 X-190.638 Y3.558 Z2.111 A216.3624 B-9.8891 
N294 X-190.544 Y3.394 Z1.891 A215.3282 B-9.4431 
N295 X-190.447 Y3.227 Z1.676 A214.2892 B-8.9790 
N296 X-190.348 Y3.057 Z1.468 A213.2373 B-8.5177 
N297 X-190.246 Y2.885 Z1.265 A212.1722 B-8.0609 
N298 X-190.146 Y2.716 Z1.076 A211.1559 B-7.6331 
N299 X-190.048 Y2.551 Z0.898 A210.1737 B-7.2208 
N300 X-189.952 Y2.383 Z0.726 A209.1722 B-6.8019 
N301 X-189.856 Y2.213 Z0.560 A208.1520 B-6.3767 
N302 X-189.762 Y2.041 Z0.399 A207.1137 B-5.9458 
N303 X-189.668 Y1.867 Z0.243 A206.0574 B-5.5095 
N304 X-189.575 Y1.692 Z0.093 A204.9836 B-5.0682 
N305 X-189.483 Y1.515 Z-0.051 A203.8927 B-4.6225 
N306 X-189.392 Y1.337 Z-0.189 A202.7851 B-4.1728 
N307 X-189.302 Y1.157 Z-0.321 A201.6616 B-3.7197 
N308 X-189.213 Y0.977 Z-0.448 A200.5227 B-3.2639 
N309 X-189.126 Y0.796 Z-0.568 A199.3693 B-2.8060 
N310 X-189.040 Y0.613 Z-0.683 A198.2021 B-2.3467 
N311 X-188.955 Y0.430 Z-0.793 A197.0219 B-1.8866 
N312 X-188.872 Y0.247 Z-0.896 A195.8295 B-1.4264 
N313 X-188.789 Y0.063 Z-0.994 A194.6255 B-0.9668 
N314 X-188.708 Y-0.122 Z-1.087 A193.4106 B-0.5083 
N315 X-188.629 Y-0.307 Z-1.174 A192.1856 B-0.0517 
N316 X-188.550 Y-0.493 Z-1.256 A190.9509 B0.4025 
N317 X-188.473 Y-0.679 Z-1.332 A189.7073 B0.8537 
N318 X-188.397 Y-0.866 Z-1.404 A188.4553 B1.3013 
N319 X-188.323 Y-1.053 Z-1.471 A187.1958 B1.7447 
N320 X-188.249 Y-1.241 Z-1.533 A185.9295 B2.1832 
N321 X-188.177 Y-1.429 Z-1.590 A184.6573 B2.6162 
N322 X-188.105 Y-1.618 Z-1.642 A183.3802 B3.0430 
N323 X-188.035 Y-1.807 Z-1.690 A182.0991 B3.4631 
N324 X-187.966 Y-1.997 Z-1.733 A180.8145 B3.8760 
N325 X-187.898 Y-2.188 Z-1.772 A179.5274 B4.2812 
N326 X-187.831 Y-2.380 Z-1.807 A178.2385 B4.6782 
N327 X-187.764 Y-2.573 Z-1.837 A176.9485 B5.0665 
N328 X-187.699 Y-2.767 Z-1.863 A175.6585 B5.4457 
N329 X-187.634 Y-2.962 Z-1.884 A174.3693 B5.8153 
N330 X-187.570 Y-3.159 Z-1.902 A173.0821 B6.1749 
N331 X-187.507 Y-3.357 Z-1.915 A171.7979 B6.5240 
N332 X-187.445 Y-3.556 Z-1.924 A170.5181 B6.8624 
N333 X-187.383 Y-3.758 Z-1.929 A169.2436 B7.1897 
N334 X-187.322 Y-3.961 Z-1.930 A167.9756 B7.5056 
N335 X-187.261 Y-4.166 Z-1.926 A166.7152 B7.8099 
N336 X-187.201 Y-4.373 Z-1.918 A165.4636 B8.1023 
N337 X-187.142 Y-4.582 Z-1.906 A164.2217 B8.3828 
N338 X-187.083 Y-4.794 Z-1.889 A162.9906 B8.6513 
N339 X-187.024 Y-5.009 Z-1.868 A161.7715 B8.9077 
N340 X-186.966 Y-5.226 Z-1.842 A160.5653 B9.1520 
N341 X-186.909 Y-5.445 Z-1.812 A159.3733 B9.3842 
N342 X-186.851 Y-5.668 Z-1.777 A158.1967 B9.6043 
N343 X-186.795 Y-5.893 Z-1.737 A157.0366 B9.8138 
N344 X-186.739 Y-6.122 Z-1.693 A155.8941 B10.0129 
N345 X-186.683 Y-6.354 Z-1.643 A154.7694 B10.1998 
N346 X-186.628 Y-6.589 Z-1.588 A153.6635 B10.3749 
N347 X-186.573 Y-6.827 Z-1.528 A152.5770 B10.5386 
N348 X-186.518 Y-7.068 Z-1.463 A151.5106 B10.6910 
N349 X-186.464 Y-7.313 Z-1.393 A150.4648 B10.8326 
N350 X-186.411 Y-7.561 Z-1.317 A149.4401 B10.9638 
N351 X-186.358 Y-7.812 Z-1.235 A148.4367 B11.0850 
N352 X-186.306 Y-8.067 Z-1.148 A147.4546 B11.1966 
N353 X-186.254 Y-8.325 Z-1.056 A146.4939 B11.2989 
N354 X-186.203 Y-8.587 Z-0.957 A145.5549 B11.3925 
N355 X-186.152 Y-8.851 Z-0.853 A144.6377 B11.4776 
N356 X-186.102 Y-9.119 Z-0.743 A143.7426 B11.5548 
N357 X-186.053 Y-9.391 Z-0.628 A142.8699 B11.6243 
N358 X-186.005 Y-9.665 Z-0.506 A142.0200 B11.6866 
N359 X-185.957 Y-9.943 Z-0.378 A141.1934 B11.7420 
N360 X-185.910 Y-10.225 Z-0.245 A140.3908 B11.7909 
N361 X-185.864 Y-10.509 Z-0.105 A139.6130 B11.8336 
N362 X-185.818 Y-10.797 Z0.040 A138.8609 B11.8706 
N363 X-185.774 Y-11.088 Z0.192 A138.1356 B11.9021 
N364 X-185.730 Y-11.382 Z0.350 A137.4373 B11.9286 
N365 X-185.687 Y-11.680 Z0.513 A136.7662 B11.9505 
N366 X-185.645 Y-11.980 Z0.683 A136.1214 B11.9682 
N367 X-185.604 Y-12.284 Z0.858 A135.5020 B11.9821 
N368 X-185.564 Y-12.591 Z1.040 A134.9064 B11.9925 
N369 X-185.524 Y-12.900 Z1.227 A134.3338 B11.9998 
N370 X-185.486 Y-13.212 Z1.419 A133.7830 B12.0042 
N371 X-185.448 Y-13.528 Z1.616 A133.2537 B12.0060 
N372 X-185.412 Y-13.845 Z1.819 A132.7454 B12.0055 
N373 X-185.376 Y-14.165 Z2.028 A132.2577 B12.0029 
N374 X-185.341 Y-14.487 Z2.242 A131.7903 B11.9984 
N375 X-185.308 Y-14.811 Z2.461 A131.3429 B11.9922 
N376 X-185.275 Y-15.138 Z2.685 A130.9151 B11.9845 
N377 X-185.243 Y-15.467 Z2.913 A130.5066 B11.9756 
N378 X-185.212 Y-15.799 Z3.146 A130.1171 B11.9656 
N379 X-185.182 Y-16.132 Z3.384 A129.7464 B11.9546 
N380 X-185.153 Y-16.467 Z3.626 A129.3943 B11.9428 
N381 X-185.125 Y-16.804 Z3.873 A129.0609 B11.9304 
N382 X-185.097 Y-17.143 Z4.123 A128.7466 B11.9176 
N383 X-185.071 Y-17.483 Z4.378 A128.4520 B11.9044 
N384 X-185.046 Y-17.824 Z4.635 A128.1780 B11.8912 
N385 X-185.021 Y-18.166 Z4.896 A127.9245 B11.8781 
N386 X-184.998 Y-18.509 Z5.159 A127.6904 B11.8651 
N387 X-184.975 Y-18.852 Z5.424 A127.4736 B11.8522 
N388 X-184.953 Y-19.193 Z5.691 A127.2715 B11.8395 
N389 X-184.932 Y-19.533 Z5.957 A127.0823 B11.8270 
N390 X-184.912 Y-19.869 Z6.223 A126.9057 B11.8147 
N391 X-184.893 Y-20.202 Z6.487 A126.7422 B11.8027 
N392 X-184.875 Y-20.529 Z6.748 A126.5935 B11.7913 
N393 X-184.858 Y-20.850 Z7.005 A126.4609 B11.7805 
N394 X-184.841 Y-21.163 Z7.258 A126.3450 B11.7706 
N395 X-184.826 Y-21.466 Z7.503 A126.2453 B11.7615 
N396 X-184.812 Y-21.759 Z7.741 A126.1600 B11.7532 
N397 X-184.799 Y-22.040 Z7.969 A126.0865 B11.7457 
N398 X-184.787 Y-22.307 Z8.187 A126.0222 B11.7388 
N399 X-184.775 Y-22.559 Z8.393 A125.9650 B11.7324 
N400 X-184.765 Y-22.796 Z8.587 A125.9136 B11.7265 
N401 X-184.754 Y-23.017 Z8.768 A125.8677 B11.7211 
N402 X-184.744 Y-23.222 Z8.936 A125.8279 B11.7162 
N403 X-184.734 Y-23.412 Z9.092 A125.7952 B11.7119 
N404 X-184.724 Y-23.585 Z9.235 A125.7526 B11.7071 
N405 X-184.714 Y-23.733 Z9.353 A125.4201 B11.6822 
N406 X-184.703 Y-23.796 Z9.383 A123.2819 B11.5143 
N407 X-182.707 Y-31.987 Z4.006 
N408 G00 X-177.717 Y-52.466 Z-9.437 
N409 X-174.094 Y-63.958 Z-31.629 
N410 X-184.075 Y-23.000 Z-4.743 
N411 G01 X-184.069 Y-21.305 Z-2.114 F878 
N412 X-184.051 Y-20.505 Z0.911 
N413 X-184.023 Y-20.680 Z4.035 
N414 X-183.987 Y-21.811 Z6.952 
N415 M342 ; chlodziwo woda
N416 X-183.948 Y-23.788 Z9.376 
N417 X-183.932 Y-23.801 Z9.342 A119.6974 B11.1664 
N418 X-183.915 Y-23.803 Z9.289 A115.9636 B10.7145 
N419 X-183.897 Y-23.806 Z9.233 A112.3942 B10.1979 
N420 X-183.879 Y-23.813 Z9.178 A109.0480 B9.6395 
N421 X-183.862 Y-23.823 Z9.126 A105.9210 B9.0536 
N422 X-183.845 Y-23.837 Z9.078 A102.9887 B8.4488 
N423 X-183.827 Y-23.855 Z9.034 A100.2206 B7.8298 
N424 X-183.809 Y-23.876 Z8.993 A97.5870 B7.1982 
N425 X-183.791 Y-23.900 Z8.956 A95.0620 B6.5546 
N426 X-183.772 Y-23.926 Z8.922 A92.6241 B5.8988 
N427 X-183.753 Y-23.955 Z8.891 A90.2563 B5.2303 
N428 X-183.735 Y-23.986 Z8.864 A87.9453 B4.5488 
N429 X-183.716 Y-24.019 Z8.840 A85.6811 B3.8544 
N430 X-183.698 Y-24.055 Z8.819 A83.4565 B3.1473 
N431 X-183.681 Y-24.092 Z8.802 A81.2667 B2.4283 
N432 X-183.664 Y-24.131 Z8.788 A79.1086 B1.6984 
N433 X-183.648 Y-24.171 Z8.778 A76.9803 B0.9590 
N434 X-183.633 Y-24.213 Z8.771 A74.8820 B0.2081 
N435 X-183.618 Y-24.255 Z8.768 A72.8132 B-0.5524 
N436 X-183.605 Y-24.297 Z8.768 A70.7727 B-1.3193 
N437 X-183.593 Y-24.341 Z8.772 A68.7568 B-2.0810 
N438 X-183.583 Y-24.384 Z8.778 A66.7649 B-2.8355 
N439 X-183.573 Y-24.427 Z8.789 A64.8004 B-3.5907 
N440 X-183.565 Y-24.470 Z8.802 A62.8633 B-4.3471 
N441 X-183.558 Y-24.512 Z8.818 A60.9536 B-5.1053 
N442 X-183.552 Y-24.553 Z8.837 A59.0658 B-5.8609 
N443 X-183.546 Y-24.593 Z8.860 A57.1923 B-6.6156 
N444 X-183.539 Y-24.633 Z8.884 A55.3255 B-7.3715 
N445 X-183.530 Y-24.672 Z8.912 A53.4583 B-8.1302 
N446 X-183.518 Y-24.710 Z8.942 A51.5877 B-8.8918 
N447 X-183.505 Y-24.747 Z8.975 A49.7141 B-9.6553 
N448 X-183.490 Y-24.782 Z9.010 A47.8371 B-10.4195 
N449 X-183.473 Y-24.816 Z9.048 A45.9560 B-11.1837 
N450 X-183.456 Y-24.849 Z9.088 A44.0690 B-11.9475 
N451 X-183.438 Y-24.880 Z9.130 A42.1742 B-12.7106 
N452 X-183.419 Y-24.909 Z9.174 A40.2696 B-13.4726 
N453 X-183.400 Y-24.936 Z9.220 A38.3532 B-14.2331 
N454 X-183.380 Y-24.961 Z9.268 A36.4235 B-14.9917 
N455 X-183.360 Y-24.985 Z9.318 A34.4807 B-15.7519 
N456 X-183.341 Y-25.006 Z9.369 A32.5204 B-16.5052 
N457 X-183.322 Y-25.025 Z9.422 A30.5428 B-17.2543 
N458 X-183.304 Y-25.041 Z9.476 A28.5468 B-17.9981 
N459 X-183.287 Y-25.056 Z9.531 A26.5314 B-18.7357 
N460 X-183.271 Y-25.068 Z9.587 A24.4958 B-19.4661 
N461 X-183.256 Y-25.077 Z9.643 A22.4392 B-20.1882 
N462 X-183.243 Y-25.084 Z9.701 A20.3607 B-20.9009 
N463 X-183.231 Y-25.088 Z9.758 A18.2596 B-21.6031 
N464 X-183.222 Y-25.090 Z9.816 A16.1350 B-22.2936 
N465 X-183.215 Y-25.089 Z9.875 A13.9859 B-22.9715 
N466 X-183.211 Y-25.085 Z9.933 A11.8108 B-23.6356 
N467 X-183.209 Y-25.079 Z9.991 A9.6082 B-24.2850 
N468 X-183.210 Y-25.070 Z10.049 A7.3759 B-24.9187 
N469 X-183.214 Y-25.058 Z10.106 A5.1114 B-25.5360 
N470 X-183.221 Y-25.043 Z10.163 A2.8116 B-26.1360 
N471 X-183.231 Y-25.026 Z10.219 A0.4723 B-26.7180 
N472 X-183.244 Y-25.005 Z10.275 A358.0887 B-27.2812 
N473 X-183.260 Y-24.982 Z10.330 A355.6552 B-27.8248 
N474 X-183.280 Y-24.956 Z10.384 A353.1651 B-28.3478 
N475 X-183.303 Y-24.926 Z10.436 A350.6111 B-28.8490 
N476 X-183.330 Y-24.893 Z10.488 A347.9850 B-29.3271 
N477 X-183.361 Y-24.856 Z10.538 A345.2782 B-29.7799 
N478 X-183.397 Y-24.815 Z10.587 A342.4810 B-30.2052 
N479 X-183.436 Y-24.770 Z10.633 A339.5817 B-30.6000 
N480 X-183.480 Y-24.720 Z10.677 A336.5678 B-30.9609 
N481 X-183.529 Y-24.665 Z10.718 A333.4293 B-31.2828 
N482 X-183.582 Y-24.604 Z10.755 A330.1642 B-31.5593 
N483 X-183.639 Y-24.537 Z10.787 A326.7900 B-31.7827 
N484 X-183.701 Y-24.462 Z10.810 A323.3712 B-31.9443 
N485 X-183.766 Y-24.377 Z10.821 A320.1272 B-32.0373 
N486 X-183.832 Y-24.273 Z10.803 A317.8375 B-32.0675 
N487 X-183.896 Y-24.140 Z10.742 A317.3685 B-32.0692 
N488 X-183.958 Y-23.991 Z10.660 A317.5705 B-32.0667 
N489 X-184.022 Y-23.832 Z10.570 A317.8206 B-32.0635 
N490 X-184.085 Y-23.663 Z10.475 A318.0704 B-32.0598 
N491 X-184.148 Y-23.483 Z10.375 A318.3316 B-32.0553 
N492 X-184.210 Y-23.292 Z10.270 A318.6108 B-32.0500 
N493 X-184.271 Y-23.089 Z10.159 A318.9074 B-32.0438 
N494 X-184.330 Y-22.875 Z10.043 A319.2214 B-32.0365 
N495 X-184.387 Y-22.649 Z9.922 A319.5548 B-32.0280 
N496 X-184.441 Y-22.412 Z9.796 A319.9125 B-32.0180 
N497 X-184.490 Y-22.163 Z9.665 A320.3012 B-32.0062 
N498 X-184.535 Y-21.903 Z9.530 A320.7286 B-31.9921 
N499 X-184.573 Y-21.632 Z9.391 A321.2023 B-31.9752 
N500 X-184.610 Y-21.350 Z9.250 A321.7267 B-31.9552 
N501 X-184.650 Y-21.060 Z9.105 A322.3020 B-31.9314 
N502 X-184.692 Y-20.762 Z8.959 A322.9242 B-31.9033 
N503 X-184.736 Y-20.457 Z8.813 A323.5876 B-31.8708 
N504 X-184.782 Y-20.145 Z8.666 A324.2860 B-31.8335 
N505 X-184.830 Y-19.827 Z8.520 A325.0144 B-31.7914 
N506 X-184.880 Y-19.505 Z8.375 A325.7720 B-31.7442 
N507 X-184.931 Y-19.178 Z8.233 A326.5608 B-31.6912 
N508 X-184.985 Y-18.849 Z8.093 A327.3826 B-31.6320 
N509 X-185.040 Y-18.516 Z7.955 A328.2391 B-31.5659 
N510 X-185.096 Y-18.182 Z7.822 A329.1318 B-31.4923 
N511 X-185.154 Y-17.846 Z7.692 A330.0610 B-31.4107 
N512 X-185.214 Y-17.510 Z7.566 A331.0271 B-31.3204 
N513 X-185.276 Y-17.173 Z7.444 A332.0288 B-31.2209 
N514 X-185.339 Y-16.836 Z7.327 A333.0637 B-31.1119 
N515 X-185.403 Y-16.500 Z7.216 A334.1286 B-30.9931 
N516 X-185.469 Y-16.164 Z7.109 A335.2198 B-30.8644 
N517 X-185.537 Y-15.828 Z7.008 A336.3346 B-30.7257 
N518 X-185.606 Y-15.494 Z6.913 A337.4710 B-30.5767 
N519 X-185.676 Y-15.160 Z6.823 A338.6279 B-30.4173 
N520 X-185.748 Y-14.827 Z6.739 A339.8050 B-30.2470 
N521 X-185.822 Y-14.494 Z6.660 A341.0018 B-30.0656 
N522 X-185.897 Y-14.163 Z6.588 A342.2173 B-29.8727 
N523 X-185.973 Y-13.831 Z6.521 A343.4501 B-29.6684 
N524 X-186.052 Y-13.501 Z6.460 A344.6984 B-29.4525 
N525 X-186.132 Y-13.170 Z6.405 A345.9599 B-29.2251 
N526 X-186.214 Y-12.840 Z6.356 A347.2320 B-28.9865 
N527 X-186.297 Y-12.509 Z6.313 A348.5121 B-28.7370 
N528 X-186.383 Y-12.179 Z6.276 A349.7972 B-28.4770 
N529 X-186.470 Y-11.848 Z6.246 A351.0839 B-28.2072 
N530 X-186.560 Y-11.516 Z6.222 A352.3689 B-27.9282 
N531 X-186.652 Y-11.184 Z6.205 A353.6486 B-27.6410 
N532 X-186.746 Y-10.851 Z6.194 A354.9195 B-27.3465 
N533 X-186.842 Y-10.517 Z6.190 A356.1778 B-27.0458 
N534 X-186.941 Y-10.182 Z6.193 A357.4199 B-26.7401 
N535 X-187.042 Y-9.845 Z6.203 A358.6416 B-26.4309 
N536 X-187.145 Y-9.508 Z6.220 A359.8397 B-26.1194 
N537 X-187.252 Y-9.169 Z6.244 A1.0113 B-25.8069 
N538 X-187.360 Y-8.828 Z6.276 A2.1538 B-25.4946 
N539 X-187.472 Y-8.486 Z6.314 A3.2651 B-25.1838 
N540 X-187.586 Y-8.142 Z6.361 A4.3430 B-24.8755 
N541 X-187.702 Y-7.796 Z6.414 A5.3844 B-24.5714 
N542 X-187.821 Y-7.449 Z6.475 A6.3849 B-24.2734 
N543 X-187.943 Y-7.100 Z6.544 A7.3392 B-23.9836 
N544 X-188.067 Y-6.750 Z6.619 A8.2409 B-23.7047 
N545 X-188.193 Y-6.400 Z6.702 A9.0836 B-23.4393 
N546 X-188.322 Y-6.050 Z6.792 A9.8620 B-23.1900 
N547 X-188.452 Y-5.700 Z6.888 A10.5719 B-22.9587 
N548 X-188.583 Y-5.351 Z6.990 A11.2101 B-22.7474 
N549 X-188.716 Y-5.004 Z7.097 A11.7740 B-22.5541 
N550 X-188.852 Y-4.659 Z7.209 A12.2393 B-22.3171 
N551 X-188.993 Y-4.317 Z7.322 A12.5874 B-21.9865 
N552 X-189.139 Y-3.969 Z7.442 A12.7061 B-21.6264 
N553 X-189.283 Y-3.620 Z7.568 A12.7246 B-21.2987 
N554 X-189.423 Y-3.274 Z7.696 A12.6832 B-20.9912 
N555 X-189.559 Y-2.932 Z7.826 A12.5848 B-20.7023 
N556 X-189.689 Y-2.593 Z7.957 A12.4332 B-20.4304 
N557 X-189.815 Y-2.259 Z8.087 A12.2327 B-20.1740 
N558 X-189.936 Y-1.929 Z8.218 A11.9879 B-19.9317 
N559 X-190.051 Y-1.605 Z8.348 A11.7028 B-19.7016 
N560 X-190.161 Y-1.286 Z8.477 A11.3807 B-19.4827 
N561 X-190.267 Y-0.973 Z8.602 A11.0234 B-19.2743 
N562 X-190.367 Y-0.666 Z8.724 A10.6226 B-19.0320 
N563 X-190.457 Y-0.364 Z8.845 A10.1824 B-18.8164 
N564 X-190.539 Y-0.068 Z8.962 A9.6951 B-18.6122 
N565 X-190.611 Y0.221 Z9.077 A9.1533 B-18.4198 
N566 X-190.675 Y0.504 Z9.188 A8.5491 B-18.2397 
N567 X-190.731 Y0.779 Z9.295 A7.8751 B-18.0722 
N568 X-190.781 Y1.047 Z9.397 A7.1267 B-17.9167 
N569 X-190.824 Y1.307 Z9.495 A6.3053 B-17.7719 
N570 X-190.862 Y1.558 Z9.588 A5.4129 B-17.6363 
N571 X-190.895 Y1.802 Z9.676 A4.4505 B-17.5089 
N572 X-190.924 Y2.037 Z9.759 A3.4171 B-17.3891 
N573 X-190.950 Y2.263 Z9.836 A2.3054 B-17.2772 
N574 X-190.973 Y2.479 Z9.907 A1.1036 B-17.1742 
N575 X-190.994 Y2.685 Z9.973 A359.8137 B-17.0789 
N576 X-191.014 Y2.881 Z10.033 A358.4575 B-16.9884 
N577 X-191.033 Y3.068 Z10.087 A357.0566 B-16.8999 
N578 X-191.053 Y3.246 Z10.136 A355.6058 B-16.8144 
N579 X-191.072 Y3.413 Z10.180 A354.0778 B-16.7347 
N580 X-191.091 Y3.568 Z10.219 A352.4508 B-16.6625 
N581 X-191.111 Y3.713 Z10.254 A350.7270 B-16.5971 
N582 X-191.133 Y3.846 Z10.284 A348.9157 B-16.5369 
N583 X-191.156 Y3.970 Z10.312 A347.0237 B-16.4812 
N584 X-191.180 Y4.083 Z10.336 A345.0542 B-16.4294 
N585 X-191.205 Y4.186 Z10.358 A343.0115 B-16.3809 
N586 X-191.231 Y4.281 Z10.377 A340.9052 B-16.3347 
N587 X-191.256 Y4.367 Z10.395 A338.7399 B-16.3463 
N588 X-191.279 Y4.445 Z10.412 A336.5752 B-16.4481 
N589 X-191.303 Y4.516 Z10.427 A334.3924 B-16.5431 
N590 X-191.327 Y4.583 Z10.441 A332.2053 B-16.6299 
N591 X-191.352 Y4.646 Z10.452 A330.0270 B-16.7076 
N592 X-191.377 Y4.705 Z10.462 A327.8662 B-16.7761 
N593 X-191.401 Y4.762 Z10.471 A325.7283 B-16.8353 
N594 X-191.426 Y4.817 Z10.477 A323.6163 B-16.8854 
N595 X-191.451 Y4.869 Z10.482 A321.5298 B-16.9267 
N596 X-191.474 Y4.920 Z10.485 A319.4607 B-16.9595 
N597 X-191.494 Y4.970 Z10.487 A317.3992 B-16.9840 
N598 X-191.509 Y5.018 Z10.487 A315.3383 B-17.0004 
N599 X-191.519 Y5.067 Z10.486 A313.2768 B-17.0088 
N600 X-191.524 Y5.114 Z10.483 A311.2139 B-17.0090 
N601 X-191.526 Y5.160 Z10.478 A309.1475 B-17.0011 
N602 X-191.525 Y5.206 Z10.471 A307.0745 B-16.9849 
N603 X-191.523 Y5.252 Z10.463 A304.9907 B-16.9605 
N604 X-191.521 Y5.297 Z10.453 A302.8911 B-16.9275 
N605 X-191.520 Y5.341 Z10.441 A300.7716 B-16.8858 
N606 X-191.520 Y5.386 Z10.428 A298.6299 B-16.8351 
N607 X-191.523 Y5.430 Z10.412 A296.4650 B-16.7751 
N608 X-191.526 Y5.474 Z10.395 A294.2764 B-16.7056 
N609 X-191.531 Y5.517 Z10.375 A292.0643 B-16.6265 
N610 X-191.537 Y5.559 Z10.353 A289.8298 B-16.5375 
N611 X-191.545 Y5.602 Z10.329 A287.5743 B-16.4386 
N612 X-191.553 Y5.643 Z10.302 A285.2999 B-16.3298 
N613 X-191.563 Y5.684 Z10.273 A283.0093 B-16.2110 
N614 X-191.574 Y5.724 Z10.240 A280.7049 B-16.0825 
N615 X-191.586 Y5.764 Z10.205 A278.3898 B-15.9444 
N616 X-191.598 Y5.801 Z10.165 A276.0673 B-15.7970 
N617 X-191.611 Y5.838 Z10.122 A273.7418 B-15.6407 
N618 X-191.624 Y5.874 Z10.075 A271.4192 B-15.4761 
N619 X-191.636 Y5.909 Z10.022 A269.1079 B-15.3043 
N620 X-191.648 Y5.943 Z9.964 A266.8199 B-15.1266 
N621 X-191.659 Y5.974 Z9.898 A264.5713 B-14.9448 
N622 X-191.667 Y6.004 Z9.825 A262.3798 B-14.7612 
N623 X-191.672 Y6.031 Z9.743 A260.2608 B-14.5779 
N624 X-191.674 Y6.055 Z9.652 A258.2244 B-14.3969 
N625 X-191.670 Y6.076 Z9.551 A256.2676 B-14.2186 
N626 X-191.661 Y6.095 Z9.439 A254.3172 B-14.0872 
N627 X-191.650 Y6.111 Z9.319 A252.3402 B-13.9568 
N628 X-191.639 Y6.124 Z9.194 A250.2609 B-13.8113 
N629 X-191.626 Y6.137 Z9.066 A248.0264 B-13.6436 
N630 X-191.612 Y6.150 Z8.934 A245.6587 B-13.4547 
N631 X-191.597 Y6.160 Z8.794 A243.2606 B-13.2557 
N632 X-191.579 Y6.165 Z8.640 A240.9694 B-13.0638 
N633 X-191.558 Y6.162 Z8.469 A238.9216 B-12.8978 
N634 X-191.532 Y6.148 Z8.277 A237.2171 B-12.7731 
N635 X-191.502 Y6.121 Z8.066 A235.8923 B-12.6965 
N636 X-191.468 Y6.081 Z7.836 A234.9157 B-12.6651 
N637 X-191.429 Y6.028 Z7.591 A234.2118 B-12.6700 
N638 X-191.386 Y5.964 Z7.335 A233.6899 B-12.6997 
N639 X-191.339 Y5.892 Z7.071 A233.2692 B-12.7441 
N640 X-191.289 Y5.813 Z6.803 A232.8801 B-12.7946 
N641 X-191.236 Y5.727 Z6.532 A232.4639 B-12.8444 
N642 X-191.179 Y5.638 Z6.262 A231.9734 B-12.8883 
N643 X-191.120 Y5.545 Z5.993 A231.3745 B-12.9238 
N644 X-191.058 Y5.449 Z5.727 A230.6490 B-12.9515 
N645 X-190.992 Y5.351 Z5.464 A229.7996 B-12.9768 
N646 X-190.923 Y5.250 Z5.204 A228.8517 B-12.9859 
N647 X-190.855 Y5.145 Z4.946 A227.8527 B-12.9081 
N648 X-190.785 Y5.035 Z4.691 A226.8174 B-12.7918 
N649 X-190.712 Y4.921 Z4.438 A225.7647 B-12.6392 
N650 X-190.638 Y4.803 Z4.187 A224.7057 B-12.4521 
N651 X-190.562 Y4.679 Z3.938 A223.6467 B-12.2326 
N652 X-190.484 Y4.552 Z3.693 A222.5916 B-11.9824 
N653 X-190.404 Y4.419 Z3.450 A221.5424 B-11.7030 
N654 X-190.322 Y4.283 Z3.211 A220.4999 B-11.3956 
N655 X-190.238 Y4.142 Z2.975 A219.4629 B-11.0605 
N656 X-190.152 Y3.997 Z2.743 A218.4288 B-10.6979 
N657 X-190.064 Y3.849 Z2.516 A217.3957 B-10.3074 
N658 X-189.974 Y3.697 Z2.293 A216.3624 B-9.8891 
N659 X-189.882 Y3.541 Z2.076 A215.3282 B-9.4431 
N660 X-189.789 Y3.382 Z1.863 A214.2892 B-8.9790 
N661 X-189.692 Y3.221 Z1.655 A213.2373 B-8.5177 
N662 X-189.593 Y3.056 Z1.453 A212.1722 B-8.0609 
N663 X-189.494 Y2.894 Z1.263 A211.1559 B-7.6331 
N664 X-189.397 Y2.733 Z1.082 A210.1737 B-7.2208 
N665 X-189.301 Y2.570 Z0.906 A209.1722 B-6.8019 
N666 X-189.206 Y2.404 Z0.735 A208.1520 B-6.3767 
N667 X-189.112 Y2.236 Z0.570 A207.1137 B-5.9458 
N668 X-189.018 Y2.067 Z0.410 A206.0574 B-5.5095 
N669 X-188.925 Y1.896 Z0.255 A204.9836 B-5.0682 
N670 X-188.834 Y1.723 Z0.106 A203.8927 B-4.6225 
N671 X-188.743 Y1.548 Z-0.037 A202.7851 B-4.1728 
N672 X-188.653 Y1.372 Z-0.175 A201.6616 B-3.7197 
N673 X-188.564 Y1.195 Z-0.307 A200.5227 B-3.2639 
N674 X-188.477 Y1.017 Z-0.433 A199.3693 B-2.8060 
N675 X-188.390 Y0.838 Z-0.554 A198.2021 B-2.3467 
N676 X-188.305 Y0.658 Z-0.669 A197.0219 B-1.8866 
N677 X-188.221 Y0.477 Z-0.778 A195.8295 B-1.4264 
N678 X-188.138 Y0.295 Z-0.882 A194.6255 B-0.9668 
N679 X-188.056 Y0.112 Z-0.981 A193.4106 B-0.5083 
N680 X-187.976 Y-0.072 Z-1.075 A192.1856 B-0.0517 
N681 X-187.896 Y-0.256 Z-1.163 A190.9509 B0.4025 
N682 X-187.818 Y-0.441 Z-1.246 A189.7073 B0.8537 
N683 X-187.741 Y-0.627 Z-1.324 A188.4553 B1.3013 
N684 X-187.665 Y-0.814 Z-1.397 A187.1958 B1.7447 
N685 X-187.590 Y-1.001 Z-1.465 A185.9295 B2.1832 
N686 X-187.516 Y-1.189 Z-1.528 A184.6573 B2.6162 
N687 X-187.443 Y-1.378 Z-1.587 A183.3802 B3.0430 
N688 X-187.371 Y-1.569 Z-1.641 A182.0991 B3.4631 
N689 X-187.300 Y-1.760 Z-1.690 A180.8145 B3.8760 
N690 X-187.230 Y-1.952 Z-1.735 A179.5274 B4.2812 
N691 X-187.160 Y-2.146 Z-1.776 A178.2385 B4.6782 
N692 X-187.092 Y-2.340 Z-1.811 A176.9485 B5.0665 
N693 X-187.024 Y-2.536 Z-1.843 A175.6585 B5.4457 
N694 X-186.957 Y-2.734 Z-1.870 A174.3693 B5.8153 
N695 X-186.891 Y-2.933 Z-1.893 A173.0821 B6.1749 
N696 X-186.826 Y-3.134 Z-1.911 A171.7979 B6.5240 
N697 X-186.761 Y-3.337 Z-1.925 A170.5181 B6.8624 
N698 X-186.697 Y-3.541 Z-1.934 A169.2436 B7.1897 
N699 X-186.633 Y-3.748 Z-1.939 A167.9756 B7.5056 
N700 X-186.570 Y-3.957 Z-1.940 A166.7152 B7.8099 
N701 X-186.508 Y-4.168 Z-1.936 A165.4636 B8.1023 
N702 X-186.446 Y-4.381 Z-1.927 A164.2217 B8.3828 
N703 X-186.385 Y-4.597 Z-1.914 A162.9906 B8.6513 
N704 X-186.324 Y-4.816 Z-1.896 A161.7715 B8.9077 
N705 X-186.263 Y-5.037 Z-1.874 A160.5653 B9.1520 
N706 X-186.203 Y-5.262 Z-1.846 A159.3733 B9.3842 
N707 X-186.144 Y-5.489 Z-1.814 A158.1967 B9.6043 
N708 X-186.085 Y-5.719 Z-1.776 A157.0366 B9.8138 
N709 X-186.027 Y-5.952 Z-1.733 A155.8941 B10.0129 
N710 X-185.969 Y-6.189 Z-1.686 A154.7694 B10.1998 
N711 X-185.911 Y-6.429 Z-1.633 A153.6635 B10.3749 
N712 X-185.854 Y-6.671 Z-1.574 A152.5770 B10.5386 
N713 X-185.798 Y-6.918 Z-1.510 A151.5106 B10.6910 
N714 X-185.742 Y-7.167 Z-1.441 A150.4648 B10.8326 
N715 X-185.687 Y-7.420 Z-1.366 A149.4401 B10.9638 
N716 X-185.632 Y-7.676 Z-1.285 A148.4367 B11.0850 
N717 X-185.578 Y-7.935 Z-1.199 A147.4546 B11.1966 
N718 X-185.525 Y-8.198 Z-1.106 A146.4939 B11.2989 
N719 X-185.472 Y-8.464 Z-1.008 A145.5549 B11.3925 
N720 X-185.420 Y-8.733 Z-0.904 A144.6377 B11.4776 
N721 X-185.368 Y-9.006 Z-0.794 A143.7426 B11.5548 
N722 X-185.318 Y-9.281 Z-0.678 A142.8699 B11.6243 
N723 X-185.268 Y-9.560 Z-0.556 A142.0200 B11.6866 
N724 X-185.219 Y-9.842 Z-0.428 A141.1934 B11.7420 
N725 X-185.171 Y-10.127 Z-0.294 A140.3908 B11.7909 
N726 X-185.124 Y-10.416 Z-0.154 A139.6130 B11.8336 
N727 X-185.077 Y-10.707 Z-0.008 A138.8609 B11.8706 
N728 X-185.032 Y-11.002 Z0.145 A138.1356 B11.9021 
N729 X-184.987 Y-11.300 Z0.303 A137.4373 B11.9286 
N730 X-184.943 Y-11.601 Z0.468 A136.7662 B11.9505 
N731 X-184.900 Y-11.905 Z0.637 A136.1214 B11.9682 
N732 X-184.858 Y-12.212 Z0.814 A135.5020 B11.9821 
N733 X-184.817 Y-12.522 Z0.996 A134.9064 B11.9925 
N734 X-184.777 Y-12.834 Z1.184 A134.3338 B11.9998 
N735 X-184.738 Y-13.149 Z1.378 A133.7830 B12.0042 
N736 X-184.700 Y-13.466 Z1.577 A133.2537 B12.0060 
N737 X-184.663 Y-13.786 Z1.781 A132.7454 B12.0055 
N738 X-184.627 Y-14.109 Z1.991 A132.2577 B12.0029 
N739 X-184.592 Y-14.433 Z2.206 A131.7903 B11.9984 
N740 X-184.558 Y-14.760 Z2.426 A131.3429 B11.9922 
N741 X-184.524 Y-15.090 Z2.650 A130.9151 B11.9845 
N742 X-184.492 Y-15.421 Z2.880 A130.5066 B11.9756 
N743 X-184.461 Y-15.754 Z3.114 A130.1171 B11.9656 
N744 X-184.431 Y-16.089 Z3.353 A129.7464 B11.9546 
N745 X-184.401 Y-16.426 Z3.597 A129.3943 B11.9428 
N746 X-184.373 Y-16.765 Z3.844 A129.0609 B11.9304 
N747 X-184.345 Y-17.106 Z4.096 A128.7466 B11.9176 
N748 X-184.319 Y-17.447 Z4.351 A128.4520 B11.9044 
N749 X-184.293 Y-17.790 Z4.609 A128.1780 B11.8912 
N750 X-184.268 Y-18.134 Z4.871 A127.9245 B11.8781 
N751 X-184.244 Y-18.478 Z5.135 A127.6904 B11.8651 
N752 X-184.222 Y-18.822 Z5.401 A127.4736 B11.8522 
N753 X-184.199 Y-19.164 Z5.668 A127.2715 B11.8395 
N754 X-184.178 Y-19.505 Z5.935 A127.0823 B11.8270 
N755 X-184.158 Y-19.843 Z6.202 A126.9057 B11.8147 
N756 X-184.139 Y-20.176 Z6.466 A126.7422 B11.8027 
N757 X-184.121 Y-20.505 Z6.728 A126.5935 B11.7913 
N758 X-184.104 Y-20.826 Z6.986 A126.4609 B11.7805 
N759 X-184.087 Y-21.140 Z7.239 A126.3450 B11.7706 
N760 X-184.072 Y-21.444 Z7.485 A126.2453 B11.7615 
N761 X-184.058 Y-21.738 Z7.723 A126.1600 B11.7532 
N762 X-184.045 Y-22.019 Z7.952 A126.0865 B11.7457 
N763 X-184.032 Y-22.287 Z8.170 A126.0222 B11.7388 
N764 X-184.021 Y-22.540 Z8.377 A125.9650 B11.7324 
N765 X-184.010 Y-22.777 Z8.571 A125.9136 B11.7265 
N766 X-183.999 Y-22.998 Z8.753 A125.8677 B11.7211 
N767 X-183.989 Y-23.204 Z8.921 A125.8279 B11.7162 
N768 X-183.979 Y-23.394 Z9.077 A125.7952 B11.7119 
N769 X-183.969 Y-23.568 Z9.220 A125.7526 B11.7071 
N770 X-183.960 Y-23.716 Z9.340 A125.4201 B11.6822 
N771 X-183.948 Y-23.788 Z9.376 A123.2819 B11.5143 
N772 X-181.952 Y-31.980 Z3.999 
N773 G00 X-176.962 Y-52.459 Z-9.444 
N774 X-173.339 Y-63.950 Z-31.636 
N775 X-183.320 Y-22.992 Z-4.750 
N776 G01 X-183.314 Y-21.297 Z-2.120 F878 
N777 X-183.296 Y-20.498 Z0.904 
N778 X-183.267 Y-20.672 Z4.028 
N779 X-183.232 Y-21.803 Z6.945 
N780 M342 ; chlodziwo woda
N781 X-183.193 Y-23.780 Z9.369 
N782 X-183.177 Y-23.806 Z9.347 A119.6974 B11.1664 
N783 X-183.161 Y-23.821 Z9.308 A115.9636 B10.7145 
N784 X-183.144 Y-23.835 Z9.266 A112.3942 B10.1979 
N785 X-183.129 Y-23.850 Z9.225 A109.0480 B9.6395 
N786 X-183.114 Y-23.868 Z9.187 A105.9210 B9.0536 
N787 X-183.100 Y-23.888 Z9.152 A102.9887 B8.4488 
N788 X-183.086 Y-23.910 Z9.120 A100.2206 B7.8298 
N789 X-183.072 Y-23.934 Z9.091 A97.5870 B7.1982 
N790 X-183.057 Y-23.960 Z9.065 A95.0620 B6.5546 
N791 X-183.042 Y-23.987 Z9.042 A92.6241 B5.8988 
N792 X-183.028 Y-24.017 Z9.021 A90.2563 B5.2303 
N793 X-183.013 Y-24.047 Z9.004 A87.9453 B4.5488 
N794 X-182.999 Y-24.079 Z8.989 A85.6811 B3.8544 
N795 X-182.986 Y-24.113 Z8.978 A83.4565 B3.1473 
N796 X-182.972 Y-24.147 Z8.969 A81.2667 B2.4283 
N797 X-182.960 Y-24.182 Z8.963 A79.1086 B1.6984 
N798 X-182.948 Y-24.218 Z8.961 A76.9803 B0.9590 
N799 X-182.937 Y-24.255 Z8.961 A74.8820 B0.2081 
N800 X-182.927 Y-24.292 Z8.964 A72.8132 B-0.5524 
N801 X-182.918 Y-24.329 Z8.971 A70.7727 B-1.3193 
N802 X-182.910 Y-24.366 Z8.980 A68.7568 B-2.0810 
N803 X-182.903 Y-24.402 Z8.992 A66.7649 B-2.8355 
N804 X-182.897 Y-24.438 Z9.006 A64.8004 B-3.5907 
N805 X-182.893 Y-24.473 Z9.024 A62.8633 B-4.3471 
N806 X-182.889 Y-24.508 Z9.043 A60.9536 B-5.1053 
N807 X-182.886 Y-24.541 Z9.065 A59.0658 B-5.8609 
N808 X-182.882 Y-24.574 Z9.089 A57.1923 B-6.6156 
N809 X-182.878 Y-24.605 Z9.116 A55.3255 B-7.3715 
N810 X-182.871 Y-24.636 Z9.144 A53.4583 B-8.1302 
N811 X-182.861 Y-24.665 Z9.175 A51.5877 B-8.8918 
N812 X-182.850 Y-24.693 Z9.208 A49.7141 B-9.6553 
N813 X-182.836 Y-24.720 Z9.242 A47.8371 B-10.4195 
N814 X-182.821 Y-24.745 Z9.279 A45.9560 B-11.1837 
N815 X-182.805 Y-24.769 Z9.317 A44.0690 B-11.9475 
N816 X-182.788 Y-24.791 Z9.357 A42.1742 B-12.7106 
N817 X-182.770 Y-24.812 Z9.398 A40.2696 B-13.4726 
N818 X-182.751 Y-24.830 Z9.440 A38.3532 B-14.2331 
N819 X-182.731 Y-24.847 Z9.484 A36.4235 B-14.9917 
N820 X-182.712 Y-24.862 Z9.529 A34.4807 B-15.7519 
N821 X-182.692 Y-24.876 Z9.575 A32.5204 B-16.5052 
N822 X-182.672 Y-24.887 Z9.622 A30.5428 B-17.2543 
N823 X-182.653 Y-24.896 Z9.669 A28.5468 B-17.9981 
N824 X-182.635 Y-24.904 Z9.717 A26.5314 B-18.7357 
N825 X-182.617 Y-24.909 Z9.766 A24.4958 B-19.4661 
N826 X-182.601 Y-24.912 Z9.815 A22.4392 B-20.1882 
N827 X-182.585 Y-24.913 Z9.864 A20.3607 B-20.9009 
N828 X-182.571 Y-24.913 Z9.913 A18.2596 B-21.6031 
N829 X-182.559 Y-24.910 Z9.962 A16.1350 B-22.2936 
N830 X-182.550 Y-24.905 Z10.011 A13.9859 B-22.9715 
N831 X-182.542 Y-24.898 Z10.060 A11.8108 B-23.6356 
N832 X-182.537 Y-24.889 Z10.108 A9.6082 B-24.2850 
N833 X-182.535 Y-24.878 Z10.156 A7.3759 B-24.9187 
N834 X-182.535 Y-24.865 Z10.203 A5.1114 B-25.5360 
N835 X-182.539 Y-24.851 Z10.250 A2.8116 B-26.1360 
N836 X-182.545 Y-24.834 Z10.296 A0.4723 B-26.7180 
N837 X-182.554 Y-24.815 Z10.341 A358.0887 B-27.2812 
N838 X-182.566 Y-24.794 Z10.385 A355.6552 B-27.8248 
N839 X-182.582 Y-24.770 Z10.429 A353.1651 B-28.3478 
N840 X-182.601 Y-24.745 Z10.472 A350.6111 B-28.8490 
N841 X-182.623 Y-24.717 Z10.513 A347.9850 B-29.3271 
N842 X-182.650 Y-24.686 Z10.554 A345.2782 B-29.7799 
N843 X-182.681 Y-24.652 Z10.593 A342.4810 B-30.2052 
N844 X-182.716 Y-24.616 Z10.631 A339.5817 B-30.6000 
N845 X-182.755 Y-24.575 Z10.667 A336.5678 B-30.9609 
N846 X-182.799 Y-24.531 Z10.701 A333.4293 B-31.2828 
N847 X-182.848 Y-24.483 Z10.732 A330.1642 B-31.5593 
N848 X-182.901 Y-24.429 Z10.759 A326.7900 B-31.7827 
N849 X-182.959 Y-24.368 Z10.779 A323.3712 B-31.9443 
N850 X-183.021 Y-24.297 Z10.788 A320.1272 B-32.0373 
N851 X-183.085 Y-24.202 Z10.770 A317.8375 B-32.0675 
N852 X-183.149 Y-24.072 Z10.707 A317.3685 B-32.0692 
N853 X-183.211 Y-23.922 Z10.622 A317.5705 B-32.0667 
N854 X-183.275 Y-23.763 Z10.532 A317.8206 B-32.0635 
N855 X-183.338 Y-23.593 Z10.437 A318.0704 B-32.0598 
N856 X-183.401 Y-23.412 Z10.337 A318.3316 B-32.0553 
N857 X-183.464 Y-23.219 Z10.231 A318.6108 B-32.0500 
N858 X-183.525 Y-23.015 Z10.120 A318.9074 B-32.0438 
N859 X-183.585 Y-22.799 Z10.004 A319.2214 B-32.0365 
N860 X-183.642 Y-22.572 Z9.882 A319.5548 B-32.0280 
N861 X-183.696 Y-22.333 Z9.756 A319.9125 B-32.0180 
N862 X-183.746 Y-22.082 Z9.625 A320.3012 B-32.0062 
N863 X-183.791 Y-21.820 Z9.489 A320.7286 B-31.9921 
N864 X-183.829 Y-21.547 Z9.350 A321.2023 B-31.9752 
N865 X-183.868 Y-21.264 Z9.207 A321.7267 B-31.9552 
N866 X-183.908 Y-20.971 Z9.062 A322.3020 B-31.9314 
N867 X-183.951 Y-20.670 Z8.916 A322.9242 B-31.9033 
N868 X-183.996 Y-20.362 Z8.769 A323.5876 B-31.8708 
N869 X-184.042 Y-20.047 Z8.622 A324.2860 B-31.8335 
N870 X-184.091 Y-19.726 Z8.475 A325.0144 B-31.7914 
N871 X-184.142 Y-19.401 Z8.331 A325.7720 B-31.7442 
N872 X-184.195 Y-19.070 Z8.189 A326.5608 B-31.6912 
N873 X-184.249 Y-18.737 Z8.049 A327.3826 B-31.6320 
N874 X-184.305 Y-18.401 Z7.911 A328.2391 B-31.5659 
N875 X-184.362 Y-18.063 Z7.778 A329.1318 B-31.4923 
N876 X-184.422 Y-17.723 Z7.648 A330.0610 B-31.4107 
N877 X-184.484 Y-17.383 Z7.522 A331.0271 B-31.3204 
N878 X-184.547 Y-17.042 Z7.401 A332.0288 B-31.2209 
N879 X-184.611 Y-16.701 Z7.285 A333.0637 B-31.1119 
N880 X-184.677 Y-16.360 Z7.175 A334.1286 B-30.9931 
N881 X-184.745 Y-16.019 Z7.069 A335.2198 B-30.8644 
N882 X-184.814 Y-15.679 Z6.969 A336.3346 B-30.7257 
N883 X-184.885 Y-15.340 Z6.875 A337.4710 B-30.5767 
N884 X-184.958 Y-15.002 Z6.787 A338.6279 B-30.4173 
N885 X-185.031 Y-14.664 Z6.705 A339.8050 B-30.2470 
N886 X-185.107 Y-14.328 Z6.628 A341.0018 B-30.0656 
N887 X-185.184 Y-13.992 Z6.557 A342.2173 B-29.8727 
N888 X-185.263 Y-13.656 Z6.493 A343.4501 B-29.6684 
N889 X-185.343 Y-13.321 Z6.435 A344.6984 B-29.4525 
N890 X-185.426 Y-12.986 Z6.382 A345.9599 B-29.2251 
N891 X-185.510 Y-12.651 Z6.336 A347.2320 B-28.9865 
N892 X-185.595 Y-12.317 Z6.297 A348.5121 B-28.7370 
N893 X-185.683 Y-11.982 Z6.263 A349.7972 B-28.4770 
N894 X-185.773 Y-11.647 Z6.237 A351.0839 B-28.2072 
N895 X-185.865 Y-11.312 Z6.217 A352.3689 B-27.9282 
N896 X-185.959 Y-10.976 Z6.203 A353.6486 B-27.6410 
N897 X-186.055 Y-10.640 Z6.197 A354.9195 B-27.3465 
N898 X-186.154 Y-10.303 Z6.197 A356.1778 B-27.0458 
N899 X-186.255 Y-9.965 Z6.205 A357.4199 B-26.7401 
N900 X-186.358 Y-9.626 Z6.219 A358.6416 B-26.4309 
N901 X-186.463 Y-9.286 Z6.241 A359.8397 B-26.1194 
N902 X-186.571 Y-8.945 Z6.270 A1.0113 B-25.8069 
N903 X-186.682 Y-8.602 Z6.307 A2.1538 B-25.4946 
N904 X-186.795 Y-8.258 Z6.350 A3.2651 B-25.1838 
N905 X-186.911 Y-7.913 Z6.401 A4.3430 B-24.8755 
N906 X-187.029 Y-7.566 Z6.460 A5.3844 B-24.5714 
N907 X-187.150 Y-7.217 Z6.525 A6.3849 B-24.2734 
N908 X-187.273 Y-6.868 Z6.599 A7.3392 B-23.9836 
N909 X-187.398 Y-6.518 Z6.679 A8.2409 B-23.7047 
N910 X-187.526 Y-6.167 Z6.766 A9.0836 B-23.4393 
N911 X-187.655 Y-5.817 Z6.860 A9.8620 B-23.1900 
N912 X-187.786 Y-5.467 Z6.960 A10.5719 B-22.9587 
N913 X-187.919 Y-5.118 Z7.065 A11.2101 B-22.7474 
N914 X-188.052 Y-4.771 Z7.176 A11.7740 B-22.5541 
N915 X-188.189 Y-4.426 Z7.290 A12.2393 B-22.3171 
N916 X-188.330 Y-4.085 Z7.406 A12.5874 B-21.9865 
N917 X-188.476 Y-3.742 Z7.527 A12.7061 B-21.6264 
N918 X-188.618 Y-3.399 Z7.652 A12.7246 B-21.2987 
N919 X-188.756 Y-3.060 Z7.779 A12.6832 B-20.9912 
N920 X-188.890 Y-2.723 Z7.907 A12.5848 B-20.7023 
N921 X-189.019 Y-2.391 Z8.037 A12.4332 B-20.4304 
N922 X-189.143 Y-2.063 Z8.166 A12.2327 B-20.1740 
N923 X-189.262 Y-1.739 Z8.295 A11.9879 B-19.9317 
N924 X-189.375 Y-1.421 Z8.422 A11.7028 B-19.7016 
N925 X-189.484 Y-1.108 Z8.548 A11.3807 B-19.4827 
N926 X-189.588 Y-0.801 Z8.671 A11.0234 B-19.2743 
N927 X-189.686 Y-0.499 Z8.792 A10.6226 B-19.0320 
N928 X-189.776 Y-0.203 Z8.909 A10.1824 B-18.8164 
N929 X-189.855 Y0.088 Z9.023 A9.6951 B-18.6122 
N930 X-189.926 Y0.372 Z9.135 A9.1533 B-18.4198 
N931 X-189.989 Y0.650 Z9.243 A8.5491 B-18.2397 
N932 X-190.044 Y0.920 Z9.346 A7.8751 B-18.0722 
N933 X-190.092 Y1.183 Z9.446 A7.1267 B-17.9167 
N934 X-190.135 Y1.437 Z9.541 A6.3053 B-17.7719 
N935 X-190.172 Y1.684 Z9.631 A5.4129 B-17.6363 
N936 X-190.204 Y1.923 Z9.715 A4.4505 B-17.5089 
N937 X-190.232 Y2.154 Z9.794 A3.4171 B-17.3891 
N938 X-190.257 Y2.375 Z9.868 A2.3054 B-17.2772 
N939 X-190.279 Y2.586 Z9.936 A1.1036 B-17.1742 
N940 X-190.299 Y2.788 Z9.999 A359.8137 B-17.0789 
N941 X-190.319 Y2.980 Z10.056 A358.4575 B-16.9884 
N942 X-190.337 Y3.163 Z10.107 A357.0566 B-16.8999 
N943 X-190.356 Y3.336 Z10.152 A355.6058 B-16.8144 
N944 X-190.375 Y3.499 Z10.193 A354.0778 B-16.7347 
N945 X-190.393 Y3.651 Z10.229 A352.4508 B-16.6625 
N946 X-190.413 Y3.791 Z10.262 A350.7270 B-16.5971 
N947 X-190.434 Y3.921 Z10.290 A348.9157 B-16.5369 
N948 X-190.456 Y4.040 Z10.315 A347.0237 B-16.4812 
N949 X-190.480 Y4.149 Z10.337 A345.0542 B-16.4294 
N950 X-190.505 Y4.249 Z10.357 A343.0115 B-16.3809 
N951 X-190.531 Y4.339 Z10.374 A340.9052 B-16.3347 
N952 X-190.555 Y4.422 Z10.390 A338.7399 B-16.3463 
N953 X-190.578 Y4.497 Z10.405 A336.5752 B-16.4481 
N954 X-190.601 Y4.566 Z10.419 A334.3924 B-16.5431 
N955 X-190.625 Y4.630 Z10.431 A332.2053 B-16.6299 
N956 X-190.649 Y4.690 Z10.442 A330.0270 B-16.7076 
N957 X-190.674 Y4.746 Z10.451 A327.8662 B-16.7761 
N958 X-190.698 Y4.800 Z10.458 A325.7283 B-16.8353 
N959 X-190.723 Y4.852 Z10.465 A323.6163 B-16.8854 
N960 X-190.748 Y4.901 Z10.470 A321.5298 B-16.9267 
N961 X-190.771 Y4.949 Z10.473 A319.4607 B-16.9595 
N962 X-190.790 Y4.996 Z10.474 A317.3992 B-16.9840 
N963 X-190.805 Y5.042 Z10.475 A315.3383 B-17.0004 
N964 X-190.814 Y5.087 Z10.474 A313.2768 B-17.0088 
N965 X-190.820 Y5.131 Z10.471 A311.2139 B-17.0090 
N966 X-190.822 Y5.175 Z10.467 A309.1475 B-17.0011 
N967 X-190.820 Y5.218 Z10.462 A307.0745 B-16.9849 
N968 X-190.818 Y5.261 Z10.455 A304.9907 B-16.9605 
N969 X-190.815 Y5.304 Z10.447 A302.8911 B-16.9275 
N970 X-190.814 Y5.346 Z10.437 A300.7716 B-16.8858 
N971 X-190.815 Y5.388 Z10.425 A298.6299 B-16.8351 
N972 X-190.817 Y5.430 Z10.412 A296.4650 B-16.7751 
N973 X-190.821 Y5.472 Z10.397 A294.2764 B-16.7056 
N974 X-190.826 Y5.513 Z10.380 A292.0643 B-16.6265 
N975 X-190.832 Y5.554 Z10.360 A289.8298 B-16.5375 
N976 X-190.840 Y5.595 Z10.339 A287.5743 B-16.4386 
N977 X-190.848 Y5.635 Z10.315 A285.2999 B-16.3298 
N978 X-190.858 Y5.675 Z10.289 A283.0093 B-16.2110 
N979 X-190.869 Y5.715 Z10.259 A280.7049 B-16.0825 
N980 X-190.881 Y5.754 Z10.227 A278.3898 B-15.9444 
N981 X-190.894 Y5.792 Z10.191 A276.0673 B-15.7970 
N982 X-190.907 Y5.829 Z10.151 A273.7418 B-15.6407 
N983 X-190.920 Y5.866 Z10.107 A271.4192 B-15.4761 
N984 X-190.933 Y5.901 Z10.058 A269.1079 B-15.3043 
N985 X-190.945 Y5.936 Z10.003 A266.8199 B-15.1266 
N986 X-190.956 Y5.967 Z9.940 A264.5713 B-14.9448 
N987 X-190.964 Y5.998 Z9.870 A262.3798 B-14.7612 
N988 X-190.970 Y6.027 Z9.791 A260.2608 B-14.5779 
N989 X-190.972 Y6.052 Z9.702 A258.2244 B-14.3969 
N990 X-190.969 Y6.075 Z9.603 A256.2676 B-14.2186 
N991 X-190.960 Y6.095 Z9.494 A254.3172 B-14.0872 
N992 X-190.949 Y6.113 Z9.378 A252.3402 B-13.9568 
N993 X-190.938 Y6.128 Z9.257 A250.2609 B-13.8113 
N994 X-190.926 Y6.143 Z9.132 A248.0264 B-13.6436 
N995 X-190.912 Y6.157 Z9.004 A245.6587 B-13.4547 
N996 X-190.897 Y6.170 Z8.867 A243.2606 B-13.2557 
N997 X-190.880 Y6.177 Z8.718 A240.9694 B-13.0638 
N998 X-190.859 Y6.177 Z8.550 A238.9216 B-12.8978 
N999 X-190.834 Y6.166 Z8.363 A237.2171 B-12.7731 
N1000 X-190.804 Y6.141 Z8.155 A235.8923 B-12.6965 
N1001 X-190.770 Y6.103 Z7.930 A234.9157 B-12.6651 
N1002 X-190.732 Y6.054 Z7.689 A234.2118 B-12.6700 
N1003 X-190.690 Y5.994 Z7.438 A233.6899 B-12.6997 
N1004 X-190.644 Y5.925 Z7.179 A233.2692 B-12.7441 
N1005 X-190.595 Y5.849 Z6.915 A232.8801 B-12.7946 
N1006 X-190.542 Y5.767 Z6.649 A232.4639 B-12.8444 
N1007 X-190.487 Y5.681 Z6.383 A231.9734 B-12.8883 
N1008 X-190.429 Y5.593 Z6.119 A231.3745 B-12.9238 
N1009 X-190.368 Y5.501 Z5.857 A230.6490 B-12.9515 
N1010 X-190.303 Y5.408 Z5.599 A229.7996 B-12.9768 
N1011 X-190.235 Y5.311 Z5.344 A228.8517 B-12.9859 
N1012 X-190.168 Y5.211 Z5.091 A227.8527 B-12.9081 
N1013 X-190.100 Y5.107 Z4.840 A226.8174 B-12.7918 
N1014 X-190.029 Y4.998 Z4.591 A225.7647 B-12.6392 
N1015 X-189.957 Y4.885 Z4.344 A224.7057 B-12.4521 
N1016 X-189.883 Y4.768 Z4.100 A223.6467 B-12.2326 
N1017 X-189.807 Y4.646 Z3.858 A222.5916 B-11.9824 
N1018 X-189.728 Y4.521 Z3.619 A221.5424 B-11.7030 
N1019 X-189.648 Y4.391 Z3.384 A220.4999 B-11.3956 
N1020 X-189.567 Y4.257 Z3.151 A219.4629 B-11.0605 
N1021 X-189.483 Y4.119 Z2.923 A218.4288 B-10.6979 
N1022 X-189.397 Y3.978 Z2.699 A217.3957 B-10.3074 
N1023 X-189.310 Y3.833 Z2.479 A216.3624 B-9.8891 
N1024 X-189.221 Y3.685 Z2.263 A215.3282 B-9.4431 
N1025 X-189.130 Y3.535 Z2.052 A214.2892 B-8.9790 
N1026 X-189.036 Y3.381 Z1.846 A213.2373 B-8.5177 
N1027 X-188.940 Y3.225 Z1.645 A212.1722 B-8.0609 
N1028 X-188.842 Y3.069 Z1.453 A211.1559 B-7.6331 
N1029 X-188.746 Y2.912 Z1.269 A210.1737 B-7.2208 
N1030 X-188.651 Y2.753 Z1.090 A209.1722 B-6.8019 
N1031 X-188.556 Y2.592 Z0.915 A208.1520 B-6.3767 
N1032 X-188.462 Y2.429 Z0.746 A207.1137 B-5.9458 
N1033 X-188.369 Y2.264 Z0.581 A206.0574 B-5.5095 
N1034 X-188.276 Y2.096 Z0.422 A204.9836 B-5.0682 
N1035 X-188.184 Y1.927 Z0.269 A203.8927 B-4.6225 
N1036 X-188.094 Y1.757 Z0.121 A202.7851 B-4.1728 
N1037 X-188.004 Y1.585 Z-0.022 A201.6616 B-3.7197 
N1038 X-187.915 Y1.411 Z-0.160 A200.5227 B-3.2639 
N1039 X-187.827 Y1.236 Z-0.291 A199.3693 B-2.8060 
N1040 X-187.740 Y1.060 Z-0.418 A198.2021 B-2.3467 
N1041 X-187.655 Y0.883 Z-0.539 A197.0219 B-1.8866 
N1042 X-187.570 Y0.704 Z-0.654 A195.8295 B-1.4264 
N1043 X-187.486 Y0.525 Z-0.764 A194.6255 B-0.9668 
N1044 X-187.404 Y0.344 Z-0.869 A193.4106 B-0.5083 
N1045 X-187.322 Y0.162 Z-0.969 A192.1856 B-0.0517 
N1046 X-187.242 Y-0.020 Z-1.063 A190.9509 B0.4025 
N1047 X-187.163 Y-0.204 Z-1.153 A189.7073 B0.8537 
N1048 X-187.084 Y-0.389 Z-1.237 A188.4553 B1.3013 
N1049 X-187.007 Y-0.575 Z-1.317 A187.1958 B1.7447 
N1050 X-186.930 Y-0.762 Z-1.391 A185.9295 B2.1832 
N1051 X-186.855 Y-0.950 Z-1.461 A184.6573 B2.6162 
N1052 X-186.780 Y-1.140 Z-1.526 A183.3802 B3.0430 
N1053 X-186.706 Y-1.330 Z-1.586 A182.0991 B3.4631 
N1054 X-186.633 Y-1.523 Z-1.642 A180.8145 B3.8760 
N1055 X-186.561 Y-1.716 Z-1.693 A179.5274 B4.2812 
N1056 X-186.490 Y-1.911 Z-1.739 A178.2385 B4.6782 
N1057 X-186.420 Y-2.107 Z-1.781 A176.9485 B5.0665 
N1058 X-186.350 Y-2.306 Z-1.818 A175.6585 B5.4457 
N1059 X-186.281 Y-2.505 Z-1.851 A174.3693 B5.8153 
N1060 X-186.212 Y-2.707 Z-1.879 A173.0821 B6.1749 
N1061 X-186.144 Y-2.911 Z-1.902 A171.7979 B6.5240 
N1062 X-186.077 Y-3.117 Z-1.921 A170.5181 B6.8624 
N1063 X-186.011 Y-3.324 Z-1.935 A169.2436 B7.1897 
N1064 X-185.945 Y-3.535 Z-1.945 A167.9756 B7.5056 
N1065 X-185.879 Y-3.747 Z-1.950 A166.7152 B7.8099 
N1066 X-185.814 Y-3.962 Z-1.950 A165.4636 B8.1023 
N1067 X-185.750 Y-4.180 Z-1.946 A164.2217 B8.3828 
N1068 X-185.686 Y-4.400 Z-1.936 A162.9906 B8.6513 
N1069 X-185.623 Y-4.623 Z-1.922 A161.7715 B8.9077 
N1070 X-185.560 Y-4.849 Z-1.902 A160.5653 B9.1520 
N1071 X-185.498 Y-5.078 Z-1.878 A159.3733 B9.3842 
N1072 X-185.436 Y-5.309 Z-1.848 A158.1967 B9.6043 
N1073 X-185.375 Y-5.544 Z-1.813 A157.0366 B9.8138 
N1074 X-185.314 Y-5.782 Z-1.772 A155.8941 B10.0129 
N1075 X-185.254 Y-6.023 Z-1.727 A154.7694 B10.1998 
N1076 X-185.195 Y-6.268 Z-1.675 A153.6635 B10.3749 
N1077 X-185.136 Y-6.516 Z-1.619 A152.5770 B10.5386 
N1078 X-185.078 Y-6.767 Z-1.556 A151.5106 B10.6910 
N1079 X-185.020 Y-7.021 Z-1.488 A150.4648 B10.8326 
N1080 X-184.963 Y-7.278 Z-1.414 A149.4401 B10.9638 
N1081 X-184.906 Y-7.539 Z-1.334 A148.4367 B11.0850 
N1082 X-184.850 Y-7.803 Z-1.248 A147.4546 B11.1966 
N1083 X-184.795 Y-8.071 Z-1.156 A146.4939 B11.2989 
N1084 X-184.741 Y-8.341 Z-1.058 A145.5549 B11.3925 
N1085 X-184.687 Y-8.615 Z-0.954 A144.6377 B11.4776 
N1086 X-184.635 Y-8.892 Z-0.845 A143.7426 B11.5548 
N1087 X-184.583 Y-9.172 Z-0.728 A142.8699 B11.6243 
N1088 X-184.532 Y-9.455 Z-0.606 A142.0200 B11.6866 
N1089 X-184.481 Y-9.741 Z-0.478 A141.1934 B11.7420 
N1090 X-184.432 Y-10.030 Z-0.344 A140.3908 B11.7909 
N1091 X-184.384 Y-10.323 Z-0.203 A139.6130 B11.8336 
N1092 X-184.336 Y-10.618 Z-0.056 A138.8609 B11.8706 
N1093 X-184.290 Y-10.916 Z0.097 A138.1356 B11.9021 
N1094 X-184.244 Y-11.218 Z0.256 A137.4373 B11.9286 
N1095 X-184.199 Y-11.522 Z0.422 A136.7662 B11.9505 
N1096 X-184.156 Y-11.829 Z0.593 A136.1214 B11.9682 
N1097 X-184.113 Y-12.139 Z0.771 A135.5020 B11.9821 
N1098 X-184.071 Y-12.452 Z0.954 A134.9064 B11.9925 
N1099 X-184.031 Y-12.767 Z1.143 A134.3338 B11.9998 
N1100 X-183.991 Y-13.085 Z1.337 A133.7830 B12.0042 
N1101 X-183.952 Y-13.405 Z1.537 A133.2537 B12.0060 
N1102 X-183.915 Y-13.728 Z1.743 A132.7454 B12.0055 
N1103 X-183.878 Y-14.053 Z1.954 A132.2577 B12.0029 
N1104 X-183.842 Y-14.380 Z2.170 A131.7903 B11.9984 
N1105 X-183.808 Y-14.709 Z2.391 A131.3429 B11.9922 
N1106 X-183.774 Y-15.041 Z2.616 A130.9151 B11.9845 
N1107 X-183.741 Y-15.374 Z2.847 A130.5066 B11.9756 
N1108 X-183.710 Y-15.710 Z3.083 A130.1171 B11.9656 
N1109 X-183.679 Y-16.047 Z3.323 A129.7464 B11.9546 
N1110 X-183.649 Y-16.386 Z3.567 A129.3943 B11.9428 
N1111 X-183.621 Y-16.726 Z3.815 A129.0609 B11.9304 
N1112 X-183.593 Y-17.068 Z4.068 A128.7466 B11.9176 
N1113 X-183.566 Y-17.412 Z4.324 A128.4520 B11.9044 
N1114 X-183.540 Y-17.756 Z4.583 A128.1780 B11.8912 
N1115 X-183.515 Y-18.101 Z4.846 A127.9245 B11.8781 
N1116 X-183.491 Y-18.447 Z5.111 A127.6904 B11.8651 
N1117 X-183.468 Y-18.792 Z5.378 A127.4736 B11.8522 
N1118 X-183.446 Y-19.136 Z5.645 A127.2715 B11.8395 
N1119 X-183.425 Y-19.478 Z5.913 A127.0823 B11.8270 
N1120 X-183.405 Y-19.816 Z6.181 A126.9057 B11.8147 
N1121 X-183.385 Y-20.151 Z6.446 A126.7422 B11.8027 
N1122 X-183.367 Y-20.480 Z6.709 A126.5935 B11.7913 
N1123 X-183.350 Y-20.803 Z6.968 A126.4609 B11.7805 
N1124 X-183.333 Y-21.117 Z7.221 A126.3450 B11.7706 
N1125 X-183.318 Y-21.423 Z7.467 A126.2453 B11.7615 
N1126 X-183.304 Y-21.717 Z7.706 A126.1600 B11.7532 
N1127 X-183.290 Y-21.998 Z7.935 A126.0865 B11.7457 
N1128 X-183.278 Y-22.267 Z8.154 A126.0222 B11.7388 
N1129 X-183.267 Y-22.520 Z8.361 A125.9650 B11.7324 
N1130 X-183.256 Y-22.758 Z8.555 A125.9136 B11.7265 
N1131 X-183.245 Y-22.980 Z8.737 A125.8677 B11.7211 
N1132 X-183.235 Y-23.186 Z8.906 A125.8279 B11.7162 
N1133 X-183.225 Y-23.376 Z9.062 A125.7952 B11.7119 
N1134 X-183.215 Y-23.550 Z9.206 A125.7526 B11.7071 
N1135 X-183.205 Y-23.700 Z9.326 A125.4201 B11.6822 
N1136 X-183.193 Y-23.780 Z9.369 A123.2819 B11.5143 
N1137 X-181.197 Y-31.972 Z3.992 
N1138 G00 X-176.206 Y-52.451 Z-9.451 
N1139 X-172.584 Y-63.943 Z-31.643 
N1140 X-182.565 Y-22.985 Z-4.757 
N1141 G01 X-182.558 Y-21.290 Z-2.127 F878 
N1142 X-182.540 Y-20.490 Z0.898 
N1143 X-182.512 Y-20.665 Z4.021 
N1144 X-182.477 Y-21.796 Z6.938 
N1145 M342 ; chlodziwo woda
N1146 X-182.438 Y-23.773 Z9.363 
N1147 X-182.422 Y-23.812 Z9.353 A119.6974 B11.1664 
N1148 X-182.406 Y-23.839 Z9.328 A115.9636 B10.7145 
N1149 X-182.392 Y-23.863 Z9.300 A112.3942 B10.1979 
N1150 X-182.379 Y-23.888 Z9.273 A109.0480 B9.6395 
N1151 X-182.367 Y-23.911 Z9.250 A105.9210 B9.0536 
N1152 X-182.356 Y-23.936 Z9.228 A102.9887 B8.4488 
N1153 X-182.345 Y-23.962 Z9.209 A100.2206 B7.8298 
N1154 X-182.334 Y-23.988 Z9.192 A97.5870 B7.1982 
N1155 X-182.324 Y-24.015 Z9.178 A95.0620 B6.5546 
N1156 X-182.313 Y-24.043 Z9.166 A92.6241 B5.8988 
N1157 X-182.302 Y-24.071 Z9.157 A90.2563 B5.2303 
N1158 X-182.292 Y-24.100 Z9.150 A87.9453 B4.5488 
N1159 X-182.282 Y-24.130 Z9.145 A85.6811 B3.8544 
N1160 X-182.273 Y-24.160 Z9.143 A83.4565 B3.1473 
N1161 X-182.264 Y-24.191 Z9.143 A81.2667 B2.4283 
N1162 X-182.256 Y-24.221 Z9.146 A79.1086 B1.6984 
N1163 X-182.248 Y-24.252 Z9.152 A76.9803 B0.9590 
N1164 X-182.242 Y-24.283 Z9.159 A74.8820 B0.2081 
N1165 X-182.236 Y-24.313 Z9.170 A72.8132 B-0.5524 
N1166 X-182.230 Y-24.343 Z9.182 A70.7727 B-1.3193 
N1167 X-182.226 Y-24.373 Z9.197 A68.7568 B-2.0810 
N1168 X-182.223 Y-24.402 Z9.214 A66.7649 B-2.8355 
N1169 X-182.221 Y-24.430 Z9.232 A64.8004 B-3.5907 
N1170 X-182.220 Y-24.457 Z9.253 A62.8633 B-4.3471 
N1171 X-182.219 Y-24.482 Z9.276 A60.9536 B-5.1053 
N1172 X-182.219 Y-24.507 Z9.300 A59.0658 B-5.8609 
N1173 X-182.219 Y-24.531 Z9.325 A57.1923 B-6.6156 
N1174 X-182.216 Y-24.553 Z9.353 A55.3255 B-7.3715 
N1175 X-182.212 Y-24.575 Z9.382 A53.4583 B-8.1302 
N1176 X-182.205 Y-24.595 Z9.412 A51.5877 B-8.8918 
N1177 X-182.195 Y-24.614 Z9.444 A49.7141 B-9.6553 
N1178 X-182.183 Y-24.631 Z9.477 A47.8371 B-10.4195 
N1179 X-182.170 Y-24.647 Z9.511 A45.9560 B-11.1837 
N1180 X-182.155 Y-24.662 Z9.547 A44.0690 B-11.9475 
N1181 X-182.138 Y-24.675 Z9.583 A42.1742 B-12.7106 
N1182 X-182.121 Y-24.687 Z9.620 A40.2696 B-13.4726 
N1183 X-182.102 Y-24.697 Z9.658 A38.3532 B-14.2331 
N1184 X-182.083 Y-24.706 Z9.696 A36.4235 B-14.9917 
N1185 X-182.063 Y-24.713 Z9.736 A34.4807 B-15.7519 
N1186 X-182.043 Y-24.719 Z9.775 A32.5204 B-16.5052 
N1187 X-182.022 Y-24.723 Z9.815 A30.5428 B-17.2543 
N1188 X-182.002 Y-24.725 Z9.855 A28.5468 B-17.9981 
N1189 X-181.983 Y-24.726 Z9.896 A26.5314 B-18.7357 
N1190 X-181.963 Y-24.725 Z9.936 A24.4958 B-19.4661 
N1191 X-181.945 Y-24.723 Z9.976 A22.4392 B-20.1882 
N1192 X-181.927 Y-24.720 Z10.016 A20.3607 B-20.9009 
N1193 X-181.911 Y-24.715 Z10.056 A18.2596 B-21.6031 
N1194 X-181.897 Y-24.709 Z10.096 A16.1350 B-22.2936 
N1195 X-181.884 Y-24.701 Z10.135 A13.9859 B-22.9715 
N1196 X-181.874 Y-24.692 Z10.173 A11.8108 B-23.6356 
N1197 X-181.866 Y-24.682 Z10.211 A9.6082 B-24.2850 
N1198 X-181.860 Y-24.671 Z10.249 A7.3759 B-24.9187 
N1199 X-181.857 Y-24.658 Z10.286 A5.1114 B-25.5360 
N1200 X-181.857 Y-24.644 Z10.322 A2.8116 B-26.1360 
N1201 X-181.859 Y-24.629 Z10.358 A0.4723 B-26.7180 
N1202 X-181.864 Y-24.613 Z10.393 A358.0887 B-27.2812 
N1203 X-181.872 Y-24.596 Z10.427 A355.6552 B-27.8248 
N1204 X-181.883 Y-24.577 Z10.461 A353.1651 B-28.3478 
N1205 X-181.898 Y-24.557 Z10.494 A350.6111 B-28.8490 
N1206 X-181.916 Y-24.535 Z10.526 A347.9850 B-29.3271 
N1207 X-181.938 Y-24.512 Z10.558 A345.2782 B-29.7799 
N1208 X-181.965 Y-24.487 Z10.589 A342.4810 B-30.2052 
N1209 X-181.995 Y-24.459 Z10.619 A339.5817 B-30.6000 
N1210 X-182.030 Y-24.430 Z10.648 A336.5678 B-30.9609 
N1211 X-182.070 Y-24.397 Z10.676 A333.4293 B-31.2828 
N1212 X-182.114 Y-24.362 Z10.702 A330.1642 B-31.5593 
N1213 X-182.163 Y-24.321 Z10.726 A326.7900 B-31.7827 
N1214 X-182.217 Y-24.275 Z10.744 A323.3712 B-31.9443 
N1215 X-182.276 Y-24.217 Z10.753 A320.1272 B-32.0373 
N1216 X-182.338 Y-24.132 Z10.735 A317.8375 B-32.0675 
N1217 X-182.401 Y-24.005 Z10.670 A317.3685 B-32.0692 
N1218 X-182.464 Y-23.854 Z10.585 A317.5705 B-32.0667 
N1219 X-182.528 Y-23.694 Z10.495 A317.8206 B-32.0635 
N1220 X-182.591 Y-23.522 Z10.399 A318.0704 B-32.0598 
N1221 X-182.655 Y-23.340 Z10.299 A318.3316 B-32.0553 
N1222 X-182.718 Y-23.146 Z10.192 A318.6108 B-32.0500 
N1223 X-182.779 Y-22.941 Z10.081 A318.9074 B-32.0438 
N1224 X-182.839 Y-22.724 Z9.964 A319.2214 B-32.0365 
N1225 X-182.897 Y-22.495 Z9.843 A319.5548 B-32.0280 
N1226 X-182.951 Y-22.254 Z9.716 A319.9125 B-32.0180 
N1227 X-183.002 Y-22.002 Z9.585 A320.3012 B-32.0062 
N1228 X-183.047 Y-21.737 Z9.449 A320.7286 B-31.9921 
N1229 X-183.086 Y-21.462 Z9.309 A321.2023 B-31.9752 
N1230 X-183.125 Y-21.176 Z9.166 A321.7267 B-31.9552 
N1231 X-183.166 Y-20.882 Z9.021 A322.3020 B-31.9314 
N1232 X-183.210 Y-20.578 Z8.874 A322.9242 B-31.9033 
N1233 X-183.255 Y-20.267 Z8.726 A323.5876 B-31.8708 
N1234 X-183.303 Y-19.949 Z8.579 A324.2860 B-31.8335 
N1235 X-183.352 Y-19.625 Z8.433 A325.0144 B-31.7914 
N1236 X-183.404 Y-19.296 Z8.288 A325.7720 B-31.7442 
N1237 X-183.458 Y-18.962 Z8.145 A326.5608 B-31.6912 
N1238 X-183.514 Y-18.625 Z8.005 A327.3826 B-31.6320 
N1239 X-183.571 Y-18.286 Z7.868 A328.2391 B-31.5659 
N1240 X-183.629 Y-17.944 Z7.734 A329.1318 B-31.4923 
N1241 X-183.690 Y-17.600 Z7.605 A330.0610 B-31.4107 
N1242 X-183.753 Y-17.256 Z7.479 A331.0271 B-31.3204 
N1243 X-183.818 Y-16.910 Z7.359 A332.0288 B-31.2209 
N1244 X-183.884 Y-16.565 Z7.244 A333.0637 B-31.1119 
N1245 X-183.952 Y-16.220 Z7.134 A334.1286 B-30.9931 
N1246 X-184.021 Y-15.875 Z7.029 A335.2198 B-30.8644 
N1247 X-184.092 Y-15.530 Z6.931 A336.3346 B-30.7257 
N1248 X-184.165 Y-15.187 Z6.838 A337.4710 B-30.5767 
N1249 X-184.239 Y-14.844 Z6.751 A338.6279 B-30.4173 
N1250 X-184.315 Y-14.502 Z6.672 A339.8050 B-30.2470 
N1251 X-184.392 Y-14.161 Z6.597 A341.0018 B-30.0656 
N1252 X-184.471 Y-13.820 Z6.529 A342.2173 B-29.8727 
N1253 X-184.552 Y-13.480 Z6.467 A343.4501 B-29.6684 
N1254 X-184.635 Y-13.140 Z6.411 A344.6984 B-29.4525 
N1255 X-184.719 Y-12.801 Z6.362 A345.9599 B-29.2251 
N1256 X-184.806 Y-12.463 Z6.319 A347.2320 B-28.9865 
N1257 X-184.894 Y-12.124 Z6.283 A348.5121 B-28.7370 
N1258 X-184.984 Y-11.785 Z6.253 A349.7972 B-28.4770 
N1259 X-185.076 Y-11.447 Z6.230 A351.0839 B-28.2072 
N1260 X-185.170 Y-11.108 Z6.214 A352.3689 B-27.9282 
N1261 X-185.266 Y-10.769 Z6.205 A353.6486 B-27.6410 
N1262 X-185.365 Y-10.429 Z6.203 A354.9195 B-27.3465 
N1263 X-185.465 Y-10.089 Z6.208 A356.1778 B-27.0458 
N1264 X-185.568 Y-9.748 Z6.220 A357.4199 B-26.7401 
N1265 X-185.674 Y-9.407 Z6.239 A358.6416 B-26.4309 
N1266 X-185.781 Y-9.065 Z6.266 A359.8397 B-26.1194 
N1267 X-185.891 Y-8.721 Z6.300 A1.0113 B-25.8069 
N1268 X-186.004 Y-8.377 Z6.341 A2.1538 B-25.4946 
N1269 X-186.119 Y-8.031 Z6.389 A3.2651 B-25.1838 
N1270 X-186.236 Y-7.684 Z6.445 A4.3430 B-24.8755 
N1271 X-186.356 Y-7.336 Z6.508 A5.3844 B-24.5714 
N1272 X-186.478 Y-6.987 Z6.579 A6.3849 B-24.2734 
N1273 X-186.603 Y-6.637 Z6.657 A7.3392 B-23.9836 
N1274 X-186.729 Y-6.286 Z6.741 A8.2409 B-23.7047 
N1275 X-186.858 Y-5.935 Z6.832 A9.0836 B-23.4393 
N1276 X-186.989 Y-5.585 Z6.930 A9.8620 B-23.1900 
N1277 X-187.121 Y-5.235 Z7.034 A10.5719 B-22.9587 
N1278 X-187.254 Y-4.886 Z7.143 A11.2101 B-22.7474 
N1279 X-187.388 Y-4.538 Z7.257 A11.7740 B-22.5541 
N1280 X-187.526 Y-4.194 Z7.374 A12.2393 B-22.3171 
N1281 X-187.668 Y-3.852 Z7.491 A12.5874 B-21.9865 
N1282 X-187.812 Y-3.514 Z7.613 A12.7061 B-21.6264 
N1283 X-187.953 Y-3.178 Z7.737 A12.7246 B-21.2987 
N1284 X-188.089 Y-2.845 Z7.863 A12.6832 B-20.9912 
N1285 X-188.221 Y-2.515 Z7.990 A12.5848 B-20.7023 
N1286 X-188.348 Y-2.189 Z8.118 A12.4332 B-20.4304 
N1287 X-188.470 Y-1.867 Z8.245 A12.2327 B-20.1740 
N1288 X-188.588 Y-1.549 Z8.372 A11.9879 B-19.9317 
N1289 X-188.700 Y-1.237 Z8.497 A11.7028 B-19.7016 
N1290 X-188.807 Y-0.929 Z8.619 A11.3807 B-19.4827 
N1291 X-188.909 Y-0.628 Z8.740 A11.0234 B-19.2743 
N1292 X-189.006 Y-0.332 Z8.857 A10.6226 B-19.0320 
N1293 X-189.094 Y-0.041 Z8.972 A10.1824 B-18.8164 
N1294 X-189.172 Y0.244 Z9.084 A9.6951 B-18.6122 
N1295 X-189.242 Y0.523 Z9.193 A9.1533 B-18.4198 
N1296 X-189.303 Y0.796 Z9.297 A8.5491 B-18.2397 
N1297 X-189.357 Y1.061 Z9.398 A7.8751 B-18.0722 
N1298 X-189.404 Y1.318 Z9.494 A7.1267 B-17.9167 
N1299 X-189.446 Y1.568 Z9.586 A6.3053 B-17.7719 
N1300 X-189.481 Y1.811 Z9.673 A5.4129 B-17.6363 
N1301 X-189.513 Y2.045 Z9.754 A4.4505 B-17.5089 
N1302 X-189.540 Y2.270 Z9.830 A3.4171 B-17.3891 
N1303 X-189.564 Y2.487 Z9.900 A2.3054 B-17.2772 
N1304 X-189.585 Y2.694 Z9.965 A1.1036 B-17.1742 
N1305 X-189.605 Y2.891 Z10.024 A359.8137 B-17.0789 
N1306 X-189.623 Y3.079 Z10.078 A358.4575 B-16.9884 
N1307 X-189.641 Y3.258 Z10.126 A357.0566 B-16.8999 
N1308 X-189.659 Y3.427 Z10.169 A355.6058 B-16.8144 
N1309 X-189.677 Y3.586 Z10.207 A354.0778 B-16.7347 
N1310 X-189.695 Y3.733 Z10.240 A352.4508 B-16.6625 
N1311 X-189.714 Y3.870 Z10.270 A350.7270 B-16.5971 
N1312 X-189.735 Y3.995 Z10.295 A348.9157 B-16.5369 
N1313 X-189.757 Y4.110 Z10.318 A347.0237 B-16.4812 
N1314 X-189.780 Y4.216 Z10.338 A345.0542 B-16.4294 
N1315 X-189.804 Y4.311 Z10.355 A343.0115 B-16.3809 
N1316 X-189.830 Y4.398 Z10.370 A340.9052 B-16.3347 
N1317 X-189.854 Y4.477 Z10.385 A338.7399 B-16.3463 
N1318 X-189.876 Y4.549 Z10.398 A336.5752 B-16.4481 
N1319 X-189.899 Y4.615 Z10.411 A334.3924 B-16.5431 
N1320 X-189.923 Y4.676 Z10.421 A332.2053 B-16.6299 
N1321 X-189.947 Y4.733 Z10.431 A330.0270 B-16.7076 
N1322 X-189.971 Y4.787 Z10.439 A327.8662 B-16.7761 
N1323 X-189.995 Y4.838 Z10.446 A325.7283 B-16.8353 
N1324 X-190.020 Y4.887 Z10.451 A323.6163 B-16.8854 
N1325 X-190.044 Y4.933 Z10.456 A321.5298 B-16.9267 
N1326 X-190.067 Y4.978 Z10.459 A319.4607 B-16.9595 
N1327 X-190.086 Y5.022 Z10.461 A317.3992 B-16.9840 
N1328 X-190.100 Y5.065 Z10.461 A315.3383 B-17.0004 
N1329 X-190.110 Y5.107 Z10.461 A313.2768 B-17.0088 
N1330 X-190.115 Y5.149 Z10.459 A311.2139 B-17.0090 
N1331 X-190.117 Y5.190 Z10.457 A309.1475 B-17.0011 
N1332 X-190.115 Y5.231 Z10.453 A307.0745 B-16.9849 
N1333 X-190.113 Y5.271 Z10.447 A304.9907 B-16.9605 
N1334 X-190.110 Y5.311 Z10.441 A302.8911 B-16.9275 
N1335 X-190.109 Y5.351 Z10.432 A300.7716 B-16.8858 
N1336 X-190.110 Y5.391 Z10.423 A298.6299 B-16.8351 
N1337 X-190.112 Y5.430 Z10.412 A296.4650 B-16.7751 
N1338 X-190.116 Y5.470 Z10.399 A294.2764 B-16.7056 
N1339 X-190.121 Y5.510 Z10.384 A292.0643 B-16.6265 
N1340 X-190.127 Y5.549 Z10.368 A289.8298 B-16.5375 
N1341 X-190.134 Y5.589 Z10.349 A287.5743 B-16.4386 
N1342 X-190.143 Y5.628 Z10.328 A285.2999 B-16.3298 
N1343 X-190.153 Y5.667 Z10.305 A283.0093 B-16.2110 
N1344 X-190.165 Y5.705 Z10.279 A280.7049 B-16.0825 
N1345 X-190.177 Y5.743 Z10.249 A278.3898 B-15.9444 
N1346 X-190.190 Y5.781 Z10.217 A276.0673 B-15.7970 
N1347 X-190.203 Y5.819 Z10.180 A273.7418 B-15.6407 
N1348 X-190.217 Y5.856 Z10.140 A271.4192 B-15.4761 
N1349 X-190.230 Y5.892 Z10.094 A269.1079 B-15.3043 
N1350 X-190.242 Y5.927 Z10.041 A266.8199 B-15.1266 
N1351 X-190.253 Y5.960 Z9.982 A264.5713 B-14.9448 
N1352 X-190.262 Y5.992 Z9.915 A262.3798 B-14.7612 
N1353 X-190.268 Y6.022 Z9.838 A260.2608 B-14.5779 
N1354 X-190.270 Y6.049 Z9.752 A258.2244 B-14.3969 
N1355 X-190.267 Y6.074 Z9.655 A256.2676 B-14.2186 
N1356 X-190.259 Y6.095 Z9.550 A254.3172 B-14.0872 
N1357 X-190.249 Y6.115 Z9.437 A252.3402 B-13.9568 
N1358 X-190.237 Y6.132 Z9.319 A250.2609 B-13.8113 
N1359 X-190.225 Y6.149 Z9.199 A248.0264 B-13.6436 
N1360 X-190.212 Y6.165 Z9.074 A245.6587 B-13.4547 
N1361 X-190.198 Y6.179 Z8.941 A243.2606 B-13.2557 
N1362 X-190.181 Y6.189 Z8.795 A240.9694 B-13.0638 
N1363 X-190.160 Y6.191 Z8.632 A238.9216 B-12.8978 
N1364 X-190.136 Y6.183 Z8.448 A237.2171 B-12.7731 
N1365 X-190.107 Y6.161 Z8.245 A235.8923 B-12.6965 
N1366 X-190.073 Y6.126 Z8.024 A234.9157 B-12.6651 
N1367 X-190.035 Y6.079 Z7.787 A234.2118 B-12.6700 
N1368 X-189.994 Y6.023 Z7.540 A233.6899 B-12.6997 
N1369 X-189.949 Y5.957 Z7.286 A233.2692 B-12.7441 
N1370 X-189.900 Y5.885 Z7.027 A232.8801 B-12.7946 
N1371 X-189.849 Y5.807 Z6.765 A232.4639 B-12.8444 
N1372 X-189.794 Y5.725 Z6.504 A231.9734 B-12.8883 
N1373 X-189.737 Y5.640 Z6.244 A231.3745 B-12.9238 
N1374 X-189.677 Y5.553 Z5.988 A230.6490 B-12.9515 
N1375 X-189.614 Y5.464 Z5.734 A229.7996 B-12.9768 
N1376 X-189.547 Y5.372 Z5.483 A228.8517 B-12.9859 
N1377 X-189.482 Y5.277 Z5.235 A227.8527 B-12.9081 
N1378 X-189.415 Y5.178 Z4.989 A226.8174 B-12.7918 
N1379 X-189.346 Y5.074 Z4.745 A225.7647 B-12.6392 
N1380 X-189.275 Y4.967 Z4.502 A224.7057 B-12.4521 
N1381 X-189.203 Y4.855 Z4.262 A223.6467 B-12.2326 
N1382 X-189.129 Y4.739 Z4.025 A222.5916 B-11.9824 
N1383 X-189.053 Y4.620 Z3.790 A221.5424 B-11.7030 
N1384 X-188.975 Y4.496 Z3.558 A220.4999 B-11.3956 
N1385 X-188.895 Y4.369 Z3.330 A219.4629 B-11.0605 
N1386 X-188.814 Y4.239 Z3.104 A218.4288 B-10.6979 
N1387 X-188.731 Y4.105 Z2.883 A217.3957 B-10.3074 
N1388 X-188.646 Y3.967 Z2.666 A216.3624 B-9.8891 
N1389 X-188.559 Y3.827 Z2.453 A215.3282 B-9.4431 
N1390 X-188.471 Y3.684 Z2.244 A214.2892 B-8.9790 
N1391 X-188.380 Y3.538 Z2.040 A213.2373 B-8.5177 
N1392 X-188.286 Y3.390 Z1.841 A212.1722 B-8.0609 
N1393 X-188.191 Y3.240 Z1.648 A211.1559 B-7.6331 
N1394 X-188.095 Y3.088 Z1.460 A210.1737 B-7.2208 
N1395 X-188.000 Y2.934 Z1.277 A209.1722 B-6.8019 
N1396 X-187.906 Y2.777 Z1.099 A208.1520 B-6.3767 
N1397 X-187.812 Y2.618 Z0.926 A207.1137 B-5.9458 
N1398 X-187.719 Y2.457 Z0.758 A206.0574 B-5.5095 
N1399 X-187.627 Y2.294 Z0.594 A204.9836 B-5.0682 
N1400 X-187.535 Y2.129 Z0.436 A203.8927 B-4.6225 
N1401 X-187.445 Y1.962 Z0.283 A202.7851 B-4.1728 
N1402 X-187.355 Y1.794 Z0.135 A201.6616 B-3.7197 
N1403 X-187.266 Y1.624 Z-0.007 A200.5227 B-3.2639 
N1404 X-187.178 Y1.452 Z-0.144 A199.3693 B-2.8060 
N1405 X-187.091 Y1.280 Z-0.276 A198.2021 B-2.3467 
N1406 X-187.005 Y1.105 Z-0.403 A197.0219 B-1.8866 
N1407 X-186.919 Y0.929 Z-0.524 A195.8295 B-1.4264 
N1408 X-186.835 Y0.752 Z-0.640 A194.6255 B-0.9668 
N1409 X-186.752 Y0.574 Z-0.751 A193.4106 B-0.5083 
N1410 X-186.669 Y0.394 Z-0.857 A192.1856 B-0.0517 
N1411 X-186.588 Y0.213 Z-0.958 A190.9509 B0.4025 
N1412 X-186.507 Y0.031 Z-1.054 A189.7073 B0.8537 
N1413 X-186.428 Y-0.153 Z-1.145 A188.4553 B1.3013 
N1414 X-186.349 Y-0.338 Z-1.231 A187.1958 B1.7447 
N1415 X-186.271 Y-0.525 Z-1.312 A185.9295 B2.1832 
N1416 X-186.194 Y-0.713 Z-1.388 A184.6573 B2.6162 
N1417 X-186.117 Y-0.902 Z-1.459 A183.3802 B3.0430 
N1418 X-186.042 Y-1.093 Z-1.526 A182.0991 B3.4631 
N1419 X-185.967 Y-1.286 Z-1.588 A180.8145 B3.8760 
N1420 X-185.893 Y-1.480 Z-1.645 A179.5274 B4.2812 
N1421 X-185.820 Y-1.677 Z-1.697 A178.2385 B4.6782 
N1422 X-185.747 Y-1.875 Z-1.745 A176.9485 B5.0665 
N1423 X-185.675 Y-2.075 Z-1.788 A175.6585 B5.4457 
N1424 X-185.604 Y-2.277 Z-1.827 A174.3693 B5.8153 
N1425 X-185.533 Y-2.481 Z-1.860 A173.0821 B6.1749 
N1426 X-185.463 Y-2.687 Z-1.889 A171.7979 B6.5240 
N1427 X-185.393 Y-2.896 Z-1.913 A170.5181 B6.8624 
N1428 X-185.325 Y-3.107 Z-1.933 A169.2436 B7.1897 
N1429 X-185.256 Y-3.321 Z-1.947 A167.9756 B7.5056 
N1430 X-185.188 Y-3.537 Z-1.957 A166.7152 B7.8099 
N1431 X-185.121 Y-3.756 Z-1.961 A165.4636 B8.1023 
N1432 X-185.054 Y-3.977 Z-1.961 A164.2217 B8.3828 
N1433 X-184.988 Y-4.202 Z-1.955 A162.9906 B8.6513 
N1434 X-184.922 Y-4.429 Z-1.944 A161.7715 B8.9077 
N1435 X-184.857 Y-4.659 Z-1.928 A160.5653 B9.1520 
N1436 X-184.793 Y-4.893 Z-1.907 A159.3733 B9.3842 
N1437 X-184.729 Y-5.129 Z-1.880 A158.1967 B9.6043 
N1438 X-184.665 Y-5.369 Z-1.848 A157.0366 B9.8138 
N1439 X-184.602 Y-5.612 Z-1.810 A155.8941 B10.0129 
N1440 X-184.540 Y-5.858 Z-1.766 A154.7694 B10.1998 
N1441 X-184.479 Y-6.107 Z-1.717 A153.6635 B10.3749 
N1442 X-184.418 Y-6.360 Z-1.662 A152.5770 B10.5386 
N1443 X-184.357 Y-6.615 Z-1.601 A151.5106 B10.6910 
N1444 X-184.297 Y-6.874 Z-1.534 A150.4648 B10.8326 
N1445 X-184.238 Y-7.137 Z-1.461 A149.4401 B10.9638 
N1446 X-184.180 Y-7.402 Z-1.382 A148.4367 B11.0850 
N1447 X-184.123 Y-7.671 Z-1.297 A147.4546 B11.1966 
N1448 X-184.066 Y-7.943 Z-1.206 A146.4939 B11.2989 
N1449 X-184.010 Y-8.218 Z-1.108 A145.5549 B11.3925 
N1450 X-183.955 Y-8.496 Z-1.004 A144.6377 B11.4776 
N1451 X-183.901 Y-8.777 Z-0.895 A143.7426 B11.5548 
N1452 X-183.847 Y-9.062 Z-0.778 A142.8699 B11.6243 
N1453 X-183.795 Y-9.349 Z-0.656 A142.0200 B11.6866 
N1454 X-183.744 Y-9.639 Z-0.527 A141.1934 B11.7420 
N1455 X-183.693 Y-9.933 Z-0.392 A140.3908 B11.7909 
N1456 X-183.644 Y-10.229 Z-0.251 A139.6130 B11.8336 
N1457 X-183.595 Y-10.528 Z-0.103 A138.8609 B11.8706 
N1458 X-183.548 Y-10.830 Z0.051 A138.1356 B11.9021 
N1459 X-183.501 Y-11.135 Z0.211 A137.4373 B11.9286 
N1460 X-183.456 Y-11.443 Z0.377 A136.7662 B11.9505 
N1461 X-183.411 Y-11.753 Z0.549 A136.1214 B11.9682 
N1462 X-183.368 Y-12.067 Z0.728 A135.5020 B11.9821 
N1463 X-183.325 Y-12.382 Z0.912 A134.9064 B11.9925 
N1464 X-183.284 Y-12.701 Z1.102 A134.3338 B11.9998 
N1465 X-183.244 Y-13.021 Z1.297 A133.7830 B12.0042 
N1466 X-183.204 Y-13.344 Z1.498 A133.2537 B12.0060 
N1467 X-183.166 Y-13.670 Z1.705 A132.7454 B12.0055 
N1468 X-183.129 Y-13.997 Z1.916 A132.2577 B12.0029 
N1469 X-183.093 Y-14.327 Z2.133 A131.7903 B11.9984 
N1470 X-183.058 Y-14.658 Z2.355 A131.3429 B11.9922 
N1471 X-183.024 Y-14.992 Z2.582 A130.9151 B11.9845 
N1472 X-182.991 Y-15.328 Z2.814 A130.5066 B11.9756 
N1473 X-182.959 Y-15.665 Z3.051 A130.1171 B11.9656 
N1474 X-182.928 Y-16.004 Z3.292 A129.7464 B11.9546 
N1475 X-182.898 Y-16.345 Z3.537 A129.3943 B11.9428 
N1476 X-182.869 Y-16.688 Z3.786 A129.0609 B11.9304 
N1477 X-182.841 Y-17.031 Z4.040 A128.7466 B11.9176 
N1478 X-182.814 Y-17.376 Z4.297 A128.4520 B11.9044 
N1479 X-182.788 Y-17.722 Z4.557 A128.1780 B11.8912 
N1480 X-182.763 Y-18.069 Z4.821 A127.9245 B11.8781 
N1481 X-182.738 Y-18.416 Z5.087 A127.6904 B11.8651 
N1482 X-182.715 Y-18.762 Z5.354 A127.4736 B11.8522 
N1483 X-182.693 Y-19.107 Z5.623 A127.2715 B11.8395 
N1484 X-182.671 Y-19.450 Z5.892 A127.0823 B11.8270 
N1485 X-182.651 Y-19.790 Z6.160 A126.9057 B11.8147 
N1486 X-182.631 Y-20.126 Z6.426 A126.7422 B11.8027 
N1487 X-182.613 Y-20.456 Z6.689 A126.5935 B11.7913 
N1488 X-182.596 Y-20.779 Z6.949 A126.4609 B11.7805 
N1489 X-182.579 Y-21.095 Z7.203 A126.3450 B11.7706 
N1490 X-182.564 Y-21.401 Z7.450 A126.2453 B11.7615 
N1491 X-182.549 Y-21.695 Z7.689 A126.1600 B11.7532 
N1492 X-182.536 Y-21.978 Z7.918 A126.0865 B11.7457 
N1493 X-182.524 Y-22.246 Z8.137 A126.0222 B11.7388 
N1494 X-182.512 Y-22.500 Z8.345 A125.9650 B11.7324 
N1495 X-182.501 Y-22.739 Z8.540 A125.9136 B11.7265 
N1496 X-182.490 Y-22.961 Z8.722 A125.8677 B11.7211 
N1497 X-182.480 Y-23.167 Z8.891 A125.8279 B11.7162 
N1498 X-182.470 Y-23.358 Z9.048 A125.7952 B11.7119 
N1499 X-182.460 Y-23.532 Z9.191 A125.7526 B11.7071 
N1500 X-182.450 Y-23.684 Z9.313 A125.4201 B11.6822 
N1501 X-182.438 Y-23.773 Z9.363 A123.2819 B11.5143 
N1502 X-180.441 Y-31.964 Z3.985 
N1503 G00 X-175.451 Y-52.443 Z-9.457 
N1504 X-171.829 Y-63.935 Z-31.650 
N1505 X-181.809 Y-22.977 Z-4.764 
N1506 G01 X-181.803 Y-21.282 Z-2.134 F878 
N1507 X-181.785 Y-20.483 Z0.891 
N1508 X-181.757 Y-20.657 Z4.014 
N1509 X-181.722 Y-21.788 Z6.931 
N1510 M342 ; chlodziwo woda
N1511 X-181.682 Y-23.765 Z9.356 
N1512 X-181.667 Y-23.817 Z9.358 A119.6974 B11.1664 
N1513 X-181.652 Y-23.856 Z9.347 A115.9636 B10.7145 
N1514 X-181.639 Y-23.890 Z9.335 A112.3942 B10.1979 
N1515 X-181.628 Y-23.922 Z9.323 A109.0480 B9.6395 
N1516 X-181.619 Y-23.953 Z9.313 A105.9210 B9.0536 
N1517 X-181.611 Y-23.982 Z9.305 A102.9887 B8.4488 
N1518 X-181.604 Y-24.010 Z9.300 A100.2206 B7.8298 
N1519 X-181.597 Y-24.038 Z9.296 A97.5870 B7.1982 
N1520 X-181.590 Y-24.065 Z9.294 A95.0620 B6.5546 
N1521 X-181.583 Y-24.092 Z9.294 A92.6241 B5.8988 
N1522 X-181.577 Y-24.118 Z9.296 A90.2563 B5.2303 
N1523 X-181.571 Y-24.145 Z9.300 A87.9453 B4.5488 
N1524 X-181.565 Y-24.171 Z9.306 A85.6811 B3.8544 
N1525 X-181.560 Y-24.196 Z9.313 A83.4565 B3.1473 
N1526 X-181.556 Y-24.222 Z9.323 A81.2667 B2.4283 
N1527 X-181.552 Y-24.247 Z9.334 A79.1086 B1.6984 
N1528 X-181.549 Y-24.271 Z9.347 A76.9803 B0.9590 
N1529 X-181.546 Y-24.295 Z9.362 A74.8820 B0.2081 
N1530 X-181.544 Y-24.318 Z9.379 A72.8132 B-0.5524 
N1531 X-181.543 Y-24.340 Z9.398 A70.7727 B-1.3193 
N1532 X-181.543 Y-24.361 Z9.417 A68.7568 B-2.0810 
N1533 X-181.544 Y-24.381 Z9.439 A66.7649 B-2.8355 
N1534 X-181.545 Y-24.400 Z9.461 A64.8004 B-3.5907 
N1535 X-181.547 Y-24.418 Z9.485 A62.8633 B-4.3471 
N1536 X-181.550 Y-24.434 Z9.509 A60.9536 B-5.1053 
N1537 X-181.553 Y-24.450 Z9.535 A59.0658 B-5.8609 
N1538 X-181.555 Y-24.464 Z9.562 A57.1923 B-6.6156 
N1539 X-181.555 Y-24.477 Z9.589 A55.3255 B-7.3715 
N1540 X-181.553 Y-24.489 Z9.617 A53.4583 B-8.1302 
N1541 X-181.548 Y-24.499 Z9.647 A51.5877 B-8.8918 
N1542 X-181.540 Y-24.509 Z9.677 A49.7141 B-9.6553 
N1543 X-181.530 Y-24.517 Z9.707 A47.8371 B-10.4195 
N1544 X-181.518 Y-24.524 Z9.738 A45.9560 B-11.1837 
N1545 X-181.504 Y-24.529 Z9.770 A44.0690 B-11.9475 
N1546 X-181.488 Y-24.534 Z9.802 A42.1742 B-12.7106 
N1547 X-181.472 Y-24.537 Z9.834 A40.2696 B-13.4726 
N1548 X-181.453 Y-24.539 Z9.866 A38.3532 B-14.2331 
N1549 X-181.434 Y-24.540 Z9.898 A36.4235 B-14.9917 
N1550 X-181.414 Y-24.539 Z9.931 A34.4807 B-15.7519 
N1551 X-181.393 Y-24.538 Z9.963 A32.5204 B-16.5052 
N1552 X-181.372 Y-24.535 Z9.995 A30.5428 B-17.2543 
N1553 X-181.351 Y-24.531 Z10.028 A28.5468 B-17.9981 
N1554 X-181.330 Y-24.527 Z10.059 A26.5314 B-18.7357 
N1555 X-181.310 Y-24.521 Z10.091 A24.4958 B-19.4661 
N1556 X-181.289 Y-24.515 Z10.122 A22.4392 B-20.1882 
N1557 X-181.270 Y-24.507 Z10.152 A20.3607 B-20.9009 
N1558 X-181.251 Y-24.500 Z10.182 A18.2596 B-21.6031 
N1559 X-181.234 Y-24.491 Z10.212 A16.1350 B-22.2936 
N1560 X-181.219 Y-24.482 Z10.241 A13.9859 B-22.9715 
N1561 X-181.206 Y-24.472 Z10.269 A11.8108 B-23.6356 
N1562 X-181.194 Y-24.462 Z10.297 A9.6082 B-24.2850 
N1563 X-181.185 Y-24.451 Z10.324 A7.3759 B-24.9187 
N1564 X-181.179 Y-24.440 Z10.350 A5.1114 B-25.5360 
N1565 X-181.175 Y-24.429 Z10.377 A2.8116 B-26.1360 
N1566 X-181.173 Y-24.417 Z10.402 A0.4723 B-26.7180 
N1567 X-181.174 Y-24.404 Z10.428 A358.0887 B-27.2812 
N1568 X-181.178 Y-24.392 Z10.452 A355.6552 B-27.8248 
N1569 X-181.185 Y-24.379 Z10.477 A353.1651 B-28.3478 
N1570 X-181.196 Y-24.365 Z10.501 A350.6111 B-28.8490 
N1571 X-181.209 Y-24.351 Z10.525 A347.9850 B-29.3271 
N1572 X-181.227 Y-24.336 Z10.549 A345.2782 B-29.7799 
N1573 X-181.249 Y-24.320 Z10.573 A342.4810 B-30.2052 
N1574 X-181.275 Y-24.303 Z10.597 A339.5817 B-30.6000 
N1575 X-181.305 Y-24.284 Z10.621 A336.5678 B-30.9609 
N1576 X-181.340 Y-24.264 Z10.644 A333.4293 B-31.2828 
N1577 X-181.380 Y-24.241 Z10.667 A330.1642 B-31.5593 
N1578 X-181.425 Y-24.215 Z10.688 A326.7900 B-31.7827 
N1579 X-181.475 Y-24.183 Z10.706 A323.3712 B-31.9443 
N1580 X-181.531 Y-24.138 Z10.715 A320.1272 B-32.0373 
N1581 X-181.591 Y-24.063 Z10.697 A317.8375 B-32.0675 
N1582 X-181.654 Y-23.937 Z10.633 A317.3685 B-32.0692 
N1583 X-181.717 Y-23.786 Z10.548 A317.5705 B-32.0667 
N1584 X-181.781 Y-23.624 Z10.457 A317.8206 B-32.0635 
N1585 X-181.845 Y-23.452 Z10.361 A318.0704 B-32.0598 
N1586 X-181.908 Y-23.268 Z10.260 A318.3316 B-32.0553 
N1587 X-181.971 Y-23.073 Z10.154 A318.6108 B-32.0500 
N1588 X-182.033 Y-22.867 Z10.042 A318.9074 B-32.0438 
N1589 X-182.094 Y-22.648 Z9.925 A319.2214 B-32.0365 
N1590 X-182.152 Y-22.418 Z9.803 A319.5548 B-32.0280 
N1591 X-182.206 Y-22.175 Z9.676 A319.9125 B-32.0180 
N1592 X-182.257 Y-21.921 Z9.544 A320.3012 B-32.0062 
N1593 X-182.303 Y-21.655 Z9.408 A320.7286 B-31.9921 
N1594 X-182.343 Y-21.377 Z9.268 A321.2023 B-31.9752 
N1595 X-182.382 Y-21.089 Z9.124 A321.7267 B-31.9552 
N1596 X-182.424 Y-20.792 Z8.979 A322.3020 B-31.9314 
N1597 X-182.468 Y-20.486 Z8.832 A322.9242 B-31.9033 
N1598 X-182.515 Y-20.171 Z8.684 A323.5876 B-31.8708 
N1599 X-182.563 Y-19.850 Z8.536 A324.2860 B-31.8335 
N1600 X-182.614 Y-19.523 Z8.390 A325.0144 B-31.7914 
N1601 X-182.666 Y-19.190 Z8.245 A325.7720 B-31.7442 
N1602 X-182.721 Y-18.854 Z8.102 A326.5608 B-31.6912 
N1603 X-182.778 Y-18.513 Z7.962 A327.3826 B-31.6320 
N1604 X-182.836 Y-18.170 Z7.825 A328.2391 B-31.5659 
N1605 X-182.896 Y-17.824 Z7.692 A329.1318 B-31.4923 
N1606 X-182.959 Y-17.476 Z7.563 A330.0610 B-31.4107 
N1607 X-183.023 Y-17.128 Z7.438 A331.0271 B-31.3204 
N1608 X-183.089 Y-16.778 Z7.318 A332.0288 B-31.2209 
N1609 X-183.156 Y-16.429 Z7.204 A333.0637 B-31.1119 
N1610 X-183.226 Y-16.079 Z7.095 A334.1286 B-30.9931 
N1611 X-183.297 Y-15.730 Z6.992 A335.2198 B-30.8644 
N1612 X-183.370 Y-15.381 Z6.895 A336.3346 B-30.7257 
N1613 X-183.444 Y-15.033 Z6.804 A337.4710 B-30.5767 
N1614 X-183.520 Y-14.685 Z6.719 A338.6279 B-30.4173 
N1615 X-183.598 Y-14.339 Z6.640 A339.8050 B-30.2470 
N1616 X-183.678 Y-13.993 Z6.568 A341.0018 B-30.0656 
N1617 X-183.759 Y-13.648 Z6.502 A342.2173 B-29.8727 
N1618 X-183.842 Y-13.304 Z6.443 A343.4501 B-29.6684 
N1619 X-183.927 Y-12.960 Z6.390 A344.6984 B-29.4525 
N1620 X-184.013 Y-12.616 Z6.344 A345.9599 B-29.2251 
N1621 X-184.102 Y-12.274 Z6.304 A347.2320 B-28.9865 
N1622 X-184.192 Y-11.931 Z6.272 A348.5121 B-28.7370 
N1623 X-184.284 Y-11.588 Z6.246 A349.7972 B-28.4770 
N1624 X-184.379 Y-11.246 Z6.227 A351.0839 B-28.2072 
N1625 X-184.475 Y-10.904 Z6.215 A352.3689 B-27.9282 
N1626 X-184.574 Y-10.561 Z6.210 A353.6486 B-27.6410 
N1627 X-184.674 Y-10.218 Z6.212 A354.9195 B-27.3465 
N1628 X-184.777 Y-9.875 Z6.222 A356.1778 B-27.0458 
N1629 X-184.882 Y-9.532 Z6.239 A357.4199 B-26.7401 
N1630 X-184.990 Y-9.188 Z6.263 A358.6416 B-26.4309 
N1631 X-185.099 Y-8.843 Z6.294 A359.8397 B-26.1194 
N1632 X-185.211 Y-8.498 Z6.333 A1.0113 B-25.8069 
N1633 X-185.325 Y-8.152 Z6.379 A2.1538 B-25.4946 
N1634 X-185.442 Y-7.805 Z6.432 A3.2651 B-25.1838 
N1635 X-185.561 Y-7.456 Z6.493 A4.3430 B-24.8755 
N1636 X-185.683 Y-7.107 Z6.560 A5.3844 B-24.5714 
N1637 X-185.807 Y-6.757 Z6.635 A6.3849 B-24.2734 
N1638 X-185.933 Y-6.406 Z6.717 A7.3392 B-23.9836 
N1639 X-186.061 Y-6.055 Z6.806 A8.2409 B-23.7047 
N1640 X-186.191 Y-5.704 Z6.902 A9.0836 B-23.4393 
N1641 X-186.322 Y-5.353 Z7.003 A9.8620 B-23.1900 
N1642 X-186.455 Y-5.003 Z7.110 A10.5719 B-22.9587 
N1643 X-186.589 Y-4.654 Z7.223 A11.2101 B-22.7474 
N1644 X-186.724 Y-4.306 Z7.339 A11.7740 B-22.5541 
N1645 X-186.862 Y-3.962 Z7.459 A12.2393 B-22.3171 
N1646 X-187.005 Y-3.621 Z7.579 A12.5874 B-21.9865 
N1647 X-187.148 Y-3.288 Z7.700 A12.7061 B-21.6264 
N1648 X-187.287 Y-2.958 Z7.824 A12.7246 B-21.2987 
N1649 X-187.422 Y-2.631 Z7.948 A12.6832 B-20.9912 
N1650 X-187.552 Y-2.307 Z8.074 A12.5848 B-20.7023 
N1651 X-187.677 Y-1.987 Z8.199 A12.4332 B-20.4304 
N1652 X-187.798 Y-1.671 Z8.324 A12.2327 B-20.1740 
N1653 X-187.914 Y-1.359 Z8.448 A11.9879 B-19.9317 
N1654 X-188.024 Y-1.052 Z8.571 A11.7028 B-19.7016 
N1655 X-188.129 Y-0.751 Z8.691 A11.3807 B-19.4827 
N1656 X-188.230 Y-0.455 Z8.808 A11.0234 B-19.2743 
N1657 X-188.326 Y-0.164 Z8.923 A10.6226 B-19.0320 
N1658 X-188.412 Y0.121 Z9.035 A10.1824 B-18.8164 
N1659 X-188.489 Y0.401 Z9.144 A9.6951 B-18.6122 
N1660 X-188.557 Y0.675 Z9.249 A9.1533 B-18.4198 
N1661 X-188.617 Y0.942 Z9.351 A8.5491 B-18.2397 
N1662 X-188.670 Y1.202 Z9.448 A7.8751 B-18.0722 
N1663 X-188.716 Y1.455 Z9.541 A7.1267 B-17.9167 
N1664 X-188.756 Y1.700 Z9.630 A6.3053 B-17.7719 
N1665 X-188.791 Y1.937 Z9.713 A5.4129 B-17.6363 
N1666 X-188.821 Y2.167 Z9.791 A4.4505 B-17.5089 
N1667 X-188.847 Y2.388 Z9.863 A3.4171 B-17.3891 
N1668 X-188.871 Y2.600 Z9.930 A2.3054 B-17.2772 
N1669 X-188.891 Y2.803 Z9.992 A1.1036 B-17.1742 
N1670 X-188.910 Y2.995 Z10.048 A359.8137 B-17.0789 
N1671 X-188.928 Y3.179 Z10.098 A358.4575 B-16.9884 
N1672 X-188.945 Y3.353 Z10.143 A357.0566 B-16.8999 
N1673 X-188.962 Y3.518 Z10.183 A355.6058 B-16.8144 
N1674 X-188.980 Y3.673 Z10.218 A354.0778 B-16.7347 
N1675 X-188.997 Y3.816 Z10.249 A352.4508 B-16.6625 
N1676 X-189.016 Y3.948 Z10.275 A350.7270 B-16.5971 
N1677 X-189.036 Y4.070 Z10.299 A348.9157 B-16.5369 
N1678 X-189.057 Y4.181 Z10.319 A347.0237 B-16.4812 
N1679 X-189.080 Y4.282 Z10.336 A345.0542 B-16.4294 
N1680 X-189.104 Y4.374 Z10.352 A343.0115 B-16.3809 
N1681 X-189.129 Y4.457 Z10.365 A340.9052 B-16.3347 
N1682 X-189.153 Y4.532 Z10.378 A338.7399 B-16.3463 
N1683 X-189.175 Y4.601 Z10.390 A336.5752 B-16.4481 
N1684 X-189.198 Y4.664 Z10.401 A334.3924 B-16.5431 
N1685 X-189.221 Y4.723 Z10.410 A332.2053 B-16.6299 
N1686 X-189.245 Y4.777 Z10.419 A330.0270 B-16.7076 
N1687 X-189.269 Y4.828 Z10.426 A327.8662 B-16.7761 
N1688 X-189.292 Y4.876 Z10.432 A325.7283 B-16.8353 
N1689 X-189.317 Y4.921 Z10.437 A323.6163 B-16.8854 
N1690 X-189.341 Y4.965 Z10.442 A321.5298 B-16.9267 
N1691 X-189.363 Y5.007 Z10.445 A319.4607 B-16.9595 
N1692 X-189.382 Y5.048 Z10.447 A317.3992 B-16.9840 
N1693 X-189.396 Y5.088 Z10.448 A315.3383 B-17.0004 
N1694 X-189.405 Y5.127 Z10.449 A313.2768 B-17.0088 
N1695 X-189.410 Y5.166 Z10.448 A311.2139 B-17.0090 
N1696 X-189.412 Y5.205 Z10.446 A309.1475 B-17.0011 
N1697 X-189.411 Y5.243 Z10.443 A307.0745 B-16.9849 
N1698 X-189.408 Y5.280 Z10.439 A304.9907 B-16.9605 
N1699 X-189.405 Y5.318 Z10.434 A302.8911 B-16.9275 
N1700 X-189.404 Y5.356 Z10.428 A300.7716 B-16.8858 
N1701 X-189.405 Y5.393 Z10.420 A298.6299 B-16.8351 
N1702 X-189.407 Y5.431 Z10.411 A296.4650 B-16.7751 
N1703 X-189.410 Y5.468 Z10.401 A294.2764 B-16.7056 
N1704 X-189.415 Y5.506 Z10.389 A292.0643 B-16.6265 
N1705 X-189.422 Y5.544 Z10.375 A289.8298 B-16.5375 
N1706 X-189.429 Y5.582 Z10.359 A287.5743 B-16.4386 
N1707 X-189.438 Y5.620 Z10.341 A285.2999 B-16.3298 
N1708 X-189.449 Y5.658 Z10.321 A283.0093 B-16.2110 
N1709 X-189.460 Y5.695 Z10.298 A280.7049 B-16.0825 
N1710 X-189.473 Y5.733 Z10.272 A278.3898 B-15.9444 
N1711 X-189.486 Y5.771 Z10.243 A276.0673 B-15.7970 
N1712 X-189.499 Y5.808 Z10.210 A273.7418 B-15.6407 
N1713 X-189.513 Y5.845 Z10.172 A271.4192 B-15.4761 
N1714 X-189.526 Y5.882 Z10.129 A269.1079 B-15.3043 
N1715 X-189.539 Y5.918 Z10.080 A266.8199 B-15.1266 
N1716 X-189.550 Y5.952 Z10.024 A264.5713 B-14.9448 
N1717 X-189.560 Y5.986 Z9.960 A262.3798 B-14.7612 
N1718 X-189.566 Y6.017 Z9.886 A260.2608 B-14.5779 
N1719 X-189.568 Y6.045 Z9.802 A258.2244 B-14.3969 
N1720 X-189.566 Y6.071 Z9.708 A256.2676 B-14.2186 
N1721 X-189.557 Y6.094 Z9.605 A254.3172 B-14.0872 
N1722 X-189.548 Y6.115 Z9.496 A252.3402 B-13.9568 
N1723 X-189.537 Y6.135 Z9.382 A250.2609 B-13.8113 
N1724 X-189.525 Y6.153 Z9.265 A248.0264 B-13.6436 
N1725 X-189.512 Y6.171 Z9.144 A245.6587 B-13.4547 
N1726 X-189.498 Y6.188 Z9.015 A243.2606 B-13.2557 
N1727 X-189.481 Y6.200 Z8.873 A240.9694 B-13.0638 
N1728 X-189.461 Y6.204 Z8.713 A238.9216 B-12.8978 
N1729 X-189.437 Y6.198 Z8.534 A237.2171 B-12.7731 
N1730 X-189.409 Y6.179 Z8.335 A235.8923 B-12.6965 
N1731 X-189.376 Y6.147 Z8.118 A234.9157 B-12.6651 
N1732 X-189.339 Y6.104 Z7.886 A234.2118 B-12.6700 
N1733 X-189.298 Y6.050 Z7.644 A233.6899 B-12.6997 
N1734 X-189.253 Y5.988 Z7.394 A233.2692 B-12.7441 
N1735 X-189.206 Y5.919 Z7.139 A232.8801 B-12.7946 
N1736 X-189.155 Y5.845 Z6.882 A232.4639 B-12.8444 
N1737 X-189.102 Y5.766 Z6.626 A231.9734 B-12.8883 
N1738 X-189.046 Y5.686 Z6.371 A231.3745 B-12.9238 
N1739 X-188.987 Y5.602 Z6.119 A230.6490 B-12.9515 
N1740 X-188.925 Y5.518 Z5.870 A229.7996 B-12.9768 
N1741 X-188.860 Y5.431 Z5.624 A228.8517 B-12.9859 
N1742 X-188.796 Y5.340 Z5.381 A227.8527 B-12.9081 
N1743 X-188.730 Y5.246 Z5.139 A226.8174 B-12.7918 
N1744 X-188.663 Y5.148 Z4.899 A225.7647 B-12.6392 
N1745 X-188.594 Y5.046 Z4.661 A224.7057 B-12.4521 
N1746 X-188.523 Y4.940 Z4.426 A223.6467 B-12.2326 
N1747 X-188.451 Y4.831 Z4.192 A222.5916 B-11.9824 
N1748 X-188.377 Y4.717 Z3.962 A221.5424 B-11.7030 
N1749 X-188.301 Y4.600 Z3.734 A220.4999 B-11.3956 
N1750 X-188.224 Y4.480 Z3.509 A219.4629 B-11.0605 
N1751 X-188.145 Y4.356 Z3.288 A218.4288 B-10.6979 
N1752 X-188.064 Y4.228 Z3.070 A217.3957 B-10.3074 
N1753 X-187.982 Y4.098 Z2.855 A216.3624 B-9.8891 
N1754 X-187.898 Y3.965 Z2.645 A215.3282 B-9.4431 
N1755 X-187.812 Y3.830 Z2.439 A214.2892 B-8.9790 
N1756 X-187.724 Y3.692 Z2.237 A213.2373 B-8.5177 
N1757 X-187.633 Y3.552 Z2.040 A212.1722 B-8.0609 
N1758 X-187.539 Y3.408 Z1.846 A211.1559 B-7.6331 
N1759 X-187.444 Y3.260 Z1.655 A210.1737 B-7.2208 
N1760 X-187.350 Y3.110 Z1.469 A209.1722 B-6.8019 
N1761 X-187.256 Y2.958 Z1.287 A208.1520 B-6.3767 
N1762 X-187.162 Y2.803 Z1.110 A207.1137 B-5.9458 
N1763 X-187.070 Y2.646 Z0.938 A206.0574 B-5.5095 
N1764 X-186.978 Y2.488 Z0.771 A204.9836 B-5.0682 
N1765 X-186.886 Y2.327 Z0.608 A203.8927 B-4.6225 
N1766 X-186.796 Y2.164 Z0.451 A202.7851 B-4.1728 
N1767 X-186.706 Y2.000 Z0.298 A201.6616 B-3.7197 
N1768 X-186.617 Y1.833 Z0.151 A200.5227 B-3.2639 
N1769 X-186.528 Y1.665 Z0.008 A199.3693 B-2.8060 
N1770 X-186.441 Y1.496 Z-0.129 A198.2021 B-2.3467 
N1771 X-186.354 Y1.324 Z-0.261 A197.0219 B-1.8866 
N1772 X-186.269 Y1.152 Z-0.388 A195.8295 B-1.4264 
N1773 X-186.184 Y0.977 Z-0.510 A194.6255 B-0.9668 
N1774 X-186.099 Y0.801 Z-0.627 A193.4106 B-0.5083 
N1775 X-186.016 Y0.624 Z-0.739 A192.1856 B-0.0517 
N1776 X-185.934 Y0.444 Z-0.846 A190.9509 B0.4025 
N1777 X-185.852 Y0.264 Z-0.949 A189.7073 B0.8537 
N1778 X-185.771 Y0.081 Z-1.046 A188.4553 B1.3013 
N1779 X-185.691 Y-0.103 Z-1.138 A187.1958 B1.7447 
N1780 X-185.611 Y-0.289 Z-1.226 A185.9295 B2.1832 
N1781 X-185.533 Y-0.476 Z-1.309 A184.6573 B2.6162 
N1782 X-185.455 Y-0.666 Z-1.386 A183.3802 B3.0430 
N1783 X-185.377 Y-0.857 Z-1.460 A182.0991 B3.4631 
N1784 X-185.301 Y-1.050 Z-1.528 A180.8145 B3.8760 
N1785 X-185.225 Y-1.246 Z-1.592 A179.5274 B4.2812 
N1786 X-185.149 Y-1.443 Z-1.650 A178.2385 B4.6782 
N1787 X-185.075 Y-1.643 Z-1.704 A176.9485 B5.0665 
N1788 X-185.001 Y-1.845 Z-1.753 A175.6585 B5.4457 
N1789 X-184.927 Y-2.049 Z-1.798 A174.3693 B5.8153 
N1790 X-184.854 Y-2.255 Z-1.837 A173.0821 B6.1749 
N1791 X-184.782 Y-2.464 Z-1.872 A171.7979 B6.5240 
N1792 X-184.710 Y-2.676 Z-1.901 A170.5181 B6.8624 
N1793 X-184.638 Y-2.890 Z-1.926 A169.2436 B7.1897 
N1794 X-184.568 Y-3.107 Z-1.945 A167.9756 B7.5056 
N1795 X-184.497 Y-3.327 Z-1.960 A166.7152 B7.8099 
N1796 X-184.428 Y-3.549 Z-1.969 A165.4636 B8.1023 
N1797 X-184.358 Y-3.775 Z-1.973 A164.2217 B8.3828 
N1798 X-184.290 Y-4.003 Z-1.971 A162.9906 B8.6513 
N1799 X-184.222 Y-4.235 Z-1.964 A161.7715 B8.9077 
N1800 X-184.154 Y-4.470 Z-1.952 A160.5653 B9.1520 
N1801 X-184.087 Y-4.708 Z-1.933 A159.3733 B9.3842 
N1802 X-184.021 Y-4.949 Z-1.910 A158.1967 B9.6043 
N1803 X-183.955 Y-5.193 Z-1.880 A157.0366 B9.8138 
N1804 X-183.890 Y-5.440 Z-1.845 A155.8941 B10.0129 
N1805 X-183.826 Y-5.691 Z-1.804 A154.7694 B10.1998 
N1806 X-183.762 Y-5.945 Z-1.756 A153.6635 B10.3749 
N1807 X-183.699 Y-6.203 Z-1.703 A152.5770 B10.5386 
N1808 X-183.637 Y-6.463 Z-1.644 A151.5106 B10.6910 
N1809 X-183.575 Y-6.727 Z-1.578 A150.4648 B10.8326 
N1810 X-183.514 Y-6.994 Z-1.506 A149.4401 B10.9638 
N1811 X-183.454 Y-7.265 Z-1.428 A148.4367 B11.0850 
N1812 X-183.395 Y-7.538 Z-1.344 A147.4546 B11.1966 
N1813 X-183.337 Y-7.815 Z-1.253 A146.4939 B11.2989 
N1814 X-183.279 Y-8.094 Z-1.156 A145.5549 B11.3925 
N1815 X-183.223 Y-8.377 Z-1.053 A144.6377 B11.4776 
N1816 X-183.167 Y-8.663 Z-0.943 A143.7426 B11.5548 
N1817 X-183.112 Y-8.951 Z-0.827 A142.8699 B11.6243 
N1818 X-183.059 Y-9.243 Z-0.705 A142.0200 B11.6866 
N1819 X-183.006 Y-9.538 Z-0.576 A141.1934 B11.7420 
N1820 X-182.954 Y-9.835 Z-0.440 A140.3908 B11.7909 
N1821 X-182.904 Y-10.135 Z-0.299 A139.6130 B11.8336 
N1822 X-182.854 Y-10.438 Z-0.150 A138.8609 B11.8706 
N1823 X-182.806 Y-10.744 Z0.004 A138.1356 B11.9021 
N1824 X-182.758 Y-11.052 Z0.165 A137.4373 B11.9286 
N1825 X-182.712 Y-11.364 Z0.332 A136.7662 B11.9505 
N1826 X-182.666 Y-11.678 Z0.505 A136.1214 B11.9682 
N1827 X-182.622 Y-11.994 Z0.684 A135.5020 B11.9821 
N1828 X-182.579 Y-12.313 Z0.869 A134.9064 B11.9925 
N1829 X-182.537 Y-12.634 Z1.060 A134.3338 B11.9998 
N1830 X-182.496 Y-12.958 Z1.257 A133.7830 B12.0042 
N1831 X-182.456 Y-13.283 Z1.459 A133.2537 B12.0060 
N1832 X-182.418 Y-13.611 Z1.666 A132.7454 B12.0055 
N1833 X-182.380 Y-13.941 Z1.879 A132.2577 B12.0029 
N1834 X-182.343 Y-14.273 Z2.097 A131.7903 B11.9984 
N1835 X-182.308 Y-14.607 Z2.320 A131.3429 B11.9922 
N1836 X-182.273 Y-14.943 Z2.548 A130.9151 B11.9845 
N1837 X-182.240 Y-15.281 Z2.781 A130.5066 B11.9756 
N1838 X-182.208 Y-15.621 Z3.019 A130.1171 B11.9656 
N1839 X-182.176 Y-15.962 Z3.261 A129.7464 B11.9546 
N1840 X-182.146 Y-16.305 Z3.507 A129.3943 B11.9428 
N1841 X-182.117 Y-16.649 Z3.758 A129.0609 B11.9304 
N1842 X-182.089 Y-16.994 Z4.012 A128.7466 B11.9176 
N1843 X-182.061 Y-17.341 Z4.270 A128.4520 B11.9044 
N1844 X-182.035 Y-17.688 Z4.532 A128.1780 B11.8912 
N1845 X-182.010 Y-18.037 Z4.796 A127.9245 B11.8781 
N1846 X-181.985 Y-18.385 Z5.063 A127.6904 B11.8651 
N1847 X-181.962 Y-18.732 Z5.331 A127.4736 B11.8522 
N1848 X-181.939 Y-19.079 Z5.600 A127.2715 B11.8395 
N1849 X-181.918 Y-19.423 Z5.870 A127.0823 B11.8270 
N1850 X-181.897 Y-19.764 Z6.139 A126.9057 B11.8147 
N1851 X-181.878 Y-20.100 Z6.406 A126.7422 B11.8027 
N1852 X-181.859 Y-20.432 Z6.670 A126.5935 B11.7913 
N1853 X-181.842 Y-20.756 Z6.930 A126.4609 B11.7805 
N1854 X-181.825 Y-21.072 Z7.184 A126.3450 B11.7706 
N1855 X-181.810 Y-21.379 Z7.432 A126.2453 B11.7615 
N1856 X-181.795 Y-21.674 Z7.671 A126.1600 B11.7532 
N1857 X-181.782 Y-21.957 Z7.901 A126.0865 B11.7457 
N1858 X-181.769 Y-22.226 Z8.121 A126.0222 B11.7388 
N1859 X-181.758 Y-22.481 Z8.329 A125.9650 B11.7324 
N1860 X-181.747 Y-22.720 Z8.524 A125.9136 B11.7265 
N1861 X-181.736 Y-22.942 Z8.707 A125.8677 B11.7211 
N1862 X-181.726 Y-23.149 Z8.876 A125.8279 B11.7162 
N1863 X-181.715 Y-23.340 Z9.033 A125.7952 B11.7119 
N1864 X-181.706 Y-23.515 Z9.177 A125.7526 B11.7071 
N1865 X-181.695 Y-23.668 Z9.299 A125.4201 B11.6822 
N1866 X-181.682 Y-23.765 Z9.356 A123.2819 B11.5143 
N1867 X-179.686 Y-31.957 Z3.979 
N1868 G00 X-171.702 Y-64.723 Z-17.530 
;RAPORT("TB011430","Flank Milling Transition:138 End")
;trailer : concat=None
; points cnt = 1805
N1870 MSG (" --- GROUPED OF SUBPROGRAM --- ")
N1871 FGROUP()
N1872 TRAFOOF
; PROGRAM NAME: B01143033
; ORDER       : B011430
; OPER. NAME  : Flank Milling Transition:139
; OPER. DESCR.: finish flank shroud
; OPER. TYPE  : preFinFlank
; GEO. OPTION : 2
; MACHINE     : HSTM_500_SIM840D_Py
;             : HSTM500 - HAMUEL: 5-axis milling machine - SIM840D Traori PP_Script
; CONTROL     : SINUMERIK 840D
; created:   2022-10-26 13:21:30.338279
;-------DODATKOWE DANE-------------------
; PROGRAMISTA : Zbigniew Papierowski
; PARTID      : 135T006774P1021_-
;  dec_value  : 0.7
;  lean_angle : 5.0
;  tilt_angle : 0.0
;  airf_offset: 0.05
;  firstoffset: 2.2
;----------------------------------------
;RAPORT("TB011430","Flank Milling Transition:139")
N10 TRAFOOF
N11 D0
N12 G90 G94
N13 G0 G53 D0 Z550 B0
N14 STOPRE
M9 ; chlodziwo wyl
; --- Flank Milling Transition:139 - finish flank shroud ---
N16 ;ToolChange : concat=None ,current_tdmid=None, PP.tdmId=940783
N17 TRAFOOF
N18 G0 G53 D0 Z550 B0
N19 STOPRE
N20 MSG(" TLID=940783 D=3.85986 R=2.3 Ang=10.0 Len=175.0 ")
N21 S9978 M03
N22 STOPRE
N23 CYCLE832(0.01,1,1)
N24 G0 G53 A143.2528 B23.1643
N25 TRAORI
N26 G54 D4
N27 D4 
N28 TRANS  X=R8 A=R25
STOPRE
E_ZDARZ=300018
;ACS_FINISH_UBG_PLATFORM_XLB_SHROUD=7740783
STOPRE
N29 ; DELTA A > 40.1
N30 TRAFOOF
N31 D4
N32 STOPRE
N33 G00 G54 Z211.000
N34 G01 A143.2528 F10000
N35 TRAORI
N36 G54 D4
N37 STOPRE
N38 TRANS  X=R8 A=R25
N39 G00 X-281.395 Y-65.991 Z-27.824 A143.2528 B23.1643 
N40 M342 ; chlodziwo woda
N41 X-301.064 Y-38.488 Z9.010 
N42 G01 X-301.016 Y-36.065 Z10.989 F878 
N43 X-300.877 Y-33.153 Z12.125 
N44 X-300.660 Y-30.038 Z12.307 
N45 X-300.387 Y-27.023 Z11.516 
N46 M342 ; chlodziwo woda
N47 X-300.084 Y-24.404 Z9.831 
N48 X-300.066 Y-24.321 Z9.751 A145.3361 B23.1359 
N49 X-300.044 Y-24.186 Z9.637 A145.7580 B23.1242 
N50 X-300.021 Y-24.028 Z9.507 A145.8171 B23.1179 
N51 X-299.997 Y-23.857 Z9.365 A145.8526 B23.1115 
N52 X-299.972 Y-23.670 Z9.212 A145.8942 B23.1045 
N53 X-299.946 Y-23.469 Z9.046 A145.9423 B23.0968 
N54 X-299.919 Y-23.253 Z8.869 A145.9961 B23.0885 
N55 X-299.892 Y-23.022 Z8.680 A146.0555 B23.0795 
N56 X-299.863 Y-22.777 Z8.479 A146.1210 B23.0698 
N57 X-299.835 Y-22.519 Z8.268 A146.1940 B23.0594 
N58 X-299.807 Y-22.248 Z8.047 A146.2763 B23.0484 
N59 X-299.780 Y-21.967 Z7.817 A146.3703 B23.0365 
N60 X-299.753 Y-21.675 Z7.581 A146.4778 B23.0238 
N61 X-299.728 Y-21.375 Z7.338 A146.6003 B23.0103 
N62 X-299.703 Y-21.068 Z7.090 A146.7380 B22.9959 
N63 X-299.680 Y-20.755 Z6.839 A146.8904 B22.9806 
N64 X-299.659 Y-20.438 Z6.584 A147.0562 B22.9645 
N65 X-299.640 Y-20.116 Z6.328 A147.2340 B22.9475 
N66 X-299.623 Y-19.791 Z6.071 A147.4231 B22.9297 
N67 X-299.609 Y-19.464 Z5.813 A147.6237 B22.9111 
N68 X-299.597 Y-19.135 Z5.556 A147.8371 B22.8916 
N69 X-299.587 Y-18.805 Z5.299 A148.0653 B22.8710 
N70 X-299.581 Y-18.475 Z5.044 A148.3108 B22.8493 
N71 X-299.578 Y-18.144 Z4.790 A148.5750 B22.8262 
N72 X-299.577 Y-17.812 Z4.538 A148.8588 B22.8017 
N73 X-299.581 Y-17.480 Z4.288 A149.1619 B22.7756 
N74 X-299.588 Y-17.148 Z4.040 A149.4840 B22.7480 
N75 X-299.598 Y-16.816 Z3.795 A149.8248 B22.7184 
N76 X-299.610 Y-16.484 Z3.553 A150.1845 B22.6871 
N77 X-299.623 Y-16.152 Z3.313 A150.5632 B22.6536 
N78 X-299.636 Y-15.820 Z3.076 A150.9614 B22.6180 
N79 X-299.650 Y-15.488 Z2.843 A151.3795 B22.5802 
N80 X-299.665 Y-15.156 Z2.613 A151.8179 B22.5399 
N81 X-299.681 Y-14.825 Z2.386 A152.2770 B22.4971 
N82 X-299.698 Y-14.495 Z2.164 A152.7572 B22.4516 
N83 X-299.715 Y-14.165 Z1.946 A153.2589 B22.4033 
N84 X-299.734 Y-13.837 Z1.732 A153.7825 B22.3519 
N85 X-299.753 Y-13.510 Z1.523 A154.3281 B22.2972 
N86 X-299.773 Y-13.184 Z1.319 A154.8963 B22.2392 
N87 X-299.794 Y-12.860 Z1.121 A155.4875 B22.1776 
N88 X-299.816 Y-12.538 Z0.927 A156.1025 B22.1121 
N89 X-299.838 Y-12.218 Z0.739 A156.7426 B22.0425 
N90 X-299.861 Y-11.900 Z0.557 A157.4089 B21.9685 
N91 X-299.885 Y-11.584 Z0.380 A158.1027 B21.8897 
N92 X-299.910 Y-11.270 Z0.210 A158.8245 B21.8058 
N93 X-299.936 Y-10.959 Z0.046 A159.5741 B21.7167 
N94 X-299.962 Y-10.651 Z-0.113 A160.3511 B21.6220 
N95 X-299.989 Y-10.345 Z-0.264 A161.1546 B21.5217 
N96 X-300.017 Y-10.042 Z-0.410 A161.9835 B21.4155 
N97 X-300.046 Y-9.742 Z-0.549 A162.8372 B21.3034 
N98 X-300.075 Y-9.444 Z-0.681 A163.7149 B21.1854 
N99 X-300.105 Y-9.149 Z-0.807 A164.6170 B21.0659 
N100 X-300.136 Y-8.857 Z-0.926 A165.5425 B20.9405 
N101 X-300.167 Y-8.568 Z-1.040 A166.4912 B20.8089 
N102 X-300.199 Y-8.282 Z-1.146 A167.4630 B20.6709 
N103 X-300.232 Y-7.998 Z-1.247 A168.4577 B20.5264 
N104 X-300.266 Y-7.718 Z-1.340 A169.4754 B20.3752 
N105 X-300.300 Y-7.441 Z-1.428 A170.5160 B20.2172 
N106 X-300.334 Y-7.167 Z-1.509 A171.5796 B20.0520 
N107 X-300.369 Y-6.897 Z-1.583 A172.6660 B19.8796 
N108 X-300.405 Y-6.630 Z-1.651 A173.7749 B19.6999 
N109 X-300.441 Y-6.365 Z-1.713 A174.9058 B19.5126 
N110 X-300.477 Y-6.105 Z-1.769 A176.0583 B19.3179 
N111 X-300.514 Y-5.847 Z-1.818 A177.2316 B19.1155 
N112 X-300.552 Y-5.593 Z-1.861 A178.4252 B18.9055 
N113 X-300.589 Y-5.343 Z-1.898 A179.6384 B18.6879 
N114 X-300.628 Y-5.096 Z-1.929 A180.8703 B18.4627 
N115 X-300.666 Y-4.852 Z-1.954 A182.1199 B18.2300 
N116 X-300.705 Y-4.611 Z-1.974 A183.3862 B17.9899 
N117 X-300.744 Y-4.374 Z-1.987 A184.6680 B17.7425 
N118 X-300.784 Y-4.140 Z-1.995 A185.9644 B17.4881 
N119 X-300.824 Y-3.910 Z-1.997 A187.2742 B17.2267 
N120 X-300.864 Y-3.682 Z-1.994 A188.5966 B16.9587 
N121 X-300.905 Y-3.458 Z-1.985 A189.9305 B16.6841 
N122 X-300.945 Y-3.237 Z-1.971 A191.2749 B16.4033 
N123 X-300.986 Y-3.019 Z-1.952 A192.6285 B16.1166 
N124 X-301.028 Y-2.805 Z-1.927 A193.9904 B15.8242 
N125 X-301.069 Y-2.593 Z-1.898 A195.3593 B15.5265 
N126 X-301.111 Y-2.384 Z-1.863 A196.7341 B15.2238 
N127 X-301.153 Y-2.177 Z-1.823 A198.1136 B14.9167 
N128 X-301.196 Y-1.974 Z-1.779 A199.4967 B14.6053 
N129 X-301.238 Y-1.773 Z-1.729 A200.8823 B14.2902 
N130 X-301.281 Y-1.575 Z-1.675 A202.2695 B13.9717 
