; PROGRAM NAME: B01143075
; ORDER       : B011430
; OPER. NAME  : Side Milling:101
; OPER. DESCR.: FEAANF : POMA D1
; OPER. TYPE  : sideMill
; GEO. OPTION : 1
; MACHINE     : HSTM_500_SIM840D_Py
;             : HSTM500 - HAMUEL: 5-axis milling machine - SIM840D Traori PP_Script
; CONTROL     : SINUMERIK 840D
; created:   2022-10-26 13:17:26.061106
;-------DODATKOWE DANE-------------------
; PROGRAMISTA : Zbigniew Papierowski
; PARTID      : 135T006774P1021_-
;  ap         : 5.0
;  ae         : 5.0
;  lean_angle : 0.0
;  fin_offset : 0.0
;----------------------------------------
;RAPORT("TB011430","Side Milling:101")
N10 TRAFOOF
N11 D0
N12 G90 G94
N13 G0 G53 D0 Z550 B0
N14 STOPRE
M9 ; chlodziwo wyl
; --- Side Milling:101 - FEAANF : POMA D1 ---
N16 ;ToolChange : concat=None ,current_tdmid=None, PP.tdmId=940983
N17 TRAFOOF
N18 G0 G53 D0 X-200 Y150 Z550 B0
N19 T="7740983"
;RAPORT("TB011430","ToolChangeStart 7740983")
N20 M6
;RAPORT("TB011430","ToolChangeEnd")
N21 STOPRE
N22 MSG(" TLID=940983 D=10.0 R=0.0 Ang=0.0 Len=116.0 ")
N23 ; (Preloading tool)
N24 T="7740984"
N25 S5411 M03
N26 STOPRE
N27 CYCLE832(0.01,1,1)
N28 G0 G53 A42.0000 B-0.9569
N29 TRAORI
N30 G54 D1
N31 D1 
N32 TRANS  X=R20
N33 ; DELTA A > 40.1
N34 TRAFOOF
N35 D1
N36 STOPRE
N37 G00 G54 Z270.000
N38 G01 A42.0000 F10000
N39 TRAORI
N40 G54 D1
N41 STOPRE
N42 TRANS  X=R20
N43 G00 X-134.730 Y-100.239 Z-2.248 A42.0000 B-0.9569 
N44 M342 ; chlodziwo woda
N45 X-133.895 Y-66.787 Z-39.400 
N46 D1 
N47 G01 G41 X-133.895 Y-59.356 Z-32.709 F670
N48 G01 X-133.895 Y-59.356 Z-32.709 F670 
N49 X-133.895 Y-58.984 Z-32.374 
N50 X-133.895 Y-58.736 Z-32.151 
N51 X-133.895 Y-58.489 Z-31.928 
N52 X-133.895 Y-58.241 Z-31.705 
N53 X-133.895 Y-57.993 Z-31.482 
N54 X-133.895 Y-57.746 Z-31.259 
N55 X-133.895 Y-57.498 Z-31.036 
N56 X-133.895 Y-57.250 Z-30.813 
N57 X-133.895 Y-57.002 Z-30.590 
N58 X-133.895 Y-56.755 Z-30.367 
N59 X-133.895 Y-56.507 Z-30.144 
N60 X-133.895 Y-56.259 Z-29.921 
N61 X-133.895 Y-56.012 Z-29.698 
N62 X-133.895 Y-55.764 Z-29.475 
N63 X-133.895 Y-55.516 Z-29.252 
N64 X-133.895 Y-55.268 Z-29.029 
N65 X-133.895 Y-55.019 Z-28.804 
N66 X-133.895 Y-54.770 Z-28.580 
N67 X-133.895 Y-54.521 Z-28.356 
N68 X-133.895 Y-54.272 Z-28.132 
N69 X-133.895 Y-54.023 Z-27.907 
N70 X-133.895 Y-53.774 Z-27.683 
N71 X-133.895 Y-53.525 Z-27.459 
N72 X-133.895 Y-53.276 Z-27.234 
N73 X-133.895 Y-53.026 Z-27.010 
N74 X-133.895 Y-52.777 Z-26.786 
N75 X-133.895 Y-52.528 Z-26.562 
N76 X-133.895 Y-52.279 Z-26.337 
N77 X-133.895 Y-52.030 Z-26.113 
N78 X-133.895 Y-51.781 Z-25.889 
N79 X-133.895 Y-51.532 Z-25.664 
N80 X-133.895 Y-51.283 Z-25.440 
N81 X-133.895 Y-51.034 Z-25.216 
N82 X-133.895 Y-50.785 Z-24.991 
N83 X-133.895 Y-50.536 Z-24.767 
N84 X-133.895 Y-50.286 Z-24.543 
N85 X-133.895 Y-50.037 Z-24.319 
N86 X-133.895 Y-49.788 Z-24.094 
N87 X-133.895 Y-49.539 Z-23.870 
N88 X-133.895 Y-49.290 Z-23.646 
N89 X-133.895 Y-49.041 Z-23.421 
N90 X-133.895 Y-48.792 Z-23.197 
N91 X-133.895 Y-48.543 Z-22.973 
N92 X-133.895 Y-48.294 Z-22.749 
N93 X-133.895 Y-48.045 Z-22.524 
N94 X-133.895 Y-47.795 Z-22.300 
N95 X-133.895 Y-47.546 Z-22.076 
N96 X-133.895 Y-47.297 Z-21.851 
N97 X-133.895 Y-47.048 Z-21.627 
N98 X-133.895 Y-46.799 Z-21.403 
N99 X-133.895 Y-46.550 Z-21.179 
N100 X-133.895 Y-46.301 Z-20.954 
N101 X-133.895 Y-46.052 Z-20.730 
N102 X-133.895 Y-45.803 Z-20.506 
N103 X-133.895 Y-45.554 Z-20.281 
N104 X-133.895 Y-45.304 Z-20.057 
N105 X-133.895 Y-45.055 Z-19.833 
N106 X-133.895 Y-44.806 Z-19.609 
N107 X-133.895 Y-44.557 Z-19.384 
N108 X-133.895 Y-44.308 Z-19.160 
N109 X-133.895 Y-44.059 Z-18.936 
N110 X-133.895 Y-43.810 Z-18.711 
N111 X-133.895 Y-43.561 Z-18.487 
N112 X-133.895 Y-43.312 Z-18.263 
N113 X-133.895 Y-43.063 Z-18.039 
N114 X-133.895 Y-42.813 Z-17.814 
N115 X-133.895 Y-42.564 Z-17.590 
N116 X-133.895 Y-42.315 Z-17.366 
N117 X-133.895 Y-42.066 Z-17.141 
N118 X-133.895 Y-41.817 Z-16.917 
N119 X-133.895 Y-41.568 Z-16.693 
N120 X-133.895 Y-41.319 Z-16.468 
N121 X-133.895 Y-41.070 Z-16.244 
N122 X-133.895 Y-40.821 Z-16.020 
N123 X-133.895 Y-40.572 Z-15.796 
N124 X-133.895 Y-40.322 Z-15.571 
N125 X-133.895 Y-40.073 Z-15.347 
N126 X-133.895 Y-39.824 Z-15.123 
N127 X-133.895 Y-39.575 Z-14.898 
N128 X-133.895 Y-39.326 Z-14.674 
N129 X-133.895 Y-39.077 Z-14.450 
N130 X-133.895 Y-38.828 Z-14.226 
N131 X-133.895 Y-38.579 Z-14.001 
N132 X-133.895 Y-38.330 Z-13.777 
N133 X-133.895 Y-38.081 Z-13.553 
N134 X-133.895 Y-37.831 Z-13.328 
N135 X-133.895 Y-37.582 Z-13.104 
N136 X-133.895 Y-37.333 Z-12.880 
N137 X-133.895 Y-37.084 Z-12.656 
N138 X-133.895 Y-36.835 Z-12.431 
N139 X-133.895 Y-36.586 Z-12.207 
N140 X-133.895 Y-36.337 Z-11.983 
N141 X-133.895 Y-36.088 Z-11.758 
N142 X-133.895 Y-35.839 Z-11.534 
N143 X-133.895 Y-35.590 Z-11.310 
N144 X-133.895 Y-35.340 Z-11.086 
N145 X-133.895 Y-35.091 Z-10.861 
N146 X-133.895 Y-34.842 Z-10.637 
N147 X-133.895 Y-34.593 Z-10.413 
N148 X-133.895 Y-34.344 Z-10.188 
N149 X-133.895 Y-34.095 Z-9.964 
N150 X-133.895 Y-33.846 Z-9.740 
N151 X-133.895 Y-33.597 Z-9.516 
N152 X-133.895 Y-33.348 Z-9.291 
N153 X-133.895 Y-33.099 Z-9.067 
N154 X-133.895 Y-32.849 Z-8.843 
N155 X-133.895 Y-32.600 Z-8.618 
N156 X-133.895 Y-32.351 Z-8.394 
N157 X-133.895 Y-32.102 Z-8.170 
N158 X-133.895 Y-31.853 Z-7.945 
N159 X-133.895 Y-31.604 Z-7.721 
N160 X-133.895 Y-31.355 Z-7.497 
N161 X-133.895 Y-31.106 Z-7.273 
N162 X-133.895 Y-30.857 Z-7.048 
N163 X-133.895 Y-30.608 Z-6.824 
N164 X-133.895 Y-30.358 Z-6.600 
N165 X-133.895 Y-30.109 Z-6.375 
N166 X-133.895 Y-29.860 Z-6.151 
N167 X-133.895 Y-29.611 Z-5.927 
N168 X-133.895 Y-29.362 Z-5.703 
N169 X-133.895 Y-29.113 Z-5.478 
N170 X-133.895 Y-28.864 Z-5.254 
N171 X-133.895 Y-28.615 Z-5.030 
N172 X-133.895 Y-28.366 Z-4.805 
N173 X-133.895 Y-28.117 Z-4.581 
N174 X-133.895 Y-27.868 Z-4.357 
N175 X-133.895 Y-27.618 Z-4.133 
N176 X-133.895 Y-27.369 Z-3.908 
N177 X-133.895 Y-27.120 Z-3.684 
N178 X-133.895 Y-26.871 Z-3.460 
N179 X-133.895 Y-26.622 Z-3.235 
N180 X-133.895 Y-26.373 Z-3.011 
N181 X-133.895 Y-26.124 Z-2.787 
N182 X-133.895 Y-25.875 Z-2.563 
N183 X-133.913 Y-25.626 Z-2.339 
N184 X-133.958 Y-25.379 Z-2.117 
N185 X-134.028 Y-25.134 Z-1.899 
N186 X-134.125 Y-24.895 Z-1.685 
N187 X-134.247 Y-24.661 Z-1.478 
N188 X-134.393 Y-24.436 Z-1.278 
N189 X-134.563 Y-24.219 Z-1.087 
N190 X-134.755 Y-24.013 Z-0.906 
N191 X-134.969 Y-23.819 Z-0.736 
N192 X-135.203 Y-23.638 Z-0.578 
N193 X-135.455 Y-23.471 Z-0.433 
N194 X-135.723 Y-23.319 Z-0.303 
N195 X-136.007 Y-23.184 Z-0.187 
N196 X-136.304 Y-23.065 Z-0.087 
N197 X-136.613 Y-22.965 Z-0.004 
N198 X-136.931 Y-22.883 Z0.063 
N199 X-137.256 Y-22.820 Z0.112 
N200 X-137.587 Y-22.776 Z0.144 
N201 X-137.921 Y-22.753 Z0.158 
N202 X-138.256 Y-22.746 Z0.157 
N203 X-138.591 Y-22.742 Z0.153 
N204 X-138.926 Y-22.738 Z0.148 
N205 X-139.262 Y-22.735 Z0.144 
N206 X-139.597 Y-22.731 Z0.140 
N207 X-139.932 Y-22.727 Z0.136 
N208 X-140.267 Y-22.723 Z0.132 
N209 X-140.602 Y-22.720 Z0.128 
N210 X-140.937 Y-22.716 Z0.123 
N211 X-141.272 Y-22.712 Z0.119 
N212 X-141.608 Y-22.708 Z0.115 
N213 X-141.943 Y-22.705 Z0.111 
N214 X-142.278 Y-22.701 Z0.107 
N215 X-142.613 Y-22.697 Z0.103 
N216 X-142.948 Y-22.693 Z0.098 
N217 X-143.283 Y-22.690 Z0.094 
N218 X-143.619 Y-22.686 Z0.090 
N219 X-143.954 Y-22.682 Z0.086 
N220 X-144.289 Y-22.678 Z0.082 
N221 X-144.624 Y-22.675 Z0.078 
N222 X-144.959 Y-22.671 Z0.074 
N223 X-145.294 Y-22.667 Z0.069 
N224 X-145.629 Y-22.663 Z0.065 
N225 X-145.965 Y-22.660 Z0.061 
N226 X-146.300 Y-22.656 Z0.057 
N227 X-146.635 Y-22.652 Z0.053 
N228 X-146.970 Y-22.648 Z0.049 
N229 X-147.305 Y-22.645 Z0.044 
N230 X-147.640 Y-22.641 Z0.040 
N231 X-147.975 Y-22.637 Z0.036 
N232 X-148.311 Y-22.633 Z0.032 
N233 X-148.646 Y-22.630 Z0.028 
N234 X-148.981 Y-22.626 Z0.024 
N235 X-149.316 Y-22.622 Z0.019 
N236 X-149.651 Y-22.618 Z0.015 
N237 X-149.986 Y-22.615 Z0.011 
N238 X-150.321 Y-22.611 Z0.007 
N239 X-150.657 Y-22.607 Z0.003 
N240 X-150.992 Y-22.603 Z-0.001 
N241 X-151.327 Y-22.600 Z-0.006 
N242 X-151.662 Y-22.596 Z-0.010 
N243 X-151.997 Y-22.592 Z-0.014 
N244 X-152.332 Y-22.589 Z-0.018 
N245 X-152.668 Y-22.585 Z-0.022 
N246 X-153.003 Y-22.581 Z-0.026 
N247 X-153.338 Y-22.577 Z-0.030 
N248 X-153.673 Y-22.574 Z-0.035 
N249 X-154.008 Y-22.570 Z-0.039 
N250 X-154.343 Y-22.566 Z-0.043 
N251 X-154.678 Y-22.562 Z-0.047 
N252 X-155.014 Y-22.559 Z-0.051 
N253 X-155.349 Y-22.555 Z-0.055 
N254 X-155.684 Y-22.551 Z-0.060 
N255 X-156.019 Y-22.547 Z-0.064 
N256 X-156.354 Y-22.544 Z-0.068 
N257 X-156.689 Y-22.540 Z-0.072 
N258 X-157.024 Y-22.536 Z-0.076 
N259 X-157.360 Y-22.532 Z-0.080 
N260 X-157.695 Y-22.529 Z-0.085 
N261 X-158.030 Y-22.525 Z-0.089 
N262 X-158.365 Y-22.521 Z-0.093 
N263 X-158.700 Y-22.517 Z-0.097 
N264 X-159.035 Y-22.514 Z-0.101 
N265 X-159.371 Y-22.510 Z-0.105 
N266 X-159.706 Y-22.506 Z-0.110 
N267 X-160.041 Y-22.502 Z-0.114 
N268 X-160.376 Y-22.499 Z-0.118 
N269 X-160.711 Y-22.495 Z-0.122 
N270 X-161.046 Y-22.491 Z-0.126 
N271 X-161.381 Y-22.487 Z-0.130 
N272 X-161.717 Y-22.484 Z-0.134 
N273 X-162.052 Y-22.480 Z-0.139 
N274 X-162.387 Y-22.476 Z-0.143 
N275 X-162.722 Y-22.472 Z-0.147 
N276 X-163.057 Y-22.469 Z-0.151 
N277 X-163.392 Y-22.465 Z-0.155 
N278 X-163.727 Y-22.461 Z-0.159 
N279 X-164.063 Y-22.457 Z-0.164 
N280 X-164.398 Y-22.454 Z-0.168 
N281 X-164.733 Y-22.450 Z-0.172 
N282 X-165.068 Y-22.446 Z-0.176 
N283 X-165.403 Y-22.442 Z-0.180 
N284 X-165.738 Y-22.439 Z-0.184 
N285 X-166.073 Y-22.435 Z-0.189 
N286 X-166.409 Y-22.431 Z-0.193 
N287 X-166.744 Y-22.427 Z-0.197 
N288 X-167.079 Y-22.424 Z-0.201 
N289 X-167.414 Y-22.420 Z-0.205 
N290 X-167.749 Y-22.416 Z-0.209 
N291 X-168.084 Y-22.412 Z-0.214 
N292 X-168.420 Y-22.409 Z-0.218 
N293 X-168.755 Y-22.405 Z-0.222 
N294 X-169.090 Y-22.401 Z-0.226 
N295 X-169.425 Y-22.397 Z-0.230 
N296 X-169.760 Y-22.394 Z-0.234 
N297 X-170.095 Y-22.390 Z-0.238 
N298 X-170.430 Y-22.386 Z-0.243 
N299 X-170.766 Y-22.382 Z-0.247 
N300 X-171.101 Y-22.379 Z-0.251 
N301 X-171.436 Y-22.375 Z-0.255 
N302 X-171.771 Y-22.371 Z-0.259 
N303 X-172.106 Y-22.368 Z-0.263 
N304 X-172.441 Y-22.371 Z-0.274 
N305 X-172.774 Y-22.394 Z-0.302 
N306 X-173.104 Y-22.436 Z-0.348 
N307 X-173.427 Y-22.498 Z-0.410 
N308 X-173.742 Y-22.579 Z-0.490 
N309 X-174.047 Y-22.678 Z-0.587 
N310 X-174.340 Y-22.795 Z-0.699 
N311 X-174.620 Y-22.930 Z-0.826 
N312 X-174.883 Y-23.081 Z-0.968 
N313 X-175.130 Y-23.247 Z-1.123 
N314 X-175.357 Y-23.427 Z-1.291 
N315 X-175.564 Y-23.621 Z-1.469 
N316 X-175.749 Y-23.826 Z-1.658 
N317 X-175.912 Y-24.042 Z-1.857 
N318 X-176.051 Y-24.267 Z-2.062 
N319 X-176.165 Y-24.500 Z-2.275 
N320 X-176.253 Y-24.739 Z-2.492 
N321 X-176.315 Y-24.983 Z-2.713 
N322 X-176.352 Y-25.230 Z-2.936 
N323 X-176.361 Y-25.479 Z-3.161 
N324 X-176.361 Y-25.728 Z-3.385 
N325 X-176.361 Y-25.977 Z-3.609 
N326 X-176.361 Y-26.226 Z-3.834 
N327 X-176.361 Y-26.475 Z-4.058 
N328 X-176.361 Y-26.725 Z-4.282 
N329 X-176.361 Y-26.974 Z-4.506 
N330 X-176.361 Y-27.223 Z-4.731 
N331 X-176.361 Y-27.472 Z-4.955 
N332 X-176.361 Y-27.721 Z-5.179 
N333 X-176.361 Y-27.970 Z-5.404 
N334 X-176.361 Y-28.219 Z-5.628 
N335 X-176.361 Y-28.468 Z-5.852 
N336 X-176.361 Y-28.717 Z-6.076 
N337 X-176.361 Y-28.966 Z-6.301 
N338 X-176.361 Y-29.216 Z-6.525 
N339 X-176.361 Y-29.465 Z-6.749 
N340 X-176.361 Y-29.714 Z-6.974 
N341 X-176.361 Y-29.963 Z-7.198 
N342 X-176.361 Y-30.212 Z-7.422 
N343 X-176.361 Y-30.461 Z-7.647 
N344 X-176.361 Y-30.710 Z-7.871 
N345 X-176.361 Y-30.959 Z-8.095 
N346 X-176.361 Y-31.208 Z-8.319 
N347 X-176.361 Y-31.457 Z-8.544 
N348 X-176.361 Y-31.707 Z-8.768 
N349 X-176.361 Y-31.956 Z-8.992 
N350 X-176.361 Y-32.205 Z-9.217 
N351 X-176.361 Y-32.454 Z-9.441 
N352 X-176.361 Y-32.703 Z-9.665 
N353 X-176.361 Y-32.952 Z-9.889 
N354 X-176.361 Y-33.201 Z-10.114 
N355 X-176.361 Y-33.450 Z-10.338 
N356 X-176.361 Y-33.699 Z-10.562 
N357 X-176.361 Y-33.948 Z-10.787 
N358 X-176.361 Y-34.198 Z-11.011 
N359 X-176.361 Y-34.447 Z-11.235 
N360 X-176.361 Y-34.696 Z-11.459 
N361 X-176.361 Y-34.945 Z-11.684 
N362 X-176.361 Y-35.194 Z-11.908 
N363 X-176.361 Y-35.443 Z-12.132 
N364 X-176.361 Y-35.692 Z-12.357 
N365 X-176.361 Y-35.941 Z-12.581 
N366 X-176.361 Y-36.190 Z-12.805 
N367 X-176.361 Y-36.439 Z-13.029 
N368 X-176.361 Y-36.689 Z-13.254 
N369 X-176.361 Y-36.938 Z-13.478 
N370 X-176.361 Y-37.187 Z-13.702 
N371 X-176.361 Y-37.436 Z-13.927 
N372 X-176.361 Y-37.685 Z-14.151 
N373 X-176.361 Y-37.934 Z-14.375 
N374 X-176.361 Y-38.183 Z-14.599 
N375 X-176.361 Y-38.432 Z-14.824 
N376 X-176.361 Y-38.681 Z-15.048 
N377 X-176.361 Y-38.930 Z-15.272 
N378 X-176.361 Y-39.179 Z-15.497 
N379 X-176.361 Y-39.429 Z-15.721 
N380 X-176.361 Y-39.678 Z-15.945 
N381 X-176.361 Y-39.927 Z-16.170 
N382 X-176.361 Y-40.176 Z-16.394 
N383 X-176.361 Y-40.425 Z-16.618 
N384 X-176.361 Y-40.674 Z-16.842 
N385 X-176.361 Y-40.922 Z-17.065 
N386 X-176.361 Y-41.170 Z-17.288 
N387 X-176.361 Y-41.417 Z-17.512 
N388 X-176.361 Y-41.665 Z-17.735 
N389 X-176.361 Y-41.913 Z-17.958 
N390 X-176.361 Y-42.160 Z-18.181 
N391 X-176.361 Y-42.408 Z-18.404 
N392 X-176.361 Y-42.656 Z-18.627 
N393 X-176.361 Y-42.904 Z-18.850 
N394 X-176.361 Y-43.151 Z-19.073 
N395 X-176.361 Y-43.399 Z-19.296 
N396 X-176.361 Y-43.647 Z-19.519 
N397 X-176.361 Y-43.894 Z-19.742 
N398 X-176.361 Y-44.142 Z-19.965 
N399 X-176.361 Y-44.390 Z-20.188 
N400 G40 X-176.361 Y-51.821 Z-26.879 F670
N401 X-176.361 Y-51.821 Z-26.879 
N402 G00 X-177.196 Y-85.273 Z10.273 
;RAPORT("TB011430","Side Milling:101 End")
;trailer : concat=None
; points cnt = 353
N404 MSG (" --- GROUPED OF SUBPROGRAM --- ")
N405 FGROUP()
N406 TRAFOOF
; PROGRAM NAME: B01143075
; ORDER       : B011430
; OPER. NAME  : Side Milling:102
; OPER. DESCR.: FSSANF : POMA D2
; OPER. TYPE  : sideMill
; GEO. OPTION : 1
; MACHINE     : HSTM_500_SIM840D_Py
;             : HSTM500 - HAMUEL: 5-axis milling machine - SIM840D Traori PP_Script
; CONTROL     : SINUMERIK 840D
; created:   2022-10-26 13:17:28.401061
;-------DODATKOWE DANE-------------------
; PROGRAMISTA : Zbigniew Papierowski
; PARTID      : 135T006774P1021_-
;  ap         : 5.0
;  ae         : 5.0
;  lean_angle : 0.0
;  fin_offset : 0.0
;----------------------------------------
;RAPORT("TB011430","Side Milling:102")
N10 TRAFOOF
N11 D0
N12 G90 G94
N13 G0 G53 D0 Z550 B0
N14 STOPRE
M9 ; chlodziwo wyl
; --- Side Milling:102 - FSSANF : POMA D2 ---
N16 ;ToolChange : concat=None ,current_tdmid=None, PP.tdmId=940983
N17 TRAFOOF
N18 G0 G53 D0 Z550 B0
N19 STOPRE
N20 MSG(" TLID=940983 D=10.0 R=0.0 Ang=0.0 Len=116.0 ")
N21 S5411 M03
N22 STOPRE
N23 CYCLE832(0.01,1,1)
N24 G0 G53 A42.0000 B-0.9569
N25 TRAORI
N26 G54 D1
N27 D2 
N28 ; DELTA A > 40.1
N29 TRAFOOF
N30 D2
N31 STOPRE
N32 G00 G54 Z270.000
N33 G01 A42.0000 F10000
N34 TRAORI
N35 G54 D2
N36 STOPRE
N37 TRANS 
N38 G00 X-135.630 Y-31.056 Z60.024 A42.0000 B-0.9569 
N39 M342 ; chlodziwo woda
N40 X-134.795 Y2.395 Z22.872 
N41 D2 
N42 G01 G41 X-134.795 Y-5.036 Z16.180 F670
N43 G01 X-134.795 Y-5.036 Z16.180 F670 
N44 X-134.795 Y-5.779 Z15.511 
N45 X-134.795 Y-6.522 Z14.842 
N46 X-134.795 Y-7.265 Z14.173 
N47 X-134.795 Y-8.194 Z13.337 
N48 X-134.795 Y-9.123 Z12.500 
N49 X-134.795 Y-10.052 Z11.664 
N50 X-134.795 Y-10.981 Z10.827 
N51 X-134.795 Y-11.808 Z10.083 
N52 X-134.795 Y-12.635 Z9.338 
N53 X-134.795 Y-13.463 Z8.593 
N54 X-134.795 Y-14.290 Z7.848 
N55 X-134.795 Y-15.117 Z7.104 
N56 X-134.795 Y-15.944 Z6.359 
N57 X-134.795 Y-16.771 Z5.614 
N58 X-134.795 Y-17.598 Z4.870 
N59 X-134.795 Y-18.425 Z4.125 
N60 X-134.795 Y-19.252 Z3.380 
N61 X-134.795 Y-20.079 Z2.635 
N62 X-134.795 Y-20.907 Z1.891 
N63 X-134.795 Y-21.734 Z1.146 
N64 X-134.795 Y-22.561 Z0.401 
N65 X-134.795 Y-23.490 Z-0.435 
N66 X-134.795 Y-24.419 Z-1.272 
N67 X-134.795 Y-25.348 Z-2.108 
N68 X-134.795 Y-26.277 Z-2.945 
N69 G40 X-134.795 Y-33.708 Z-9.636 F670
N70 X-134.795 Y-33.708 Z-9.636 
N71 G00 X-135.630 Y-67.160 Z27.516 
;RAPORT("TB011430","Side Milling:102 End")
;trailer : concat=None
; points cnt = 27
N73 MSG (" --- GROUPED OF SUBPROGRAM --- ")
N74 FGROUP()
N75 TRAFOOF
; PROGRAM NAME: B01143075
; ORDER       : B011430
; OPER. NAME  : Side Milling:103
; OPER. DESCR.: DFAZANF 
; OPER. TYPE  : sideMill
; GEO. OPTION : 1
; MACHINE     : HSTM_500_SIM840D_Py
;             : HSTM500 - HAMUEL: 5-axis milling machine - SIM840D Traori PP_Script
; CONTROL     : SINUMERIK 840D
; created:   2022-10-26 13:17:29.938564
;-------DODATKOWE DANE-------------------
; PROGRAMISTA : Zbigniew Papierowski
; PARTID      : 135T006774P1021_-
;  ap         : 5.0
;  ae         : 5.0
;  lean_angle : 0.0
;  fin_offset : 0.0
;----------------------------------------
;RAPORT("TB011430","Side Milling:103")
N10 TRAFOOF
N11 D0
N12 G90 G94
N13 G0 G53 D0 Z550 B0
N14 STOPRE
M9 ; chlodziwo wyl
; --- Side Milling:103 - DFAZANF  ---
N16 ;ToolChange : concat=None ,current_tdmid=None, PP.tdmId=940984
N17 TRAFOOF
N18 G0 G53 D0 X-200 Y150 Z550 B0
N19 T="7740984"
;RAPORT("TB011430","ToolChangeStart 7740984")
N20 M6
;RAPORT("TB011430","ToolChangeEnd")
N21 STOPRE
N22 MSG(" TLID=940984 D=12.0 R=0.0 Ang=0.0 Len=120.0 ")
N23 ; (Preloading tool)
N24 T="7740664"
N25 S5305 M03
N26 STOPRE
N27 CYCLE832(0.01,1,1)
N28 G0 G53 A42.0000 B-0.9569
N29 TRAORI
N30 G54 D1
N31 D1 
N32 TRANS  X=R21
N33 ; DELTA A > 40.1
N34 TRAFOOF
N35 D1
N36 STOPRE
N37 G00 G54 Z266.000
N38 G01 A42.0000 F10000
N39 TRAORI
N40 G54 D1
N41 STOPRE
N42 TRANS  X=R21
N43 G00 X-139.929 Y-9.520 Z79.319 A42.0000 B-0.9569 
N44 M342 ; chlodziwo woda
N45 X-139.094 Y23.932 Z42.167 
N46 G01 X-139.094 Y16.501 Z35.476 F795 
N47 X-139.094 Y14.271 Z33.468 
N48 X-139.094 Y9.813 Z29.454 
N49 X-139.094 Y-5.792 Z15.403 
N50 X-139.094 Y-10.251 Z11.388 
N51 X-139.261 Y-16.941 Z18.819 F1000 
N52 G00 X-139.929 Y-43.703 Z48.540 
;RAPORT("TB011430","Side Milling:103 End")
;trailer : concat=None
; points cnt = 6
N54 MSG (" --- GROUPED OF SUBPROGRAM --- ")
N55 FGROUP()
N56 TRAFOOF
; PROGRAM NAME: B01143075
; ORDER       : B011430
; OPER. NAME  : Side Milling:104
; OPER. DESCR.: NNTAANF : Lejek D5
; OPER. TYPE  : sideMill
; GEO. OPTION : 1
; MACHINE     : HSTM_500_SIM840D_Py
;             : HSTM500 - HAMUEL: 5-axis milling machine - SIM840D Traori PP_Script
; CONTROL     : SINUMERIK 840D
; created:   2022-10-26 13:17:31.646794
;-------DODATKOWE DANE-------------------
; PROGRAMISTA : Zbigniew Papierowski
; PARTID      : 135T006774P1021_-
;  ap         : 5.0
;  ae         : 5.0
;  lean_angle : 0.0
;  fin_offset : 0.0
;----------------------------------------
;RAPORT("TB011430","Side Milling:104")
N10 TRAFOOF
N11 D0
N12 G90 G94
N13 G0 G53 D0 Z550 B0
N14 STOPRE
M9 ; chlodziwo wyl
; --- Side Milling:104 - NNTAANF : Lejek D5 ---
N16 ;ToolChange : concat=None ,current_tdmid=None, PP.tdmId=940664
N17 TRAFOOF
N18 G0 G53 D0 X-200 Y150 Z550 B0
N19 T="7740664"
;RAPORT("TB011430","ToolChangeStart 7740664")
N20 M6
;RAPORT("TB011430","ToolChangeEnd")
N21 STOPRE
N22 MSG(" TLID=940664 D=6.0 R=0.6 Ang=0.0 Len=100.0 ")
N23 ; (Preloading tool)
N24 T="7740983"
N25 S9018 M03
N26 STOPRE
N27 CYCLE832(0.01,1,1)
N28 G0 G53 A132.0000 B0.0000
N29 TRAORI
N30 G54 D1
N31 ; DELTA A > 40.1
N32 TRAFOOF
N33 D1
N34 STOPRE
N35 G00 G54 Z286.000
N36 G01 A132.0000 F10000
N37 TRAORI
N38 G54 D1
N39 STOPRE
N40 TRANS 
N41 G00 X-151.221 Y-71.885 Z-7.588 A132.0000 
N42 M342 ; chlodziwo woda
N43 X-151.221 Y-34.728 Z25.868 
N44 D5 
N45 G01 G41 X-150.113 Y-28.078 Z18.483 F541
N46 G01 X-150.113 Y-28.078 Z18.483 F541 
N47 X-150.002 Y-27.413 Z17.744 
N48 X-149.892 Y-26.748 Z17.005 
N49 X-149.781 Y-26.083 Z16.267 
N50 X-149.670 Y-25.418 Z15.528 
N51 X-149.559 Y-24.753 Z14.790 
N52 X-149.449 Y-24.088 Z14.051 
N53 X-149.348 Y-23.484 Z13.380 
N54 X-149.247 Y-22.880 Z12.709 
N55 X-149.147 Y-22.276 Z12.039 
N56 X-149.046 Y-21.671 Z11.368 
N57 X-148.946 Y-21.067 Z10.697 
N58 X-148.845 Y-20.463 Z10.026 
N59 X-148.744 Y-19.859 Z9.355 
N60 X-148.644 Y-19.255 Z8.684 
N61 X-148.543 Y-18.651 Z8.013 
N62 X-148.432 Y-17.986 Z7.275 
N63 X-148.322 Y-17.321 Z6.536 
N64 X-148.211 Y-16.656 Z5.798 
N65 G40 X-148.211 Y-16.656 Z5.798 F541
N66 
N67 G00 X-148.211 Y-53.813 Z-27.659 
;RAPORT("TB011430","Side Milling:104 End")
;trailer : concat=None
; points cnt = 20
N69 MSG (" --- GROUPED OF SUBPROGRAM --- ")
N70 FGROUP()
N71 TRAFOOF
; PROGRAM NAME: B01143075
; ORDER       : B011430
; OPER. NAME  : Side Milling:105
; OPER. DESCR.: NTAANF : Lejek D6
; OPER. TYPE  : sideMill
; GEO. OPTION : 1
; MACHINE     : HSTM_500_SIM840D_Py
;             : HSTM500 - HAMUEL: 5-axis milling machine - SIM840D Traori PP_Script
; CONTROL     : SINUMERIK 840D
; created:   2022-10-26 13:17:33.262764
;-------DODATKOWE DANE-------------------
; PROGRAMISTA : Zbigniew Papierowski
; PARTID      : 135T006774P1021_-
;  ap         : 5.0
;  ae         : 5.0
;  lean_angle : 0.0
;  fin_offset : 0.0
;----------------------------------------
;RAPORT("TB011430","Side Milling:105")
N10 TRAFOOF
N11 D0
N12 G90 G94
N13 G0 G53 D0 Z550 B0
N14 STOPRE
M9 ; chlodziwo wyl
; --- Side Milling:105 - NTAANF : Lejek D6 ---
N16 ;ToolChange : concat=None ,current_tdmid=None, PP.tdmId=940664
N17 TRAFOOF
N18 G0 G53 D0 Z550 B0
N19 STOPRE
N20 MSG(" TLID=940664 D=6.0 R=0.6 Ang=0.0 Len=100.0 ")
N21 S9018 M03
N22 STOPRE
N23 CYCLE832(0.01,1,1)
N24 G0 G53 A132.0000 B0.0000
N25 TRAORI
N26 G54 D1
N27 ; DELTA A > 40.1
N28 TRAFOOF
N29 D1
N30 STOPRE
N31 G00 G54 Z286.000
N32 G01 A132.0000 F10000
N33 TRAORI
N34 G54 D1
N35 STOPRE
N36 TRANS 
N37 G00 X-145.754 Y-71.860 Z-7.617 A132.0000 
N38 M342 ; chlodziwo woda
N39 X-145.754 Y-34.702 Z25.840 
N40 D6 
N41 G01 G42 X-146.542 Y-28.032 Z18.432 F541
N42 G01 X-146.542 Y-28.032 Z18.432 F541 
N43 X-146.620 Y-27.365 Z17.691 
N44 X-146.699 Y-26.698 Z16.950 
N45 X-146.778 Y-26.031 Z16.209 
N46 X-146.857 Y-25.364 Z15.468 
N47 X-146.935 Y-24.697 Z14.727 
N48 X-147.014 Y-24.030 Z13.987 
N49 X-147.084 Y-23.433 Z13.324 
N50 X-147.155 Y-22.837 Z12.662 
N51 X-147.225 Y-22.241 Z12.000 
N52 X-147.296 Y-21.645 Z11.338 
N53 X-147.366 Y-21.048 Z10.676 
N54 X-147.436 Y-20.452 Z10.013 
N55 X-147.507 Y-19.856 Z9.351 
N56 X-147.577 Y-19.260 Z8.689 
N57 X-147.648 Y-18.663 Z8.027 
N58 X-147.726 Y-17.996 Z7.286 
N59 X-147.805 Y-17.329 Z6.545 
N60 X-147.884 Y-16.662 Z5.804 
N61 G40 X-147.884 Y-16.662 Z5.804 F541
N62 
N63 G00 X-147.884 Y-53.820 Z-27.652 
;RAPORT("TB011430","Side Milling:105 End")
;trailer : concat=None
; points cnt = 20
N65 M9 ; chlodziwo wyl.
N66 MSG (" --- KONIEC PODPROGRAMU --- ")
N67 FGROUP()
N68 TRAFOOF
N69 STOPRE
N70 G0 G53 D0 Z550.0 M9 M5
N71 G0 G53 Y150 A0 B0
N72 M17
