; PROGRAM NAME: B01143011
; ORDER       : B011430
; OPER. NAME  : Spiral Rough Rhombic:102
; OPER. DESCR.: spiral roughing rhombic/nozka zgr
; OPER. TYPE  : rouRoot
; GEO. OPTION : 4
; MACHINE     : HSTM_500_SIM840D_Py
;             : HSTM500 - HAMUEL: 5-axis milling machine - SIM840D Traori PP_Script
; CONTROL     : SINUMERIK 840D
; created:   2022-10-26 13:18:23.540478
;-------DODATKOWE DANE-------------------
; PROGRAMISTA : Zbigniew Papierowski
; PARTID      : 135T006774P1021_-
;  ap         : 2.7
;  ae         : 30.0
;  lean_angle : 1.0
;  fin_offset : 0.6
;----------------------------------------
;RAPORT("TB011430","Spiral Rough Rhombic:102")
N10 TRAFOOF
N11 D0
N12 G90 G94
N13 G0 G53 D0 Z550 B0
N14 STOPRE
M9 ; chlodziwo wyl
; --- Spiral Rough Rhombic:102 - spiral roughing rhombic/nozka zgr ---
N16 ;ToolChange : concat=None ,current_tdmid=None, PP.tdmId=941290
N17 TRAFOOF
N18 G0 G53 D0 X-200 Y150 Z550 B0
N19 T="7741290"
;RAPORT("TB011430","ToolChangeStart 7741290")
N20 M6
;RAPORT("TB011430","ToolChangeEnd")
N21 STOPRE
N22 MSG(" TLID=941290 D=50.0 R=6.0 Ang=0.0 Len=90.0 ")
N23 ; (Preloading tool)
N24 T="7741291"
N25 S1718 M03
N26 STOPRE
N27 CYCLE832(0.1,3,1)
N28 G0 G53 A270.9094 B-0.1551
N29 TRAORI
N30 G54 D1
N31 D2 
N32 ; DELTA A > 40.1
N33 TRAFOOF
N34 D2
N35 STOPRE
N36 G00 G54 Z296.000
N37 G01 A270.9094 F10000
N38 TRAORI
N39 G54 D2
N40 STOPRE
N41 TRANS 
N42 G00 X-152.165 Y92.406 Z-45.825 A270.9094 B-0.1551 
N43 M348 ; chlodziwo mgla
N44 X-152.030 Y42.412 Z-46.618 
N45 G01 X-152.022 Y39.323 Z-46.124 F2834 
N46 X-152.014 Y36.538 Z-44.699 
N47 X-152.008 Y34.329 Z-42.483 
N48 X-152.004 Y32.913 Z-39.693 
N49 X-152.003 Y32.428 Z-36.602 
N50 X-152.003 Y32.433 Z-33.251 B-0.1396 
N51 X-152.003 Y32.439 Z-29.957 B-0.1242 
N52 X-152.003 Y32.444 Z-26.775 B-0.1085 
N53 X-152.002 Y32.449 Z-23.754 B-0.0882 
N54 X-152.002 Y32.453 Z-20.932 B-0.0570 
N55 X-152.002 Y32.457 Z-18.341 B-0.0313 
N56 X-152.002 Y32.461 Z-16.000 B-0.0142 
N57 X-152.002 Y32.464 Z-13.918 B-0.0046 
N58 X-152.002 Y32.469 Z-12.093 A270.9152 B-0.0010 
N59 X-152.002 Y32.496 Z-10.516 A270.9932 B-0.0001 
N60 X-152.002 Y32.669 Z-9.166 A271.5241 B-0.0000 
N61 X-152.002 Y33.265 Z-8.005 A273.3888 B-0.0000 
N62 X-152.002 Y34.352 Z-6.955 A276.8611 B-0.0004 
N63 X-152.002 Y35.703 Z-5.940 A281.2966 B-0.0020 
N64 X-152.002 Y37.135 Z-4.916 A286.1609 B-0.0050 
N65 X-152.002 Y38.553 Z-3.862 A291.1713 B-0.0086 
N66 X-152.002 Y39.893 Z-2.776 A296.1352 B-0.0115 
N67 X-152.002 Y41.115 Z-1.668 A300.9222 B-0.0122 
N68 X-152.002 Y42.198 Z-0.552 A305.4561 B-0.0101 
N69 X-152.002 Y43.150 Z0.568 A309.7521 B-0.0052 
N70 X-152.002 Y43.990 Z1.705 A313.8908 B0.0015 
N71 X-152.002 Y44.738 Z2.881 A317.9702 B0.0084 
N72 X-152.002 Y45.404 Z4.120 A322.0858 B0.0136 
N73 X-152.002 Y45.986 Z5.449 A326.3263 B0.0159 
N74 X-152.002 Y46.472 Z6.888 A330.7507 B0.0146 
N75 X-152.002 Y46.827 Z8.434 A335.3490 B0.0106 
N76 X-152.002 Y47.011 Z10.063 A340.0572 B0.0058 
N77 X-152.002 Y46.983 Z11.730 A344.7754 B0.0022 
N78 X-152.002 Y46.708 Z13.371 A349.3564 B0.0005 
N79 X-152.002 Y46.166 Z14.894 A353.5972 B0.0000 
N80 X-152.002 Y45.355 Z16.187 A357.2286 B0.0000 
N81 X-152.002 Y44.291 Z17.075 A359.7584 
N82 X-152.002 Y43.006 Z17.452 A0.8505 
N83 X-152.002 Y41.505 Z17.528 A1.0778 
N84 X-152.002 Y39.774 Z17.533 A1.1036 
N85 X-152.002 Y37.805 Z17.530 A1.1045 
N86 X-152.002 Y35.596 Z17.526 
N87 X-152.002 Y33.158 Z17.522 
N88 X-152.002 Y30.509 Z17.517 
N89 X-152.002 Y27.679 Z17.512 
N90 X-152.002 Y24.706 Z17.506 
N91 X-152.002 Y21.634 Z17.501 
N92 X-152.002 Y18.517 Z17.495 
N93 X-152.002 Y15.405 Z17.489 
N94 X-152.002 Y12.354 Z17.484 
N95 X-152.002 Y9.414 Z17.478 
N96 X-152.002 Y6.627 Z17.473 
N97 X-152.002 Y4.031 Z17.469 
N98 X-152.002 Y1.652 Z17.464 
N99 X-152.002 Y-0.493 Z17.460 
N100 X-152.002 Y-2.396 Z17.457 
N101 X-152.002 Y-4.060 Z17.462 A1.1293 
N102 X-152.002 Y-5.496 Z17.555 A1.4256 
N103 X-152.002 Y-6.729 Z17.889 A2.4843 
N104 X-152.002 Y-7.804 Z18.613 A4.7939 
N105 X-152.002 Y-8.794 Z19.710 A8.3493 
N106 X-152.002 Y-9.757 Z21.003 A12.6503 
N107 X-152.002 Y-10.730 Z22.365 A17.3166 
N108 X-152.002 Y-11.737 Z23.724 A22.1473 
N109 X-152.002 Y-12.783 Z25.029 A26.9893 
N110 X-152.002 Y-13.863 Z26.238 A31.7189 
N111 X-152.002 Y-14.957 Z27.320 A36.2292 
N112 X-152.002 Y-16.049 Z28.263 A40.4641 
N113 X-152.002 Y-17.145 Z29.086 A44.4933 
N114 X-152.002 Y-18.295 Z29.839 A48.5361 
N115 X-152.002 Y-19.557 Z30.553 A52.8092 
N116 X-152.002 Y-20.924 Z31.191 A57.2535 
N117 X-152.002 Y-22.355 Z31.705 A61.7190 
N118 X-152.002 Y-23.847 Z32.081 A66.2194 
N119 X-152.002 Y-25.385 Z32.298 A70.7345 
N120 X-152.002 Y-26.945 Z32.338 A75.2227 
N121 X-152.002 Y-28.474 Z32.180 A79.5721 
N122 X-152.002 Y-29.893 Z31.816 A83.5952 
N123 X-152.002 Y-31.085 Z31.251 A86.9907 
N124 X-152.002 Y-31.901 Z30.515 A89.3295 
N125 X-152.002 Y-32.298 Z29.644 A90.4767 
N126 X-152.002 Y-32.426 Z28.656 A90.8437 
N127 X-152.002 Y-32.455 Z27.555 A90.9264 
N128 X-152.002 Y-32.460 Z26.344 A90.9375 
N129 X-152.002 Y-32.462 Z25.031 A90.9376 
N130 X-152.002 Y-32.463 Z23.630 
N131 X-152.002 Y-32.465 Z22.158 
N132 X-152.002 Y-32.467 Z20.639 
N133 X-152.002 Y-32.468 Z19.096 
N134 X-152.002 Y-32.470 Z17.555 
N135 X-152.002 Y-32.472 Z16.042 
N136 X-152.002 Y-32.473 Z14.580 
N137 X-152.002 Y-32.475 Z13.190 A90.9378 
N138 X-152.002 Y-32.479 Z11.890 A90.9462 
N139 X-152.002 Y-32.498 Z10.693 A91.0008 
N140 X-152.002 Y-32.585 Z9.603 A91.2669 
N141 X-152.002 Y-32.879 Z8.620 A92.1820 
N142 X-152.002 Y-33.514 Z7.720 A94.1828 B0.0001 
N143 X-152.002 Y-34.462 Z6.865 A97.2243 B0.0004 
N144 X-152.002 Y-35.590 Z6.019 A100.9262 B0.0017 
N145 X-152.002 Y-36.795 Z5.157 A104.9971 B0.0043 
N146 X-152.002 Y-38.018 Z4.265 A109.2641 B0.0083 
N147 X-152.002 Y-39.213 Z3.337 A113.5941 B0.0129 
N148 X-152.002 Y-40.347 Z2.374 A117.8935 B0.0161 
N149 X-152.002 Y-41.397 Z1.385 A122.0864 B0.0163 
N150 X-152.002 Y-42.351 Z0.377 A126.1360 B0.0131 
N151 X-152.002 Y-43.213 Z-0.655 A130.0650 B0.0066 
N152 X-152.002 Y-43.996 Z-1.721 A133.9376 B-0.0023 
N153 X-152.002 Y-44.711 Z-2.842 A137.8291 B-0.0128 
N154 X-152.002 Y-45.360 Z-4.039 A141.8125 B-0.0237 
N155 X-152.002 Y-45.937 Z-5.333 A145.9569 B-0.0339 
N156 X-152.002 Y-46.427 Z-6.745 A150.3112 B-0.0419 
N157 X-152.002 Y-46.796 Z-8.270 A154.8638 B-0.0459 
N158 X-152.002 Y-47.000 Z-9.886 A159.5478 B-0.0437 
N159 X-152.002 Y-46.997 Z-11.550 A164.2641 B-0.0354 
N160 X-152.002 Y-46.752 Z-13.196 A168.8685 B-0.0238 
N161 X-152.002 Y-46.242 Z-14.738 A173.1622 B-0.0127 
N162 X-152.002 Y-45.461 Z-16.066 A176.8870 B-0.0051 
N163 X-152.002 Y-44.426 Z-17.011 A179.5767 B-0.0016 
N164 X-152.002 Y-43.165 Z-17.441 A180.8225 B-0.0021 
N165 X-152.002 Y-41.691 Z-17.535 A181.1053 B-0.0059 
N166 X-152.002 Y-39.989 Z-17.543 A181.1389 B-0.0123 
N167 X-152.002 Y-38.048 Z-17.539 A181.1404 B-0.0215 
N168 X-152.002 Y-35.868 Z-17.533 B-0.0347 
N169 X-152.002 Y-33.456 Z-17.527 B-0.0523 
N170 X-152.002 Y-30.831 Z-17.521 B-0.0701 
N171 X-152.002 Y-28.021 Z-17.514 B-0.0797 
N172 X-152.002 Y-25.062 Z-17.507 B-0.0861 
N173 X-152.002 Y-22.000 Z-17.499 B-0.0925 
N174 X-152.002 Y-18.885 Z-17.492 B-0.0991 
N175 X-152.003 Y-15.770 Z-17.484 B-0.1057 
N176 X-152.003 Y-12.709 Z-17.476 B-0.1121 
N177 X-152.003 Y-9.753 Z-17.469 B-0.1184 
N178 X-152.003 Y-6.946 Z-17.462 B-0.1243 
N179 X-152.003 Y-4.325 Z-17.456 B-0.1299 
N180 X-152.003 Y-1.920 Z-17.450 B-0.1349 
N181 X-152.003 Y0.253 Z-17.445 B-0.1395 
N182 X-152.003 Y2.184 Z-17.440 B-0.1436 
N183 X-152.003 Y3.875 Z-17.441 A181.1551 B-0.1472 
N184 X-152.003 Y5.337 Z-17.509 A181.3788 B-0.1519 
N185 X-152.003 Y6.590 Z-17.791 A182.2715 B-0.1623 
N186 X-152.003 Y7.679 Z-18.453 A184.3813 B-0.1846 
N187 X-152.003 Y8.672 Z-19.514 A187.8075 B-0.2231 
N188 X-152.004 Y9.634 Z-20.797 A192.0545 B-0.2774 
N189 X-152.004 Y10.603 Z-22.159 A196.6996 B-0.3444 
N190 X-152.004 Y11.603 Z-23.526 A201.5288 B-0.4197 
N191 X-152.005 Y12.644 Z-24.844 A206.3857 B-0.4989 
N192 X-152.005 Y13.718 Z-26.069 A211.1396 B-0.5782 
N193 X-152.006 Y14.808 Z-27.167 A215.6718 B-0.6537 
N194 X-152.006 Y15.893 Z-28.122 A219.9182 B-0.7200 
N195 X-152.006 Y16.981 Z-28.957 A223.9494 B-0.7686 
N196 X-152.006 Y18.120 Z-29.722 A227.9876 B-0.7881 
N197 X-152.006 Y19.369 Z-30.449 A232.2473 B-0.7673 
N198 X-152.006 Y20.717 Z-31.101 A236.6609 B-0.7055 
N199 X-152.005 Y22.112 Z-31.625 A241.0411 B-0.6179 
N200 X-152.005 Y23.562 Z-32.016 A245.4394 B-0.5225 
N201 X-152.004 Y25.070 Z-32.261 A249.8841 B-0.4298 
N202 X-152.004 Y26.610 Z-32.339 A254.3345 B-0.3454 
N203 X-152.003 Y28.137 Z-32.229 A258.6867 B-0.2726 
N204 X-152.003 Y29.578 Z-31.916 A262.7760 B-0.2135 
N205 X-152.003 Y30.833 Z-31.405 A266.3495 B-0.1690 
N206 X-152.003 Y31.762 Z-30.715 A269.0162 B-0.1389 
N207 X-152.003 Y32.279 Z-29.885 A270.5195 B-0.1207 
N208 X-152.003 Y32.477 Z-28.938 A271.1062 B-0.1102 
N209 X-152.003 Y32.528 Z-27.879 A271.2706 B-0.1032 
N210 X-152.002 Y32.532 Z-26.711 A271.3009 B-0.0966 
N211 X-152.002 Y32.526 Z-25.440 A271.3037 B-0.0886 
N212 X-152.002 Y32.522 Z-24.079 A271.3116 B-0.0782 
N213 X-152.002 Y32.520 Z-22.643 A271.3313 B-0.0658 
N214 X-152.002 Y32.522 Z-21.154 A271.3651 B-0.0530 
N215 X-152.002 Y32.526 Z-19.635 A271.4063 B-0.0418 
N216 X-152.002 Y32.528 Z-18.111 A271.4475 B-0.0326 
N217 X-152.002 Y32.528 Z-16.608 A271.4834 B-0.0253 
N218 X-152.002 Y32.523 Z-15.149 A271.5065 B-0.0194 
N219 X-152.002 Y32.514 Z-13.756 A271.5148 B-0.0146 
N220 X-152.002 Y32.504 Z-12.447 A271.5226 B-0.0107 
N221 X-152.002 Y32.512 Z-11.234 A271.5800 B-0.0075 
N222 X-152.002 Y32.579 Z-10.127 A271.8197 B-0.0052 
N223 X-152.002 Y32.810 Z-9.123 A272.5730 B-0.0042 
N224 X-152.002 Y33.346 Z-8.204 A274.2894 B-0.0049 
N225 X-152.002 Y34.211 Z-7.336 A277.0857 B-0.0074 
N226 X-152.002 Y35.296 Z-6.479 A280.6568 B-0.0114 
N227 X-152.002 Y36.484 Z-5.607 A284.6759 B-0.0161 
N228 X-152.002 Y37.704 Z-4.704 A288.9337 B-0.0204 
N229 X-152.002 Y38.901 Z-3.765 A293.2734 B-0.0232 
N230 X-152.002 Y40.039 Z-2.793 A297.5857 B-0.0233 
N231 X-152.002 Y41.092 Z-1.795 A301.7941 B-0.0205 
N232 X-152.002 Y42.047 Z-0.778 A305.8562 B-0.0149 
N233 X-152.002 Y42.908 Z0.258 A309.7866 B-0.0073 
N234 X-152.002 Y43.687 Z1.325 A313.6453 B0.0015 
N235 X-152.002 Y44.395 Z2.442 A317.5092 B0.0106 
N236 X-152.002 Y45.036 Z3.630 A321.4536 B0.0188 
N237 X-152.002 Y45.608 Z4.912 A325.5515 B0.0248 
N238 X-152.002 Y46.095 Z6.310 A329.8580 B0.0266 
N239 X-152.002 Y46.466 Z7.823 A334.3710 B0.0236 
N240 X-152.002 Y46.677 Z9.430 A339.0277 B0.0169 
N241 X-152.002 Y46.686 Z11.091 A343.7319 B0.0095 
N242 X-152.002 Y46.456 Z12.741 A348.3405 B0.0040 
N243 X-152.002 Y45.961 Z14.293 A352.6509 B0.0012 
N244 X-152.002 Y45.196 Z15.634 A356.3962 B0.0002 
N245 X-152.002 Y44.174 Z16.602 A359.1289 B0.0000 
N246 X-152.002 Y42.926 Z17.060 A0.4316 B0.0000 
N247 X-152.002 Y41.464 Z17.173 A0.7423 
N248 X-152.002 Y39.777 Z17.192 A0.7813 
N249 X-152.002 Y37.855 Z17.200 A0.7832 
N250 X-152.002 Y35.697 Z17.209 
N251 X-152.002 Y33.310 Z17.218 A0.7855 
N252 X-152.002 Y30.712 Z17.241 A0.8267 
N253 X-152.002 Y27.930 Z17.287 A0.9483 
N254 X-152.002 Y24.999 Z17.345 A1.1252 
N255 X-152.002 Y21.966 Z17.371 A1.2362 
N256 X-152.002 Y18.880 Z17.363 A1.2525 
N257 X-152.002 Y15.793 Z17.350 A1.2525 
N258 X-152.002 Y12.757 Z17.336 
N259 X-152.002 Y9.823 Z17.324 
N260 X-152.002 Y7.035 Z17.311 
N261 X-152.002 Y4.431 Z17.300 
N262 X-152.002 Y2.038 Z17.289 
N263 X-152.002 Y-0.125 Z17.280 
N264 X-152.002 Y-2.049 Z17.271 
N265 X-152.002 Y-3.736 Z17.267 A1.2637 
N266 X-152.002 Y-5.194 Z17.325 A1.4601 
N267 X-152.002 Y-6.444 Z17.579 A2.2748 
N268 X-152.002 Y-7.527 Z18.190 A4.2264 
N269 X-152.002 Y-8.508 Z19.194 A7.4679 
N270 X-152.002 Y-9.453 Z20.446 A11.5996 
N271 X-152.002 Y-10.406 Z21.805 A16.2094 
N272 X-152.002 Y-11.392 Z23.180 A21.0350 
N273 X-152.002 Y-12.417 Z24.509 A25.8928 
N274 X-152.002 Y-13.478 Z25.748 A30.6546 
N275 X-152.002 Y-14.558 Z26.864 A35.2104 
N276 X-152.002 Y-15.635 Z27.840 A39.4842 
N277 X-152.002 Y-16.705 Z28.686 A43.4980 
N278 X-152.002 Y-17.800 Z29.442 A47.4168 
N279 X-152.002 Y-18.974 Z30.149 A51.4589 
N280 X-152.002 Y-20.249 Z30.800 A55.6844 
N281 X-152.002 Y-21.591 Z31.352 A59.9607 
N282 X-152.002 Y-22.993 Z31.784 A64.2710 
N283 X-152.002 Y-24.452 Z32.084 A68.6281 
N284 X-152.002 Y-25.963 Z32.236 A73.0401 
N285 X-152.002 Y-27.499 Z32.218 A77.4622 
N286 X-152.002 Y-28.997 Z32.009 A81.7462 
N287 X-152.002 Y-30.367 Z31.602 A85.6698 
N288 X-152.002 Y-31.487 Z31.011 A88.9115 
N289 X-152.002 Y-32.228 Z30.269 A91.1007 
N290 X-152.002 Y-32.587 Z29.412 A92.2123 
N291 X-152.002 Y-32.702 Z28.452 A92.6313 
N292 X-152.002 Y-32.708 Z27.388 A92.7433 
N293 X-152.002 Y-32.677 Z26.222 A92.7566 
N294 X-152.002 Y-32.640 Z24.961 A92.7631 
N295 X-152.002 Y-32.605 Z23.619 A92.7820 
N296 X-152.002 Y-32.572 Z22.212 A92.8148 B0.0000 
N297 X-152.002 Y-32.540 Z20.763 A92.8576 B0.0002 
N298 X-152.002 Y-32.507 Z19.294 A92.9037 B0.0010 
N299 X-152.002 Y-32.473 Z17.829 A92.9486 B0.0033 
N300 X-152.002 Y-32.435 Z16.393 A92.9850 B0.0074 
N301 X-152.002 Y-32.393 Z15.008 A93.0041 B0.0130 
N302 X-152.002 Y-32.349 Z13.693 A93.0100 B0.0196 
N303 X-152.002 Y-32.317 Z12.463 A93.0418 B0.0266 
N304 X-152.002 Y-32.331 Z11.327 A93.2100 B0.0341 
N305 X-152.002 Y-32.465 Z10.286 A93.7436 B0.0422 
N306 X-152.002 Y-32.839 Z9.329 A95.0297 B0.0506 
N307 X-152.002 Y-33.540 Z8.426 A97.3639 B0.0584 
N308 X-152.002 Y-34.524 Z7.537 A100.6545 B0.0638 
N309 X-152.002 Y-35.680 Z6.628 A104.5975 B0.0657 
N310 X-152.002 Y-36.907 Z5.680 A108.9116 B0.0636 
N311 X-152.002 Y-38.123 Z4.690 A113.3565 B0.0581 
N312 X-152.002 Y-39.270 Z3.668 A117.7611 B0.0499 
N313 X-152.002 Y-40.319 Z2.626 A122.0275 B0.0395 
N314 X-152.002 Y-41.257 Z1.575 A126.1056 B0.0270 
N315 X-152.002 Y-42.090 Z0.515 A130.0158 B0.0125 
N316 X-152.002 Y-42.835 Z-0.568 A133.8330 B-0.0037 
N317 X-152.002 Y-43.507 Z-1.695 A137.6459 B-0.0213 
N318 X-152.002 Y-44.113 Z-2.890 A141.5374 B-0.0397 
N319 X-152.002 Y-44.650 Z-4.178 A145.5854 B-0.0581 
N320 X-152.002 Y-45.103 Z-5.580 A149.8458 B-0.0757 
N321 X-152.002 Y-45.437 Z-7.096 A154.3128 B-0.0921 
N322 X-152.003 Y-45.613 Z-8.706 A158.9329 B-0.1067 
N323 X-152.003 Y-45.586 Z-10.370 A163.6074 B-0.1196 
N324 X-152.003 Y-45.317 Z-12.018 A168.1713 B-0.1308 
N325 X-152.003 Y-44.780 Z-13.540 A172.3646 B-0.1407 
N326 X-152.003 Y-43.972 Z-14.802 A175.8363 B-0.1504 
N327 X-152.003 Y-42.912 Z-15.637 A178.1219 B-0.1604 
N328 X-152.003 Y-41.628 Z-16.017 A179.1072 B-0.1712 
N329 X-152.003 Y-40.130 Z-16.149 A179.3675 B-0.1838 
N330 X-152.003 Y-38.411 Z-16.209 A179.4037 B-0.1984 
N331 X-152.003 Y-36.465 Z-16.272 A179.4303 B-0.2154 
N332 X-152.003 Y-34.293 Z-16.368 A179.5452 B-0.2372 
N333 X-152.003 Y-31.905 Z-16.512 A179.8090 B-0.2638 
N334 X-152.004 Y-29.319 Z-16.711 A180.2739 B-0.2801 
N335 X-152.004 Y-26.564 Z-16.895 A180.7581 B-0.2791 
N336 X-152.004 Y-23.676 Z-17.031 A181.1621 B-0.2804 
N337 X-152.004 Y-20.702 Z-17.061 A181.2897 B-0.2853 
N338 X-152.004 Y-17.690 Z-17.047 A181.2964 B-0.2908 
N339 X-152.004 Y-14.689 Z-17.032 B-0.2964 
N340 X-152.004 Y-11.751 Z-17.017 B-0.3018 
N341 X-152.004 Y-8.921 Z-17.002 B-0.3070 
N342 X-152.004 Y-6.242 Z-16.988 B-0.3120 
N343 X-152.004 Y-3.748 Z-16.975 B-0.3166 
N344 X-152.004 Y-1.464 Z-16.963 B-0.3208 
N345 X-152.004 Y0.595 Z-16.953 B-0.3246 
N346 X-152.004 Y2.421 Z-16.943 A181.2964 B-0.3280 
N347 X-152.004 Y4.018 Z-16.942 A181.3183 B-0.3311 
N348 X-152.004 Y5.395 Z-17.011 A181.5525 B-0.3362 
N349 X-152.004 Y6.576 Z-17.286 A182.4345 B-0.3491 
N350 X-152.004 Y7.602 Z-17.940 A184.5203 B-0.3768 
N351 X-152.004 Y8.540 Z-18.984 A187.8891 B-0.4227 
N352 X-152.005 Y9.455 Z-20.264 A192.1053 B-0.4843 
N353 X-152.005 Y10.388 Z-21.638 A196.7622 B-0.5573 
N354 X-152.006 Y11.355 Z-23.011 A201.5796 B-0.6365 
N355 X-152.006 Y12.362 Z-24.327 A206.3927 B-0.7170 
N356 X-152.007 Y13.405 Z-25.553 A211.1050 B-0.7953 
N357 X-152.007 Y14.468 Z-26.659 A215.6149 B-0.8679 
N358 X-152.007 Y15.531 Z-27.630 A219.8563 B-0.9303 
N359 X-152.008 Y16.596 Z-28.482 A223.8783 B-0.9764 
N360 X-152.008 Y17.698 Z-29.254 A227.8522 B-0.9980 
N361 X-152.008 Y18.878 Z-29.973 A231.9406 B-0.9863 
N362 X-152.007 Y20.131 Z-30.617 A236.1032 B-0.9382 
N363 X-152.007 Y21.410 Z-31.142 A240.1827 B-0.8621 
N364 X-152.006 Y22.728 Z-31.554 A244.2445 B-0.7717 
N365 X-152.006 Y24.115 Z-31.854 A248.4028 B-0.6779 
N366 X-152.005 Y25.582 Z-32.031 A252.7116 B-0.5869 
N367 X-152.005 Y27.110 Z-32.056 A257.1378 B-0.5025 
N368 X-152.004 Y28.634 Z-31.902 A261.5233 B-0.4280 
N369 X-152.004 Y30.059 Z-31.553 A265.6317 B-0.3659 
N370 X-152.004 Y31.268 Z-31.020 A269.1538 B-0.3183 
N371 X-152.004 Y32.126 Z-30.334 A271.7092 B-0.2859 
N372 X-152.003 Y32.591 Z-29.535 A273.1694 B-0.2667 
N373 X-152.003 Y32.765 Z-28.642 A273.8105 B-0.2561 
N374 X-152.003 Y32.784 Z-27.652 A274.0185 B-0.2495 
N375 X-152.003 Y32.740 Z-26.566 A274.0594 B-0.2440 
N376 X-152.003 Y32.684 Z-25.385 A274.0815 B-0.2379 
N377 X-152.003 Y32.629 Z-24.121 A274.1236 B-0.2311 
N378 X-152.003 Y32.574 Z-22.790 A274.1757 B-0.2237 
N379 X-152.003 Y32.512 Z-21.411 A274.2231 B-0.2161 
N380 X-152.003 Y32.448 Z-20.004 A274.2688 B-0.2084 
N381 X-152.003 Y32.382 Z-18.594 A274.3145 B-0.2007 
N382 X-152.003 Y32.314 Z-17.203 A274.3536 B-0.1931 
N383 X-152.003 Y32.242 Z-15.853 A274.3769 B-0.1857 
N384 X-152.003 Y32.169 Z-14.563 A274.3846 B-0.1788 
N385 X-152.003 Y32.105 Z-13.349 A274.4093 B-0.1722 
N386 X-152.003 Y32.092 Z-12.220 A274.5751 B-0.1656 
N387 X-152.003 Y32.201 Z-11.175 A275.1106 B-0.1586 
N388 X-152.003 Y32.532 Z-10.204 A276.3361 B-0.1504 
N389 X-152.003 Y33.170 Z-9.280 A278.5415 B-0.1402 
N390 X-152.003 Y34.100 Z-8.361 A281.7319 B-0.1278 
N391 X-152.003 Y35.232 Z-7.413 A285.6672 B-0.1133 
N392 X-152.002 Y36.457 Z-6.414 A290.0501 B-0.0971 
N393 X-152.002 Y37.670 Z-5.367 A294.5796 B-0.0798 
N394 X-152.002 Y38.800 Z-4.291 A299.0378 B-0.0618 
N395 X-152.002 Y39.815 Z-3.201 A303.3126 B-0.0438 
N396 X-152.002 Y40.706 Z-2.113 A307.3626 B-0.0259 
N397 X-152.002 Y41.487 Z-1.021 A311.2309 B-0.0082 
N398 X-152.002 Y42.178 Z0.092 A315.0092 B0.0092 
N399 X-152.002 Y42.796 Z1.250 A318.7932 B0.0258 
N400 X-152.002 Y43.345 Z2.479 A322.6729 B0.0411 
N401 X-152.002 Y43.822 Z3.806 A326.7287 B0.0544 
N402 X-152.002 Y44.205 Z5.246 A330.9970 B0.0654 
N403 X-152.001 Y44.458 Z6.793 A335.4596 B0.0737 
N404 X-152.001 Y44.539 Z8.426 A340.0582 B0.0792 
N405 X-152.001 Y44.403 Z10.091 A344.6623 B0.0815 
N406 X-152.001 Y44.012 Z11.689 A349.0297 B0.0794 
N407 X-152.001 Y43.347 Z13.084 A352.8047 B0.0713 
N408 X-152.002 Y42.417 Z14.115 A355.5542 B0.0575 
N409 X-152.002 Y41.248 Z14.695 A357.0058 B0.0406 
N410 X-152.002 Y39.863 Z14.953 A357.5120 B0.0241 
N411 X-152.002 Y38.266 Z15.081 A357.6090 B0.0104 
N412 X-152.002 Y36.453 Z15.197 A357.6356 B0.0022 
N413 X-152.002 Y34.425 Z15.361 A357.7758 B0.0001 
N414 X-152.002 Y32.188 Z15.602 A358.1389 B0.0000 
N415 X-152.002 Y29.756 Z15.952 A358.8669 
N416 X-152.002 Y27.146 Z16.343 A359.8105 
N417 X-152.002 Y24.388 Z16.682 A0.7248 
N418 X-152.002 Y21.525 Z16.842 A1.2082 
N419 X-152.002 Y18.606 Z16.850 A1.2695 
N420 X-152.002 Y15.676 Z16.836 A1.2695 
N421 X-152.002 Y12.782 Z16.822 
N422 X-152.002 Y9.972 Z16.809 
N423 X-152.002 Y7.288 Z16.796 
N424 X-152.002 Y4.766 Z16.785 
N425 X-152.002 Y2.436 Z16.774 
N426 X-152.002 Y0.316 Z16.764 
N427 X-152.002 Y-1.581 Z16.755 
N428 X-152.002 Y-3.255 Z16.748 A1.2721 
N429 X-152.002 Y-4.709 Z16.770 A1.3611 
N430 X-152.002 Y-5.961 Z16.915 A1.8325 
N431 X-152.002 Y-7.036 Z17.336 A3.1733 
N432 X-152.002 Y-7.986 Z18.141 A5.7488 
N433 X-152.002 Y-8.877 Z19.263 A9.3936 
N434 X-152.002 Y-9.764 Z20.569 A13.7308 
N435 X-152.002 Y-10.683 Z21.947 A18.4368 
N436 X-152.002 Y-11.647 Z23.311 A23.2663 
N437 X-152.002 Y-12.654 Z24.609 A28.0645 
N438 X-152.002 Y-13.693 Z25.802 A32.7126 
N439 X-152.002 Y-14.741 Z26.861 A37.1025 
N440 X-152.002 Y-15.777 Z27.778 A41.1873 
N441 X-152.002 Y-16.807 Z28.577 A45.0363 
N442 X-152.002 Y-17.863 Z29.296 A48.8130 
N443 X-152.002 Y-18.986 Z29.963 A52.6781 
N444 X-152.002 Y-20.186 Z30.570 A56.6578 
N445 X-152.002 Y-21.447 Z31.090 A60.6896 
N446 X-152.002 Y-22.771 Z31.513 A64.7864 
N447 X-152.002 Y-24.154 Z31.822 A68.9529 
N448 X-152.002 Y-25.605 Z32.006 A73.2352 
N449 X-152.002 Y-27.117 Z32.046 A77.6391 
N450 X-152.002 Y-28.638 Z31.913 A82.0413 
N451 X-152.002 Y-30.084 Z31.594 A86.2347 
N452 X-152.002 Y-31.347 Z31.094 A89.9447 
N453 X-152.002 Y-32.292 Z30.444 A92.7986 
N454 X-152.002 Y-32.852 Z29.685 A94.5862 
N455 X-152.002 Y-33.087 Z28.841 A95.4702 
N456 X-152.002 Y-33.122 Z27.913 A95.7999 B0.0001 
N457 X-152.002 Y-33.059 Z26.894 A95.8705 B0.0005 
N458 X-152.002 Y-32.968 Z25.783 A95.8840 B0.0025 
N459 X-152.002 Y-32.876 Z24.588 A95.9123 B0.0077 
N460 X-152.002 Y-32.781 Z23.322 A95.9575 B0.0181 
N461 X-152.002 Y-32.683 Z22.003 A96.0080 B0.0341 
N462 X-152.002 Y-32.581 Z20.652 A96.0595 B0.0530 
N463 X-152.002 Y-32.477 Z19.289 A96.1111 B0.0706 
N464 X-152.001 Y-32.372 Z17.937 A96.1583 B0.0845 
N465 X-152.001 Y-32.263 Z16.617 A96.1906 B0.0956 
N466 X-152.001 Y-32.152 Z15.349 A96.2030 B0.1050 
N467 X-152.001 Y-32.048 Z14.149 A96.2190 B0.1137 
N468 X-152.001 Y-31.990 Z13.024 A96.3561 B0.1214 
N469 X-152.001 Y-32.054 Z11.974 A96.8534 B0.1278 
N470 X-152.001 Y-32.338 Z10.986 A98.0259 B0.1320 
N471 X-152.001 Y-32.927 Z10.032 A100.1738 B0.1327 
N472 X-152.001 Y-33.817 Z9.071 A103.3323 B0.1292 
N473 X-152.001 Y-34.914 Z8.071 A107.2593 B0.1212 
N474 X-152.001 Y-36.105 Z7.015 A111.6492 B0.1088 
N475 X-152.001 Y-37.283 Z5.909 A116.1945 B0.0926 
N476 X-152.001 Y-38.374 Z4.774 A120.6691 B0.0732 
N477 X-152.002 Y-39.345 Z3.630 A124.9517 B0.0512 
N478 X-152.002 Y-40.186 Z2.492 A128.9994 B0.0271 
N479 X-152.002 Y-40.913 Z1.353 A132.8653 B0.0010 
N480 X-152.002 Y-41.548 Z0.194 A136.6464 B-0.0270 
N481 X-152.002 Y-42.103 Z-1.010 A140.4356 B-0.0562 
N482 X-152.002 Y-42.583 Z-2.285 A144.3241 B-0.0861 
N483 X-152.003 Y-42.981 Z-3.656 A148.3863 B-0.1163 
N484 X-152.003 Y-43.271 Z-5.135 A152.6508 B-0.1468 
N485 X-152.003 Y-43.419 Z-6.717 A157.1114 B-0.1775 
N486 X-152.003 Y-43.381 Z-8.371 A161.6849 B-0.2081 
N487 X-152.003 Y-43.109 Z-10.014 A166.1596 B-0.2379 
N488 X-152.003 Y-42.567 Z-11.506 A170.1669 B-0.2657 
N489 X-152.004 Y-41.752 Z-12.680 A173.2548 B-0.2908 
N490 X-152.004 Y-40.686 Z-13.413 A175.0652 B-0.3121 
N491 X-152.004 Y-39.399 Z-13.782 A175.7972 B-0.3311 
N492 X-152.004 Y-37.906 Z-13.977 A175.9816 B-0.3500 
N493 X-152.004 Y-36.209 Z-14.159 A176.0846 B-0.3716 
N494 X-152.004 Y-34.311 Z-14.429 A176.4193 B-0.3997 
N495 X-152.004 Y-32.214 Z-14.810 A177.0889 B-0.4367 
N496 X-152.005 Y-29.924 Z-15.299 A178.1463 B-0.4711 
N497 X-152.005 Y-27.452 Z-15.822 A179.4294 B-0.4739 
N498 X-152.005 Y-24.823 Z-16.247 A180.5683 B-0.4689 
N499 X-152.005 Y-22.076 Z-16.457 A181.1901 B-0.4719 
N500 X-152.005 Y-19.259 Z-16.479 A181.2946 B-0.4771 
N501 X-152.005 Y-16.413 Z-16.464 A181.2955 B-0.4823 
N502 X-152.005 Y-13.584 Z-16.450 B-0.4874 
N503 X-152.005 Y-10.818 Z-16.436 B-0.4924 
N504 X-152.005 Y-8.156 Z-16.422 B-0.4972 
N505 X-152.005 Y-5.637 Z-16.409 B-0.5017 
N506 X-152.005 Y-3.291 Z-16.397 B-0.5060 
N507 X-152.005 Y-1.142 Z-16.386 B-0.5099 
N508 X-152.005 Y0.798 Z-16.376 B-0.5134 
N509 X-152.005 Y2.520 Z-16.367 A181.2955 B-0.5165 
N510 X-152.005 Y4.027 Z-16.367 A181.3193 B-0.5195 
N511 X-152.005 Y5.330 Z-16.429 A181.5314 B-0.5248 
N512 X-152.005 Y6.446 Z-16.677 A182.3271 B-0.5388 
N513 X-152.005 Y7.415 Z-17.281 A184.2443 B-0.5691 
N514 X-152.006 Y8.296 Z-18.257 A187.3790 B-0.6187 
N515 X-152.006 Y9.150 Z-19.477 A191.3701 B-0.6842 
N516 X-152.006 Y10.019 Z-20.816 A195.8569 B-0.7604 
N517 X-152.007 Y10.929 Z-22.182 A200.5769 B-0.8417 
N518 X-152.007 Y11.890 Z-23.521 A205.3788 B-0.9233 
N519 X-152.008 Y12.902 Z-24.793 A210.1532 B-1.0012 
N520 X-152.008 Y13.946 Z-25.955 A214.7639 B-1.0722 
N521 X-152.008 Y14.996 Z-26.978 A219.0980 B-1.1325 
N522 X-152.009 Y16.037 Z-27.865 A223.1445 B-1.1783 
N523 X-152.009 Y17.085 Z-28.646 A227.0148 B-1.2043 
N524 X-152.009 Y18.173 Z-29.355 A230.8613 B-1.2048 
N525 X-152.009 Y19.318 Z-29.998 A234.7539 B-1.1752 
N526 X-152.008 Y20.502 Z-30.554 A238.6300 B-1.1168 
N527 X-152.008 Y21.719 Z-31.012 A242.4723 B-1.0377 
N528 X-152.007 Y22.989 Z-31.377 A246.3706 B-0.9478 
N529 X-152.007 Y24.327 Z-31.642 A250.3832 B-0.8548 
N530 X-152.006 Y25.750 Z-31.795 A254.5769 B-0.7629 
N531 X-152.006 Y27.243 Z-31.811 A258.9310 B-0.6750 
N532 X-152.005 Y28.752 Z-31.660 A263.3154 B-0.5940 
N533 X-152.005 Y30.192 Z-31.329 A267.5192 B-0.5232 
N534 X-152.005 Y31.445 Z-30.824 A271.2364 B-0.4655 
N535 X-152.004 Y32.372 Z-30.180 A274.0774 B-0.4239 
N536 X-152.004 Y32.919 Z-29.439 A275.8707 B-0.3980 
N537 X-152.004 Y33.148 Z-28.625 A276.7844 B-0.3837 
N538 X-152.004 Y33.172 Z-27.735 A277.1361 B-0.3762 
N539 X-152.004 Y33.102 Z-26.761 A277.2405 B-0.3710 
N540 X-152.004 Y33.012 Z-25.699 A277.3208 B-0.3649 
N541 X-152.004 Y32.916 Z-24.556 A277.4147 B-0.3574 
N542 X-152.004 Y32.806 Z-23.347 A277.4953 B-0.3487 
N543 X-152.004 Y32.681 Z-22.088 A277.5535 B-0.3392 
N544 X-152.004 Y32.549 Z-20.798 A277.6032 B-0.3291 
N545 X-152.004 Y32.416 Z-19.496 A277.6557 B-0.3185 
N546 X-152.004 Y32.281 Z-18.203 A277.7050 B-0.3076 
N547 X-152.004 Y32.143 Z-16.940 A277.7378 B-0.2966 
N548 X-152.004 Y32.003 Z-15.725 A277.7497 B-0.2860 
N549 X-152.004 Y31.875 Z-14.571 A277.7753 B-0.2758 
N550 X-152.003 Y31.813 Z-13.483 A277.9809 B-0.2651 
N551 X-152.003 Y31.913 Z-12.455 A278.6669 B-0.2522 
N552 X-152.003 Y32.266 Z-11.466 A280.1451 B-0.2357 
N553 X-152.003 Y32.932 Z-10.485 A282.6344 B-0.2144 
N554 X-152.003 Y33.872 Z-9.473 A286.0763 B-0.1885 
N555 X-152.003 Y34.980 Z-8.405 A290.1936 B-0.1591 
N556 X-152.003 Y36.142 Z-7.274 A294.6763 B-0.1278 
N557 X-152.002 Y37.257 Z-6.098 A299.2300 B-0.0961 
N558 X-152.002 Y38.266 Z-4.901 A303.6590 B-0.0651 
N559 X-152.002 Y39.141 Z-3.705 A307.8595 B-0.0357 
N560 X-152.002 Y39.884 Z-2.519 A311.8268 B-0.0081 
N561 X-152.002 Y40.515 Z-1.330 A315.6393 B0.0177 
N562 X-152.002 Y41.052 Z-0.115 A319.3915 B0.0412 
N563 X-152.002 Y41.505 Z1.152 A323.1845 B0.0620 
N564 X-152.001 Y41.875 Z2.500 A327.1133 B0.0798 
N565 X-152.001 Y42.145 Z3.950 A331.2372 B0.0947 
N566 X-152.001 Y42.287 Z5.509 A335.5813 B0.1066 
N567 X-152.001 Y42.257 Z7.151 A340.0745 B0.1154 
N568 X-152.001 Y42.000 Z8.787 A344.4803 B0.1202 
N569 X-152.001 Y41.476 Z10.268 A348.3885 B0.1204 
N570 X-152.001 Y40.677 Z11.420 A351.3253 B0.1156 
N571 X-152.001 Y39.626 Z12.145 A352.9950 B0.1059 
N572 X-152.001 Y38.356 Z12.534 A353.6490 B0.0899 
N573 X-152.002 Y36.886 Z12.768 A353.7858 B0.0637 
N574 X-152.002 Y35.226 Z13.009 A353.8817 B0.0318 
N575 X-152.002 Y33.385 Z13.369 A354.2862 B0.0083 
N576 X-152.002 Y31.364 Z13.886 A355.1609 B0.0007 
N577 X-152.002 Y29.168 Z14.587 A356.6653 B0.0000 
N578 X-152.002 Y26.793 Z15.346 A358.5143 B0.0000 
N579 X-152.002 Y24.256 Z15.989 A0.2325 
N580 X-152.002 Y21.601 Z16.303 A1.1453 
N581 X-152.002 Y18.876 Z16.338 A1.2859 
N582 X-152.002 Y16.123 Z16.325 A1.2864 
N583 X-152.002 Y13.381 Z16.311 
N584 X-152.002 Y10.695 Z16.298 
N585 X-152.002 Y8.104 Z16.285 
N586 X-152.002 Y5.645 Z16.273 
N587 X-152.002 Y3.347 Z16.261 
N588 X-152.002 Y1.235 Z16.250 
N589 X-152.002 Y-0.678 Z16.241 
N590 X-152.002 Y-2.384 Z16.232 A1.2864 
N591 X-152.002 Y-3.883 Z16.230 A1.3031 
N592 X-152.002 Y-5.182 Z16.277 A1.4680 
N593 X-152.002 Y-6.298 Z16.477 A2.1093 
N594 X-152.002 Y-7.263 Z16.983 A3.7178 
N595 X-152.002 Y-8.127 Z17.850 A6.4903 
N596 X-152.002 Y-8.951 Z18.995 A10.2096 
N597 X-152.002 Y-9.789 Z20.309 A14.5687 
N598 X-152.002 Y-10.670 Z21.689 A19.2726 
N599 X-152.002 Y-11.607 Z23.058 A24.1069 
N600 X-152.002 Y-12.597 Z24.362 A28.9174 
N601 X-152.002 Y-13.620 Z25.555 A33.5535 
N602 X-152.002 Y-14.647 Z26.604 A37.8947 
N603 X-152.002 Y-15.656 Z27.507 A41.9052 
N604 X-152.002 Y-16.653 Z28.290 A45.6596 
N605 X-152.002 Y-17.662 Z28.988 A49.2960 
N606 X-152.002 Y-18.714 Z29.626 A52.9449 
N607 X-152.002 Y-19.824 Z30.206 A56.6592 
N608 X-152.002 Y-20.991 Z30.717 A60.4375 
N609 X-152.002 Y-22.222 Z31.152 A64.3037 
N610 X-152.002 Y-23.510 Z31.494 A68.2438 
N611 X-152.002 Y-24.861 Z31.731 A72.2858 
N612 X-152.002 Y-26.293 Z31.855 A76.5092 
N613 X-152.002 Y-27.788 Z31.838 A80.8844 
N614 X-152.002 Y-29.293 Z31.657 A85.2805 
N615 X-152.002 Y-30.723 Z31.300 A89.4964 
N616 X-152.002 Y-31.965 Z30.778 A93.2355 
N617 X-152.002 Y-32.885 Z30.129 A96.1204 B0.0000 
N618 X-152.002 Y-33.431 Z29.398 A97.9819 B0.0001 
N619 X-152.002 Y-33.656 Z28.608 A98.9615 B0.0007 
N620 X-152.002 Y-33.663 Z27.753 A99.3476 B0.0029 
N621 X-152.002 Y-33.562 Z26.821 A99.4567 B0.0086 
N622 X-152.002 Y-33.433 Z25.805 A99.5265 B0.0204 
N623 X-152.002 Y-33.293 Z24.710 A99.5983 B0.0385 
N624 X-152.002 Y-33.136 Z23.548 A99.6572 B0.0593 
N625 X-152.001 Y-32.970 Z22.336 A99.7128 B0.0785 
N626 X-152.001 Y-32.798 Z21.089 A99.7706 B0.0942 
N627 X-152.001 Y-32.623 Z19.828 A99.8304 B0.1079 
N628 X-152.001 Y-32.446 Z18.572 A99.8879 B0.1213 
N629 X-152.001 Y-32.267 Z17.342 A99.9278 B0.1347 
N630 X-152.001 Y-32.085 Z16.155 A99.9424 B0.1478 
N631 X-152.001 Y-31.917 Z15.024 A99.9710 B0.1602 
N632 X-152.001 Y-31.824 Z13.950 A100.2030 B0.1711 
N633 X-152.001 Y-31.912 Z12.918 A100.9773 B0.1788 
N634 X-152.001 Y-32.280 Z11.905 A102.6262 B0.1814 
N635 X-152.001 Y-32.974 Z10.871 A105.3462 B0.1771 
N636 X-152.001 Y-33.930 Z9.782 A109.0081 B0.1651 
N637 X-152.001 Y-35.025 Z8.623 A113.2871 B0.1458 
N638 X-152.001 Y-36.139 Z7.401 A117.8509 B0.1203 
N639 X-152.001 Y-37.177 Z6.141 A122.4090 B0.0901 
N640 X-152.002 Y-38.085 Z4.876 A126.7796 B0.0565 
N641 X-152.002 Y-38.845 Z3.627 A130.8778 B0.0204 
N642 X-152.002 Y-39.473 Z2.394 A134.7464 B-0.0176 
N643 X-152.002 Y-39.990 Z1.157 A138.4836 B-0.0571 
N644 X-152.002 Y-40.414 Z-0.112 A142.2033 B-0.0977 
N645 X-152.003 Y-40.756 Z-1.451 A146.0315 B-0.1394 
N646 X-152.003 Y-41.009 Z-2.889 A150.0650 B-0.1832 
N647 X-152.003 Y-41.148 Z-4.443 A154.3513 B-0.2297 
N648 X-152.004 Y-41.125 Z-6.085 A158.8106 B-0.2783 
N649 X-152.004 Y-40.881 Z-7.717 A163.1621 B-0.3267 
N650 X-152.004 Y-40.370 Z-9.175 A166.9523 B-0.3717 
N651 X-152.004 Y-39.585 Z-10.288 A169.7017 B-0.4100 
N652 X-152.004 Y-38.550 Z-10.988 A171.2051 B-0.4405 
N653 X-152.005 Y-37.302 Z-11.386 A171.7655 B-0.4655 
N654 X-152.005 Y-35.867 Z-11.686 A171.9738 B-0.4903 
N655 X-152.005 Y-34.265 Z-12.080 A172.4013 B-0.5215 
N656 X-152.005 Y-32.499 Z-12.640 A173.3100 B-0.5649 
N657 X-152.006 Y-30.563 Z-13.373 A174.7852 B-0.6207 
N658 X-152.006 Y-28.449 Z-14.262 A176.8670 B-0.6582 
N659 X-152.006 Y-26.149 Z-15.082 A178.9567 B-0.6560 
N660 X-152.006 Y-23.691 Z-15.678 A180.5941 B-0.6570 
N661 X-152.006 Y-21.122 Z-15.889 A181.2273 B-0.6626 
N662 X-152.006 Y-18.486 Z-15.899 A181.2954 B-0.6676 
N663 X-152.006 Y-15.819 Z-15.885 A181.2954 B-0.6724 
N664 X-152.006 Y-13.162 Z-15.872 B-0.6770 
N665 X-152.006 Y-10.554 Z-15.858 B-0.6817 
N666 X-152.006 Y-8.036 Z-15.845 B-0.6861 
N667 X-152.006 Y-5.641 Z-15.833 B-0.6903 
N668 X-152.006 Y-3.399 Z-15.821 B-0.6943 
N669 X-152.006 Y-1.334 Z-15.811 A181.2954 B-0.6979 
N670 X-152.006 Y0.539 Z-15.801 B-0.7012 
N671 X-152.006 Y2.213 Z-15.792 B-0.7042 
N672 X-152.006 Y3.685 Z-15.788 A181.3063 B-0.7070 
N673 X-152.006 Y4.963 Z-15.821 A181.4267 B-0.7113 
N674 X-152.006 Y6.061 Z-15.982 A181.9469 B-0.7226 
N675 X-152.006 Y7.007 Z-16.436 A183.3833 B-0.7494 
N676 X-152.007 Y7.849 Z-17.256 A185.9954 B-0.7967 
N677 X-152.007 Y8.646 Z-18.362 A189.5679 B-0.8619 
N678 X-152.007 Y9.448 Z-19.639 A193.7764 B-0.9394 
N679 X-152.008 Y10.288 Z-20.991 A198.3469 B-1.0229 
N680 X-152.008 Y11.186 Z-22.358 A203.1145 B-1.1071 
N681 X-152.009 Y12.151 Z-23.692 A207.9580 B-1.1876 
N682 X-152.009 Y13.168 Z-24.940 A212.7153 B-1.2604 
N683 X-152.010 Y14.205 Z-26.054 A217.2248 B-1.3224 
N684 X-152.010 Y15.234 Z-27.018 A221.4102 B-1.3710 
N685 X-152.010 Y16.252 Z-27.852 A225.3164 B-1.4034 
N686 X-152.010 Y17.275 Z-28.588 A229.0588 B-1.4167 
N687 X-152.010 Y18.326 Z-29.247 A232.7444 B-1.4073 
N688 X-152.010 Y19.409 Z-29.834 A236.4028 B-1.3730 
N689 X-152.010 Y20.515 Z-30.337 A240.0121 B-1.3151 
N690 X-152.009 Y21.655 Z-30.761 A243.6169 B-1.2390 
N691 X-152.009 Y22.846 Z-31.107 A247.2904 B-1.1517 
N692 X-152.008 Y24.101 Z-31.369 A251.0755 B-1.0596 
N693 X-152.008 Y25.442 Z-31.538 A255.0591 B-0.9661 
N694 X-152.007 Y26.872 Z-31.592 A259.2662 B-0.8730 
N695 X-152.006 Y28.359 Z-31.505 A263.6233 B-0.7827 
N696 X-152.006 Y29.840 Z-31.252 A267.9786 B-0.6980 
N697 X-152.006 Y31.215 Z-30.830 A272.0855 B-0.6229 
N698 X-152.005 Y32.352 Z-30.263 A275.5786 B-0.5621 
N699 X-152.005 Y33.143 Z-29.596 A278.1475 B-0.5187 
N700 X-152.005 Y33.579 Z-28.868 A279.7478 B-0.4918 
N701 X-152.005 Y33.725 Z-28.091 A280.5537 B-0.4774 
N702 X-152.005 Y33.684 Z-27.256 A280.8543 B-0.4703 
N703 X-152.005 Y33.578 Z-26.345 A281.0127 B-0.4644 
N704 X-152.005 Y33.463 Z-25.351 A281.1955 B-0.4566 
N705 X-152.005 Y33.320 Z-24.287 A281.3438 B-0.4474 
N706 X-152.004 Y33.145 Z-23.167 A281.4332 B-0.4371 
N707 X-152.004 Y32.950 Z-22.004 A281.4924 B-0.4259 
N708 X-152.004 Y32.748 Z-20.813 A281.5496 B-0.4136 
N709 X-152.004 Y32.545 Z-19.612 A281.6125 B-0.4005 
N710 X-152.004 Y32.341 Z-18.419 A281.6709 B-0.3869 
N711 X-152.004 Y32.134 Z-17.254 A281.7087 B-0.3734 
N712 X-152.004 Y31.928 Z-16.131 A281.7279 B-0.3601 
N713 X-152.004 Y31.759 Z-15.055 A281.8318 B-0.3462 
N714 X-152.004 Y31.734 Z-14.015 A282.3572 B-0.3291 
N715 X-152.004 Y31.973 Z-12.983 A283.6976 B-0.3056 
N716 X-152.004 Y32.534 Z-11.924 A286.0903 B-0.2739 
N717 X-152.003 Y33.389 Z-10.802 A289.5149 B-0.2346 
N718 X-152.003 Y34.418 Z-9.599 A293.6708 B-0.1901 
N719 X-152.003 Y35.493 Z-8.321 A298.2109 B-0.1434 
N720 X-152.002 Y36.505 Z-6.997 A302.8100 B-0.0974 
N721 X-152.002 Y37.386 Z-5.664 A307.2372 B-0.0541 
N722 X-152.002 Y38.105 Z-4.354 A311.3673 B-0.0150 
N723 X-152.002 Y38.676 Z-3.072 A315.2207 B0.0197 
N724 X-152.002 Y39.122 Z-1.800 A318.8993 B0.0499 
N725 X-152.001 Y39.472 Z-0.501 A322.5509 B0.0755 
N726 X-152.001 Y39.741 Z0.870 A326.3329 B0.0974 
N727 X-152.001 Y39.923 Z2.348 A330.3631 B0.1161 
N728 X-152.001 Y39.987 Z3.939 A334.6495 B0.1316 
N729 X-152.001 Y39.872 Z5.579 A338.9994 B0.1425 
N730 X-152.001 Y39.514 Z7.125 A342.9955 B0.1472 
N731 X-152.001 Y38.884 Z8.405 A346.1494 B0.1446 
N732 X-152.001 Y37.990 Z9.297 A348.1125 B0.1347 
N733 X-152.001 Y36.870 Z9.839 A348.9807 B0.1191 
N734 X-152.001 Y35.559 Z10.194 A349.2119 B0.0980 
N735 X-152.002 Y34.091 Z10.572 A349.4285 B0.0679 
N736 X-152.002 Y32.485 Z11.114 A350.0814 B0.0314 
N737 X-152.002 Y30.746 Z11.892 A351.4457 B0.0068 
N738 X-152.002 Y28.862 Z12.940 A353.7208 B0.0002 
N739 X-152.002 Y26.798 Z14.109 A356.5800 B0.0000 
N740 X-152.002 Y24.542 Z15.124 A359.2629 
N741 X-152.002 Y22.136 Z15.702 A0.8970 
N742 X-152.002 Y19.641 Z15.827 A1.2931 
N743 X-152.002 Y17.093 Z15.817 A1.3035 
N744 X-152.002 Y14.527 Z15.804 
N745 X-152.002 Y11.978 Z15.790 
N746 X-152.002 Y9.484 Z15.777 
N747 X-152.002 Y7.081 Z15.764 
N748 X-152.002 Y4.800 Z15.752 
N749 X-152.002 Y2.669 Z15.741 
N750 X-152.002 Y0.708 Z15.730 
N751 X-152.002 Y-1.070 Z15.721 
N752 X-152.002 Y-2.656 Z15.713 A1.3038 
N753 X-152.002 Y-4.051 Z15.712 A1.3260 
N754 X-152.002 Y-5.262 Z15.759 A1.4889 
N755 X-152.002 Y-6.303 Z15.950 A2.1029 
N756 X-152.002 Y-7.202 Z16.430 A3.6250 
N757 X-152.002 Y-8.006 Z17.248 A6.2317 
N758 X-152.002 Y-8.772 Z18.346 A9.7785 
N759 X-152.002 Y-9.553 Z19.634 A14.0120 
N760 X-152.002 Y-10.384 Z21.013 A18.6593 
N761 X-152.002 Y-11.282 Z22.408 A23.5163 
N762 X-152.002 Y-12.249 Z23.756 A28.4045 
N763 X-152.002 Y-13.258 Z24.995 A33.1339 
N764 X-152.002 Y-14.275 Z26.085 A37.5555 
N765 X-152.002 Y-15.274 Z27.020 A41.6166 
N766 X-152.002 Y-16.250 Z27.822 A45.3695 
N767 X-152.002 Y-17.218 Z28.524 A48.9231 
N768 X-152.002 Y-18.201 Z29.152 A52.3908 
N769 X-152.002 Y-19.217 Z29.720 A55.8508 
N770 X-152.002 Y-20.278 Z30.230 A59.3498 
N771 X-152.002 Y-21.397 Z30.682 A62.9366 
N772 X-152.002 Y-22.577 Z31.065 A66.6196 
N773 X-152.002 Y-23.802 Z31.364 A70.3601 
N774 X-152.002 Y-25.092 Z31.573 A74.2262 
N775 X-152.002 Y-26.471 Z31.683 A78.3101 
N776 X-152.002 Y-27.927 Z31.668 A82.5986 
N777 X-152.002 Y-29.420 Z31.503 A86.9979 
N778 X-152.002 Y-30.880 Z31.172 A91.3454 
N779 X-152.002 Y-32.205 Z30.682 A95.3797 B0.0000 
N780 X-152.002 Y-33.260 Z30.067 A98.7261 B0.0001 
N781 X-152.002 Y-33.962 Z29.379 A101.1280 B0.0003 
N782 X-152.002 Y-34.316 Z28.652 A102.5845 B0.0016 
N783 X-152.002 Y-34.393 Z27.889 A103.2865 B0.0060 
N784 X-152.002 Y-34.300 Z27.075 A103.5397 B0.0159 
N785 X-152.002 Y-34.153 Z26.186 A103.6926 B0.0322 
N786 X-152.002 Y-33.988 Z25.217 A103.8528 B0.0524 
N787 X-152.001 Y-33.786 Z24.183 A103.9547 B0.0723 
N788 X-152.001 Y-33.556 Z23.094 A104.0169 B0.0894 
N789 X-152.001 Y-33.315 Z21.961 A104.0796 B0.1051 
N790 X-152.001 Y-33.067 Z20.800 A104.1467 B0.1210 
N791 X-152.001 Y-32.817 Z19.628 A104.2158 B0.1371 
N792 X-152.001 Y-32.564 Z18.464 A104.2779 B0.1533 
N793 X-152.001 Y-32.309 Z17.325 A104.3189 B0.1695 
N794 X-152.001 Y-32.058 Z16.226 A104.3483 B0.1853 
N795 X-152.001 Y-31.868 Z15.163 A104.5322 B0.1995 
N796 X-152.001 Y-31.871 Z14.109 A105.2974 B0.2092 
N797 X-152.001 Y-32.185 Z13.027 A107.0514 B0.2106 
N798 X-152.001 Y-32.844 Z11.873 A109.9746 B0.2011 
N799 X-152.001 Y-33.758 Z10.621 A113.8709 B0.1798 
N800 X-152.001 Y-34.772 Z9.278 A118.3327 B0.1483 
N801 X-152.001 Y-35.751 Z7.876 A122.9664 B0.1090 
N802 X-152.002 Y-36.600 Z6.463 A127.4556 B0.0645 
N803 X-152.002 Y-37.273 Z5.087 A131.6084 B0.0172 
N804 X-152.002 Y-37.778 Z3.759 A135.4186 B-0.0315 
N805 X-152.002 Y-38.152 Z2.458 A139.0137 B-0.0811 
N806 X-152.003 Y-38.435 Z1.133 A142.5972 B-0.1324 
N807 X-152.003 Y-38.650 Z-0.275 A146.3739 B-0.1877 
N808 X-152.003 Y-38.788 Z-1.802 A150.4569 B-0.2485 
N809 X-152.004 Y-38.800 Z-3.425 A154.7602 B-0.3141 
N810 X-152.004 Y-38.611 Z-5.037 A158.9437 B-0.3801 
N811 X-152.004 Y-38.166 Z-6.467 A162.5108 B-0.4406 
N812 X-152.005 Y-37.449 Z-7.561 A165.0139 B-0.4903 
N813 X-152.005 Y-36.490 Z-8.288 A166.3622 B-0.5281 
N814 X-152.005 Y-35.332 Z-8.772 A166.9092 B-0.5581 
N815 X-152.005 Y-34.026 Z-9.241 A167.3355 B-0.5897 
N816 X-152.006 Y-32.602 Z-9.879 A168.2183 B-0.6331 
N817 X-152.006 Y-31.062 Z-10.759 A169.8378 B-0.6968 
N818 X-152.006 Y-29.384 Z-11.885 A172.2914 B-0.7772 
N819 X-152.007 Y-27.528 Z-13.179 A175.4491 B-0.8271 
N820 X-152.007 Y-25.463 Z-14.304 A178.3818 B-0.8344 
N821 X-152.007 Y-23.224 Z-15.061 A180.4806 B-0.8440 
N822 X-152.007 Y-20.871 Z-15.308 A181.2152 B-0.8520 
N823 X-152.007 Y-18.445 Z-15.322 A181.2940 B-0.8569 
N824 X-152.007 Y-15.974 Z-15.310 A181.2941 B-0.8611 
N825 X-152.007 Y-13.492 Z-15.297 B-0.8654 
N826 X-152.007 Y-11.034 Z-15.284 B-0.8697 
N827 X-152.007 Y-8.637 Z-15.272 B-0.8738 
N828 X-152.007 Y-6.334 Z-15.260 B-0.8778 
N829 X-152.007 Y-4.154 Z-15.249 A181.2941 B-0.8815 
N830 X-152.007 Y-2.124 Z-15.239 B-0.8850 
N831 X-152.007 Y-0.261 Z-15.229 B-0.8882 
N832 X-152.007 Y1.421 Z-15.221 B-0.8911 
N833 X-152.007 Y2.917 Z-15.213 A181.2952 B-0.8937 
N834 X-152.007 Y4.229 Z-15.218 A181.3303 B-0.8967 
N835 X-152.007 Y5.364 Z-15.279 A181.5391 B-0.9030 
N836 X-152.007 Y6.337 Z-15.513 A182.2827 B-0.9200 
N837 X-152.007 Y7.180 Z-16.057 A184.0034 B-0.9560 
N838 X-152.008 Y7.942 Z-16.930 A186.7849 B-1.0129 
N839 X-152.008 Y8.677 Z-18.057 A190.4232 B-1.0867 
N840 X-152.009 Y9.431 Z-19.340 A194.6457 B-1.1708 
N841 X-152.009 Y10.238 Z-20.703 A199.2410 B-1.2588 
N842 X-152.010 Y11.122 Z-22.096 A204.0854 B-1.3451 
N843 X-152.010 Y12.086 Z-23.459 A209.0229 B-1.4250 
N844 X-152.011 Y13.106 Z-24.723 A213.8409 B-1.4941 
N845 X-152.011 Y14.142 Z-25.837 A218.3633 B-1.5498 
N846 X-152.011 Y15.164 Z-26.794 A222.5267 B-1.5907 
N847 X-152.011 Y16.166 Z-27.613 A226.3790 B-1.6159 
N848 X-152.011 Y17.159 Z-28.326 A230.0176 B-1.6243 
N849 X-152.011 Y18.158 Z-28.955 A233.5325 B-1.6140 
N850 X-152.011 Y19.172 Z-29.508 A236.9722 B-1.5835 
N851 X-152.011 Y20.204 Z-29.990 A240.3620 B-1.5328 
N852 X-152.010 Y21.268 Z-30.407 A243.7589 B-1.4639 
N853 X-152.010 Y22.378 Z-30.759 A247.2190 B-1.3815 
N854 X-152.009 Y23.535 Z-31.038 A250.7498 B-1.2917 
N855 X-152.009 Y24.758 Z-31.240 A254.4242 B-1.1981 
N856 X-152.008 Y26.075 Z-31.356 A258.3357 B-1.1020 
N857 X-152.008 Y27.483 Z-31.363 A262.4906 B-1.0041 
N858 X-152.007 Y28.952 Z-31.233 A266.8279 B-0.9063 
N859 X-152.007 Y30.422 Z-30.946 A271.2087 B-0.8114 
N860 X-152.006 Y31.797 Z-30.501 A275.3845 B-0.7243 
N861 X-152.006 Y32.944 Z-29.925 A278.9943 B-0.6511 
N862 X-152.005 Y33.769 Z-29.269 A281.7586 B-0.5963 
N863 X-152.005 Y34.254 Z-28.572 A283.6118 B-0.5601 
N864 X-152.005 Y34.442 Z-27.851 A284.6540 B-0.5396 
N865 X-152.005 Y34.417 Z-27.096 A285.1254 B-0.5291 
N866 X-152.005 Y34.307 Z-26.277 A285.4119 B-0.5206 
N867 X-152.005 Y34.177 Z-25.380 A285.7102 B-0.5102 
N868 X-152.005 Y33.999 Z-24.419 A285.9321 B-0.4993 
N869 X-152.005 Y33.767 Z-23.408 A286.0461 B-0.4884 
N870 X-152.005 Y33.506 Z-22.353 A286.1137 B-0.4764 
N871 X-152.005 Y33.233 Z-21.262 A286.1778 B-0.4630 
N872 X-152.005 Y32.956 Z-20.151 A286.2501 B-0.4484 
N873 X-152.004 Y32.676 Z-19.037 A286.3207 B-0.4330 
N874 X-152.004 Y32.392 Z-17.936 A286.3738 B-0.4174 
N875 X-152.004 Y32.110 Z-16.862 A286.4136 B-0.4019 
N876 X-152.004 Y31.878 Z-15.812 A286.5810 B-0.3847 
N877 X-152.004 Y31.838 Z-14.753 A287.3383 B-0.3603 
N878 X-152.004 Y32.127 Z-13.634 A289.1536 B-0.3239 
N879 X-152.004 Y32.763 Z-12.415 A292.1757 B-0.2746 
N880 X-152.003 Y33.641 Z-11.076 A296.1746 B-0.2158 
N881 X-152.003 Y34.594 Z-9.636 A300.7008 B-0.1535 
N882 X-152.002 Y35.478 Z-8.146 A305.3190 B-0.0931 
N883 X-152.002 Y36.196 Z-6.668 A309.6894 B-0.0388 
N884 X-152.002 Y36.715 Z-5.253 A313.6378 B0.0072 
N885 X-152.002 Y37.063 Z-3.900 A317.2245 B0.0449 
N886 X-152.001 Y37.295 Z-2.561 A320.6733 B0.0756 
N887 X-152.001 Y37.461 Z-1.161 A324.2696 B0.1018 
N888 X-152.001 Y37.569 Z0.354 A328.1883 B0.1247 
N889 X-152.001 Y37.572 Z1.967 A332.3504 B0.1435 
N890 X-152.001 Y37.387 Z3.561 A336.3801 B0.1554 
N891 X-152.001 Y36.952 Z4.968 A339.7645 B0.1582 
N892 X-152.001 Y36.251 Z6.047 A342.0888 B0.1512 
N893 X-152.001 Y35.313 Z6.781 A343.3026 B0.1360 
N894 X-152.001 Y34.188 Z7.290 A343.7463 B0.1152 
N895 X-152.001 Y32.932 Z7.783 A344.0508 B0.0904 
N896 X-152.002 Y31.592 Z8.452 A344.8241 B0.0593 
N897 X-152.002 Y30.186 Z9.427 A346.5248 B0.0225 
N898 X-152.002 Y28.693 Z10.758 A349.3956 B0.0021 
N899 X-152.002 Y27.042 Z12.351 A353.2722 B0.0000 
N900 X-152.002 Y25.160 Z13.832 A357.1284 
N901 X-152.002 Y23.070 Z14.878 A0.0145 
N902 X-152.002 Y20.849 Z15.275 A1.1748 
N903 X-152.002 Y18.551 Z15.312 A1.3200 
N904 X-152.002 Y16.201 Z15.299 A1.3203 
N905 X-152.002 Y13.825 Z15.286 
N906 X-152.002 Y11.456 Z15.273 
N907 X-152.002 Y9.127 Z15.260 
N908 X-152.002 Y6.870 Z15.247 
N909 X-152.002 Y4.714 Z15.235 
N910 X-152.002 Y2.687 Z15.224 
N911 X-152.002 Y0.810 Z15.213 
N912 X-152.002 Y-0.901 Z15.204 
N913 X-152.002 Y-2.438 Z15.195 A1.3204 
N914 X-152.002 Y-3.798 Z15.192 A1.3322 
N915 X-152.002 Y-4.983 Z15.216 A1.4282 
N916 X-152.002 Y-6.004 Z15.340 A1.8310 
N917 X-152.002 Y-6.882 Z15.691 A2.9423 
N918 X-152.002 Y-7.652 Z16.349 A5.0296 
N919 X-152.002 Y-8.365 Z17.307 A8.0951 
N920 X-152.002 Y-9.077 Z18.505 A11.9750 
N921 X-152.002 Y-9.834 Z19.853 A16.4288 
N922 X-152.002 Y-10.667 Z21.275 A21.2541 
N923 X-152.002 Y-11.588 Z22.695 A26.2507 
N924 X-152.002 Y-12.575 Z24.033 A31.1820 
N925 X-152.002 Y-13.591 Z25.227 A35.8415 
N926 X-152.002 Y-14.597 Z26.256 A40.1220 
N927 X-152.002 Y-15.576 Z27.130 A44.0295 
N928 X-152.002 Y-16.529 Z27.880 A47.6404 
N929 X-152.002 Y-17.470 Z28.533 A51.0521 
N930 X-152.002 Y-18.415 Z29.112 A54.3511 
N931 X-152.002 Y-19.378 Z29.629 A57.6080 
N932 X-152.002 Y-20.378 Z30.094 A60.8953 
N933 X-152.002 Y-21.438 Z30.513 A64.2883 
N934 X-152.002 Y-22.554 Z30.875 A67.7823 
N935 X-152.002 Y-23.706 Z31.161 A71.3127 
N936 X-152.002 Y-24.907 Z31.370 A74.9358 
N937 X-152.002 Y-26.194 Z31.497 A78.7715 
N938 X-152.002 Y-27.572 Z31.522 A82.8539 
N939 X-152.002 Y-29.022 Z31.421 A87.1505 
N940 X-152.002 Y-30.503 Z31.170 A91.5714 
N941 X-152.002 Y-31.942 Z30.761 A95.9427 B0.0000 
N942 X-152.002 Y-33.225 Z30.209 A99.9651 B0.0002 
N943 X-152.002 Y-34.224 Z29.562 A103.2711 B0.0009 
N944 X-152.002 Y-34.879 Z28.873 A105.6670 B0.0026 
N945 X-152.002 Y-35.207 Z28.171 A107.1793 B0.0066 
N946 X-152.002 Y-35.273 Z27.456 A107.9810 B0.0153 
N947 X-152.002 Y-35.174 Z26.704 A108.3640 B0.0299 
N948 X-152.002 Y-35.015 Z25.884 A108.6500 B0.0479 
N949 X-152.002 Y-34.816 Z24.993 A108.8974 B0.0647 
N950 X-152.001 Y-34.554 Z24.047 A109.0262 B0.0799 
N951 X-152.001 Y-34.252 Z23.049 A109.0921 B0.0954 
N952 X-152.001 Y-33.934 Z22.004 A109.1617 B0.1118 
N953 X-152.001 Y-33.606 Z20.924 A109.2385 B0.1289 
N954 X-152.001 Y-33.271 Z19.825 A109.3184 B0.1464 
N955 X-152.001 Y-32.931 Z18.723 A109.3924 B0.1641 
N956 X-152.001 Y-32.588 Z17.633 A109.4484 B0.1819 
N957 X-152.001 Y-32.257 Z16.564 A109.5222 B0.1993 
N958 X-152.001 Y-32.043 Z15.489 A109.9466 B0.2133 
N959 X-152.001 Y-32.127 Z14.344 A111.3339 B0.2176 
N960 X-152.001 Y-32.591 Z13.071 A114.0324 B0.2065 
N961 X-152.001 Y-33.350 Z11.647 A117.8943 B0.1782 
N962 X-152.001 Y-34.203 Z10.109 A122.3723 B0.1357 
N963 X-152.001 Y-34.972 Z8.530 A126.9185 B0.0839 
N964 X-152.002 Y-35.548 Z6.994 A131.1203 B0.0279 
N965 X-152.002 Y-35.910 Z5.555 A134.8159 B-0.0287 
N966 X-152.002 Y-36.111 Z4.186 A138.1680 B-0.0855 
N967 X-152.003 Y-36.236 Z2.802 A141.5417 B-0.1461 
N968 X-152.003 Y-36.331 Z1.315 A145.2483 B-0.2155 
N969 X-152.004 Y-36.363 Z-0.283 A149.2876 B-0.2940 
N970 X-152.004 Y-36.241 Z-1.889 A153.2941 B-0.3755 
N971 X-152.005 Y-35.884 Z-3.330 A156.7150 B-0.4503 
N972 X-152.005 Y-35.265 Z-4.459 A159.1083 B-0.5107 
N973 X-152.005 Y-34.413 Z-5.263 A160.4341 B-0.5552 
N974 X-152.005 Y-33.389 Z-5.874 A161.0932 B-0.5901 
N975 X-152.006 Y-32.268 Z-6.525 A161.8052 B-0.6292 
N976 X-152.006 Y-31.096 Z-7.400 A163.1757 B-0.6867 
N977 X-152.006 Y-29.874 Z-8.594 A165.5508 B-0.7748 
N978 X-152.007 Y-28.550 Z-10.096 A168.9792 B-0.8888 
N979 X-152.008 Y-27.048 Z-11.796 A173.2291 B-0.9734 
N980 X-152.008 Y-25.296 Z-13.283 A177.1434 B-1.0038 
N981 X-152.008 Y-23.333 Z-14.307 A179.9767 B-1.0264 
N982 X-152.008 Y-21.237 Z-14.695 A181.1045 B-1.0393 
N983 X-152.008 Y-19.055 Z-14.748 A181.2894 B-1.0450 
N984 X-152.008 Y-16.807 Z-14.737 A181.2924 B-1.0488 
N985 X-152.008 Y-14.519 Z-14.726 B-1.0527 
N986 X-152.008 Y-12.220 Z-14.714 B-1.0565 
N987 X-152.008 Y-9.941 Z-14.702 B-1.0603 
N988 X-152.008 Y-7.715 Z-14.691 B-1.0641 
N989 X-152.008 Y-5.573 Z-14.680 A181.2924 B-1.0677 
N990 X-152.008 Y-3.543 Z-14.670 B-1.0711 
N991 X-152.008 Y-1.648 Z-14.660 B-1.0743 
N992 X-152.008 Y0.092 Z-14.651 B-1.0772 
N993 X-152.008 Y1.666 Z-14.643 B-1.0798 
N994 X-152.008 Y3.066 Z-14.637 A181.2945 B-1.0822 
N995 X-152.008 Y4.295 Z-14.643 A181.3319 B-1.0852 
N996 X-152.008 Y5.357 Z-14.702 A181.5328 B-1.0918 
N997 X-152.008 Y6.268 Z-14.921 A182.2279 B-1.1096 
N998 X-152.009 Y7.054 Z-15.419 A183.8003 B-1.1467 
N999 X-152.009 Y7.758 Z-16.229 A186.3694 B-1.2054 
N1000 X-152.009 Y8.435 Z-17.302 A189.8114 B-1.2821 
N1001 X-152.010 Y9.130 Z-18.555 A193.8931 B-1.3699 
N1002 X-152.010 Y9.885 Z-19.921 A198.4393 B-1.4621 
N1003 X-152.011 Y10.730 Z-21.351 A203.3361 B-1.5524 
N1004 X-152.011 Y11.674 Z-22.772 A208.3954 B-1.6350 
N1005 X-152.012 Y12.688 Z-24.099 A213.3624 B-1.7047 
N1006 X-152.012 Y13.727 Z-25.271 A218.0273 B-1.7590 
N1007 X-152.012 Y14.752 Z-26.274 A222.3025 B-1.7975 
N1008 X-152.012 Y15.751 Z-27.125 A226.2136 B-1.8210 
N1009 X-152.013 Y16.724 Z-27.852 A229.8394 B-1.8299 
N1010 X-152.012 Y17.684 Z-28.483 A233.2653 B-1.8239 
N1011 X-152.012 Y18.641 Z-29.033 A236.5574 B-1.8024 
N1012 X-152.012 Y19.604 Z-29.515 A239.7683 B-1.7643 
N1013 X-152.012 Y20.588 Z-29.938 A242.9611 B-1.7089 
N1014 X-152.011 Y21.614 Z-30.309 A246.2118 B-1.6369 
N1015 X-152.011 Y22.680 Z-30.622 A249.5238 B-1.5527 
N1016 X-152.010 Y23.780 Z-30.868 A252.8767 B-1.4619 
N1017 X-152.010 Y24.937 Z-31.045 A256.3578 B-1.3671 
N1018 X-152.009 Y26.183 Z-31.147 A260.0695 B-1.2682 
N1019 X-152.009 Y27.522 Z-31.155 A264.0423 B-1.1651 
N1020 X-152.008 Y28.942 Z-31.044 A268.2603 B-1.0585 
N1021 X-152.007 Y30.406 Z-30.790 A272.6436 B-0.9502 
N1022 X-152.007 Y31.835 Z-30.383 A277.0054 B-0.8445 
N1023 X-152.006 Y33.116 Z-29.839 A281.0400 B-0.7482 
N1024 X-152.006 Y34.134 Z-29.205 A284.4182 B-0.6685 
N1025 X-152.005 Y34.839 Z-28.529 A286.9813 B-0.6087 
N1026 X-152.005 Y35.237 Z-27.843 A288.7235 B-0.5684 
N1027 X-152.005 Y35.368 Z-27.153 A289.7471 B-0.5444 
N1028 X-152.005 Y35.322 Z-26.437 A290.3169 B-0.5299 
N1029 X-152.005 Y35.209 Z-25.660 A290.7772 B-0.5165 
N1030 X-152.005 Y35.047 Z-24.816 A291.1868 B-0.5024 
N1031 X-152.005 Y34.802 Z-23.925 A291.4242 B-0.4903 
N1032 X-152.005 Y34.490 Z-22.990 A291.5296 B-0.4790 
N1033 X-152.005 Y34.147 Z-22.009 A291.6003 B-0.4665 
N1034 X-152.005 Y33.790 Z-20.987 A291.6779 B-0.4522 
N1035 X-152.004 Y33.423 Z-19.937 A291.7644 B-0.4364 
N1036 X-152.004 Y33.047 Z-18.875 A291.8410 B-0.4199 
N1037 X-152.004 Y32.663 Z-17.813 A291.8990 B-0.4031 
N1038 X-152.004 Y32.304 Z-16.751 A292.0314 B-0.3845 
N1039 X-152.004 Y32.112 Z-15.641 A292.7044 B-0.3569 
N1040 X-152.004 Y32.275 Z-14.399 A294.5842 B-0.3108 
N1041 X-152.003 Y32.811 Z-12.973 A297.8545 B-0.2455 
N1042 X-152.003 Y33.545 Z-11.384 A302.0865 B-0.1697 
N1043 X-152.002 Y34.246 Z-9.719 A306.5907 B-0.0953 
N1044 X-152.002 Y34.756 Z-8.088 A310.7922 B-0.0312 
N1045 X-152.002 Y35.021 Z-6.574 A314.4068 B0.0187 
N1046 X-152.002 Y35.103 Z-5.160 A317.5787 B0.0561 
N1047 X-152.001 Y35.111 Z-3.739 A320.7699 B0.0863 
N1048 X-152.001 Y35.106 Z-2.214 A324.3423 B0.1133 
N1049 X-152.001 Y35.038 Z-0.605 A328.1942 B0.1356 
N1050 X-152.001 Y34.799 Z0.942 A331.8076 B0.1487 
N1051 X-152.001 Y34.318 Z2.253 A334.6176 B0.1500 
N1052 X-152.001 Y33.590 Z3.234 A336.3391 B0.1401 
N1053 X-152.001 Y32.662 Z3.938 A337.1212 B0.1223 
N1054 X-152.001 Y31.612 Z4.537 A337.5038 B0.1008 
N1055 X-152.001 Y30.524 Z5.259 A338.2085 B0.0771 
N1056 X-152.002 Y29.458 Z6.298 A339.8978 B0.0461 
N1057 X-152.002 Y28.406 Z7.761 A342.9674 B0.0145 
N1058 X-152.002 Y27.281 Z9.626 A347.4250 B0.0017 
N1059 X-152.002 Y25.940 Z11.635 A352.5774 B0.0000 
N1060 X-152.002 Y24.311 Z13.358 A357.2065 B0.0000 
N1061 X-152.002 Y22.454 Z14.413 A0.1630 
N1062 X-152.002 Y20.472 Z14.769 A1.2137 
N1063 X-152.002 Y18.409 Z14.799 A1.3357 
N1064 X-152.002 Y16.279 Z14.786 A1.3360 
N1065 X-152.002 Y14.103 Z14.774 
N1066 X-152.002 Y11.908 Z14.761 
N1067 X-152.002 Y9.721 Z14.748 
N1068 X-152.002 Y7.574 Z14.735 
N1069 X-152.002 Y5.495 Z14.723 
N1070 X-152.002 Y3.514 Z14.712 
N1071 X-152.002 Y1.654 Z14.701 
N1072 X-152.002 Y-0.063 Z14.691 
N1073 X-152.002 Y-1.625 Z14.681 
N1074 X-152.002 Y-3.023 Z14.674 A1.3374 
N1075 X-152.002 Y-4.255 Z14.675 A1.3641 
N1076 X-152.002 Y-5.324 Z14.716 A1.5098 
N1077 X-152.002 Y-6.243 Z14.876 A2.0241 
N1078 X-152.002 Y-7.031 Z15.260 A3.2404 
N1079 X-152.002 Y-7.725 Z15.932 A5.3677 
N1080 X-152.002 Y-8.374 Z16.895 A8.4371 
N1081 X-152.002 Y-9.033 Z18.099 A12.3196 
N1082 X-152.002 Y-9.753 Z19.475 A16.8404 
N1083 X-152.002 Y-10.573 Z20.952 A21.8177 
N1084 X-152.002 Y-11.498 Z22.430 A26.9888 
N1085 X-152.002 Y-12.497 Z23.810 A32.0585 
N1086 X-152.002 Y-13.524 Z25.028 A36.8050 
N1087 X-152.002 Y-14.538 Z26.067 A41.1337 
N1088 X-152.002 Y-15.519 Z26.945 A45.0608 
N1089 X-152.002 Y-16.467 Z27.690 A48.6584 
N1090 X-152.002 Y-17.390 Z28.331 A52.0123 
N1091 X-152.002 Y-18.300 Z28.889 A55.1988 
N1092 X-152.002 Y-19.211 Z29.381 A58.2877 
N1093 X-152.002 Y-20.142 Z29.821 A61.3596 
N1094 X-152.002 Y-21.121 Z30.220 A64.5145 
N1095 X-152.002 Y-22.165 Z30.580 A67.8098 
N1096 X-152.002 Y-23.249 Z30.880 A71.1663 
N1097 X-152.002 Y-24.354 Z31.109 A74.5304 
N1098 X-152.002 Y-25.510 Z31.268 A78.0064 
N1099 X-152.002 Y-26.748 Z31.353 A81.6990 
N1100 X-152.002 Y-28.074 Z31.344 A85.6413 
N1101 X-152.002 Y-29.479 Z31.219 A89.8291 
N1102 X-152.002 Y-30.936 Z30.955 A94.2152 B0.0000 
N1103 X-152.002 Y-32.387 Z30.539 A98.6675 B0.0001 
N1104 X-152.002 Y-33.733 Z29.979 A102.9327 B0.0003 
N1105 X-152.002 Y-34.845 Z29.321 A106.6470 B0.0011 
N1106 X-152.002 Y-35.644 Z28.625 A109.5544 B0.0031 
N1107 X-152.002 Y-36.120 Z27.930 A111.6002 B0.0071 
N1108 X-152.002 Y-36.316 Z27.246 A112.8943 B0.0141 
N1109 X-152.002 Y-36.301 Z26.556 A113.6379 B0.0248 
N1110 X-152.002 Y-36.174 Z25.822 A114.1427 B0.0386 
N1111 X-152.002 Y-35.990 Z25.022 A114.5882 B0.0529 
N1112 X-152.002 Y-35.719 Z24.171 A114.8711 B0.0664 
N1113 X-152.001 Y-35.360 Z23.278 A114.9741 B0.0803 
N1114 X-152.001 Y-34.962 Z22.329 A115.0430 B0.0955 
N1115 X-152.001 Y-34.545 Z21.327 A115.1280 B0.1115 
N1116 X-152.001 Y-34.111 Z20.283 A115.2207 B0.1284 
N1117 X-152.001 Y-33.661 Z19.212 A115.3131 B0.1457 
N1118 X-152.001 Y-33.199 Z18.125 A115.3919 B0.1635 
N1119 X-152.001 Y-32.740 Z17.030 A115.4976 B0.1811 
N1120 X-152.001 Y-32.409 Z15.879 A116.0381 B0.1940 
N1121 X-152.001 Y-32.426 Z14.561 A117.8048 B0.1912 
N1122 X-152.001 Y-32.828 Z13.018 A121.0621 B0.1650 
N1123 X-152.001 Y-33.387 Z11.312 A125.2045 B0.1181 
N1124 X-152.002 Y-33.842 Z9.586 A129.3707 B0.0601 
N1125 X-152.002 Y-34.056 Z7.972 A132.9877 B0.0002 
N1126 X-152.002 Y-34.046 Z6.505 A135.9955 B-0.0576 
N1127 X-152.003 Y-33.943 Z5.081 A138.8763 B-0.1191 
N1128 X-152.003 Y-33.856 Z3.565 A142.1630 B-0.1939 
N1129 X-152.004 Y-33.746 Z1.963 A145.8027 B-0.2816 
N1130 X-152.004 Y-33.487 Z0.435 A149.2002 B-0.3695 
N1131 X-152.004 Y-32.991 Z-0.835 A151.7294 B-0.4428 
N1132 X-152.005 Y-32.263 Z-1.788 A153.2033 B-0.4955 
N1133 X-152.005 Y-31.382 Z-2.545 A154.0033 B-0.5348 
N1134 X-152.005 Y-30.463 Z-3.346 A154.9200 B-0.5792 
N1135 X-152.006 Y-29.583 Z-4.403 A156.6593 B-0.6489 
N1136 X-152.006 Y-28.747 Z-5.830 A159.6236 B-0.7597 
N1137 X-152.007 Y-27.875 Z-7.621 A163.8263 B-0.9127 
N1138 X-152.008 Y-26.849 Z-9.686 A169.0446 B-1.0613 
N1139 X-152.009 Y-25.542 Z-11.659 A174.2579 B-1.1436 
N1140 X-152.009 Y-23.951 Z-13.155 A178.3537 B-1.1920 
N1141 X-152.009 Y-22.171 Z-13.939 A180.5769 B-1.2202 
N1142 X-152.009 Y-20.282 Z-14.153 A181.2196 B-1.2313 
N1143 X-152.009 Y-18.306 Z-14.167 A181.2889 B-1.2355 
N1144 X-152.009 Y-16.257 Z-14.157 A181.2891 B-1.2389 
N1145 X-152.009 Y-14.154 Z-14.146 B-1.2423 
N1146 X-152.009 Y-12.023 Z-14.135 B-1.2458 
N1147 X-152.009 Y-9.892 Z-14.125 B-1.2493 
N1148 X-152.009 Y-7.792 Z-14.114 A181.2891 B-1.2527 
N1149 X-152.009 Y-5.752 Z-14.104 B-1.2560 
N1150 X-152.009 Y-3.803 Z-14.094 B-1.2592 
N1151 X-152.009 Y-1.968 Z-14.085 B-1.2622 
N1152 X-152.009 Y-0.270 Z-14.076 B-1.2650 
N1153 X-152.009 Y1.277 Z-14.068 A181.2891 B-1.2675 
N1154 X-152.009 Y2.662 Z-14.062 A181.2896 B-1.2697 
N1155 X-152.009 Y3.884 Z-14.061 A181.3059 B-1.2722 
N1156 X-152.009 Y4.946 Z-14.088 A181.4071 B-1.2767 
N1157 X-152.009 Y5.856 Z-14.212 A181.8062 B-1.2888 
N1158 X-152.010 Y6.634 Z-14.543 A182.8488 B-1.3169 
N1159 X-152.010 Y7.311 Z-15.157 A184.7861 B-1.3666 
N1160 X-152.010 Y7.935 Z-16.063 A187.6594 B-1.4377 
N1161 X-152.011 Y8.557 Z-17.204 A191.3154 B-1.5246 
N1162 X-152.011 Y9.224 Z-18.516 A195.5901 B-1.6200 
N1163 X-152.012 Y9.983 Z-19.956 A200.3853 B-1.7171 
N1164 X-152.012 Y10.859 Z-21.451 A205.5275 B-1.8085 
N1165 X-152.013 Y11.839 Z-22.898 A210.7324 B-1.8869 
N1166 X-152.013 Y12.877 Z-24.209 A215.7194 B-1.9480 
N1167 X-152.013 Y13.921 Z-25.341 A220.3168 B-1.9913 
N1168 X-152.014 Y14.940 Z-26.296 A224.4884 B-2.0184 
N1169 X-152.014 Y15.923 Z-27.101 A228.2833 B-2.0315 
N1170 X-152.014 Y16.874 Z-27.785 A231.7818 B-2.0321 
N1171 X-152.014 Y17.802 Z-28.372 A235.0631 B-2.0208 
N1172 X-152.014 Y18.717 Z-28.882 A238.1941 B-1.9974 
N1173 X-152.013 Y19.634 Z-29.328 A241.2401 B-1.9607 
N1174 X-152.013 Y20.572 Z-29.724 A244.2794 B-1.9089 
N1175 X-152.013 Y21.556 Z-30.078 A247.4033 B-1.8404 
N1176 X-152.012 Y22.588 Z-30.384 A250.6180 B-1.7571 
N1177 X-152.012 Y23.639 Z-30.627 A253.8376 B-1.6652 
N1178 X-152.011 Y24.712 Z-30.804 A257.0820 B-1.5692 
N1179 X-152.010 Y25.846 Z-30.918 A260.4776 B-1.4692 
N1180 X-152.010 Y27.062 Z-30.958 A264.1010 B-1.3640 
N1181 X-152.009 Y28.366 Z-30.905 A267.9860 B-1.2529 
N1182 X-152.009 Y29.754 Z-30.737 A272.1417 B-1.1354 
N1183 X-152.008 Y31.194 Z-30.431 A276.5076 B-1.0131 
N1184 X-152.007 Y32.614 Z-29.978 A280.9138 B-0.8904 
N1185 X-152.006 Y33.909 Z-29.396 A285.0771 B-0.7750 
N1186 X-152.006 Y34.969 Z-28.732 A288.6842 B-0.6753 
N1187 X-152.005 Y35.746 Z-28.035 A291.5711 B-0.5958 
N1188 X-152.005 Y36.235 Z-27.340 A293.7043 B-0.5374 
N1189 X-152.005 Y36.459 Z-26.661 A295.1341 B-0.4981 
N1190 X-152.005 Y36.478 Z-25.981 A296.0357 B-0.4727 
N1191 X-152.005 Y36.394 Z-25.255 A296.7433 B-0.4514 
N1192 X-152.004 Y36.244 Z-24.465 A297.3794 B-0.4308 
N1193 X-152.004 Y35.976 Z-23.641 A297.7692 B-0.4152 
N1194 X-152.004 Y35.598 Z-22.784 A297.9181 B-0.4041 
N1195 X-152.004 Y35.165 Z-21.872 A297.9994 B-0.3929 
N1196 X-152.004 Y34.702 Z-20.900 A298.0900 B-0.3796 
N1197 X-152.004 Y34.217 Z-19.876 A298.1957 B-0.3643 
N1198 X-152.004 Y33.706 Z-18.813 A298.2929 B-0.3480 
N1199 X-152.004 Y33.176 Z-17.722 A298.3841 B-0.3309 
N1200 X-152.004 Y32.701 Z-16.574 A298.7084 B-0.3080 
N1201 X-152.003 Y32.510 Z-15.248 A300.0900 B-0.2640 
N1202 X-152.003 Y32.707 Z-13.658 A303.0159 B-0.1931 
N1203 X-152.003 Y33.067 Z-11.883 A306.8812 B-0.1114 
N1204 X-152.002 Y33.291 Z-10.114 A310.6669 B-0.0396 
N1205 X-152.002 Y33.251 Z-8.495 A313.7815 B0.0123 
N1206 X-152.002 Y33.006 Z-7.027 A316.3166 B0.0471 
N1207 X-152.001 Y32.722 Z-5.564 A318.9184 B0.0747 
N1208 X-152.001 Y32.474 Z-4.010 A321.9735 B0.0996 
N1209 X-152.001 Y32.162 Z-2.463 A325.0888 B0.1170 
N1210 X-152.001 Y31.662 Z-1.114 A327.5696 B0.1215 
N1211 X-152.001 Y30.938 Z-0.073 A329.0287 B0.1134 
N1212 X-152.001 Y30.044 Z0.713 A329.6322 B0.0974 
N1213 X-152.001 Y29.107 Z1.460 A330.0943 B0.0793 
N1214 X-152.002 Y28.261 Z2.425 A331.3078 B0.0609 
N1215 X-152.002 Y27.573 Z3.811 A333.9772 B0.0380 
N1216 X-152.002 Y26.980 Z5.674 A338.2905 B0.0148 
N1217 X-152.002 Y26.322 Z7.954 A344.0516 B0.0027 
N1218 X-152.002 Y25.399 Z10.354 A350.3905 B0.0001 
N1219 X-152.002 Y24.117 Z12.396 A355.9475 B0.0000 
N1220 X-152.002 Y22.559 Z13.685 A359.5637 
N1221 X-152.002 Y20.853 Z14.197 A1.0508 
N1222 X-152.002 Y19.055 Z14.287 A1.3423 
N1223 X-152.002 Y17.173 Z14.278 A1.3505 
N1224 X-152.002 Y15.216 Z14.266 
N1225 X-152.002 Y13.205 Z14.254 
N1226 X-152.002 Y11.162 Z14.241 
N1227 X-152.002 Y9.114 Z14.228 
N1228 X-152.002 Y7.092 Z14.216 
N1229 X-152.002 Y5.125 Z14.204 
N1230 X-152.002 Y3.241 Z14.193 
N1231 X-152.002 Y1.466 Z14.182 
N1232 X-152.002 Y-0.178 Z14.172 
N1233 X-152.002 Y-1.676 Z14.162 
N1234 X-152.002 Y-3.019 Z14.155 A1.3518 
N1235 X-152.002 Y-4.203 Z14.154 A1.3707 
N1236 X-152.002 Y-5.231 Z14.181 A1.4757 
N1237 X-152.002 Y-6.112 Z14.301 A1.8642 
N1238 X-152.002 Y-6.863 Z14.602 A2.8162 
N1239 X-152.002 Y-7.513 Z15.153 A4.5555 
N1240 X-152.002 Y-8.104 Z15.984 A7.1855 
N1241 X-152.002 Y-8.690 Z17.085 A10.6973 
N1242 X-152.002 Y-9.334 Z18.425 A15.0272 
N1243 X-152.002 Y-10.089 Z19.937 A20.0184 
N1244 X-152.002 Y-10.974 Z21.501 A25.3597 
N1245 X-152.002 Y-11.962 Z22.991 A30.6899 
N1246 X-152.002 Y-13.001 Z24.322 A35.7283 
N1247 X-152.002 Y-14.041 Z25.460 A40.3327 
N1248 X-152.002 Y-15.050 Z26.416 A44.4873 
N1249 X-152.002 Y-16.019 Z27.219 A48.2482 
N1250 X-152.002 Y-16.951 Z27.898 A51.6955 
N1251 X-152.002 Y-17.854 Z28.480 A54.9065 
N1252 X-152.002 Y-18.738 Z28.983 A57.9459 
N1253 X-152.002 Y-19.615 Z29.422 A60.8757 
N1254 X-152.002 Y-20.502 Z29.811 A63.7706 
N1255 X-152.002 Y-21.430 Z30.163 A66.7374 
N1256 X-152.002 Y-22.431 Z30.486 A69.8807 
N1257 X-152.002 Y-23.489 Z30.761 A73.1465 
N1258 X-152.002 Y-24.560 Z30.970 A76.4078 
N1259 X-152.002 Y-25.654 Z31.112 A79.7033 
N1260 X-152.002 Y-26.807 Z31.188 A83.1518 
N1261 X-152.002 Y-28.033 Z31.185 A86.8095 
N1262 X-152.002 Y-29.337 Z31.086 A90.7065 
N1263 X-152.002 Y-30.715 Z30.869 A94.8596 
N1264 X-152.002 Y-32.145 Z30.513 A99.2381 B0.0000 
N1265 X-152.002 Y-33.569 Z30.008 A103.7142 B0.0001 
N1266 X-152.002 Y-34.888 Z29.369 A108.0336 B0.0005 
N1267 X-152.002 Y-35.981 Z28.649 A111.8383 B0.0016 
N1268 X-152.002 Y-36.775 Z27.911 A114.8865 B0.0039 
N1269 X-152.002 Y-37.265 Z27.193 A117.1309 B0.0080 
N1270 X-152.002 Y-37.495 Z26.498 A118.6905 B0.0143 
N1271 X-152.002 Y-37.524 Z25.808 A119.7461 B0.0223 
N1272 X-152.002 Y-37.426 Z25.081 A120.5541 B0.0312 
N1273 X-152.002 Y-37.242 Z24.294 A121.2513 B0.0399 
N1274 X-152.002 Y-36.923 Z23.475 A121.6736 B0.0490 
N1275 X-152.002 Y-36.468 Z22.629 A121.7986 B0.0596 
N1276 X-152.001 Y-35.952 Z21.716 A121.8720 B0.0715 
N1277 X-152.001 Y-35.399 Z20.728 A121.9740 B0.0842 
N1278 X-152.001 Y-34.810 Z19.675 A122.0886 B0.0978 
N1279 X-152.001 Y-34.186 Z18.569 A122.2027 B0.1121 
N1280 X-152.001 Y-33.536 Z17.420 A122.3238 B0.1267 
N1281 X-152.001 Y-32.948 Z16.187 A122.7504 B0.1376 
N1282 X-152.001 Y-32.656 Z14.726 A124.3618 B0.1302 
N1283 X-152.001 Y-32.658 Z13.013 A127.2940 B0.0961 
N1284 X-152.002 Y-32.644 Z11.244 A130.5237 B0.0463 
N1285 X-152.002 Y-32.411 Z9.610 A133.2087 B-0.0043 
N1286 X-152.002 Y-31.979 Z8.146 A135.2753 B-0.0510 
N1287 X-152.003 Y-31.515 Z6.718 A137.3368 B-0.1039 
N1288 X-152.003 Y-31.117 Z5.218 A139.8520 B-0.1739 
N1289 X-152.003 Y-30.689 Z3.745 A142.4218 B-0.2517 
N1290 X-152.004 Y-30.093 Z2.489 A144.3181 B-0.3169 
N1291 X-152.004 Y-29.314 Z1.507 A145.3229 B-0.3604 
N1292 X-152.004 Y-28.488 Z0.613 A146.0788 B-0.3983 
N1293 X-152.005 Y-27.802 Z-0.494 A147.6664 B-0.4638 
N1294 X-152.005 Y-27.314 Z-1.993 A150.7063 B-0.5810 
N1295 X-152.006 Y-26.944 Z-3.931 A155.3126 B-0.7609 
N1296 X-152.008 Y-26.510 Z-6.208 A161.1017 B-0.9824 
N1297 X-152.009 Y-25.858 Z-8.726 A167.7888 B-1.1797 
N1298 X-152.009 Y-24.826 Z-10.945 A173.8044 B-1.2971 
N1299 X-152.010 Y-23.476 Z-12.549 A178.2606 B-1.3705 
N1300 X-152.010 Y-21.933 Z-13.339 A180.5153 B-1.4071 
N1301 X-152.010 Y-20.280 Z-13.565 A181.1894 B-1.4202 
N1302 X-152.010 Y-18.533 Z-13.589 A181.2830 B-1.4246 
N1303 X-152.010 Y-16.697 Z-13.580 A181.2840 B-1.4275 
N1304 X-152.010 Y-14.785 Z-13.570 B-1.4305 
N1305 X-152.010 Y-12.817 Z-13.561 B-1.4336 
N1306 X-152.010 Y-10.817 Z-13.551 B-1.4367 
N1307 X-152.010 Y-8.814 Z-13.541 A181.2840 B-1.4399 
N1308 X-152.010 Y-6.838 Z-13.531 B-1.4430 
N1309 X-152.010 Y-4.919 Z-13.522 B-1.4460 
N1310 X-152.010 Y-3.087 Z-13.512 B-1.4489 
N1311 X-152.010 Y-1.365 Z-13.504 A181.2840 B-1.4516 
N1312 X-152.010 Y0.225 Z-13.496 B-1.4541 
N1313 X-152.010 Y1.668 Z-13.489 B-1.4563 
N1314 X-152.010 Y2.957 Z-13.483 A181.2850 B-1.4584 
N1315 X-152.010 Y4.088 Z-13.482 A181.2989 B-1.4606 
N1316 X-152.010 Y5.066 Z-13.507 A181.3901 B-1.4651 
N1317 X-152.010 Y5.900 Z-13.627 A181.7747 B-1.4777 
N1318 X-152.011 Y6.609 Z-13.942 A182.7639 B-1.5068 
N1319 X-152.011 Y7.222 Z-14.524 A184.5903 B-1.5578 
N1320 X-152.011 Y7.783 Z-15.385 A187.3058 B-1.6309 
N1321 X-152.012 Y8.343 Z-16.491 A190.8244 B-1.7209 
N1322 X-152.012 Y8.957 Z-17.809 A195.0718 B-1.8214 
N1323 X-152.013 Y9.679 Z-19.294 A199.9576 B-1.9248 
N1324 X-152.014 Y10.537 Z-20.852 A205.2517 B-2.0212 
N1325 X-152.014 Y11.514 Z-22.363 A210.6206 B-2.1018 
N1326 X-152.014 Y12.557 Z-23.729 A215.7561 B-2.1620 
N1327 X-152.015 Y13.611 Z-24.903 A220.4727 B-2.2021 
N1328 X-152.015 Y14.637 Z-25.888 A224.7266 B-2.2250 
N1329 X-152.015 Y15.620 Z-26.712 A228.5647 B-2.2341 
N1330 X-152.015 Y16.564 Z-27.406 A232.0689 B-2.2320 
N1331 X-152.015 Y17.477 Z-27.998 A235.3229 B-2.2203 
N1332 X-152.015 Y18.369 Z-28.509 A238.3989 B-2.1995 
N1333 X-152.015 Y19.253 Z-28.955 A241.3597 B-2.1693 
N1334 X-152.014 Y20.143 Z-29.348 A244.2703 B-2.1284 
N1335 X-152.014 Y21.063 Z-29.699 A247.2137 B-2.0739 
N1336 X-152.014 Y22.044 Z-30.017 A250.3006 B-2.0021 
N1337 X-152.013 Y23.096 Z-30.295 A253.5556 B-1.9122 
N1338 X-152.012 Y24.165 Z-30.510 A256.8158 B-1.8115 
N1339 X-152.012 Y25.224 Z-30.654 A260.0115 B-1.7075 
N1340 X-152.011 Y26.312 Z-30.734 A263.2706 B-1.6007 
N1341 X-152.011 Y27.459 Z-30.746 A266.6950 B-1.4893 
N1342 X-152.010 Y28.678 Z-30.676 A270.3422 B-1.3715 
N1343 X-152.009 Y29.981 Z-30.505 A274.2603 B-1.2456 
N1344 X-152.008 Y31.361 Z-30.210 A278.4662 B-1.1108 
N1345 X-152.008 Y32.779 Z-29.772 A282.8798 B-0.9694 
N1346 X-152.007 Y34.155 Z-29.191 A287.3099 B-0.8273 
N1347 X-152.006 Y35.381 Z-28.499 A291.4558 B-0.6942 
N1348 X-152.005 Y36.367 Z-27.754 A295.0410 B-0.5791 
N1349 X-152.005 Y37.081 Z-27.000 A297.9500 B-0.4859 
N1350 X-152.004 Y37.531 Z-26.261 A300.1862 B-0.4143 
N1351 X-152.004 Y37.743 Z-25.543 A301.8171 B-0.3619 
N1352 X-152.004 Y37.773 Z-24.820 A303.0246 B-0.3225 
N1353 X-152.004 Y37.694 Z-24.043 A304.0790 B-0.2873 
N1354 X-152.003 Y37.483 Z-23.225 A304.9089 B-0.2585 
N1355 X-152.003 Y37.076 Z-22.411 A305.2654 B-0.2436 
N1356 X-152.003 Y36.536 Z-21.560 A305.3676 B-0.2353 
N1357 X-152.003 Y35.936 Z-20.623 A305.4713 B-0.2254 
N1358 X-152.003 Y35.285 Z-19.600 A305.6029 B-0.2134 
N1359 X-152.003 Y34.582 Z-18.504 A305.7381 B-0.2003 
N1360 X-152.003 Y33.834 Z-17.344 A305.8845 B-0.1860 
N1361 X-152.003 Y33.140 Z-16.066 A306.3834 B-0.1625 
N1362 X-152.003 Y32.692 Z-14.538 A307.9956 B-0.1145 
N1363 X-152.002 Y32.380 Z-12.834 A310.4218 B-0.0544 
N1364 X-152.002 Y31.941 Z-11.182 A312.6451 B-0.0068 
N1365 X-152.002 Y31.304 Z-9.689 A314.2616 B0.0218 
N1366 X-152.002 Y30.577 Z-8.295 A315.5908 B0.0394 
N1367 X-152.002 Y29.897 Z-6.885 A317.1673 B0.0549 
N1368 X-152.002 Y29.244 Z-5.486 A318.9018 B0.0663 
N1369 X-152.002 Y28.507 Z-4.238 A320.2500 B0.0683 
N1370 X-152.002 Y27.633 Z-3.222 A320.8743 B0.0608 
N1371 X-152.002 Y26.712 Z-2.338 A321.1286 B0.0496 
N1372 X-152.002 Y25.962 Z-1.301 A322.0966 B0.0412 
N1373 X-152.002 Y25.573 Z0.197 A324.9423 B0.0344 
N1374 X-152.002 Y25.468 Z2.244 A329.8741 B0.0223 
N1375 X-152.002 Y25.399 Z4.758 A336.4418 B0.0080 
N1376 X-152.002 Y25.126 Z7.625 A344.2022 B0.0009 
N1377 X-152.002 Y24.401 Z10.282 A351.4788 B0.0000 
N1378 X-152.002 Y23.262 Z12.273 A357.0268 
N1379 X-152.002 Y21.876 Z13.334 A0.0444 
N1380 X-152.002 Y20.368 Z13.713 A1.1582 
N1381 X-152.002 Y18.766 Z13.770 A1.3553 
N1382 X-152.002 Y17.069 Z13.761 A1.3600 
N1383 X-152.002 Y15.283 Z13.750 
N1384 X-152.002 Y13.423 Z13.738 
N1385 X-152.002 Y11.510 Z13.726 
N1386 X-152.002 Y9.568 Z13.714 
N1387 X-152.002 Y7.627 Z13.702 
N1388 X-152.002 Y5.717 Z13.690 
N1389 X-152.002 Y3.869 Z13.678 
N1390 X-152.002 Y2.110 Z13.667 
N1391 X-152.002 Y0.465 Z13.657 
N1392 X-152.002 Y-1.047 Z13.647 
N1393 X-152.002 Y-2.414 Z13.639 
N1394 X-152.002 Y-3.628 Z13.631 
N1395 X-152.002 Y-4.688 Z13.627 A1.3675 
N1396 X-152.002 Y-5.600 Z13.654 A1.4694 
N1397 X-152.002 Y-6.374 Z13.785 A1.8856 
N1398 X-152.002 Y-7.030 Z14.112 A2.9121 
N1399 X-152.002 Y-7.599 Z14.724 A4.8275 
N1400 X-152.002 Y-8.131 Z15.644 A7.7204 
N1401 X-152.002 Y-8.681 Z16.836 A11.5008 
N1402 X-152.002 Y-9.306 Z18.241 A16.0246 
N1403 X-152.002 Y-10.051 Z19.776 A21.0881 
N1404 X-152.002 Y-10.923 Z21.330 A26.3990 
N1405 X-152.002 Y-11.892 Z22.793 A31.6396 
N1406 X-152.002 Y-12.907 Z24.093 A36.5685 
N1407 X-152.002 Y-13.920 Z25.207 A41.0736 
N1408 X-152.002 Y-14.909 Z26.149 A45.1592 
N1409 X-152.002 Y-15.865 Z26.949 A48.8905 
N1410 X-152.002 Y-16.795 Z27.635 A52.3490 
N1411 X-152.002 Y-17.707 Z28.231 A55.6088 
N1412 X-152.002 Y-18.608 Z28.752 A58.7245 
N1413 X-152.002 Y-19.505 Z29.208 A61.7366 
N1414 X-152.002 Y-20.404 Z29.608 A64.6819 
N1415 X-152.002 Y-21.314 Z29.958 A67.5996 
N1416 X-152.002 Y-22.253 Z30.264 A70.5562 
N1417 X-152.002 Y-23.267 Z30.538 A73.7006 
N1418 X-152.002 Y-24.395 Z30.775 A77.1515 
N1419 X-152.002 Y-25.578 Z30.948 A80.7305 
N1420 X-152.002 Y-26.748 Z31.038 A84.2420 
N1421 X-152.002 Y-27.923 Z31.049 A87.7562 
N1422 X-152.002 Y-29.127 Z30.977 A91.3602 
N1423 X-152.002 Y-30.369 Z30.811 A95.1030 
N1424 X-152.002 Y-31.652 Z30.538 A99.0175 
N1425 X-152.002 Y-32.966 Z30.141 A103.1094 
N1426 X-152.002 Y-34.281 Z29.610 A107.3245 B0.0001 
N1427 X-152.002 Y-35.537 Z28.950 A111.5277 B0.0003 
N1428 X-152.002 Y-36.651 Z28.191 A115.4865 B0.0011 
N1429 X-152.002 Y-37.547 Z27.383 A118.9705 B0.0028 
N1430 X-152.002 Y-38.200 Z26.562 A121.8889 B0.0057 
N1431 X-152.002 Y-38.623 Z25.743 A124.2706 B0.0095 
N1432 X-152.002 Y-38.833 Z24.925 A126.1720 B0.0130 
N1433 X-152.002 Y-38.843 Z24.106 A127.6420 B0.0151 
N1434 X-152.002 Y-38.666 Z23.279 A128.7201 B0.0161 
N1435 X-152.002 Y-38.281 Z22.461 A129.3243 B0.0177 
N1436 X-152.002 Y-37.704 Z21.641 A129.4965 B0.0213 
N1437 X-152.002 Y-37.026 Z20.746 A129.5788 B0.0257 
N1438 X-152.002 Y-36.284 Z19.751 A129.7021 B0.0301 
N1439 X-152.002 Y-35.475 Z18.668 A129.8457 B0.0345 
N1440 X-152.002 Y-34.607 Z17.509 A130.0032 B0.0387 
N1441 X-152.002 Y-33.706 Z16.275 A130.2416 B0.0415 
N1442 X-152.002 Y-32.870 Z14.907 A130.9182 B0.0359 
N1443 X-152.002 Y-32.108 Z13.419 A132.0766 B0.0181 
N1444 X-152.002 Y-31.288 Z11.957 A133.1529 B-0.0034 
N1445 X-152.002 Y-30.369 Z10.594 A133.8877 B-0.0216 
N1446 X-152.002 Y-29.414 Z9.305 A134.4429 B-0.0384 
N1447 X-152.002 Y-28.502 Z8.038 A135.0963 B-0.0601 
N1448 X-152.002 Y-27.628 Z6.815 A135.7942 B-0.0856 
N1449 X-152.003 Y-26.724 Z5.718 A136.2052 B-0.1039 
N1450 X-152.003 Y-25.799 Z4.741 A136.3334 B-0.1135 
N1451 X-152.003 Y-25.114 Z3.604 A137.3391 B-0.1544 
N1452 X-152.004 Y-24.891 Z1.997 A140.4549 B-0.2763 
N1453 X-152.005 Y-25.038 Z-0.176 A145.8634 B-0.4968 
N1454 X-152.007 Y-25.242 Z-2.810 A152.9094 B-0.7975 
N1455 X-152.008 Y-25.239 Z-5.795 A161.0862 B-1.1163 
N1456 X-152.010 Y-24.783 Z-8.740 A169.2261 B-1.3531 
N1457 X-152.011 Y-23.829 Z-10.987 A175.4769 B-1.4939 
N1458 X-152.011 Y-22.576 Z-12.346 A179.3250 B-1.5720 
N1459 X-152.011 Y-21.177 Z-12.868 A180.8362 B-1.6020 
N1460 X-152.011 Y-19.680 Z-12.993 A181.2177 B-1.6115 
N1461 X-152.011 Y-18.086 Z-13.000 A181.2591 B-1.6148 
N1462 X-152.011 Y-16.395 Z-12.993 A181.2593 B-1.6174 
N1463 X-152.011 Y-14.618 Z-12.984 B-1.6201 
N1464 X-152.011 Y-12.771 Z-12.976 B-1.6229 
N1465 X-152.011 Y-10.878 Z-12.968 B-1.6258 
N1466 X-152.011 Y-8.965 Z-12.959 A181.2593 B-1.6287 
N1467 X-152.011 Y-7.064 Z-12.950 B-1.6316 
N1468 X-152.011 Y-5.204 Z-12.942 B-1.6344 
N1469 X-152.011 Y-3.416 Z-12.934 B-1.6371 
N1470 X-152.011 Y-1.726 Z-12.926 A181.2593 B-1.6397 
N1471 X-152.011 Y-0.157 Z-12.919 B-1.6421 
N1472 X-152.011 Y1.275 Z-12.913 B-1.6443 
N1473 X-152.011 Y2.558 Z-12.907 B-1.6462 
N1474 X-152.011 Y3.690 Z-12.902 A181.2593 B-1.6480 
N1475 X-152.011 Y4.671 Z-12.903 A181.2753 B-1.6499 
N1476 X-152.012 Y5.508 Z-12.947 A181.4231 B-1.6555 
N1477 X-152.012 Y6.214 Z-13.116 A181.9521 B-1.6723 
N1478 X-152.012 Y6.812 Z-13.517 A183.2007 B-1.7101 
N1479 X-152.012 Y7.340 Z-14.241 A185.4577 B-1.7759 
N1480 X-152.013 Y7.851 Z-15.276 A188.7078 B-1.8662 
N1481 X-152.013 Y8.398 Z-16.536 A192.7055 B-1.9705 
N1482 X-152.014 Y9.024 Z-17.949 A197.2731 B-2.0791 
N1483 X-152.015 Y9.771 Z-19.467 A202.3058 B-2.1839 
N1484 X-152.015 Y10.648 Z-21.000 A207.5755 B-2.2755 
N1485 X-152.016 Y11.618 Z-22.434 A212.7512 B-2.3467 
N1486 X-152.016 Y12.620 Z-23.693 A217.5672 B-2.3958 
N1487 X-152.016 Y13.608 Z-24.760 A221.9164 B-2.4254 
N1488 X-152.016 Y14.559 Z-25.656 A225.8291 B-2.4395 
N1489 X-152.016 Y15.475 Z-26.416 A229.3927 B-2.4416 
N1490 X-152.016 Y16.365 Z-27.073 A232.7043 B-2.4340 
N1491 X-152.016 Y17.243 Z-27.650 A235.8509 B-2.4179 
N1492 X-152.016 Y18.122 Z-28.164 A238.9009 B-2.3937 
N1493 X-152.016 Y19.014 Z-28.625 A241.9074 B-2.3614 
N1494 X-152.015 Y19.930 Z-29.041 A244.9196 B-2.3202 
N1495 X-152.015 Y20.884 Z-29.414 A247.9875 B-2.2685 
N1496 X-152.015 Y21.892 Z-29.749 A251.1699 B-2.2037 
N1497 X-152.014 Y22.986 Z-30.044 A254.5639 B-2.1210 
N1498 X-152.014 Y24.227 Z-30.299 A258.3605 B-2.0116 
N1499 X-152.013 Y25.600 Z-30.484 A262.5110 B-1.8748 
N1500 X-152.012 Y26.927 Z-30.561 A266.4936 B-1.7311 
N1501 X-152.011 Y28.174 Z-30.538 A270.2261 B-1.5914 
N1502 X-152.010 Y29.408 Z-30.425 A273.9349 B-1.4519 
N1503 X-152.010 Y30.659 Z-30.215 A277.7284 B-1.3094 
N1504 X-152.009 Y31.934 Z-29.897 A281.6527 B-1.1620 
N1505 X-152.008 Y33.219 Z-29.458 A285.7044 B-1.0100 
N1506 X-152.007 Y34.481 Z-28.894 A289.8160 B-0.8561 
N1507 X-152.006 Y35.666 Z-28.213 A293.8683 B-0.7048 
N1508 X-152.005 Y36.718 Z-27.439 A297.7090 B-0.5622 
N1509 X-152.004 Y37.603 Z-26.596 A301.2500 B-0.4313 
N1510 X-152.004 Y38.313 Z-25.697 A304.4819 B-0.3124 
N1511 X-152.003 Y38.824 Z-24.765 A307.3421 B-0.2074 
N1512 X-152.003 Y39.096 Z-23.845 A309.6717 B-0.1219 
N1513 X-152.002 Y39.103 Z-22.969 A311.3625 B-0.0598 
N1514 X-152.002 Y38.845 Z-22.150 A312.3880 B-0.0221 
N1515 X-152.002 Y38.337 Z-21.381 A312.7829 B-0.0076 
N1516 X-152.002 Y37.653 Z-20.593 A312.8286 B-0.0057 
N1517 X-152.002 Y36.869 Z-19.718 A312.8286 B-0.0055 
N1518 X-152.002 Y36.000 Z-18.746 B-0.0052 
N1519 X-152.002 Y35.053 Z-17.688 B-0.0049 
N1520 X-152.002 Y34.037 Z-16.553 B-0.0045 
N1521 X-152.002 Y32.967 Z-15.358 B-0.0042 
N1522 X-152.002 Y31.859 Z-14.119 B-0.0038 
N1523 X-152.002 Y30.729 Z-12.857 B-0.0034 
N1524 X-152.002 Y29.596 Z-11.591 B-0.0030 
N1525 X-152.002 Y28.477 Z-10.341 B-0.0027 
N1526 X-152.002 Y27.387 Z-9.123 B-0.0023 
N1527 X-152.002 Y26.338 Z-7.951 B-0.0020 
N1528 X-152.002 Y25.339 Z-6.835 B-0.0016 
N1529 X-152.002 Y24.396 Z-5.775 A312.8416 B-0.0012 
N1530 X-152.002 Y23.582 Z-4.704 A313.1716 B0.0010 
N1531 X-152.002 Y23.270 Z-3.237 A315.4909 B0.0103 
N1532 X-152.002 Y23.574 Z-1.085 A320.8327 B0.0183 
N1533 X-152.002 Y24.071 Z1.632 A328.2697 B0.0130 
N1534 X-152.002 Y24.443 Z4.886 A337.4017 B0.0029 
N1535 X-152.002 Y24.292 Z8.189 A346.6424 B0.0001 
N1536 X-152.002 Y23.527 Z10.828 A354.0136 B0.0000 
N1537 X-152.002 Y22.374 Z12.418 A358.5004 
N1538 X-152.002 Y21.049 Z13.111 A0.4870 
N1539 X-152.002 Y19.624 Z13.309 A1.0702 
N1540 X-152.002 Y18.103 Z13.328 A1.1347 
N1541 X-152.002 Y16.483 Z13.324 A1.1348 
N1542 X-152.002 Y14.770 Z13.320 
N1543 X-152.002 Y12.978 Z13.316 
N1544 X-152.002 Y11.127 Z13.311 
N1545 X-152.002 Y9.243 Z13.307 
N1546 X-152.002 Y7.355 Z13.302 
N1547 X-152.002 Y5.493 Z13.298 
N1548 X-152.002 Y3.690 Z13.294 
N1549 X-152.002 Y1.972 Z13.290 
N1550 X-152.002 Y0.364 Z13.286 
N1551 X-152.002 Y-1.114 Z13.282 
N1552 X-152.002 Y-2.450 Z13.279 
N1553 X-152.002 Y-3.636 Z13.277 
N1554 X-152.002 Y-4.672 Z13.276 A1.1404 
N1555 X-152.002 Y-5.561 Z13.296 A1.2068 
N1556 X-152.002 Y-6.313 Z13.388 A1.4961 
N1557 X-152.002 Y-6.947 Z13.665 A2.3557 
N1558 X-152.002 Y-7.494 Z14.262 A4.2068 
N1559 X-152.002 Y-8.003 Z15.206 A7.1500 
N1560 X-152.002 Y-8.530 Z16.408 A10.9394 
N1561 X-152.002 Y-9.120 Z17.780 A15.3361 
N1562 X-152.002 Y-9.815 Z19.267 A20.2071 
N1563 X-152.002 Y-10.634 Z20.794 A25.3707 
N1564 X-152.002 Y-11.557 Z22.257 A30.5403 
N1565 X-152.002 Y-12.537 Z23.576 A35.4533 
N1566 X-152.002 Y-13.524 Z24.716 A39.9662 
N1567 X-152.002 Y-14.491 Z25.686 A44.0653 
N1568 X-152.002 Y-15.429 Z26.511 A47.8067 
N1569 X-152.002 Y-16.342 Z27.222 A51.2699 
N1570 X-152.002 Y-17.238 Z27.841 A54.5321 
N1571 X-152.002 Y-18.127 Z28.387 A57.6561 
N1572 X-152.002 Y-19.017 Z28.871 A60.6896 
N1573 X-152.002 Y-19.917 Z29.302 A63.6774 
N1574 X-152.002 Y-20.838 Z29.685 A66.6655 
N1575 X-152.002 Y-21.795 Z30.027 A69.7087 
N1576 X-152.002 Y-22.813 Z30.329 A72.8900 
N1577 X-152.002 Y-23.944 Z30.597 A76.3738 
N1578 X-152.002 Y-25.257 Z30.821 A80.3618 
N1579 X-152.002 Y-26.660 Z30.957 A84.5866 
N1580 X-152.002 Y-27.968 Z30.981 A88.5035 
N1581 X-152.002 Y-29.199 Z30.909 A92.1954 
N1582 X-152.002 Y-30.425 Z30.747 A95.8930 
N1583 X-152.002 Y-31.666 Z30.485 A99.6835 B0.0000 
N1584 X-152.002 Y-32.920 Z30.113 A103.5879 B0.0000 
N1585 X-152.002 Y-34.168 Z29.622 A107.5824 B0.0001 
N1586 X-152.002 Y-35.376 Z29.009 A111.6044 B0.0002 
N1587 X-152.002 Y-36.498 Z28.284 A115.5472 B0.0007 
N1588 X-152.002 Y-37.476 Z27.474 A119.2598 B0.0017 
N1589 X-152.002 Y-38.277 Z26.604 A122.6450 B0.0036 
N1590 X-152.002 Y-38.888 Z25.691 A125.6788 B0.0059 
N1591 X-152.002 Y-39.293 Z24.757 A128.3106 B0.0074 
N1592 X-152.002 Y-39.456 Z23.841 A130.4005 B0.0066 
N1593 X-152.002 Y-39.344 Z22.984 A131.8046 B0.0042 
N1594 X-152.002 Y-38.964 Z22.190 A132.5148 B0.0023 
N1595 X-152.002 Y-38.369 Z21.415 A132.7297 B0.0016 
N1596 X-152.002 Y-37.638 Z20.586 A132.7471 B0.0019 
N1597 X-152.002 Y-36.815 Z19.664 B0.0024 
N1598 X-152.002 Y-35.911 Z18.651 B0.0028 
N1599 X-152.002 Y-34.935 Z17.557 B0.0033 
N1600 X-152.002 Y-33.898 Z16.395 B0.0039 
N1601 X-152.002 Y-32.815 Z15.182 B0.0045 
N1602 X-152.002 Y-31.702 Z13.935 B0.0051 
N1603 X-152.002 Y-30.578 Z12.675 B0.0057 
N1604 X-152.002 Y-29.459 Z11.421 B0.0063 
N1605 X-152.002 Y-28.361 Z10.192 B0.0068 
N1606 X-152.002 Y-27.299 Z9.001 B0.0074 
N1607 X-152.002 Y-26.281 Z7.861 B0.0079 
N1608 X-152.002 Y-25.314 Z6.777 B0.0085 
N1609 X-152.002 Y-24.430 Z5.725 A132.8713 B0.0045 
N1610 X-152.002 Y-23.914 Z4.423 A134.3625 B-0.0507 
N1611 X-152.003 Y-23.975 Z2.567 A138.4421 B-0.2111 
N1612 X-152.005 Y-24.423 Z0.078 A145.0631 B-0.4881 
N1613 X-152.007 Y-24.821 Z-2.853 A153.1603 B-0.8405 
N1614 X-152.009 Y-24.914 Z-6.149 A162.3619 B-1.1890 
N1615 X-152.010 Y-24.407 Z-9.106 A170.5874 B-1.4203 
N1616 X-152.011 Y-23.406 Z-11.219 A176.4979 B-1.5550 
N1617 X-152.011 Y-22.143 Z-12.336 A179.6689 B-1.6198 
N1618 X-152.011 Y-20.756 Z-12.715 A180.7570 B-1.6409 
N1619 X-152.011 Y-19.273 Z-12.797 A180.9967 B-1.6459 
N1620 X-152.011 Y-17.692 Z-12.803 A181.0146 B-1.6465 
N1621 X-152.011 Y-16.014 Z-12.802 B-1.6467 
N1622 X-152.011 Y-14.250 Z-12.802 B-1.6469 
N1623 X-152.011 Y-12.417 Z-12.801 B-1.6472 
N1624 X-152.011 Y-10.539 Z-12.801 B-1.6474 
N1625 X-152.011 Y-8.644 Z-12.800 B-1.6476 
N1626 X-152.011 Y-6.761 Z-12.800 B-1.6479 
N1627 X-152.011 Y-4.922 Z-12.799 B-1.6481 
N1628 X-152.011 Y-3.156 Z-12.799 B-1.6483 
N1629 X-152.011 Y-1.490 Z-12.799 B-1.6485 
N1630 X-152.011 Y0.054 Z-12.798 B-1.6487 
N1631 X-152.011 Y1.461 Z-12.798 B-1.6489 
N1632 X-152.011 Y2.721 Z-12.798 B-1.6490 
N1633 X-152.011 Y3.829 Z-12.797 A181.0148 B-1.6492 
N1634 X-152.011 Y4.788 Z-12.805 A181.0387 B-1.6499 
N1635 X-152.012 Y5.605 Z-12.864 A181.2207 B-1.6554 
N1636 X-152.012 Y6.294 Z-13.059 A181.8231 B-1.6735 
N1637 X-152.012 Y6.877 Z-13.501 A183.1909 B-1.7142 
N1638 X-152.012 Y7.397 Z-14.271 A185.5857 B-1.7832 
N1639 X-152.013 Y7.906 Z-15.345 A188.9515 B-1.8759 
N1640 X-152.013 Y8.456 Z-16.634 A193.0437 B-1.9813 
N1641 X-152.014 Y9.094 Z-18.075 A197.7079 B-2.0901 
N1642 X-152.015 Y9.862 Z-19.622 A202.8466 B-2.1945 
N1643 X-152.015 Y10.768 Z-21.178 A208.2238 B-2.2852 
N1644 X-152.016 Y11.776 Z-22.636 A213.5231 B-2.3556 
N1645 X-152.016 Y12.832 Z-23.927 A218.5121 B-2.4040 
N1646 X-152.016 Y13.900 Z-25.041 A223.1320 B-2.4331 
N1647 X-152.016 Y14.976 Z-26.009 A227.4654 B-2.4465 
N1648 X-152.016 Y16.083 Z-26.870 A231.6645 B-2.4473 
N1649 X-152.016 Y17.264 Z-27.660 A235.9193 B-2.4378 
N1650 X-152.441 Y25.539 Z-33.259 
N1651 G00 X-154.568 Y66.914 Z-61.251 
N1652 X-173.557 Y92.310 Z-35.757 A270.8082 B-0.1656 
N1653 X-173.412 Y42.316 Z-36.462 
N1654 G01 X-173.383 Y32.317 Z-36.603 F2834 
N1655 X-173.383 Y32.328 Z-33.258 B-0.1492 
N1656 X-173.383 Y32.339 Z-29.970 B-0.1330 
N1657 X-173.383 Y32.349 Z-26.794 B-0.1174 
N1658 X-173.383 Y32.360 Z-23.778 B-0.1000 
N1659 X-173.383 Y32.369 Z-20.961 B-0.0719 
N1660 X-173.383 Y32.378 Z-18.374 B-0.0430 
N1661 X-173.383 Y32.385 Z-16.035 B-0.0221 
N1662 X-173.382 Y32.392 Z-13.955 B-0.0091 
N1663 X-173.382 Y32.401 Z-12.131 A270.8165 B-0.0027 
N1664 X-173.382 Y32.442 Z-10.554 A270.9271 B-0.0004 
N1665 X-173.382 Y32.644 Z-9.203 A271.5423 B-0.0000 
N1666 X-173.382 Y33.272 Z-8.038 A273.5093 B-0.0000 
N1667 X-173.382 Y34.383 Z-6.981 A277.0609 B-0.0006 
N1668 X-173.382 Y35.737 Z-5.957 A281.5189 B-0.0026 
N1669 X-173.382 Y37.158 Z-4.927 A286.3643 B-0.0064 
N1670 X-173.382 Y38.566 Z-3.867 A291.3590 B-0.0107 
N1671 X-173.382 Y39.902 Z-2.773 A296.3268 B-0.0136 
N1672 X-173.382 Y41.124 Z-1.654 A301.1312 B-0.0139 
N1673 X-173.382 Y42.207 Z-0.526 A305.6899 B-0.0110 
N1674 X-173.382 Y43.160 Z0.610 A310.0195 B-0.0053 
N1675 X-173.382 Y44.002 Z1.766 A314.2059 B0.0023 
N1676 X-173.382 Y44.753 Z2.967 A318.3486 B0.0098 
N1677 X-173.382 Y45.419 Z4.236 A322.5400 B0.0154 
N1678 X-173.382 Y45.997 Z5.598 A326.8632 B0.0177 
N1679 X-173.382 Y46.471 Z7.072 A331.3674 B0.0160 
N1680 X-173.382 Y46.804 Z8.647 A336.0272 B0.0112 
N1681 X-173.382 Y46.955 Z10.296 A340.7710 B0.0059 
N1682 X-173.382 Y46.884 Z11.971 A345.4909 B0.0021 
N1683 X-173.382 Y46.560 Z13.600 A350.0284 B0.0004 
N1684 X-173.382 Y45.966 Z15.095 A354.1873 B0.0000 
N1685 X-173.382 Y45.103 Z16.339 A357.6828 B0.0000 
N1686 X-173.382 Y43.992 Z17.138 A359.9610 
N1687 X-173.382 Y42.662 Z17.443 A0.8408 
N1688 X-173.382 Y41.115 Z17.503 A1.0170 
N1689 X-173.382 Y39.336 Z17.509 A1.0375 
N1690 X-173.382 Y37.320 Z17.507 A1.0378 
N1691 X-173.382 Y35.067 Z17.506 
N1692 X-173.382 Y32.590 Z17.504 
N1693 X-173.382 Y29.909 Z17.502 
N1694 X-173.382 Y27.056 Z17.501 
N1695 X-173.382 Y24.071 Z17.499 
N1696 X-173.382 Y21.000 Z17.497 
N1697 X-173.382 Y17.894 Z17.495 
N1698 X-173.382 Y14.808 Z17.493 
N1699 X-173.382 Y11.794 Z17.491 
N1700 X-173.382 Y8.899 Z17.489 
N1701 X-173.382 Y6.166 Z17.487 
N1702 X-173.382 Y3.630 Z17.485 
N1703 X-173.382 Y1.313 Z17.484 
N1704 X-173.382 Y-0.769 Z17.482 
N1705 X-173.382 Y-2.611 Z17.481 A1.0378 
N1706 X-173.382 Y-4.219 Z17.501 A1.1034 
N1707 X-173.382 Y-5.607 Z17.696 A1.7091 
N1708 X-173.382 Y-6.808 Z18.234 A3.4153 
N1709 X-173.382 Y-7.878 Z19.131 A6.3078 
N1710 X-173.382 Y-8.883 Z20.300 A10.1616 
N1711 X-173.382 Y-9.874 Z21.607 A14.5872 
N1712 X-173.382 Y-10.879 Z22.944 A19.2700 
N1713 X-173.382 Y-11.911 Z24.249 A24.0261 
N1714 X-173.382 Y-12.976 Z25.486 A28.7462 
N1715 X-173.382 Y-14.068 Z26.627 A33.3498 
N1716 X-173.382 Y-15.176 Z27.648 A37.7581 
N1717 X-173.382 Y-16.284 Z28.540 A41.9277 
N1718 X-173.382 Y-17.402 Z29.320 A45.9259 
N1719 X-173.382 Y-18.579 Z30.032 A49.9637 
N1720 X-173.382 Y-19.872 Z30.700 A54.2393 
N1721 X-173.382 Y-21.263 Z31.282 A58.6674 
N1722 X-173.382 Y-22.718 Z31.737 A63.1308 
N1723 X-173.382 Y-24.223 Z32.043 A67.5993 
N1724 X-173.382 Y-25.756 Z32.182 A72.0399 
N1725 X-173.382 Y-27.291 Z32.138 A76.4134 
N1726 X-173.382 Y-28.777 Z31.896 A80.6112 
N1727 X-173.382 Y-30.128 Z31.450 A84.4247 
N1728 X-173.382 Y-31.205 Z30.811 A87.4803 
N1729 X-173.382 Y-31.897 Z30.011 A89.4504 
N1730 X-173.382 Y-32.240 Z29.084 A90.4333 
N1731 X-173.382 Y-32.370 Z28.041 A90.8051 
N1732 X-173.382 Y-32.401 Z26.889 A90.8875 
N1733 X-173.382 Y-32.404 Z25.631 A90.8917 
N1734 X-173.382 Y-32.407 Z24.280 
N1735 X-173.382 Y-32.410 Z22.851 
N1736 X-173.382 Y-32.412 Z21.363 
N1737 X-173.382 Y-32.415 Z19.840 
N1738 X-173.382 Y-32.418 Z18.306 
N1739 X-173.382 Y-32.421 Z16.787 
N1740 X-173.382 Y-32.424 Z15.306 
N1741 X-173.382 Y-32.427 Z13.887 
N1742 X-173.382 Y-32.430 Z12.549 A90.8946 
N1743 X-173.382 Y-32.444 Z11.305 A90.9300 
N1744 X-173.382 Y-32.500 Z10.166 A91.0964 
N1745 X-173.382 Y-32.691 Z9.134 A91.6891 
N1746 X-173.382 Y-33.170 Z8.196 A93.1915 B0.0000 
N1747 X-173.382 Y-33.991 Z7.321 A95.8049 B0.0003 
N1748 X-173.382 Y-35.046 Z6.469 A99.2343 B0.0014 
N1749 X-173.382 Y-36.208 Z5.614 A103.1169 B0.0039 
N1750 X-173.382 Y-37.411 Z4.737 A107.2600 B0.0083 
N1751 X-173.382 Y-38.612 Z3.825 A111.5416 B0.0137 
N1752 X-173.382 Y-39.775 Z2.875 A115.8575 B0.0181 
N1753 X-173.382 Y-40.868 Z1.892 A120.1192 B0.0196 
N1754 X-173.382 Y-41.872 Z0.884 A124.2616 B0.0171 
N1755 X-173.382 Y-42.782 Z-0.147 A128.2765 B0.0110 
N1756 X-173.382 Y-43.608 Z-1.210 A132.2119 B0.0021 
N1757 X-173.382 Y-44.361 Z-2.321 A136.1410 B-0.0088 
N1758 X-173.383 Y-45.046 Z-3.502 A140.1362 B-0.0204 
N1759 X-173.383 Y-45.662 Z-4.773 A144.2666 B-0.0317 
N1760 X-173.383 Y-46.195 Z-6.156 A148.5906 B-0.0414 
N1761 X-173.383 Y-46.618 Z-7.656 A153.1202 B-0.0479 
N1762 X-173.383 Y-46.888 Z-9.256 A157.8016 B-0.0489 
N1763 X-173.383 Y-46.963 Z-10.919 A162.5471 B-0.0435 
N1764 X-173.383 Y-46.804 Z-12.587 A167.2252 B-0.0329 
N1765 X-173.383 Y-46.384 Z-14.180 A171.6581 B-0.0204 
N1766 X-173.382 Y-45.692 Z-15.603 A175.6329 B-0.0101 
N1767 X-173.382 Y-44.737 Z-16.712 A178.7688 B-0.0044 
N1768 X-173.382 Y-43.545 Z-17.319 A180.5135 B-0.0037 
N1769 X-173.382 Y-42.138 Z-17.499 A181.0417 B-0.0068 
N1770 X-173.382 Y-40.509 Z-17.524 A181.1267 B-0.0123 
N1771 X-173.383 Y-38.643 Z-17.522 A181.1335 B-0.0202 
N1772 X-173.383 Y-36.538 Z-17.517 B-0.0312 
N1773 X-173.383 Y-34.199 Z-17.512 B-0.0456 
N1774 X-173.383 Y-31.639 Z-17.506 B-0.0609 
N1775 X-173.383 Y-28.884 Z-17.500 B-0.0726 
N1776 X-173.383 Y-25.968 Z-17.493 B-0.0807 
N1777 X-173.383 Y-22.935 Z-17.486 B-0.0866 
N1778 X-173.383 Y-19.832 Z-17.478 B-0.0921 
N1779 X-173.383 Y-16.714 Z-17.471 B-0.0976 
N1780 X-173.383 Y-13.633 Z-17.464 B-0.1030 
N1781 X-173.383 Y-10.642 Z-17.457 B-0.1083 
N1782 X-173.383 Y-7.788 Z-17.450 B-0.1133 
N1783 X-173.383 Y-5.110 Z-17.444 B-0.1180 
N1784 X-173.383 Y-2.639 Z-17.438 B-0.1224 
N1785 X-173.383 Y-0.398 Z-17.433 B-0.1263 
N1786 X-173.383 Y1.604 Z-17.429 B-0.1299 
N1787 X-173.383 Y3.364 Z-17.425 A181.1361 B-0.1330 
N1788 X-173.383 Y4.890 Z-17.452 A181.2306 B-0.1363 
N1789 X-173.383 Y6.199 Z-17.617 A181.7536 B-0.1427 
N1790 X-173.383 Y7.324 Z-18.117 A183.3345 B-0.1576 
N1791 X-173.383 Y8.330 Z-19.076 A186.4009 B-0.1863 
N1792 X-173.384 Y9.294 Z-20.348 A190.5562 B-0.2299 
N1793 X-173.384 Y10.261 Z-21.737 A195.2303 B-0.2862 
N1794 X-173.384 Y11.261 Z-23.146 A200.1372 B-0.3516 
N1795 X-173.385 Y12.304 Z-24.515 A205.1065 B-0.4217 
N1796 X-173.385 Y13.388 Z-25.796 A209.9973 B-0.4931 
N1797 X-173.386 Y14.496 Z-26.953 A214.6922 B-0.5623 
N1798 X-173.386 Y15.610 Z-27.968 A219.1202 B-0.6253 
N1799 X-173.386 Y16.728 Z-28.853 A223.3124 B-0.6757 
N1800 X-173.386 Y17.883 Z-29.647 A227.4364 B-0.7042 
N1801 X-173.386 Y19.128 Z-30.384 A231.7005 B-0.7005 
N1802 X-173.386 Y20.479 Z-31.053 A236.1439 B-0.6597 
N1803 X-173.386 Y21.893 Z-31.601 A240.6066 B-0.5900 
N1804 X-173.385 Y23.360 Z-32.011 A245.0664 B-0.5072 
N1805 X-173.385 Y24.876 Z-32.270 A249.5447 B-0.4235 
N1806 X-173.384 Y26.415 Z-32.358 A253.9931 B-0.3459 
N1807 X-173.384 Y27.935 Z-32.255 A258.3243 B-0.2781 
N1808 X-173.384 Y29.373 Z-31.953 A262.3974 B-0.2223 
N1809 X-173.383 Y30.637 Z-31.451 A265.9875 B-0.1796 
N1810 X-173.383 Y31.594 Z-30.770 A268.7285 B-0.1499 
N1811 X-173.383 Y32.146 Z-29.945 A270.3262 B-0.1316 
N1812 X-173.383 Y32.367 Z-29.000 A270.9750 B-0.1209 
N1813 X-173.383 Y32.429 Z-27.945 A271.1636 B-0.1137 
N1814 X-173.383 Y32.437 Z-26.780 A271.2001 B-0.1073 
N1815 X-173.383 Y32.434 Z-25.512 A271.2037 B-0.1005 
N1816 X-173.383 Y32.432 Z-24.153 A271.2130 B-0.0927 
N1817 X-173.383 Y32.433 Z-22.720 A271.2344 B-0.0828 
N1818 X-173.383 Y32.438 Z-21.233 A271.2677 B-0.0709 
N1819 X-173.383 Y32.444 Z-19.716 A271.3075 B-0.0581 
N1820 X-173.383 Y32.448 Z-18.193 A271.3459 B-0.0462 
N1821 X-173.383 Y32.448 Z-16.689 A271.3763 B-0.0364 
N1822 X-173.383 Y32.445 Z-15.229 A271.3945 B-0.0285 
N1823 X-173.383 Y32.437 Z-13.835 A271.4011 B-0.0220 
N1824 X-173.383 Y32.431 Z-12.523 A271.4093 B-0.0167 
N1825 X-173.382 Y32.444 Z-11.308 A271.4784 B-0.0124 
N1826 X-173.382 Y32.526 Z-10.196 A271.7568 B-0.0093 
N1827 X-173.382 Y32.776 Z-9.187 A272.5655 B-0.0077 
N1828 X-173.382 Y33.328 Z-8.263 A274.3318 B-0.0081 
N1829 X-173.382 Y34.205 Z-7.388 A277.1654 B-0.0106 
N1830 X-173.382 Y35.291 Z-6.524 A280.7499 B-0.0147 
N1831 X-173.383 Y36.473 Z-5.646 A284.7541 B-0.0195 
N1832 X-173.383 Y37.683 Z-4.739 A288.9894 B-0.0238 
N1833 X-173.383 Y38.875 Z-3.796 A293.3197 B-0.0263 
N1834 X-173.383 Y40.012 Z-2.817 A297.6400 B-0.0259 
N1835 X-173.383 Y41.067 Z-1.809 A301.8691 B-0.0223 
N1836 X-173.382 Y42.026 Z-0.781 A305.9595 B-0.0158 
N1837 X-173.382 Y42.890 Z0.268 A309.9247 B-0.0074 
N1838 X-173.382 Y43.673 Z1.352 A313.8283 B0.0021 
N1839 X-173.382 Y44.385 Z2.490 A317.7495 B0.0117 
N1840 X-173.382 Y45.030 Z3.703 A321.7621 B0.0203 
N1841 X-173.382 Y45.601 Z5.015 A325.9344 B0.0264 
N1842 X-173.382 Y46.082 Z6.443 A330.3151 B0.0281 
N1843 X-173.382 Y46.437 Z7.984 A334.8891 B0.0247 
N1844 X-173.382 Y46.623 Z9.611 A339.5853 B0.0176 
N1845 X-173.382 Y46.599 Z11.282 A344.3015 B0.0099 
N1846 X-173.382 Y46.328 Z12.928 A348.8857 B0.0041 
N1847 X-173.382 Y45.790 Z14.459 A353.1337 B0.0011 
N1848 X-173.382 Y44.982 Z15.765 A356.7791 B0.0002 
N1849 X-173.382 Y43.920 Z16.665 A359.3221 B0.0000 
N1850 X-173.382 Y42.634 Z17.060 A0.4379 
N1851 X-173.382 Y41.133 Z17.156 A0.6969 
N1852 X-173.382 Y39.406 Z17.177 A0.7320 
N1853 X-173.382 Y37.445 Z17.186 A0.7329 
N1854 X-173.382 Y35.250 Z17.196 
N1855 X-173.382 Y32.831 Z17.209 A0.7378 
N1856 X-173.382 Y30.206 Z17.238 A0.7927 
N1857 X-173.382 Y27.405 Z17.290 A0.9246 
N1858 X-173.382 Y24.465 Z17.345 A1.0940 
N1859 X-173.382 Y21.433 Z17.365 A1.1760 
N1860 X-173.382 Y18.358 Z17.358 A1.1839 
N1861 X-173.382 Y15.293 Z17.348 
N1862 X-173.382 Y12.288 Z17.339 
N1863 X-173.382 Y9.394 Z17.329 
N1864 X-173.382 Y6.653 Z17.320 
N1865 X-173.382 Y4.099 Z17.312 
N1866 X-173.382 Y1.760 Z17.305 
N1867 X-173.382 Y-0.348 Z17.298 
N1868 X-173.382 Y-2.220 Z17.292 
N1869 X-173.382 Y-3.858 Z17.296 A1.2124 
N1870 X-173.382 Y-5.273 Z17.419 A1.6062 
N1871 X-173.382 Y-6.494 Z17.839 A2.9407 
N1872 X-173.382 Y-7.568 Z18.621 A5.4561 
N1873 X-173.382 Y-8.562 Z19.719 A9.0494 
N1874 X-173.382 Y-9.535 Z21.005 A13.3600 
N1875 X-173.382 Y-10.520 Z22.353 A18.0180 
N1876 X-173.382 Y-11.532 Z23.679 A22.7779 
N1877 X-173.382 Y-12.575 Z24.940 A27.5081 
N1878 X-173.382 Y-13.646 Z26.111 A32.1332 
N1879 X-173.382 Y-14.734 Z27.167 A36.5752 
N1880 X-173.382 Y-15.823 Z28.094 A40.7724 
N1881 X-173.382 Y-16.909 Z28.899 A44.7459 
N1882 X-173.382 Y-18.025 Z29.619 A48.6496 
N1883 X-173.382 Y-19.224 Z30.288 A52.6906 
N1884 X-173.382 Y-20.523 Z30.897 A56.9140 
N1885 X-173.382 Y-21.892 Z31.403 A61.2030 
N1886 X-173.382 Y-23.320 Z31.785 A65.5317 
N1887 X-173.382 Y-24.792 Z32.024 A69.8721 
N1888 X-173.382 Y-26.301 Z32.107 A74.2376 
N1889 X-173.382 Y-27.816 Z32.014 A78.5651 
N1890 X-173.382 Y-29.270 Z31.729 A82.7056 
N1891 X-173.382 Y-30.569 Z31.250 A86.4205 
N1892 X-173.382 Y-31.582 Z30.595 A89.3509 
N1893 X-173.382 Y-32.228 Z29.800 A91.2634 
N1894 X-173.382 Y-32.549 Z28.893 A92.2681 
N1895 X-173.382 Y-32.652 Z27.883 A92.6567 
N1896 X-173.382 Y-32.645 Z26.773 A92.7342 
N1897 X-173.382 Y-32.610 Z25.566 A92.7377 
N1898 X-173.382 Y-32.572 Z24.271 A92.7423 
N1899 X-173.382 Y-32.535 Z22.903 A92.7580 
N1900 X-173.382 Y-32.503 Z21.482 A92.7913 B0.0001 
N1901 X-173.382 Y-32.471 Z20.030 A92.8356 B0.0008 
N1902 X-173.382 Y-32.439 Z18.569 A92.8806 B0.0032 
N1903 X-173.382 Y-32.404 Z17.125 A92.9198 B0.0076 
N1904 X-173.382 Y-32.365 Z15.719 A92.9457 B0.0136 
N1905 X-173.382 Y-32.323 Z14.373 A92.9556 B0.0206 
N1906 X-173.382 Y-32.283 Z13.104 A92.9665 B0.0282 
N1907 X-173.382 Y-32.273 Z11.923 A93.0594 B0.0361 
N1908 X-173.382 Y-32.349 Z10.836 A93.4145 B0.0446 
N1909 X-173.382 Y-32.608 Z9.840 A94.3357 B0.0536 
N1910 X-173.382 Y-33.158 Z8.912 A96.1836 B0.0619 
N1911 X-173.382 Y-34.019 Z8.016 A99.0531 B0.0678 
N1912 X-173.382 Y-35.096 Z7.117 A102.6965 B0.0702 
N1913 X-173.382 Y-36.285 Z6.188 A106.8208 B0.0690 
N1914 X-173.382 Y-37.500 Z5.219 A111.1860 B0.0645 
N1915 X-173.382 Y-38.676 Z4.211 A115.5974 B0.0571 
N1916 X-173.382 Y-39.771 Z3.176 A119.9301 B0.0473 
N1917 X-173.382 Y-40.764 Z2.124 A124.1072 B0.0352 
N1918 X-173.382 Y-41.649 Z1.063 A128.1105 B0.0209 
N1919 X-173.382 Y-42.439 Z-0.017 A131.9921 B0.0046 
N1920 X-173.382 Y-43.152 Z-1.133 A135.8381 B-0.0135 
N1921 X-173.383 Y-43.796 Z-2.309 A139.7332 B-0.0327 
N1922 X-173.383 Y-44.373 Z-3.569 A143.7556 B-0.0522 
N1923 X-173.383 Y-44.871 Z-4.937 A147.9725 B-0.0713 
N1924 X-173.383 Y-45.265 Z-6.422 A152.4036 B-0.0892 
N1925 X-173.383 Y-45.514 Z-8.010 A157.0088 B-0.1053 
N1926 X-173.383 Y-45.575 Z-9.671 A161.7097 B-0.1196 
N1927 X-173.383 Y-45.406 Z-11.345 A166.3693 B-0.1319 
N1928 X-173.383 Y-44.976 Z-12.940 A170.7684 B-0.1426 
N1929 X-173.383 Y-44.272 Z-14.333 A174.6019 B-0.1526 
N1930 X-173.383 Y-43.304 Z-15.363 A177.4374 B-0.1626 
N1931 X-173.383 Y-42.103 Z-15.918 A178.9314 B-0.1732 
N1932 X-173.383 Y-40.687 Z-16.129 A179.4334 B-0.1852 
N1933 X-173.384 Y-39.052 Z-16.205 A179.5311 B-0.1992 
N1934 X-173.384 Y-37.192 Z-16.261 A179.5592 B-0.2153 
N1935 X-173.384 Y-35.106 Z-16.361 A179.7065 B-0.2353 
N1936 X-173.384 Y-32.799 Z-16.504 A179.9960 B-0.2582 
N1937 X-173.384 Y-30.287 Z-16.662 A180.3633 B-0.2716 
N1938 X-173.384 Y-27.594 Z-16.823 A180.7862 B-0.2724 
N1939 X-173.384 Y-24.754 Z-16.955 A181.1799 B-0.2738 
N1940 X-173.384 Y-21.812 Z-16.984 A181.3093 B-0.2782 
N1941 X-173.384 Y-18.813 Z-16.970 A181.3167 B-0.2834 
N1942 X-173.384 Y-15.808 Z-16.954 A181.3167 B-0.2886 
N1943 X-173.384 Y-12.847 Z-16.937 B-0.2938 
N1944 X-173.384 Y-9.978 Z-16.921 B-0.2988 
N1945 X-173.384 Y-7.246 Z-16.906 B-0.3036 
N1946 X-173.384 Y-4.688 Z-16.892 B-0.3080 
N1947 X-173.384 Y-2.332 Z-16.879 B-0.3122 
N1948 X-173.384 Y-0.197 Z-16.867 B-0.3159 
N1949 X-173.384 Y1.707 Z-16.857 B-0.3192 
N1950 X-173.384 Y3.379 Z-16.849 A181.3200 B-0.3221 
N1951 X-173.384 Y4.828 Z-16.868 A181.4050 B-0.3255 
N1952 X-173.384 Y6.069 Z-17.011 A181.8720 B-0.3331 
N1953 X-173.384 Y7.136 Z-17.486 A183.3788 B-0.3519 
N1954 X-173.385 Y8.091 Z-18.426 A186.3787 B-0.3875 
N1955 X-173.385 Y9.011 Z-19.699 A190.5163 B-0.4396 
N1956 X-173.385 Y9.946 Z-21.112 A195.2408 B-0.5038 
N1957 X-173.386 Y10.919 Z-22.537 A200.1722 B-0.5750 
N1958 X-173.386 Y11.930 Z-23.898 A205.0866 B-0.6485 
N1959 X-173.387 Y12.977 Z-25.166 A209.8887 B-0.7207 
N1960 X-173.387 Y14.050 Z-26.319 A214.5164 B-0.7887 
N1961 X-173.387 Y15.136 Z-27.343 A218.9140 B-0.8492 
N1962 X-173.388 Y16.230 Z-28.245 A223.0965 B-0.8974 
N1963 X-173.388 Y17.354 Z-29.053 A227.1846 B-0.9264 
N1964 X-173.388 Y18.544 Z-29.794 A231.3265 B-0.9286 
N1965 X-173.388 Y19.809 Z-30.458 A235.5517 B-0.8986 
N1966 X-173.387 Y21.121 Z-31.013 A239.7540 B-0.8395 
N1967 X-173.387 Y22.471 Z-31.447 A243.9265 B-0.7619 
N1968 X-173.386 Y23.875 Z-31.760 A248.1406 B-0.6770 
N1969 X-173.386 Y25.331 Z-31.936 A252.4153 B-0.5928 
N1970 X-173.385 Y26.830 Z-31.959 A256.7488 B-0.5138 
N1971 X-173.385 Y28.320 Z-31.807 A261.0268 B-0.4432 
N1972 X-173.385 Y29.717 Z-31.465 A265.0371 B-0.3834 
N1973 X-173.384 Y30.911 Z-30.941 A268.4961 B-0.3365 
N1974 X-173.384 Y31.778 Z-30.262 A271.0568 B-0.3035 
N1975 X-173.384 Y32.276 Z-29.467 A272.5874 B-0.2830 
N1976 X-173.384 Y32.485 Z-28.573 A273.3087 B-0.2712 
N1977 X-173.384 Y32.528 Z-27.584 A273.5651 B-0.2636 
N1978 X-173.384 Y32.509 Z-26.498 A273.6569 B-0.2571 
N1979 X-173.384 Y32.488 Z-25.318 A273.7625 B-0.2500 
N1980 X-173.384 Y32.470 Z-24.057 A273.8931 B-0.2423 
N1981 X-173.384 Y32.437 Z-22.729 A273.9999 B-0.2343 
N1982 X-173.384 Y32.383 Z-21.356 A274.0569 B-0.2264 
N1983 X-173.384 Y32.321 Z-19.957 A274.0963 B-0.2183 
N1984 X-173.384 Y32.259 Z-18.555 A274.1382 B-0.2102 
N1985 X-173.384 Y32.194 Z-17.172 A274.1736 B-0.2020 
N1986 X-173.384 Y32.126 Z-15.830 A274.1941 B-0.1942 
N1987 X-173.383 Y32.057 Z-14.548 A274.2009 B-0.1867 
N1988 X-173.383 Y31.999 Z-13.341 A274.2302 B-0.1796 
N1989 X-173.383 Y32.001 Z-12.216 A274.4295 B-0.1724 
N1990 X-173.383 Y32.142 Z-11.175 A275.0524 B-0.1646 
N1991 X-173.383 Y32.512 Z-10.205 A276.3939 B-0.1557 
N1992 X-173.383 Y33.178 Z-9.278 A278.6903 B-0.1447 
N1993 X-173.383 Y34.120 Z-8.356 A281.9246 B-0.1317 
N1994 X-173.383 Y35.251 Z-7.404 A285.8647 B-0.1166 
N1995 X-173.383 Y36.466 Z-6.403 A290.2290 B-0.0998 
N1996 X-173.383 Y37.667 Z-5.355 A294.7337 B-0.0819 
N1997 X-173.383 Y38.788 Z-4.276 A299.1731 B-0.0633 
N1998 X-173.383 Y39.797 Z-3.183 A303.4400 B-0.0446 
N1999 X-173.383 Y40.684 Z-2.088 A307.4921 B-0.0261 
N2000 X-173.382 Y41.462 Z-0.988 A311.3731 B-0.0077 
N2001 X-173.382 Y42.154 Z0.137 A315.1779 B0.0103 
N2002 X-173.382 Y42.772 Z1.311 A319.0026 B0.0275 
N2003 X-173.382 Y43.321 Z2.561 A322.9336 B0.0433 
N2004 X-173.382 Y43.794 Z3.912 A327.0468 B0.0569 
N2005 X-173.382 Y44.168 Z5.376 A331.3699 B0.0680 
N2006 X-173.382 Y44.405 Z6.945 A335.8779 B0.0762 
N2007 X-173.382 Y44.462 Z8.594 A340.5067 B0.0815 
N2008 X-173.382 Y44.296 Z10.264 A345.1166 B0.0833 
N2009 X-173.382 Y43.870 Z11.854 A349.4488 B0.0804 
N2010 X-173.382 Y43.168 Z13.220 A353.1385 B0.0714 
N2011 X-173.382 Y42.202 Z14.202 A355.7440 B0.0565 
N2012 X-173.382 Y41.001 Z14.739 A357.0680 B0.0388 
N2013 X-173.382 Y39.585 Z14.979 A357.5146 B0.0221 
N2014 X-173.382 Y37.957 Z15.101 A357.5886 B0.0087 
N2015 X-173.382 Y36.114 Z15.224 A357.6298 B0.0015 
N2016 X-173.382 Y34.059 Z15.405 A357.8177 B0.0000 
N2017 X-173.382 Y31.798 Z15.665 A358.2417 B0.0000 
N2018 X-173.382 Y29.345 Z16.025 A359.0146 
N2019 X-173.382 Y26.721 Z16.403 A359.9376 
N2020 X-173.382 Y23.956 Z16.716 A0.7872 
N2021 X-173.382 Y21.095 Z16.842 A1.1683 
N2022 X-173.382 Y18.185 Z16.843 A1.2026 
N2023 X-173.382 Y15.272 Z16.833 
N2024 X-173.382 Y12.403 Z16.823 
N2025 X-173.382 Y9.625 Z16.813 
N2026 X-173.382 Y6.979 Z16.803 
N2027 X-173.382 Y4.498 Z16.795 
N2028 X-173.382 Y2.211 Z16.787 
N2029 X-173.382 Y0.136 Z16.779 
N2030 X-173.382 Y-1.719 Z16.773 
N2031 X-173.382 Y-3.352 Z16.769 A1.2096 
N2032 X-173.382 Y-4.771 Z16.823 A1.3902 
N2033 X-173.382 Y-5.993 Z17.076 A2.1952 
N2034 X-173.382 Y-7.054 Z17.647 A4.0169 
N2035 X-173.382 Y-8.010 Z18.570 A6.9968 
N2036 X-173.382 Y-8.925 Z19.764 A10.9204 
N2037 X-173.382 Y-9.847 Z21.093 A15.3965 
N2038 X-173.382 Y-10.796 Z22.441 A20.0875 
N2039 X-173.382 Y-11.778 Z23.743 A24.7999 
N2040 X-173.382 Y-12.794 Z24.972 A29.4512 
N2041 X-173.382 Y-13.839 Z26.102 A33.9668 
N2042 X-173.382 Y-14.892 Z27.109 A38.2568 
N2043 X-173.382 Y-15.938 Z27.986 A42.2787 
N2044 X-173.382 Y-16.981 Z28.752 A46.0946 
N2045 X-173.382 Y-18.053 Z29.440 A49.8557 
N2046 X-173.382 Y-19.193 Z30.076 A53.7098 
N2047 X-173.382 Y-20.411 Z30.649 A57.6863 
N2048 X-173.382 Y-21.699 Z31.138 A61.7504 
N2049 X-173.382 Y-23.050 Z31.525 A65.8878 
N2050 X-173.382 Y-24.450 Z31.789 A70.0641 
N2051 X-173.382 Y-25.910 Z31.921 A74.3385 
N2052 X-173.382 Y-27.412 Z31.902 A78.6892 
N2053 X-173.382 Y-28.901 Z31.708 A82.9828 
N2054 X-173.382 Y-30.292 Z31.329 A87.0182 
N2055 X-173.382 Y-31.474 Z30.777 A90.4984 
N2056 X-173.382 Y-32.330 Z30.084 A93.1012 
N2057 X-173.382 Y-32.836 Z29.287 A94.7400 
N2058 X-173.382 Y-33.045 Z28.406 A95.5607 B0.0000 
N2059 X-173.382 Y-33.053 Z27.442 A95.8227 B0.0003 
N2060 X-173.382 Y-32.975 Z26.390 A95.8557 B0.0016 
N2061 X-173.382 Y-32.882 Z25.249 A95.8678 B0.0056 
N2062 X-173.382 Y-32.788 Z24.030 A95.9001 B0.0144 
N2063 X-173.382 Y-32.694 Z22.748 A95.9466 B0.0289 
N2064 X-173.382 Y-32.595 Z21.420 A95.9970 B0.0483 
N2065 X-173.382 Y-32.494 Z20.068 A96.0488 B0.0679 
N2066 X-173.382 Y-32.390 Z18.714 A96.0999 B0.0832 
N2067 X-173.382 Y-32.285 Z17.379 A96.1430 B0.0947 
N2068 X-173.382 Y-32.176 Z16.084 A96.1674 B0.1047 
N2069 X-173.382 Y-32.067 Z14.846 A96.1753 B0.1140 
N2070 X-173.382 Y-31.977 Z13.679 A96.2244 B0.1226 
N2071 X-173.382 Y-31.970 Z12.587 A96.5076 B0.1300 
N2072 X-173.382 Y-32.136 Z11.563 A97.3150 B0.1356 
N2073 X-173.382 Y-32.565 Z10.589 A98.9511 B0.1383 
N2074 X-173.382 Y-33.303 Z9.630 A101.5948 B0.1370 
N2075 X-173.382 Y-34.296 Z8.649 A105.1305 B0.1313 
N2076 X-173.382 Y-35.439 Z7.621 A109.2817 B0.1209 
N2077 X-173.382 Y-36.624 Z6.538 A113.7500 B0.1062 
N2078 X-173.382 Y-37.761 Z5.413 A118.2650 B0.0877 
N2079 X-173.382 Y-38.796 Z4.268 A122.6585 B0.0662 
N2080 X-173.382 Y-39.706 Z3.121 A126.8418 B0.0422 
N2081 X-173.382 Y-40.495 Z1.976 A130.8165 B0.0158 
N2082 X-173.382 Y-41.182 Z0.820 A134.6639 B-0.0126 
N2083 X-173.383 Y-41.785 Z-0.371 A138.4796 B-0.0428 
N2084 X-173.383 Y-42.311 Z-1.620 A142.3526 B-0.0739 
N2085 X-173.383 Y-42.758 Z-2.955 A146.3686 B-0.1055 
N2086 X-173.383 Y-43.110 Z-4.394 A150.5762 B-0.1372 
N2087 X-173.383 Y-43.336 Z-5.941 A154.9878 B-0.1692 
N2088 X-173.384 Y-43.396 Z-7.580 A159.5635 B-0.2011 
N2089 X-173.384 Y-43.242 Z-9.255 A164.1621 B-0.2325 
N2090 X-173.384 Y-42.830 Z-10.850 A168.4814 B-0.2623 
N2091 X-173.384 Y-42.141 Z-12.206 A172.1001 B-0.2895 
N2092 X-173.384 Y-41.187 Z-13.163 A174.5721 B-0.3132 
N2093 X-173.384 Y-40.000 Z-13.694 A175.8014 B-0.3334 
N2094 X-173.384 Y-38.600 Z-13.951 A176.2096 B-0.3524 
N2095 X-173.385 Y-36.997 Z-14.136 A176.3648 B-0.3731 
N2096 X-173.385 Y-35.191 Z-14.398 A176.7254 B-0.4000 
N2097 X-173.385 Y-33.183 Z-14.776 A177.4450 B-0.4351 
N2098 X-173.385 Y-30.974 Z-15.208 A178.3803 B-0.4650 
N2099 X-173.385 Y-28.574 Z-15.646 A179.4309 B-0.4714 
N2100 X-173.385 Y-26.005 Z-16.049 A180.5008 B-0.4682 
N2101 X-173.385 Y-23.304 Z-16.282 A181.1862 B-0.4710 
N2102 X-173.385 Y-20.513 Z-16.310 A181.3116 B-0.4756 
N2103 X-173.385 Y-17.676 Z-16.296 A181.3165 B-0.4805 
N2104 X-173.385 Y-14.836 Z-16.281 B-0.4854 
N2105 X-173.385 Y-12.040 Z-16.265 B-0.4902 
N2106 X-173.385 Y-9.333 Z-16.250 B-0.4949 
N2107 X-173.385 Y-6.755 Z-16.236 B-0.4993 
N2108 X-173.385 Y-4.339 Z-16.223 B-0.5035 
N2109 X-173.385 Y-2.112 Z-16.210 B-0.5073 
N2110 X-173.385 Y-0.092 Z-16.199 B-0.5108 
N2111 X-173.385 Y1.711 Z-16.189 A181.3165 B-0.5139 
N2112 X-173.385 Y3.298 Z-16.182 A181.3196 B-0.5167 
N2113 X-173.385 Y4.674 Z-16.196 A181.3862 B-0.5200 
N2114 X-173.385 Y5.854 Z-16.313 A181.7715 B-0.5277 
N2115 X-173.386 Y6.867 Z-16.740 A183.1217 B-0.5482 
N2116 X-173.386 Y7.770 Z-17.620 A185.9162 B-0.5882 
N2117 X-173.386 Y8.634 Z-18.839 A189.8514 B-0.6459 
