; PROGRAM NAME: B01143020
; ORDER       : B011430
; OPER. NAME  : Spiral Rough Airfoil:109
; OPER. DESCR.: spiral roughing airfoil/platformy i pioro pwk
; OPER. TYPE  : rouAirfoil
; GEO. OPTION : 3
; MACHINE     : HSTM_500_SIM840D_Py
;             : HSTM500 - HAMUEL: 5-axis milling machine - SIM840D Traori PP_Script
; CONTROL     : SINUMERIK 840D
; created:   2022-10-26 16:27:12.617542
;-------DODATKOWE DANE-------------------
; PROGRAMISTA : Zbigniew Papierowski
; PARTID      : 135T006774P1021_-
;  ap         : 2.0
;  ae         : 10.0
;  lean_angle : 1.0
;  airf_offset: 0.7
;----------------------------------------
;RAPORT("TB011430","Spiral Rough Airfoil:109")
N10 TRAFOOF
N11 D0
N12 G90 G94
N13 G0 G53 D0 Z550 B0
N14 STOPRE
M9 ; chlodziwo wyl
; --- Spiral Rough Airfoil:109 - spiral roughing airfoil/platformy i pioro pwk ---
N16 ;ToolChange : concat=None ,current_tdmid=None, PP.tdmId=940670
N17 TRAFOOF
N18 G0 G53 D0 X-200 Y150 Z550 B0
N19 T="7740670"
;RAPORT("TB011430","ToolChangeStart 7740670")
N20 M6
;RAPORT("TB011430","ToolChangeEnd")
N21 STOPRE
N22 MSG(" TLID=940670 D=20.0 R=3.1 Ang=0.0 Len=140.0 ")
N23 ; (Preloading tool)
N24 T="7740626"
N25 S4138 M03
N26 STOPRE
N27 CYCLE832(0.1,3,1)
N28 G0 G53 A0.9470 B0.0000
N29 TRAORI
N30 G54 D1
N31 D1 
N32 TRANS  X=R4
;shiftX 0.0
;pointsCnt 2222
N33 ;SPIRALA WYK BANDAZA
N34 X-298.969 Y23.210 Z72.381 A0.9470 
N35 M348 ; chlodziwo mgla
N36 X-298.969 Y24.037 Z22.388 
N37 G01 X-298.969 Y23.544 Z19.298 F2482 
N38 X-298.969 Y22.121 Z16.512 
N39 X-298.969 Y19.907 Z14.301 
N40 X-298.969 Y17.118 Z12.884 
N41 X-298.969 Y14.027 Z12.397 
N42 X-298.927 Y13.773 Z12.398 A0.9530 
N43 X-298.875 Y13.451 Z12.399 A0.9630 
N44 X-298.810 Y13.059 Z12.401 A0.9772 
N45 X-298.732 Y12.579 Z12.404 A0.9987 
N46 X-298.635 Y11.986 Z12.408 A1.0298 
N47 X-298.519 Y11.280 Z12.412 A1.0627 
N48 X-298.381 Y10.440 Z12.410 A1.0554 
N49 X-298.219 Y9.458 Z12.408 A1.0345 
N50 X-298.033 Y8.333 Z12.409 
N51 X-297.824 Y7.058 Z12.409 
N52 X-297.591 Y5.641 Z12.410 A1.0355 
N53 X-297.336 Y4.094 Z12.411 A1.0358 
N54 X-297.063 Y2.433 Z12.412 A1.0354 
N55 X-296.774 Y0.680 Z12.413 A1.0349 
N56 X-296.475 Y-1.137 Z12.414 A1.0347 
N57 X-296.171 Y-2.988 Z12.415 A1.0350 
N58 X-295.866 Y-4.840 Z12.416 A1.0367 
N59 X-295.567 Y-6.661 Z12.417 A1.0409 
N60 X-295.277 Y-8.421 Z12.419 A1.0490 
N61 X-295.003 Y-10.091 Z12.421 A1.0612 
N62 X-294.746 Y-11.650 Z12.423 A1.0743 
N63 X-294.511 Y-13.078 Z12.425 A1.0792 
N64 X-294.299 Y-14.366 Z12.425 A1.0672 
N65 X-294.111 Y-15.507 Z12.423 A1.0345 
N66 X-293.948 Y-16.501 Z12.426 
N67 X-293.808 Y-17.357 Z12.428 
N68 X-293.693 Y-18.083 Z12.457 A1.2728 
N69 X-293.605 Y-18.684 Z12.524 A1.8603 
N70 X-293.542 Y-19.183 Z12.644 A2.9337 
N71 X-293.503 Y-19.594 Z12.824 A4.5706 
N72 X-293.487 Y-19.935 Z13.070 A6.8219 
N73 X-293.490 Y-20.235 Z13.391 A9.7560 
N74 X-293.508 Y-20.526 Z13.796 A13.4684 
N75 X-293.532 Y-20.803 Z14.229 A17.4960 
N76 X-293.558 Y-21.096 Z14.687 A21.8403 
N77 X-293.579 Y-21.370 Z15.091 A25.7892 
N78 X-293.596 Y-21.665 Z15.493 A29.8439 
N79 X-293.607 Y-21.964 Z15.864 A33.7277 
N80 X-293.612 Y-22.297 Z16.236 A37.8087 
N81 X-293.612 Y-22.555 Z16.496 A40.8071 
N82 X-293.607 Y-22.847 Z16.763 A44.0501 
N83 X-293.597 Y-23.176 Z17.034 A47.5482 
N84 X-293.583 Y-23.478 Z17.258 A50.6313 
N85 X-293.569 Y-23.738 Z17.431 A53.1936 
N86 X-293.551 Y-24.014 Z17.600 A55.8502 
N87 X-293.529 Y-24.307 Z17.761 A58.5945 
N88 X-293.502 Y-24.614 Z17.911 A61.4054 
N89 X-293.472 Y-24.934 Z18.049 A64.2635 
N90 X-293.440 Y-25.240 Z18.164 A66.9455 
N91 X-293.406 Y-25.548 Z18.263 A69.6033 
N92 X-293.368 Y-25.859 Z18.348 A72.2506 
N93 X-293.328 Y-26.171 Z18.418 A74.8741 
N94 X-293.286 Y-26.481 Z18.472 A77.4582 
N95 X-293.242 Y-26.786 Z18.511 A79.9858 
N96 X-293.187 Y-27.151 Z18.539 A82.9928 
N97 X-293.127 Y-27.523 Z18.546 A86.0403 
N98 X-293.067 Y-27.874 Z18.533 A88.9248 
N99 X-293.007 Y-28.206 Z18.504 A91.6556 
N100 X-292.946 Y-28.530 Z18.457 A94.3389 
N101 X-292.852 Y-29.003 Z18.358 A98.3000 
N102 X-292.765 Y-29.417 Z18.238 A101.8224 
N103 X-292.676 Y-29.811 Z18.089 A105.2562 
N104 X-292.565 Y-30.269 Z17.869 A109.3963 
N105 X-292.457 Y-30.675 Z17.620 A113.2414 
N106 X-292.350 Y-31.042 Z17.331 A116.9764 
N107 X-292.241 Y-31.370 Z16.993 A120.6749 
N108 X-292.137 Y-31.632 Z16.616 A124.1339 
N109 X-292.048 Y-31.798 Z16.237 A127.0361 
N110 X-291.972 Y-31.868 Z15.837 A129.4974 
N111 X-291.913 Y-31.824 Z15.430 A131.3546 
N112 X-291.873 Y-31.669 Z15.025 A132.5820 
N113 X-291.847 Y-31.410 Z14.603 A133.3214 
N114 X-291.831 Y-31.055 Z14.145 A133.7186 
N115 X-291.821 Y-30.615 Z13.638 A133.9016 
N116 X-291.814 Y-30.098 Z13.069 A133.9706 
N117 X-291.808 Y-29.508 Z12.434 A133.9846 
N118 X-291.802 Y-28.852 Z11.730 A133.9775 
N119 X-291.795 Y-28.136 Z10.962 A133.9681 
N120 X-291.788 Y-27.369 Z10.137 A133.9656 
N121 X-291.780 Y-26.561 Z9.267 A133.9709 
N122 X-291.771 Y-25.723 Z8.363 A133.9801 
N123 X-291.762 Y-24.869 Z7.442 A133.9849 
N124 X-291.754 Y-24.011 Z6.518 A133.9824 
N125 X-291.745 Y-23.164 Z5.606 A133.9695 
N126 X-291.737 Y-22.341 Z4.718 A133.9637 
N127 X-291.728 Y-21.552 Z3.865 
N128 X-291.720 Y-20.802 Z3.054 
N129 X-291.707 Y-20.117 Z2.279 A134.1829 
N130 X-291.685 Y-19.511 Z1.528 A134.8012 
N131 X-291.647 Y-19.003 Z0.780 A136.1099 
N132 X-291.588 Y-18.600 Z0.008 A138.3924 
N133 X-291.507 Y-18.290 Z-0.811 A141.8006 
N134 X-291.408 Y-18.034 Z-1.678 A146.2334 
N135 X-291.302 Y-17.779 Z-2.589 A151.4657 
N136 X-291.200 Y-17.476 Z-3.523 A157.2237 
N137 X-291.118 Y-17.077 Z-4.438 A163.1078 
N138 X-291.067 Y-16.553 Z-5.279 A168.6849 
N139 X-291.062 Y-15.892 Z-5.985 A173.4893 
N140 X-291.109 Y-15.102 Z-6.496 A177.0409 
N141 X-291.208 Y-14.198 Z-6.805 A179.2353 
N142 X-291.349 Y-13.184 Z-6.962 A180.3642 
N143 X-291.523 Y-12.062 Z-7.027 A180.8331 
N144 X-291.724 Y-10.823 Z-7.046 A180.9792 
N145 X-291.946 Y-9.469 Z-7.049 A180.9954 
N146 X-292.187 Y-8.006 Z-7.049 A180.9751 
N147 X-292.445 Y-6.442 Z-7.049 A180.9534 
N148 X-292.715 Y-4.797 Z-7.053 A180.9513 
N149 X-292.995 Y-3.089 Z-7.058 
N150 X-293.282 Y-1.344 Z-7.064 
N151 X-293.569 Y0.409 Z-7.070 A180.9514 
N152 X-293.854 Y2.142 Z-7.076 A180.9563 
N153 X-294.130 Y3.826 Z-7.082 A180.9615 
N154 X-294.394 Y5.435 Z-7.087 A180.9685 
N155 X-294.642 Y6.946 Z-7.093 A180.9771 
N156 X-294.871 Y8.342 Z-7.098 A180.9838 
N157 X-295.078 Y9.609 Z-7.102 A180.9838 
N158 X-295.264 Y10.741 Z-7.105 A180.9663 
N159 X-295.427 Y11.733 Z-7.107 A180.9513 
N160 X-295.568 Y12.592 Z-7.112 
N161 X-295.688 Y13.327 Z-7.119 A180.9831 
N162 X-295.782 Y13.941 Z-7.162 A181.3339 
N163 X-295.851 Y14.447 Z-7.250 A182.0998 
N164 X-295.895 Y14.865 Z-7.401 A183.4396 
N165 X-295.917 Y15.216 Z-7.622 A185.4279 
N166 X-295.919 Y15.514 Z-7.914 A188.0573 
N167 X-295.906 Y15.774 Z-8.258 A191.1814 
N168 X-295.881 Y16.037 Z-8.677 A195.0107 
N169 X-295.852 Y16.303 Z-9.128 A199.1845 
N170 X-295.824 Y16.584 Z-9.585 A203.5225 
N171 X-295.799 Y16.912 Z-10.071 A208.2930 
N172 X-295.785 Y17.173 Z-10.420 A211.8528 
N173 X-295.775 Y17.496 Z-10.810 A216.0003 
N174 X-295.772 Y17.816 Z-11.154 A219.8498 
N175 X-295.774 Y18.072 Z-11.401 A222.7661 
N176 X-295.781 Y18.356 Z-11.650 A225.8643 
N177 X-295.792 Y18.671 Z-11.900 A229.1664 
N178 X-295.809 Y19.018 Z-12.145 A232.6528 
N179 X-295.826 Y19.287 Z-12.315 A235.2665 
N180 X-295.846 Y19.559 Z-12.471 A237.8412 
N181 X-295.869 Y19.845 Z-12.618 A240.4778 
N182 X-295.895 Y20.141 Z-12.754 A243.1577 
N183 X-295.926 Y20.446 Z-12.877 A245.8626 
N184 X-295.959 Y20.758 Z-12.986 A248.5742 
N185 X-295.997 Y21.079 Z-13.082 A251.3275 
N186 X-296.039 Y21.414 Z-13.163 A254.1585 
N187 X-296.083 Y21.747 Z-13.227 A256.9467 
N188 X-296.130 Y22.076 Z-13.274 A259.6747 
N189 X-296.178 Y22.397 Z-13.303 A262.3228 
N190 X-296.227 Y22.708 Z-13.316 A264.8825 
N191 X-296.281 Y23.034 Z-13.314 A267.5568 
N192 X-296.358 Y23.478 Z-13.285 A271.2023 
N193 X-296.434 Y23.885 Z-13.231 A274.5721 
N194 X-296.508 Y24.259 Z-13.157 A277.6982 
N195 X-296.590 Y24.651 Z-13.052 A281.0194 
N196 X-296.698 Y25.137 Z-12.878 A285.2342 
N197 X-296.792 Y25.531 Z-12.696 A288.7741 
N198 X-296.915 Y26.003 Z-12.418 A293.2165 
N199 X-297.031 Y26.407 Z-12.110 A297.2939 
N200 X-297.143 Y26.744 Z-11.766 A301.0850 
N201 X-297.242 Y26.991 Z-11.404 A304.3883 
N202 X-297.329 Y27.144 Z-11.024 A307.2083 
N203 X-297.399 Y27.190 Z-10.640 A309.4385 
N204 X-297.452 Y27.132 Z-10.253 A311.0899 
N205 X-297.491 Y26.966 Z-9.845 A312.2456 
N206 X-297.516 Y26.695 Z-9.414 A312.9345 
N207 X-297.531 Y26.327 Z-8.948 A313.2644 
N208 X-297.541 Y25.869 Z-8.425 A313.3686 
N209 X-297.548 Y25.333 Z-7.836 A313.3661 
N210 X-297.555 Y24.724 Z-7.173 A313.3380 
N211 X-297.565 Y24.049 Z-6.430 A313.3269 
N212 X-297.575 Y23.314 Z-5.619 
N213 X-297.586 Y22.523 Z-4.747 
N214 X-297.598 Y21.690 Z-3.828 
N215 X-297.611 Y20.827 Z-2.875 
N216 X-297.624 Y19.949 Z-1.906 A313.3270 
N217 X-297.636 Y19.071 Z-0.937 A313.3278 
N218 X-297.649 Y18.209 Z0.015 A313.3302 
N219 X-297.661 Y17.378 Z0.934 A313.3367 
N220 X-297.673 Y16.588 Z1.807 A313.3502 
N221 X-297.684 Y15.853 Z2.622 A313.3738 
N222 X-297.694 Y15.176 Z3.374 A313.4042 
N223 X-297.704 Y14.563 Z4.056 A313.4316 
N224 X-297.712 Y14.006 Z4.669 A313.4190 
N225 X-297.717 Y13.504 Z5.209 A313.3269 
N226 X-297.724 Y13.061 Z5.703 
N227 X-297.767 Y12.764 Z6.268 A314.6550 
N228 X-297.918 Y12.815 Z7.152 A320.1558 
N229 X-298.184 Y13.098 Z8.502 A330.5147 
N230 X-298.481 Y13.239 Z10.190 A343.7138 
N231 X-298.661 Y12.957 Z11.588 A354.5461 
N232 X-298.686 Y12.409 Z12.292 A0.0769 
N233 X-298.608 Y11.767 Z12.466 A1.4961 
N234 X-298.486 Y11.041 Z12.450 A1.3996 
N235 X-298.349 Y10.220 Z12.442 A1.3455 
N236 X-298.194 Y9.276 Z12.441 
N237 X-298.017 Y8.203 Z12.441 
N238 X-297.819 Y6.998 Z12.440 A1.3458 
N239 X-297.599 Y5.662 Z12.440 A1.3468 
N240 X-297.358 Y4.200 Z12.439 A1.3465 
N241 X-297.099 Y2.627 Z12.438 A1.3462 
N242 X-296.824 Y0.960 Z12.437 A1.3461 
N243 X-296.538 Y-0.776 Z12.435 A1.3469 
N244 X-296.245 Y-2.554 Z12.434 A1.3488 
N245 X-295.951 Y-4.343 Z12.433 A1.3519 
N246 X-295.659 Y-6.113 Z12.432 A1.3553 
N247 X-295.376 Y-7.833 Z12.430 A1.3571 
N248 X-295.105 Y-9.476 Z12.428 A1.3558 
N249 X-294.851 Y-11.019 Z12.427 A1.3508 
N250 X-294.616 Y-12.443 Z12.425 A1.3455 
N251 X-294.403 Y-13.735 Z12.425 
N252 X-294.213 Y-14.890 Z12.424 
N253 X-294.046 Y-15.904 Z12.423 
N254 X-293.903 Y-16.783 Z12.436 A1.4809 
N255 X-293.786 Y-17.530 Z12.472 A1.8303 
N256 X-293.695 Y-18.155 Z12.543 A2.5017 
N257 X-293.628 Y-18.678 Z12.659 A3.6072 
N258 X-293.584 Y-19.110 Z12.831 A5.2269 
N259 X-293.563 Y-19.481 Z13.075 A7.5040 
N260 X-293.561 Y-19.803 Z13.388 A10.4263 
N261 X-293.573 Y-20.092 Z13.755 A13.8472 
N262 X-293.593 Y-20.390 Z14.182 A17.8830 
N263 X-293.614 Y-20.687 Z14.614 A22.0411 
N264 X-293.632 Y-20.980 Z15.022 A26.0791 
N265 X-293.646 Y-21.289 Z15.421 A30.1647 
N266 X-293.654 Y-21.589 Z15.776 A33.9445 
N267 X-293.657 Y-21.909 Z16.120 A37.7848 
N268 X-293.655 Y-22.182 Z16.386 A40.8983 
N269 X-293.649 Y-22.491 Z16.660 A44.2755 
N270 X-293.638 Y-22.812 Z16.915 A47.6308 
N271 X-293.625 Y-23.073 Z17.103 A50.2648 
N272 X-293.609 Y-23.352 Z17.287 A53.0071 
N273 X-293.589 Y-23.651 Z17.465 A55.8568 
N274 X-293.564 Y-23.967 Z17.633 A58.7973 
N275 X-293.538 Y-24.261 Z17.772 A61.4635 
N276 X-293.510 Y-24.553 Z17.894 A64.0601 
N277 X-293.478 Y-24.853 Z18.004 A66.6789 
N278 X-293.444 Y-25.158 Z18.101 A69.3060 
N279 X-293.406 Y-25.467 Z18.183 A71.9248 
N280 X-293.364 Y-25.789 Z18.252 A74.6281 
N281 X-293.319 Y-26.120 Z18.307 A77.3826 
N282 X-293.271 Y-26.445 Z18.344 A80.0589 
N283 X-293.223 Y-26.760 Z18.364 A82.6507 
N284 X-293.173 Y-27.066 Z18.369 A85.1530 
N285 X-293.112 Y-27.425 Z18.357 A88.0979 
N286 X-293.046 Y-27.794 Z18.322 A91.1290 
N287 X-292.981 Y-28.137 Z18.270 A93.9684 
N288 X-292.915 Y-28.467 Z18.200 A96.7220 
N289 X-292.825 Y-28.896 Z18.079 A100.3589 
N290 X-292.740 Y-29.275 Z17.941 A103.6414 
N291 X-292.637 Y-29.706 Z17.744 A107.4936 
N292 X-292.534 Y-30.107 Z17.515 A111.2197 
N293 X-292.420 Y-30.512 Z17.222 A115.2254 
N294 X-292.310 Y-30.855 Z16.895 A118.9530 
N295 X-292.207 Y-31.128 Z16.537 A122.3731 
N296 X-292.115 Y-31.314 Z16.159 A125.3517 
N297 X-292.038 Y-31.403 Z15.772 A127.8067 
N298 X-291.976 Y-31.393 Z15.381 A129.7179 
N299 X-291.927 Y-31.284 Z14.971 A131.1766 
N300 X-291.891 Y-31.080 Z14.540 A132.2188 
N301 X-291.864 Y-30.787 Z14.077 A132.9449 
N302 X-291.844 Y-30.411 Z13.572 A133.4490 
N303 X-291.829 Y-29.954 Z13.012 A133.8059 
N304 X-291.816 Y-29.423 Z12.397 A134.0581 
N305 X-291.806 Y-28.823 Z11.725 A134.2346 
N306 X-291.798 Y-28.156 Z10.996 A134.3528 
N307 X-291.791 Y-27.434 Z10.220 A134.4244 
N308 X-291.784 Y-26.665 Z9.401 A134.4595 
N309 X-291.779 Y-25.861 Z8.551 A134.4687 
N310 X-291.774 Y-25.036 Z7.682 A134.4585 
N311 X-291.768 Y-24.203 Z6.803 A134.4526 
N312 X-291.762 Y-23.375 Z5.928 
N313 X-291.756 Y-22.568 Z5.066 A134.5087 
N314 X-291.746 Y-21.796 Z4.222 A134.6873 
N315 X-291.732 Y-21.070 Z3.402 A135.0600 
N316 X-291.712 Y-20.403 Z2.603 A135.7310 
N317 X-291.684 Y-19.805 Z1.820 A136.8399 
N318 X-291.643 Y-19.281 Z1.040 A138.5529 
N319 X-291.589 Y-18.832 Z0.246 A141.0196 
N320 X-291.521 Y-18.440 Z-0.570 A144.2841 
N321 X-291.444 Y-18.078 Z-1.410 A148.2706 
N322 X-291.366 Y-17.708 Z-2.269 A152.8215 
N323 X-291.294 Y-17.294 Z-3.129 A157.7258 
N324 X-291.241 Y-16.801 Z-3.960 A162.6832 
N325 X-291.214 Y-16.206 Z-4.727 A167.4216 
N326 X-291.224 Y-15.497 Z-5.388 A171.6106 
N327 X-291.275 Y-14.673 Z-5.909 A174.9633 
N328 X-291.368 Y-13.742 Z-6.281 A177.3822 
N329 X-291.498 Y-12.708 Z-6.526 A178.9965 
N330 X-291.661 Y-11.573 Z-6.675 A179.9821 
N331 X-291.852 Y-10.335 Z-6.755 A180.5091 
N332 X-292.066 Y-9.001 Z-6.791 A180.7293 
N333 X-292.298 Y-7.576 Z-6.803 A180.7758 
N334 X-292.545 Y-6.070 Z-6.809 A180.7557 
N335 X-292.802 Y-4.501 Z-6.815 A180.7275 
N336 X-293.066 Y-2.889 Z-6.826 A180.7185 
N337 X-293.333 Y-1.255 Z-6.839 A180.7190 
N338 X-293.599 Y0.374 Z-6.854 A180.7311 
N339 X-293.859 Y1.973 Z-6.869 A180.7426 
N340 X-294.111 Y3.518 Z-6.884 A180.7471 
N341 X-294.351 Y4.987 Z-6.898 A180.7365 
N342 X-294.575 Y6.362 Z-6.911 A180.7185 
N343 X-294.781 Y7.629 Z-6.927 
N344 X-294.968 Y8.781 Z-6.941 
N345 X-295.135 Y9.815 Z-6.961 A180.7944 
N346 X-295.277 Y10.725 Z-7.010 A181.1620 
N347 X-295.394 Y11.514 Z-7.089 A181.8396 
N348 X-295.487 Y12.191 Z-7.202 A182.8940 
N349 X-295.557 Y12.766 Z-7.354 A184.3491 
N350 X-295.607 Y13.256 Z-7.548 A186.2391 
N351 X-295.638 Y13.677 Z-7.784 A188.5567 
N352 X-295.654 Y14.052 Z-8.065 A191.3202 
N353 X-295.659 Y14.387 Z-8.374 A194.3752 
N354 X-295.656 Y14.689 Z-8.695 A197.5741 
N355 X-295.649 Y14.993 Z-9.046 A201.1049 
N356 X-295.641 Y15.291 Z-9.399 A204.7198 
N357 X-295.634 Y15.581 Z-9.737 A208.2607 
N358 X-295.630 Y15.876 Z-10.063 A211.7879 
N359 X-295.629 Y16.187 Z-10.386 A215.4113 
N360 X-295.631 Y16.462 Z-10.648 A218.4896 
N361 X-295.638 Y16.764 Z-10.915 A221.7685 
N362 X-295.647 Y17.043 Z-11.140 A224.6844 
N363 X-295.660 Y17.324 Z-11.348 A227.5330 
N364 X-295.677 Y17.630 Z-11.555 A230.5529 
N365 X-295.695 Y17.910 Z-11.726 A233.2335 
N366 X-295.716 Y18.194 Z-11.884 A235.8844 
N367 X-295.741 Y18.493 Z-12.033 A238.6223 
N368 X-295.770 Y18.802 Z-12.170 A241.3871 
N369 X-295.800 Y19.098 Z-12.286 A243.9850 
N370 X-295.833 Y19.401 Z-12.389 A246.6060 
N371 X-295.869 Y19.710 Z-12.479 A249.2338 
N372 X-295.908 Y20.023 Z-12.554 A251.8704 
N373 X-295.952 Y20.347 Z-12.616 A254.5685 
N374 X-295.997 Y20.668 Z-12.661 A257.2206 
N375 X-296.045 Y20.984 Z-12.690 A259.8093 
N376 X-296.096 Y21.312 Z-12.703 A262.4947 
N377 X-296.155 Y21.664 Z-12.699 A265.3730 
N378 X-296.214 Y22.001 Z-12.677 A268.1213 
N379 X-296.275 Y22.333 Z-12.636 A270.8541 
N380 X-296.351 Y22.720 Z-12.565 A274.0583 
N381 X-296.423 Y23.074 Z-12.476 A277.0220 
N382 X-296.510 Y23.469 Z-12.346 A280.3910 
N383 X-296.595 Y23.835 Z-12.193 A283.5915 
N384 X-296.695 Y24.236 Z-11.981 A287.2291 
N385 X-296.796 Y24.605 Z-11.733 A290.7497 
N386 X-296.897 Y24.937 Z-11.447 A294.1651 
N387 X-296.995 Y25.217 Z-11.128 A297.3632 
N388 X-297.091 Y25.443 Z-10.765 A300.4086 
N389 X-297.179 Y25.594 Z-10.375 A303.1265 
N390 X-297.260 Y25.667 Z-9.951 A305.5507 
N391 X-297.331 Y25.652 Z-9.500 A307.6211 
N392 X-297.391 Y25.546 Z-9.017 A309.3496 
N393 X-297.442 Y25.345 Z-8.500 A310.7499 
N394 X-297.483 Y25.048 Z-7.948 A311.8329 
N395 X-297.515 Y24.654 Z-7.352 A312.6249 
N396 X-297.538 Y24.166 Z-6.716 A313.1345 
N397 X-297.553 Y23.591 Z-6.034 A313.4071 
N398 X-297.565 Y22.939 Z-5.303 A313.5081 
N399 X-297.574 Y22.225 Z-4.523 A313.5130 
N400 X-297.583 Y21.465 Z-3.696 A313.4874 
N401 X-297.593 Y20.673 Z-2.830 A313.4734 
N402 X-297.604 Y19.861 Z-1.940 
N403 X-297.615 Y19.041 Z-1.040 
N404 X-297.625 Y18.227 Z-0.147 
N405 X-297.636 Y17.433 Z0.725 A313.4808 
N406 X-297.647 Y16.672 Z1.562 A313.4930 
N407 X-297.657 Y15.953 Z2.353 A313.5131 
N408 X-297.666 Y15.285 Z3.091 A313.5410 
N409 X-297.675 Y14.673 Z3.766 A313.5612 
N410 X-297.682 Y14.114 Z4.379 A313.5575 
N411 X-297.687 Y13.604 Z4.925 A313.4734 
N412 X-297.694 Y13.154 Z5.422 
N413 X-297.716 Y12.787 Z5.933 A314.0686 
N414 X-297.822 Y12.707 Z6.664 A317.8074 
N415 X-298.038 Y12.910 Z7.791 A326.0352 
N416 X-298.315 Y13.120 Z9.284 A337.6090 
N417 X-298.545 Y13.022 Z10.804 A349.3418 
N418 X-298.644 Y12.586 Z11.856 A357.4890 
N419 X-298.617 Y11.986 Z12.299 A1.0118 
N420 X-298.515 Y11.310 Z12.358 A1.5251 
N421 X-298.386 Y10.544 Z12.337 A1.3873 
N422 X-298.243 Y9.676 Z12.335 A1.3872 
N423 X-298.079 Y8.684 Z12.332 
N424 X-297.895 Y7.568 Z12.330 
N425 X-297.690 Y6.325 Z12.328 A1.3878 
N426 X-297.465 Y4.961 Z12.325 A1.3882 
N427 X-297.221 Y3.485 Z12.321 A1.3878 
N428 X-296.962 Y1.913 Z12.317 A1.3875 
N429 X-296.690 Y0.267 Z12.313 A1.3877 
N430 X-296.411 Y-1.427 Z12.309 A1.3890 
N431 X-296.128 Y-3.143 Z12.305 A1.3920 
N432 X-295.846 Y-4.849 Z12.301 A1.3970 
N433 X-295.571 Y-6.518 Z12.298 A1.4036 
N434 X-295.306 Y-8.122 Z12.294 A1.4112 
N435 X-295.056 Y-9.638 Z12.291 A1.4161 
N436 X-294.824 Y-11.045 Z12.287 A1.4161 
N437 X-294.611 Y-12.332 Z12.282 A1.3987 
N438 X-294.421 Y-13.486 Z12.279 A1.3872 
N439 X-294.252 Y-14.509 Z12.278 
N440 X-294.105 Y-15.408 Z12.281 A1.4232 
N441 X-293.985 Y-16.176 Z12.326 A1.8364 
N442 X-293.894 Y-16.829 Z12.425 A2.7506 
N443 X-293.830 Y-17.383 Z12.594 A4.3334 
N444 X-293.791 Y-17.859 Z12.835 A6.6098 
N445 X-293.772 Y-18.266 Z13.133 A9.4528 
N446 X-293.768 Y-18.641 Z13.486 A12.8549 
N447 X-293.773 Y-18.983 Z13.862 A16.5322 
N448 X-293.782 Y-19.319 Z14.258 A20.4721 
N449 X-293.790 Y-19.642 Z14.638 A24.3637 
N450 X-293.796 Y-19.962 Z14.998 A28.1689 
N451 X-293.798 Y-20.280 Z15.334 A31.8586 
N452 X-293.796 Y-20.584 Z15.634 A35.2892 
N453 X-293.792 Y-20.878 Z15.902 A38.5008 
N454 X-293.783 Y-21.180 Z16.156 A41.6961 
N455 X-293.772 Y-21.460 Z16.372 A44.5643 
N456 X-293.758 Y-21.746 Z16.575 A47.4170 
N457 X-293.740 Y-22.041 Z16.766 A50.2748 
N458 X-293.721 Y-22.317 Z16.928 A52.8771 
N459 X-293.698 Y-22.609 Z17.084 A55.5713 
N460 X-293.673 Y-22.906 Z17.227 A58.2610 
N461 X-293.645 Y-23.195 Z17.350 A60.8218 
N462 X-293.614 Y-23.493 Z17.463 A63.4205 
N463 X-293.580 Y-23.798 Z17.562 A66.0415 
N464 X-293.544 Y-24.103 Z17.647 A68.6219 
N465 X-293.505 Y-24.410 Z17.718 A71.1939 
N466 X-293.463 Y-24.718 Z17.773 A73.7427 
N467 X-293.418 Y-25.036 Z17.816 A76.3573 
N468 X-293.370 Y-25.354 Z17.843 A78.9596 
N469 X-293.320 Y-25.665 Z17.854 A81.4918 
N470 X-293.266 Y-25.988 Z17.849 A84.1246 
N471 X-293.209 Y-26.317 Z17.827 A86.8027 
N472 X-293.151 Y-26.629 Z17.790 A89.3577 
N473 X-293.085 Y-26.970 Z17.730 A92.1698 
N474 X-293.018 Y-27.301 Z17.651 A94.9197 
N475 X-292.946 Y-27.638 Z17.548 A97.7665 
N476 X-292.869 Y-27.976 Z17.420 A100.6731 
N477 X-292.787 Y-28.321 Z17.260 A103.7193 
N478 X-292.702 Y-28.652 Z17.073 A106.7425 
N479 X-292.612 Y-28.977 Z16.850 A109.8434 
N480 X-292.518 Y-29.288 Z16.585 A113.0082 
N481 X-292.421 Y-29.574 Z16.278 A116.1860 
N482 X-292.325 Y-29.820 Z15.933 A119.2730 
N483 X-292.233 Y-30.009 Z15.559 A122.1631 
N484 X-292.145 Y-30.139 Z15.149 A124.8821 
N485 X-292.063 Y-30.199 Z14.707 A127.3862 
N486 X-291.990 Y-30.181 Z14.235 A129.6359 
N487 X-291.928 Y-30.075 Z13.744 A131.5452 
N488 X-291.878 Y-29.870 Z13.230 A133.0799 
N489 X-291.842 Y-29.568 Z12.704 A134.1875 
N490 X-291.819 Y-29.169 Z12.156 A134.9203 
N491 X-291.805 Y-28.685 Z11.581 A135.3564 
N492 X-291.799 Y-28.127 Z10.973 A135.5881 
N493 X-291.796 Y-27.506 Z10.325 A135.6967 
N494 X-291.795 Y-26.834 Z9.640 A135.7316 
N495 X-291.796 Y-26.121 Z8.920 A135.7281 
N496 X-291.797 Y-25.377 Z8.172 A135.6969 
N497 X-291.797 Y-24.617 Z7.401 
N498 X-291.797 Y-23.844 Z6.618 
N499 X-291.794 Y-23.082 Z5.823 A135.8431 
N500 X-291.784 Y-22.346 Z5.019 A136.2330 
N501 X-291.768 Y-21.647 Z4.209 A136.9577 
N502 X-291.744 Y-20.989 Z3.396 A138.0840 
N503 X-291.714 Y-20.375 Z2.584 A139.6403 
N504 X-291.677 Y-19.801 Z1.776 A141.6452 
N505 X-291.636 Y-19.257 Z0.970 A144.0953 
N506 X-291.593 Y-18.732 Z0.170 A146.9449 
N507 X-291.551 Y-18.207 Z-0.618 A150.1012 
N508 X-291.515 Y-17.665 Z-1.391 A153.4790 
N509 X-291.487 Y-17.090 Z-2.146 A157.0226 
N510 X-291.471 Y-16.466 Z-2.880 A160.6825 
N511 X-291.470 Y-15.777 Z-3.585 A164.3993 
N512 X-291.490 Y-15.006 Z-4.246 A168.0476 
N513 X-291.536 Y-14.144 Z-4.833 A171.4134 
N514 X-291.614 Y-13.184 Z-5.326 A174.3248 
N515 X-291.726 Y-12.130 Z-5.710 A176.6484 
N516 X-291.870 Y-10.987 Z-5.980 A178.3057 
N517 X-292.045 Y-9.761 Z-6.148 A179.3011 
N518 X-292.244 Y-8.461 Z-6.237 A179.7650 
N519 X-292.462 Y-7.094 Z-6.282 A179.8944 
N520 X-292.691 Y-5.673 Z-6.310 A179.8814 
N521 X-292.927 Y-4.212 Z-6.338 A179.8417 
N522 X-293.166 Y-2.729 Z-6.371 A179.8186 
N523 X-293.405 Y-1.244 Z-6.408 A179.8124 
N524 X-293.640 Y0.223 Z-6.447 
N525 X-293.868 Y1.651 Z-6.486 
N526 X-294.088 Y3.021 Z-6.525 
N527 X-294.295 Y4.318 Z-6.563 
N528 X-294.488 Y5.529 Z-6.599 
N529 X-294.667 Y6.646 Z-6.632 A179.8255 
N530 X-294.824 Y7.655 Z-6.692 A180.1232 
N531 X-294.957 Y8.558 Z-6.782 A180.7615 
N532 X-295.067 Y9.355 Z-6.913 A181.8587 
N533 X-295.155 Y10.055 Z-7.085 A183.4228 
N534 X-295.222 Y10.670 Z-7.292 A185.4214 
N535 X-295.273 Y11.205 Z-7.525 A187.7555 
N536 X-295.310 Y11.682 Z-7.781 A190.3935 
N537 X-295.335 Y12.105 Z-8.053 A193.2417 
N538 X-295.353 Y12.498 Z-8.342 A196.3257 
N539 X-295.365 Y12.859 Z-8.633 A199.4860 
N540 X-295.374 Y13.192 Z-8.916 A202.6172 
N541 X-295.382 Y13.524 Z-9.204 A205.8790 
N542 X-295.390 Y13.837 Z-9.474 A209.0182 
N543 X-295.399 Y14.142 Z-9.729 A212.0824 
N544 X-295.409 Y14.443 Z-9.970 A215.0895 
N545 X-295.421 Y14.729 Z-10.188 A217.9255 
N546 X-295.435 Y15.017 Z-10.395 A220.7339 
N547 X-295.451 Y15.311 Z-10.592 A223.5500 
N548 X-295.469 Y15.595 Z-10.768 A226.2199 
N549 X-295.490 Y15.886 Z-10.936 A228.9115 
N550 X-295.513 Y16.178 Z-11.089 A231.5574 
N551 X-295.539 Y16.473 Z-11.230 A234.1884 
N552 X-295.567 Y16.770 Z-11.358 A236.7925 
N553 X-295.598 Y17.072 Z-11.474 A239.3991 
N554 X-295.631 Y17.374 Z-11.575 A241.9708 
N555 X-295.668 Y17.682 Z-11.664 A244.5591 
N556 X-295.706 Y17.991 Z-11.738 A247.1178 
N557 X-295.748 Y18.302 Z-11.799 A249.6770 
N558 X-295.792 Y18.617 Z-11.845 A252.2487 
N559 X-295.839 Y18.931 Z-11.876 A254.7908 
N560 X-295.889 Y19.251 Z-11.892 A257.3763 
N561 X-295.941 Y19.568 Z-11.893 A259.9295 
N562 X-295.997 Y19.891 Z-11.877 A262.5339 
N563 X-296.055 Y20.212 Z-11.844 A265.1213 
N564 X-296.117 Y20.540 Z-11.792 A267.7785 
N565 X-296.181 Y20.859 Z-11.723 A270.3922 
N566 X-296.252 Y21.195 Z-11.628 A273.1720 
N567 X-296.325 Y21.523 Z-11.512 A275.9294 
N568 X-296.400 Y21.846 Z-11.372 A278.7044 
N569 X-296.484 Y22.181 Z-11.195 A281.6564 
N570 X-296.571 Y22.506 Z-10.987 A284.6383 
N571 X-296.662 Y22.817 Z-10.744 A287.6356 
N572 X-296.758 Y23.116 Z-10.455 A290.7236 
N573 X-296.855 Y23.383 Z-10.127 A293.7529 
N574 X-296.953 Y23.610 Z-9.755 A296.7240 
N575 X-297.049 Y23.786 Z-9.342 A299.5661 
N576 X-297.141 Y23.899 Z-8.890 A302.2302 
N577 X-297.228 Y23.939 Z-8.396 A304.7019 
N578 X-297.308 Y23.899 Z-7.859 A306.9581 
N579 X-297.379 Y23.770 Z-7.291 A308.9290 
N580 X-297.439 Y23.547 Z-6.694 A310.5782 
N581 X-297.487 Y23.222 Z-6.068 A311.8622 
N582 X-297.522 Y22.794 Z-5.420 A312.7465 
N583 X-297.545 Y22.276 Z-4.750 A313.2726 
N584 X-297.561 Y21.680 Z-4.051 A313.5312 
N585 X-297.571 Y21.023 Z-3.319 A313.6278 
N586 X-297.580 Y20.324 Z-2.556 A313.6479 
N587 X-297.588 Y19.596 Z-1.766 A313.6414 
N588 X-297.597 Y18.853 Z-0.960 A313.6309 
N589 X-297.605 Y18.109 Z-0.150 A313.6279 
N590 X-297.614 Y17.374 Z0.650 
N591 X-297.623 Y16.660 Z1.429 A313.6355 
N592 X-297.632 Y15.978 Z2.174 A313.6565 
N593 X-297.640 Y15.337 Z2.877 A313.6854 
N594 X-297.648 Y14.740 Z3.531 A313.7076 
N595 X-297.655 Y14.191 Z4.129 A313.7040 
N596 X-297.659 Y13.683 Z4.669 A313.6279 
N597 X-297.665 Y13.231 Z5.164 
N598 X-297.678 Y12.839 Z5.646 A313.9277 
N599 X-297.747 Y12.651 Z6.260 A316.2957 
N600 X-297.912 Y12.743 Z7.187 A322.4717 
N601 X-298.158 Y12.960 Z8.481 A332.3314 
N602 X-298.406 Y13.004 Z9.965 A343.7490 
N603 X-298.567 Y12.718 Z11.251 A353.6327 
N604 X-298.602 Y12.186 Z12.006 A359.5283 
N605 X-298.535 Y11.549 Z12.236 A1.4019 
N606 X-298.418 Y10.832 Z12.240 A1.4730 
N607 X-298.281 Y10.019 Z12.225 A1.3864 
N608 X-298.128 Y9.094 Z12.221 
N609 X-297.955 Y8.048 Z12.217 
N610 X-297.762 Y6.877 Z12.212 
N611 X-297.548 Y5.584 Z12.207 A1.3873 
N612 X-297.316 Y4.178 Z12.202 A1.3873 
N613 X-297.067 Y2.670 Z12.195 A1.3868 
N614 X-296.804 Y1.080 Z12.189 A1.3866 
N615 X-296.531 Y-0.568 Z12.182 A1.3871 
N616 X-296.254 Y-2.249 Z12.175 A1.3892 
N617 X-295.975 Y-3.933 Z12.168 A1.3937 
N618 X-295.701 Y-5.592 Z12.162 A1.4015 
N619 X-295.436 Y-7.199 Z12.156 A1.4127 
N620 X-295.183 Y-8.727 Z12.151 A1.4261 
N621 X-294.947 Y-10.158 Z12.145 A1.4330 
N622 X-294.729 Y-11.474 Z12.139 A1.4267 
N623 X-294.532 Y-12.666 Z12.131 A1.3864 
N624 X-294.357 Y-13.726 Z12.129 
N625 X-294.202 Y-14.662 Z12.127 
N626 X-294.074 Y-15.473 Z12.156 A1.6579 
N627 X-293.973 Y-16.166 Z12.242 A2.4480 
N628 X-293.902 Y-16.753 Z12.398 A3.9039 
N629 X-293.857 Y-17.261 Z12.633 A6.1146 
N630 X-293.833 Y-17.701 Z12.933 A8.9787 
N631 X-293.825 Y-18.091 Z13.279 A12.3241 
N632 X-293.826 Y-18.460 Z13.664 A16.1010 
N633 X-293.833 Y-18.824 Z14.070 A20.1864 
N634 X-293.838 Y-19.158 Z14.441 A24.0254 
N635 X-293.840 Y-19.485 Z14.788 A27.7537 
N636 X-293.839 Y-19.802 Z15.105 A31.2932 
N637 X-293.835 Y-20.115 Z15.398 A34.7143 
N638 X-293.829 Y-20.407 Z15.654 A37.8203 
N639 X-293.819 Y-20.696 Z15.888 A40.8171 
N640 X-293.807 Y-20.986 Z16.106 A43.7399 
N641 X-293.792 Y-21.267 Z16.300 A46.5014 
N642 X-293.775 Y-21.549 Z16.480 A49.2105 
N643 X-293.754 Y-21.839 Z16.648 A51.9230 
N644 X-293.732 Y-22.117 Z16.795 A54.4802 
N645 X-293.707 Y-22.410 Z16.936 A57.1226 
N646 X-293.679 Y-22.701 Z17.060 A59.6922 
N647 X-293.649 Y-22.993 Z17.171 A62.2321 
N648 X-293.616 Y-23.294 Z17.270 A64.8099 
N649 X-293.580 Y-23.595 Z17.356 A67.3564 
N650 X-293.542 Y-23.898 Z17.427 A69.8906 
N651 X-293.501 Y-24.204 Z17.485 A72.4213 
N652 X-293.457 Y-24.515 Z17.530 A74.9800 
N653 X-293.411 Y-24.826 Z17.560 A77.5255 
N654 X-293.362 Y-25.134 Z17.575 A80.0271 
N655 X-293.310 Y-25.454 Z17.575 A82.6275 
N656 X-293.255 Y-25.770 Z17.560 A85.1957 
N657 X-293.200 Y-26.076 Z17.530 A87.6960 
N658 X-293.137 Y-26.408 Z17.479 A90.4120 
N659 X-293.075 Y-26.721 Z17.414 A92.9999 
N660 X-293.006 Y-27.051 Z17.325 A95.7576 
N661 X-292.936 Y-27.371 Z17.219 A98.4710 
N662 X-292.860 Y-27.703 Z17.083 A101.3511 
N663 X-292.782 Y-28.020 Z16.928 A104.1675 
N664 X-292.695 Y-28.357 Z16.730 A107.2673 
N665 X-292.604 Y-28.680 Z16.501 A110.3850 
N666 X-292.510 Y-28.989 Z16.235 A113.5428 
N667 X-292.414 Y-29.274 Z15.932 A116.7077 
N668 X-292.318 Y-29.525 Z15.592 A119.8376 
N669 X-292.221 Y-29.735 Z15.206 A122.9415 
N670 X-292.128 Y-29.887 Z14.787 A125.8893 
N671 X-292.042 Y-29.970 Z14.343 A128.6047 
N672 X-291.965 Y-29.969 Z13.869 A131.0536 
N673 X-291.904 Y-29.872 Z13.391 A133.0397 
N674 X-291.858 Y-29.670 Z12.904 A134.5483 
N675 X-291.828 Y-29.370 Z12.414 A135.5885 
N676 X-291.810 Y-28.979 Z11.907 A136.2530 
N677 X-291.802 Y-28.507 Z11.377 A136.6372 
N678 X-291.800 Y-27.964 Z10.816 A136.8283 
N679 X-291.802 Y-27.361 Z10.219 A136.8939 
N680 X-291.807 Y-26.707 Z9.585 A136.8891 
N681 X-291.813 Y-26.013 Z8.916 A136.8574 
N682 X-291.818 Y-25.292 Z8.213 
N683 X-291.822 Y-24.546 Z7.486 A136.8720 
N684 X-291.822 Y-23.802 Z6.730 A137.0750 
N685 X-291.817 Y-23.068 Z5.952 A137.5195 
N686 X-291.805 Y-22.354 Z5.155 A138.2913 
N687 X-291.787 Y-21.667 Z4.346 A139.4254 
N688 X-291.764 Y-21.004 Z3.532 A140.9259 
N689 X-291.738 Y-20.362 Z2.719 A142.7797 
N690 X-291.710 Y-19.737 Z1.911 A144.9740 
N691 X-291.682 Y-19.120 Z1.112 A147.4746 
N692 X-291.657 Y-18.499 Z0.327 A150.2307 
N693 X-291.637 Y-17.862 Z-0.443 A153.1898 
N694 X-291.624 Y-17.197 Z-1.194 A156.3169 
N695 X-291.622 Y-16.491 Z-1.924 A159.5742 
N696 X-291.633 Y-15.732 Z-2.628 A162.9191 
N697 X-291.661 Y-14.906 Z-3.294 A166.2638 
N698 X-291.711 Y-14.002 Z-3.902 A169.4579 
N699 X-291.787 Y-13.016 Z-4.433 A172.3480 
N700 X-291.892 Y-11.948 Z-4.868 A174.7690 
N701 X-292.028 Y-10.805 Z-5.193 A176.5737 
N702 X-292.192 Y-9.595 Z-5.411 A177.6979 
N703 X-292.378 Y-8.329 Z-5.545 A178.2466 
N704 X-292.581 Y-7.018 Z-5.628 A178.4183 
N705 X-292.791 Y-5.674 Z-5.692 A178.4221 
N706 X-293.006 Y-4.313 Z-5.753 A178.3859 
N707 X-293.220 Y-2.948 Z-5.819 A178.3593 
N708 X-293.431 Y-1.599 Z-5.887 A178.3398 
N709 X-293.636 Y-0.281 Z-5.957 A178.3207 
N710 X-293.834 Y0.989 Z-6.028 
N711 X-294.022 Y2.201 Z-6.098 
N712 X-294.200 Y3.345 Z-6.164 
N713 X-294.361 Y4.407 Z-6.244 A178.5160 
N714 X-294.503 Y5.378 Z-6.353 A179.0539 
N715 X-294.625 Y6.253 Z-6.493 A179.9849 
N716 X-294.726 Y7.040 Z-6.670 A181.3907 
N717 X-294.806 Y7.740 Z-6.885 A183.2853 
N718 X-294.869 Y8.370 Z-7.135 A185.6411 
N719 X-294.919 Y8.934 Z-7.403 A188.3165 
N720 X-294.958 Y9.442 Z-7.674 A191.1610 
N721 X-294.991 Y9.907 Z-7.944 A194.1054 
N722 X-295.019 Y10.337 Z-8.208 A197.1097 
N723 X-295.043 Y10.735 Z-8.463 A200.0989 
N724 X-295.065 Y11.108 Z-8.706 A203.0549 
N725 X-295.086 Y11.457 Z-8.933 A205.9166 
N726 X-295.106 Y11.793 Z-9.148 A208.7340 
N727 X-295.127 Y12.117 Z-9.351 A211.4869 
N728 X-295.148 Y12.434 Z-9.542 A214.2094 
N729 X-295.170 Y12.744 Z-9.721 A216.8732 
N730 X-295.193 Y13.048 Z-9.888 A219.4804 
N731 X-295.217 Y13.349 Z-10.044 A222.0553 
N732 X-295.243 Y13.648 Z-10.188 A224.5924 
N733 X-295.270 Y13.947 Z-10.321 A227.1088 
N734 X-295.300 Y14.248 Z-10.444 A229.6168 
N735 X-295.332 Y14.551 Z-10.556 A232.1221 
N736 X-295.366 Y14.857 Z-10.658 A234.6261 
N737 X-295.402 Y15.163 Z-10.747 A237.1119 
N738 X-295.440 Y15.470 Z-10.823 A239.5858 
N739 X-295.480 Y15.780 Z-10.888 A242.0617 
N740 X-295.523 Y16.092 Z-10.940 A244.5350 
N741 X-295.568 Y16.403 Z-10.979 A246.9943 
N742 X-295.616 Y16.716 Z-11.004 A249.4535 
N743 X-295.665 Y17.030 Z-11.015 A251.9064 
N744 X-295.717 Y17.343 Z-11.012 A254.3572 
N745 X-295.772 Y17.657 Z-10.995 A256.8170 
N746 X-295.829 Y17.971 Z-10.962 A259.2749 
N747 X-295.888 Y18.283 Z-10.914 A261.7288 
N748 X-295.950 Y18.596 Z-10.850 A264.2119 
N749 X-296.015 Y18.909 Z-10.768 A266.7126 
N750 X-296.082 Y19.219 Z-10.668 A269.2216 
N751 X-296.152 Y19.526 Z-10.549 A271.7449 
N752 X-296.225 Y19.831 Z-10.409 A274.2939 
N753 X-296.301 Y20.132 Z-10.246 A276.8782 
N754 X-296.381 Y20.430 Z-10.057 A279.5074 
N755 X-296.464 Y20.722 Z-9.840 A282.1840 
N756 X-296.550 Y21.003 Z-9.594 A284.8847 
N757 X-296.642 Y21.278 Z-9.307 A287.6989 
N758 X-296.735 Y21.531 Z-8.988 A290.4959 
N759 X-296.833 Y21.766 Z-8.621 A293.3853 
N760 X-296.933 Y21.968 Z-8.211 A296.2803 
N761 X-297.035 Y22.130 Z-7.748 A299.1867 
N762 X-297.134 Y22.236 Z-7.246 A301.9900 
N763 X-297.229 Y22.277 Z-6.699 A304.6934 
N764 X-297.318 Y22.241 Z-6.115 A307.2091 
N765 X-297.396 Y22.111 Z-5.505 A309.4107 
N766 X-297.458 Y21.877 Z-4.885 A311.1581 
N767 X-297.503 Y21.535 Z-4.257 A312.4043 
N768 X-297.534 Y21.098 Z-3.626 A313.1877 
N769 X-297.553 Y20.580 Z-2.982 A313.6211 
N770 X-297.565 Y20.002 Z-2.319 A313.8280 
N771 X-297.574 Y19.381 Z-1.636 A313.9045 
N772 X-297.581 Y18.731 Z-0.934 A313.9133 
N773 X-297.587 Y18.066 Z-0.221 A313.8957 
N774 X-297.593 Y17.399 Z0.496 A313.8788 
N775 X-297.600 Y16.742 Z1.206 
N776 X-297.608 Y16.102 Z1.898 A313.8875 
N777 X-297.615 Y15.492 Z2.564 A313.9188 
N778 X-297.622 Y14.915 Z3.192 A313.9482 
N779 X-297.628 Y14.376 Z3.778 A313.9688 
N780 X-297.632 Y13.871 Z4.314 A313.9064 
N781 X-297.636 Y13.414 Z4.806 A313.8788 
N782 X-297.642 Y12.992 Z5.264 
N783 X-297.674 Y12.689 Z5.770 A314.8933 
N784 X-297.771 Y12.603 Z6.457 A318.4145 
N785 X-297.957 Y12.743 Z7.464 A325.5550 
N786 X-298.193 Y12.901 Z8.756 A335.3783 
N787 X-298.407 Y12.847 Z10.132 A345.8690 
N788 X-298.537 Y12.503 Z11.280 A354.6640 
N789 X-298.554 Y11.951 Z11.943 A359.8554 
N790 X-298.478 Y11.302 Z12.136 A1.4291 
N791 X-298.358 Y10.569 Z12.141 A1.5133 
N792 X-298.219 Y9.737 Z12.126 A1.4446 
N793 X-298.062 Y8.792 Z12.121 A1.4438 
N794 X-297.886 Y7.725 Z12.115 
N795 X-297.689 Y6.536 Z12.109 
N796 X-297.472 Y5.226 Z12.102 A1.4448 
N797 X-297.237 Y3.806 Z12.094 A1.4447 
N798 X-296.986 Y2.290 Z12.085 A1.4443 
N799 X-296.723 Y0.697 Z12.076 A1.4440 
N800 X-296.450 Y-0.948 Z12.067 A1.4443 
N801 X-296.174 Y-2.619 Z12.058 A1.4461 
N802 X-295.898 Y-4.287 Z12.049 A1.4508 
N803 X-295.627 Y-5.923 Z12.040 A1.4603 
N804 X-295.366 Y-7.501 Z12.033 A1.4753 
N805 X-295.119 Y-8.996 Z12.026 A1.4934 
N806 X-294.888 Y-10.389 Z12.019 A1.5024 
N807 X-294.677 Y-11.664 Z12.011 A1.4923 
N808 X-294.486 Y-12.815 Z12.000 A1.4438 
N809 X-294.318 Y-13.834 Z11.997 
N810 X-294.170 Y-14.728 Z11.994 
N811 X-294.047 Y-15.502 Z12.021 A1.7051 
N812 X-293.951 Y-16.161 Z12.101 A2.4452 
N813 X-293.884 Y-16.717 Z12.247 A3.8063 
N814 X-293.842 Y-17.189 Z12.472 A5.9023 
N815 X-293.824 Y-17.605 Z12.783 A8.8209 
N816 X-293.825 Y-17.987 Z13.175 A12.5289 
N817 X-293.836 Y-18.356 Z13.617 A16.7833 
N818 X-293.849 Y-18.732 Z14.076 A21.3388 
N819 X-293.856 Y-19.076 Z14.470 A25.4209 
N820 X-293.858 Y-19.408 Z14.822 A29.2356 
N821 X-293.856 Y-19.731 Z15.137 A32.8137 
N822 X-293.851 Y-20.035 Z15.413 A36.0869 
N823 X-293.843 Y-20.325 Z15.656 A39.1277 
N824 X-293.831 Y-20.624 Z15.888 A42.1744 
N825 X-293.818 Y-20.894 Z16.081 A44.8450 
N826 X-293.801 Y-21.185 Z16.272 A47.6560 
N827 X-293.783 Y-21.452 Z16.434 A50.1816 
N828 X-293.762 Y-21.733 Z16.589 A52.7807 
N829 X-293.739 Y-22.015 Z16.730 A55.3442 
N830 X-293.713 Y-22.297 Z16.858 A57.8502 
N831 X-293.684 Y-22.590 Z16.976 A60.4160 
N832 X-293.653 Y-22.879 Z17.080 A62.9118 
N833 X-293.620 Y-23.173 Z17.171 A65.4102 
N834 X-293.583 Y-23.472 Z17.251 A67.9304 
N835 X-293.544 Y-23.772 Z17.316 A70.4275 
N836 X-293.503 Y-24.075 Z17.369 A72.9212 
N837 X-293.460 Y-24.378 Z17.408 A75.4034 
N838 X-293.413 Y-24.688 Z17.433 A77.9350 
N839 X-293.364 Y-24.995 Z17.444 A80.4301 
N840 X-293.313 Y-25.301 Z17.441 A82.9139 
N841 X-293.258 Y-25.618 Z17.422 A85.4865 
N842 X-293.202 Y-25.924 Z17.389 A87.9820 
N843 X-293.142 Y-26.239 Z17.339 A90.5658 
N844 X-293.079 Y-26.554 Z17.271 A93.1675 
N845 X-293.015 Y-26.862 Z17.187 A95.7495 
N846 X-292.944 Y-27.186 Z17.079 A98.5005 
N847 X-292.872 Y-27.501 Z16.952 A101.2267 
N848 X-292.793 Y-27.827 Z16.796 A104.1127 
N849 X-292.709 Y-28.153 Z16.609 A107.1040 
N850 X-292.621 Y-28.473 Z16.392 A110.1614 
N851 X-292.527 Y-28.789 Z16.136 A113.3461 
N852 X-292.428 Y-29.096 Z15.834 A116.6684 
N853 X-292.325 Y-29.377 Z15.488 A120.0315 
N854 X-292.226 Y-29.612 Z15.113 A123.2784 
N855 X-292.124 Y-29.805 Z14.684 A126.5768 
N856 X-292.032 Y-29.922 Z14.236 A129.5717 
N857 X-291.953 Y-29.945 Z13.771 A132.1765 
N858 X-291.893 Y-29.862 Z13.314 A134.2050 
N859 X-291.850 Y-29.673 Z12.861 A135.6777 
N860 X-291.824 Y-29.386 Z12.407 A136.6669 
N861 X-291.810 Y-29.011 Z11.943 A137.2714 
N862 X-291.806 Y-28.556 Z11.456 A137.5954 
N863 X-291.809 Y-28.030 Z10.938 A137.7241 
N864 X-291.815 Y-27.445 Z10.384 A137.7385 
N865 X-291.824 Y-26.810 Z9.792 A137.7036 
N866 X-291.831 Y-26.138 Z9.157 
N867 X-291.839 Y-25.431 Z8.486 A137.7249 
N868 X-291.843 Y-24.710 Z7.778 A137.9069 
N869 X-291.843 Y-23.983 Z7.038 A138.2867 
N870 X-291.837 Y-23.259 Z6.271 A138.9320 
N871 X-291.827 Y-22.545 Z5.483 A139.8733 
N872 X-291.813 Y-21.842 Z4.683 A141.1196 
N873 X-291.796 Y-21.151 Z3.879 A142.6650 
N874 X-291.778 Y-20.469 Z3.074 A144.5098 
N875 X-291.760 Y-19.792 Z2.274 A146.6472 
N876 X-291.743 Y-19.113 Z1.481 A149.0610 
N877 X-291.729 Y-18.425 Z0.698 A151.7246 
N878 X-291.721 Y-17.715 Z-0.073 A154.6120 
N879 X-291.720 Y-16.974 Z-0.828 A157.6876 
N880 X-291.731 Y-16.187 Z-1.563 A160.9136 
N881 X-291.755 Y-15.345 Z-2.266 A164.2141 
N882 X-291.800 Y-14.434 Z-2.915 A167.4213 
N883 X-291.869 Y-13.451 Z-3.489 A170.3443 
N884 X-291.965 Y-12.395 Z-3.967 A172.8123 
N885 X-292.089 Y-11.274 Z-4.337 A174.6863 
N886 X-292.240 Y-10.099 Z-4.602 A175.8953 
N887 X-292.412 Y-8.880 Z-4.779 A176.5143 
N888 X-292.598 Y-7.630 Z-4.902 A176.7235 
N889 X-292.790 Y-6.362 Z-5.000 A176.7330 
N890 X-292.984 Y-5.090 Z-5.095 A176.6883 
N891 X-293.176 Y-3.828 Z-5.192 A176.6540 
N892 X-293.364 Y-2.589 Z-5.292 A176.6298 
N893 X-293.545 Y-1.390 Z-5.392 A176.6199 
N894 X-293.718 Y-0.242 Z-5.491 
N895 X-293.882 Y0.849 Z-5.587 
N896 X-294.036 Y1.876 Z-5.682 A176.6833 
N897 X-294.169 Y2.819 Z-5.818 A177.1939 
N898 X-294.283 Y3.680 Z-5.990 A178.1623 
N899 X-294.376 Y4.457 Z-6.204 A179.6646 
N900 X-294.451 Y5.160 Z-6.454 A181.6807 
N901 X-294.510 Y5.794 Z-6.736 A184.1640 
N902 X-294.556 Y6.375 Z-7.040 A187.0371 
N903 X-294.594 Y6.909 Z-7.347 A190.1253 
N904 X-294.628 Y7.404 Z-7.643 A193.2788 
N905 X-294.659 Y7.865 Z-7.916 A196.3701 
N906 X-294.690 Y8.299 Z-8.169 A199.4016 
N907 X-294.719 Y8.702 Z-8.397 A202.2924 
N908 X-294.749 Y9.086 Z-8.605 A205.0954 
N909 X-294.778 Y9.453 Z-8.795 A207.8145 
N910 X-294.808 Y9.805 Z-8.968 A210.4351 
N911 X-294.839 Y10.145 Z-9.126 A212.9872 
N912 X-294.870 Y10.481 Z-9.271 A215.5051 
N913 X-294.903 Y10.808 Z-9.403 A217.9568 
N914 X-294.936 Y11.131 Z-9.523 A220.3787 
N915 X-294.972 Y11.453 Z-9.632 A222.7870 
N916 X-295.009 Y11.772 Z-9.729 A225.1636 
N917 X-295.047 Y12.089 Z-9.814 A227.5187 
N918 X-295.087 Y12.406 Z-9.889 A229.8663 
N919 X-295.129 Y12.723 Z-9.953 A232.2059 
N920 X-295.172 Y13.040 Z-10.005 A234.5373 
N921 X-295.218 Y13.357 Z-10.046 A236.8608 
N922 X-295.265 Y13.673 Z-10.075 A239.1766 
N923 X-295.314 Y13.988 Z-10.092 A241.4840 
N924 X-295.365 Y14.302 Z-10.098 A243.7843 
N925 X-295.418 Y14.616 Z-10.092 A246.0814 
N926 X-295.472 Y14.928 Z-10.074 A248.3785 
N927 X-295.528 Y15.240 Z-10.043 A250.6783 
N928 X-295.586 Y15.551 Z-10.001 A252.9838 
N929 X-295.646 Y15.861 Z-9.946 A255.2973 
N930 X-295.708 Y16.170 Z-9.878 A257.6204 
N931 X-295.772 Y16.477 Z-9.797 A259.9544 
N932 X-295.838 Y16.782 Z-9.702 A262.3004 
N933 X-295.905 Y17.086 Z-9.593 A264.6587 
N934 X-295.975 Y17.386 Z-9.468 A267.0298 
N935 X-296.046 Y17.682 Z-9.328 A269.4159 
N936 X-296.120 Y17.975 Z-9.171 A271.8188 
N937 X-296.197 Y18.266 Z-8.995 A274.2637 
N938 X-296.276 Y18.553 Z-8.797 A276.7522 
N939 X-296.358 Y18.834 Z-8.579 A279.2747 
N940 X-296.443 Y19.111 Z-8.335 A281.8604 
N941 X-296.532 Y19.384 Z-8.060 A284.5331 
N942 X-296.626 Y19.648 Z-7.751 A287.2922 
N943 X-296.723 Y19.901 Z-7.407 A290.1429 
N944 X-296.826 Y20.139 Z-7.017 A293.1139 
N945 X-296.932 Y20.353 Z-6.581 A296.1675 
N946 X-297.038 Y20.529 Z-6.102 A299.2424 
N947 X-297.145 Y20.659 Z-5.574 A302.3303 
N948 X-297.248 Y20.722 Z-5.005 A305.3184 
N949 X-297.339 Y20.697 Z-4.417 A307.9739 
N950 X-297.414 Y20.567 Z-3.822 A310.1576 
N951 X-297.471 Y20.328 Z-3.232 A311.7823 
N952 X-297.510 Y19.993 Z-2.649 A312.8816 
N953 X-297.536 Y19.575 Z-2.066 A313.5624 
N954 X-297.552 Y19.093 Z-1.478 A313.9369 
N955 X-297.562 Y18.562 Z-0.879 A314.1006 
N956 X-297.568 Y17.997 Z-0.270 A314.1334 
N957 X-297.572 Y17.415 Z0.349 A314.1081 
N958 X-297.577 Y16.827 Z0.974 A314.0759 
N959 X-297.582 Y16.247 Z1.597 
N960 X-297.588 Y15.679 Z2.210 A314.0855 
N961 X-297.595 Y15.135 Z2.802 A314.1236 
N962 X-297.601 Y14.616 Z3.365 A314.1542 
N963 X-297.606 Y14.127 Z3.892 A314.1617 
N964 X-297.608 Y13.664 Z4.377 A314.0759 
N965 X-297.613 Y13.246 Z4.829 
N966 X-297.621 Y12.861 Z5.269 A314.2055 
N967 X-297.665 Y12.620 Z5.787 A315.7126 
N968 X-297.772 Y12.575 Z6.493 A319.6554 
N969 X-297.953 Y12.703 Z7.476 A326.6817 
N970 X-298.167 Y12.816 Z8.685 A335.7834 
N971 X-298.361 Y12.741 Z9.956 A345.3995 
N972 X-298.487 Y12.413 Z11.065 A353.8478 
N973 X-298.514 Y11.881 Z11.770 A359.3313 
N974 X-298.449 Y11.241 Z12.018 A1.3342 
N975 X-298.334 Y10.518 Z12.045 A1.6025 
N976 X-298.196 Y9.695 Z12.031 A1.5463 
N977 X-298.041 Y8.759 Z12.023 A1.5338 
N978 X-297.866 Y7.703 Z12.015 
N979 X-297.670 Y6.523 Z12.007 
N980 X-297.455 Y5.224 Z11.999 A1.5351 
N981 X-297.222 Y3.814 Z11.989 A1.5352 
N982 X-296.972 Y2.309 Z11.979 A1.5348 
N983 X-296.710 Y0.725 Z11.968 A1.5343 
N984 X-296.438 Y-0.911 Z11.956 A1.5342 
N985 X-296.163 Y-2.574 Z11.945 A1.5351 
N986 X-295.888 Y-4.235 Z11.934 A1.5382 
N987 X-295.618 Y-5.865 Z11.923 A1.5449 
N988 X-295.357 Y-7.437 Z11.914 A1.5559 
N989 X-295.111 Y-8.927 Z11.905 A1.5691 
N990 X-294.880 Y-10.315 Z11.896 A1.5755 
N991 X-294.670 Y-11.586 Z11.887 A1.5696 
N992 X-294.479 Y-12.733 Z11.877 A1.5391 
N993 X-294.312 Y-13.747 Z11.871 A1.5338 
N994 X-294.165 Y-14.633 Z11.867 
N995 X-294.039 Y-15.403 Z11.872 A1.6046 
N996 X-293.939 Y-16.053 Z11.914 A2.0137 
N997 X-293.865 Y-16.601 Z12.014 A2.9363 
N998 X-293.820 Y-17.059 Z12.202 A4.6612 
N999 X-293.804 Y-17.464 Z12.516 A7.5228 
N1000 X-293.813 Y-17.834 Z12.945 A11.4607 
N1001 X-293.834 Y-18.211 Z13.460 A16.2871 
N1002 X-293.854 Y-18.581 Z13.956 A21.1063 
N1003 X-293.866 Y-18.950 Z14.405 A25.6862 
N1004 X-293.870 Y-19.295 Z14.782 A29.7388 
N1005 X-293.869 Y-19.618 Z15.102 A33.3593 
N1006 X-293.864 Y-19.929 Z15.384 A36.7191 
N1007 X-293.854 Y-20.231 Z15.633 A39.8596 
N1008 X-293.843 Y-20.506 Z15.841 A42.6383 
N1009 X-293.828 Y-20.793 Z16.042 A45.4608 
N1010 X-293.812 Y-21.058 Z16.212 A48.0057 
N1011 X-293.793 Y-21.334 Z16.375 A50.5911 
N1012 X-293.772 Y-21.608 Z16.523 A53.1124 
N1013 X-293.749 Y-21.882 Z16.657 A55.5863 
N1014 X-293.722 Y-22.168 Z16.784 A58.1257 
N1015 X-293.694 Y-22.446 Z16.893 A60.5497 
N1016 X-293.663 Y-22.733 Z16.994 A63.0122 
N1017 X-293.630 Y-23.025 Z17.083 A65.4955 
N1018 X-293.594 Y-23.317 Z17.158 A67.9410 
N1019 X-293.555 Y-23.613 Z17.222 A70.4010 
N1020 X-293.514 Y-23.912 Z17.273 A72.8681 
N1021 X-293.471 Y-24.214 Z17.311 A75.3351 
N1022 X-293.425 Y-24.514 Z17.335 A77.7866 
N1023 X-293.377 Y-24.819 Z17.346 A80.2580 
N1024 X-293.326 Y-25.125 Z17.343 A82.7456 
N1025 X-293.274 Y-25.425 Z17.327 A85.1848 
N1026 X-293.218 Y-25.736 Z17.295 A87.7114 
N1027 X-293.160 Y-26.042 Z17.248 A90.2232 
N1028 X-293.100 Y-26.343 Z17.186 A92.7060 
N1029 X-293.035 Y-26.659 Z17.104 A95.3465 
N1030 X-292.970 Y-26.958 Z17.010 A97.8742 
N1031 X-292.896 Y-27.287 Z16.885 A100.7071 
N1032 X-292.822 Y-27.597 Z16.744 A103.4330 
N1033 X-292.738 Y-27.933 Z16.565 A106.4809 
N1034 X-292.649 Y-28.266 Z16.356 A109.6093 
N1035 X-292.555 Y-28.596 Z16.110 A112.8584 
N1036 X-292.454 Y-28.921 Z15.820 A116.2742 
N1037 X-292.347 Y-29.234 Z15.479 A119.8455 
N1038 X-292.239 Y-29.513 Z15.095 A123.4431 
N1039 X-292.132 Y-29.742 Z14.669 A126.9788 
N1040 X-292.036 Y-29.891 Z14.225 A130.1837 
N1041 X-291.955 Y-29.938 Z13.775 A132.8929 
N1042 X-291.895 Y-29.876 Z13.342 A134.9578 
N1043 X-291.853 Y-29.709 Z12.915 A136.4555 
N1044 X-291.828 Y-29.445 Z12.493 A137.4441 
N1045 X-291.817 Y-29.091 Z12.063 A138.0334 
N1046 X-291.815 Y-28.656 Z11.612 A138.3189 
N1047 X-291.820 Y-28.154 Z11.135 A138.4069 
N1048 X-291.830 Y-27.589 Z10.618 A138.3879 
N1049 X-291.839 Y-26.980 Z10.058 A138.3817 
N1050 X-291.849 Y-26.324 Z9.454 A138.3824 
N1051 X-291.856 Y-25.642 Z8.805 A138.5152 
N1052 X-291.860 Y-24.938 Z8.115 A138.7980 
N1053 X-291.861 Y-24.221 Z7.392 A139.2815 
N1054 X-291.858 Y-23.499 Z6.640 A139.9907 
N1055 X-291.852 Y-22.775 Z5.869 A140.9416 
N1056 X-291.844 Y-22.052 Z5.085 A142.1374 
N1057 X-291.834 Y-21.333 Z4.296 A143.5894 
N1058 X-291.823 Y-20.618 Z3.505 A145.3140 
N1059 X-291.813 Y-19.904 Z2.714 A147.3241 
N1060 X-291.803 Y-19.187 Z1.924 A149.6274 
N1061 X-291.795 Y-18.459 Z1.139 A152.2201 
N1062 X-291.792 Y-17.711 Z0.361 A155.0802 
N1063 X-291.796 Y-16.931 Z-0.405 A158.1767 
N1064 X-291.810 Y-16.109 Z-1.152 A161.4686 
N1065 X-291.840 Y-15.229 Z-1.860 A164.8010 
N1066 X-291.892 Y-14.284 Z-2.499 A167.9301 
N1067 X-291.970 Y-13.273 Z-3.043 A170.6340 
N1068 X-292.076 Y-12.202 Z-3.478 A172.7507 
N1069 X-292.208 Y-11.083 Z-3.800 A174.1842 
N1070 X-292.362 Y-9.927 Z-4.026 A174.9690 
N1071 X-292.530 Y-8.747 Z-4.185 A175.2690 
N1072 X-292.706 Y-7.556 Z-4.311 A175.3021 
N1073 X-292.882 Y-6.368 Z-4.427 A175.2500 
N1074 X-293.056 Y-5.194 Z-4.545 A175.2032 
N1075 X-293.226 Y-4.048 Z-4.665 A175.1764 
N1076 X-293.388 Y-2.943 Z-4.786 
N1077 X-293.543 Y-1.887 Z-4.904 
N1078 X-293.690 Y-0.885 Z-5.015 
N1079 X-293.825 Y0.055 Z-5.134 A175.3058 
N1080 X-293.941 Y0.915 Z-5.294 A175.9121 
N1081 X-294.036 Y1.698 Z-5.499 A177.0580 
N1082 X-294.112 Y2.408 Z-5.755 A178.8278 
N1083 X-294.170 Y3.051 Z-6.051 A181.1625 
N1084 X-294.213 Y3.640 Z-6.378 A183.9811 
N1085 X-294.248 Y4.188 Z-6.723 A187.1699 
N1086 X-294.276 Y4.699 Z-7.065 A190.5355 
N1087 X-294.304 Y5.184 Z-7.389 A193.9291 
N1088 X-294.332 Y5.643 Z-7.680 A197.2072 
N1089 X-294.362 Y6.078 Z-7.938 A200.3226 
N1090 X-294.393 Y6.494 Z-8.166 A203.2999 
N1091 X-294.426 Y6.891 Z-8.366 A206.1148 
N1092 X-294.461 Y7.273 Z-8.540 A208.8087 
N1093 X-294.497 Y7.645 Z-8.693 A211.3972 
N1094 X-294.535 Y8.007 Z-8.825 A213.8917 
N1095 X-294.575 Y8.363 Z-8.940 A216.3221 
N1096 X-294.617 Y8.715 Z-9.038 A218.6990 
N1097 X-294.661 Y9.063 Z-9.120 A221.0192 
N1098 X-294.707 Y9.407 Z-9.186 A223.2983 
N1099 X-294.755 Y9.749 Z-9.238 A225.5431 
N1100 X-294.805 Y10.088 Z-9.274 A227.7482 
N1101 X-294.857 Y10.424 Z-9.297 A229.9278 
N1102 X-294.910 Y10.757 Z-9.306 A232.0763 
N1103 X-294.965 Y11.087 Z-9.301 A234.2030 
N1104 X-295.021 Y11.413 Z-9.285 A236.3071 
N1105 X-295.079 Y11.737 Z-9.257 A238.3955 
N1106 X-295.138 Y12.056 Z-9.217 A240.4694 
N1107 X-295.199 Y12.373 Z-9.167 A242.5375 
N1108 X-295.260 Y12.687 Z-9.107 A244.6040 
N1109 X-295.322 Y12.998 Z-9.039 A246.6834 
N1110 X-295.386 Y13.308 Z-8.961 A248.7762 
N1111 X-295.451 Y13.618 Z-8.875 A250.9005 
N1112 X-295.517 Y13.926 Z-8.781 A253.0469 
N1113 X-295.584 Y14.234 Z-8.679 A255.2282 
N1114 X-295.653 Y14.540 Z-8.567 A257.4407 
N1115 X-295.723 Y14.845 Z-8.445 A259.6803 
N1116 X-295.794 Y15.149 Z-8.314 A261.9527 
N1117 X-295.867 Y15.451 Z-8.172 A264.2519 
N1118 X-295.941 Y15.750 Z-8.018 A266.5807 
N1119 X-296.017 Y16.046 Z-7.852 A268.9402 
N1120 X-296.094 Y16.339 Z-7.672 A271.3368 
N1121 X-296.174 Y16.631 Z-7.476 A273.7804 
N1122 X-296.255 Y16.918 Z-7.264 A276.2660 
N1123 X-296.341 Y17.206 Z-7.030 A278.8450 
N1124 X-296.429 Y17.488 Z-6.776 A281.4746 
N1125 X-296.522 Y17.772 Z-6.490 A284.2456 
N1126 X-296.619 Y18.050 Z-6.174 A287.1217 
N1127 X-296.721 Y18.322 Z-5.821 A290.1373 
N1128 X-296.828 Y18.582 Z-5.424 A293.3082 
N1129 X-296.940 Y18.823 Z-4.978 A296.6114 
N1130 X-297.053 Y19.029 Z-4.491 A299.9624 
N1131 X-297.165 Y19.183 Z-3.957 A303.2976 
N1132 X-297.266 Y19.255 Z-3.404 A306.3327 
N1133 X-297.352 Y19.227 Z-2.846 A308.8917 
N1134 X-297.419 Y19.094 Z-2.299 A310.8746 
N1135 X-297.468 Y18.863 Z-1.763 A312.3084 
N1136 X-297.501 Y18.547 Z-1.236 A313.2614 
N1137 X-297.522 Y18.162 Z-0.717 A313.8169 
N1138 X-297.534 Y17.721 Z-0.198 A314.0738 
N1139 X-297.540 Y17.243 Z0.325 A314.1333 
N1140 X-297.544 Y16.742 Z0.856 A314.1037 
N1141 X-297.547 Y16.234 Z1.394 A314.0602 
N1142 X-297.552 Y15.731 Z1.936 A314.0598 
N1143 X-297.558 Y15.236 Z2.472 A314.0703 
N1144 X-297.564 Y14.757 Z2.995 A314.1114 
N1145 X-297.570 Y14.298 Z3.495 A314.1430 
N1146 X-297.574 Y13.861 Z3.965 A314.1370 
N1147 X-297.576 Y13.445 Z4.402 A314.0598 
N1148 X-297.581 Y13.066 Z4.814 
N1149 X-297.592 Y12.724 Z5.231 A314.3158 
N1150 X-297.642 Y12.528 Z5.741 A316.0581 
N1151 X-297.750 Y12.508 Z6.427 A320.0538 
N1152 X-297.921 Y12.628 Z7.356 A326.7011 
N1153 X-298.121 Y12.732 Z8.481 A335.1469 
N1154 X-298.308 Y12.678 Z9.692 A344.2930 
N1155 X-298.444 Y12.395 Z10.816 A352.8485 
N1156 X-298.486 Y11.901 Z11.574 A358.7342 
N1157 X-298.433 Y11.287 Z11.876 A1.1447 
N1158 X-298.326 Y10.588 Z11.923 A1.5760 
N1159 X-298.193 Y9.792 Z11.912 A1.5374 
N1160 X-298.042 Y8.885 Z11.903 A1.5153 
N1161 X-297.872 Y7.860 Z11.896 
N1162 X-297.682 Y6.710 Z11.888 
N1163 X-297.471 Y5.439 Z11.880 A1.5167 
N1164 X-297.242 Y4.057 Z11.871 A1.5168 
N1165 X-296.997 Y2.575 Z11.861 A1.5165 
N1166 X-296.738 Y1.013 Z11.850 A1.5160 
N1167 X-296.469 Y-0.607 Z11.839 A1.5156 
N1168 X-296.196 Y-2.259 Z11.829 A1.5158 
N1169 X-295.922 Y-3.913 Z11.818 A1.5171 
N1170 X-295.652 Y-5.541 Z11.808 A1.5206 
N1171 X-295.391 Y-7.116 Z11.798 A1.5269 
N1172 X-295.143 Y-8.613 Z11.789 A1.5352 
N1173 X-294.912 Y-10.011 Z11.781 A1.5435 
N1174 X-294.699 Y-11.295 Z11.773 A1.5463 
N1175 X-294.507 Y-12.455 Z11.766 A1.5432 
N1176 X-294.336 Y-13.485 Z11.758 A1.5234 
N1177 X-294.187 Y-14.385 Z11.753 A1.5153 
N1178 X-294.059 Y-15.159 Z11.749 
N1179 X-293.951 Y-15.822 Z11.757 A1.6031 
N1180 X-293.871 Y-16.379 Z11.824 A2.2137 
N1181 X-293.820 Y-16.848 Z11.989 A3.6890 
N1182 X-293.803 Y-17.253 Z12.295 A6.4253 
N1183 X-293.813 Y-17.621 Z12.731 A10.3675 
N1184 X-293.837 Y-17.997 Z13.262 A15.2800 
N1185 X-293.861 Y-18.368 Z13.781 A20.2589 
N1186 X-293.877 Y-18.751 Z14.271 A25.1778 
N1187 X-293.884 Y-19.116 Z14.687 A29.5826 
N1188 X-293.884 Y-19.451 Z15.025 A33.3897 
N1189 X-293.878 Y-19.765 Z15.307 A36.7616 
N1190 X-293.868 Y-20.070 Z15.555 A39.9130 
N1191 X-293.856 Y-20.339 Z15.755 A42.6000 
N1192 X-293.841 Y-20.621 Z15.949 A45.3572 
N1193 X-293.825 Y-20.882 Z16.114 A47.8407 
N1194 X-293.806 Y-21.158 Z16.274 A50.4148 
N1195 X-293.785 Y-21.420 Z16.414 A52.8176 
N1196 X-293.762 Y-21.692 Z16.545 A55.2599 
N1197 X-293.736 Y-21.968 Z16.666 A57.6943 
N1198 X-293.708 Y-22.242 Z16.774 A60.0862 
N1199 X-293.678 Y-22.527 Z16.873 A62.5261 
N1200 X-293.645 Y-22.810 Z16.960 A64.9264 
N1201 X-293.610 Y-23.097 Z17.035 A67.3349 
N1202 X-293.572 Y-23.390 Z17.099 A69.7677 
N1203 X-293.532 Y-23.682 Z17.150 A72.1761 
N1204 X-293.490 Y-23.978 Z17.189 A74.5928 
N1205 X-293.446 Y-24.275 Z17.216 A77.0152 
N1206 X-293.398 Y-24.575 Z17.230 A79.4509 
N1207 X-293.350 Y-24.873 Z17.231 A81.8689 
N1208 X-293.298 Y-25.173 Z17.219 A84.3060 
N1209 X-293.244 Y-25.476 Z17.192 A86.7716 
N1210 X-293.189 Y-25.772 Z17.153 A89.1898 
N1211 X-293.129 Y-26.080 Z17.097 A91.7210 
N1212 X-293.068 Y-26.383 Z17.026 A94.2405 
N1213 X-293.003 Y-26.688 Z16.939 A96.8023 
N1214 X-292.933 Y-27.005 Z16.830 A99.5060 
N1215 X-292.862 Y-27.316 Z16.703 A102.2087 
N1216 X-292.781 Y-27.650 Z16.543 A105.1855 
N1217 X-292.695 Y-27.985 Z16.356 A108.2601 
N1218 X-292.606 Y-28.315 Z16.138 A111.4153 
N1219 X-292.503 Y-28.670 Z15.863 A114.9772 
N1220 X-292.393 Y-29.018 Z15.540 A118.7195 
N1221 X-292.279 Y-29.344 Z15.170 A122.5659 
N1222 X-292.163 Y-29.630 Z14.742 A126.4859 
N1223 X-292.061 Y-29.824 Z14.315 A129.8879 
N1224 X-291.974 Y-29.924 Z13.876 A132.8614 
N1225 X-291.905 Y-29.918 Z13.443 A135.2619 
N1226 X-291.856 Y-29.807 Z13.034 A137.0125 
N1227 X-291.827 Y-29.592 Z12.632 A138.2063 
N1228 X-291.814 Y-29.283 Z12.239 A138.8799 
N1229 X-291.813 Y-28.888 Z11.835 A139.1740 
N1230 X-291.821 Y-28.421 Z11.408 A139.2337 
N1231 X-291.832 Y-27.893 Z10.942 A139.1879 
N1232 X-291.844 Y-27.317 Z10.428 A139.1580 
N1233 X-291.855 Y-26.694 Z9.867 
N1234 X-291.866 Y-26.029 Z9.261 A139.2096 
N1235 X-291.873 Y-25.343 Z8.607 A139.4602 
N1236 X-291.877 Y-24.636 Z7.914 A139.8981 
N1237 X-291.878 Y-23.918 Z7.188 A140.5510 
N1238 X-291.876 Y-23.189 Z6.439 A141.4132 
N1239 X-291.873 Y-22.456 Z5.675 A142.4932 
N1240 X-291.868 Y-21.721 Z4.901 A143.8034 
N1241 X-291.863 Y-20.985 Z4.123 A145.3590 
N1242 X-291.858 Y-20.248 Z3.343 A147.1788 
N1243 X-291.853 Y-19.509 Z2.563 A149.2835 
N1244 X-291.850 Y-18.762 Z1.784 A151.6853 
N1245 X-291.849 Y-18.001 Z1.009 A154.3838 
N1246 X-291.854 Y-17.215 Z0.240 A157.3652 
N1247 X-291.867 Y-16.393 Z-0.512 A160.5656 
N1248 X-291.894 Y-15.524 Z-1.229 A163.8591 
N1249 X-291.939 Y-14.600 Z-1.891 A167.0740 
N1250 X-292.008 Y-13.618 Z-2.461 A169.9193 
N1251 X-292.106 Y-12.582 Z-2.909 A172.0827 
N1252 X-292.231 Y-11.505 Z-3.230 A173.4351 
N1253 X-292.376 Y-10.403 Z-3.452 A174.1098 
N1254 X-292.533 Y-9.288 Z-3.615 A174.3600 
N1255 X-292.695 Y-8.173 Z-3.752 A174.4154 
N1256 X-292.855 Y-7.071 Z-3.880 A174.4013 
N1257 X-293.013 Y-5.991 Z-4.004 A174.3688 
N1258 X-293.166 Y-4.946 Z-4.125 A174.3218 
N1259 X-293.310 Y-3.945 Z-4.248 
N1260 X-293.448 Y-2.992 Z-4.365 
N1261 X-293.575 Y-2.095 Z-4.491 A174.4663 
N1262 X-293.685 Y-1.270 Z-4.654 A175.0325 
N1263 X-293.776 Y-0.515 Z-4.858 A176.0909 
N1264 X-293.849 Y0.171 Z-5.107 A177.7248 
N1265 X-293.904 Y0.796 Z-5.400 A179.9291 
N1266 X-293.945 Y1.370 Z-5.731 A182.6758 
N1267 X-293.975 Y1.904 Z-6.088 A185.8620 
N1268 X-293.999 Y2.409 Z-6.450 A189.2963 
N1269 X-294.022 Y2.891 Z-6.795 A192.7920 
N1270 X-294.048 Y3.354 Z-7.110 A196.2013 
N1271 X-294.075 Y3.795 Z-7.388 A199.4492 
N1272 X-294.105 Y4.222 Z-7.634 A202.5525 
N1273 X-294.138 Y4.630 Z-7.845 A205.4690 
N1274 X-294.174 Y5.027 Z-8.027 A208.2468 
N1275 X-294.213 Y5.415 Z-8.183 A210.9032 
N1276 X-294.254 Y5.795 Z-8.315 A213.4569 
N1277 X-294.298 Y6.170 Z-8.424 A215.9196 
N1278 X-294.345 Y6.540 Z-8.512 A218.3010 
N1279 X-294.394 Y6.906 Z-8.580 A220.6126 
N1280 X-294.446 Y7.268 Z-8.627 A222.8617 
N1281 X-294.500 Y7.627 Z-8.656 A225.0512 
N1282 X-294.557 Y7.983 Z-8.666 A227.1848 
N1283 X-294.616 Y8.333 Z-8.659 A229.2662 
N1284 X-294.677 Y8.679 Z-8.635 A231.2990 
N1285 X-294.739 Y9.020 Z-8.596 A233.2878 
N1286 X-294.803 Y9.355 Z-8.543 A235.2390 
N1287 X-294.868 Y9.685 Z-8.477 A237.1598 
N1288 X-294.934 Y10.009 Z-8.400 A239.0596 
N1289 X-295.001 Y10.329 Z-8.313 A240.9485 
N1290 X-295.068 Y10.644 Z-8.218 A242.8364 
N1291 X-295.136 Y10.956 Z-8.116 A244.7403 
N1292 X-295.204 Y11.267 Z-8.008 A246.6744 
N1293 X-295.274 Y11.576 Z-7.895 A248.6442 
N1294 X-295.343 Y11.884 Z-7.778 A250.6552 
N1295 X-295.414 Y12.192 Z-7.656 A252.7234 
N1296 X-295.485 Y12.500 Z-7.529 A254.8362 
N1297 X-295.557 Y12.809 Z-7.397 A257.0072 
N1298 X-295.631 Y13.117 Z-7.259 A259.2283 
N1299 X-295.705 Y13.425 Z-7.113 A261.5012 
N1300 X-295.780 Y13.732 Z-6.960 A263.8215 
N1301 X-295.857 Y14.039 Z-6.797 A266.1969 
N1302 X-295.936 Y14.344 Z-6.624 A268.6215 
N1303 X-296.016 Y14.650 Z-6.438 A271.1102 
N1304 X-296.099 Y14.957 Z-6.237 A273.6761 
N1305 X-296.185 Y15.264 Z-6.018 A276.3257 
N1306 X-296.275 Y15.572 Z-5.776 A279.0832 
N1307 X-296.370 Y15.883 Z-5.508 A281.9763 
N1308 X-296.470 Y16.197 Z-5.207 A285.0406 
N1309 X-296.576 Y16.507 Z-4.870 A288.2470 
N1310 X-296.687 Y16.808 Z-4.490 A291.6072 
N1311 X-296.803 Y17.092 Z-4.062 A295.1181 
N1312 X-296.921 Y17.340 Z-3.589 A298.6633 
N1313 X-297.032 Y17.523 Z-3.091 A301.9862 
N1314 X-297.131 Y17.618 Z-2.575 A304.9334 
N1315 X-297.213 Y17.613 Z-2.066 A307.3181 
N1316 X-297.277 Y17.510 Z-1.566 A309.1384 
N1317 X-297.324 Y17.320 Z-1.082 A310.4205 
N1318 X-297.358 Y17.055 Z-0.608 A311.2486 
N1319 X-297.380 Y16.728 Z-0.140 A311.7047 
N1320 X-297.394 Y16.357 Z0.326 A311.8892 
N1321 X-297.404 Y15.956 Z0.794 A311.9141 
N1322 X-297.413 Y15.541 Z1.269 A311.8816 
N1323 X-297.422 Y15.125 Z1.748 A311.8514 
N1324 X-297.432 Y14.713 Z2.227 A311.8414 
N1325 X-297.442 Y14.311 Z2.697 A311.8394 
N1326 X-297.452 Y13.922 Z3.151 A311.8223 
N1327 X-297.461 Y13.552 Z3.586 
N1328 X-297.471 Y13.201 Z4.001 
N1329 X-297.480 Y12.865 Z4.397 
N1330 X-297.505 Y12.606 Z4.813 A312.4407 
N1331 X-297.557 Y12.455 Z5.290 A314.1324 
N1332 X-297.652 Y12.442 Z5.887 A317.5052 
N1333 X-297.787 Y12.533 Z6.628 A322.5944 
N1334 X-297.943 Y12.635 Z7.482 A328.8189 
N1335 X-298.097 Y12.666 Z8.400 A335.5696 
N1336 X-298.241 Y12.589 Z9.370 A342.7544 
N1337 X-298.365 Y12.366 Z10.359 A350.1894 
N1338 X-298.433 Y11.960 Z11.189 A356.5462 
N1339 X-298.418 Y11.411 Z11.657 A0.2155 
N1340 X-298.336 Y10.764 Z11.804 A1.4203 
N1341 X-298.214 Y10.021 Z11.810 A1.5199 
N1342 X-298.073 Y9.175 Z11.797 A1.4635 
N1343 X-297.913 Y8.209 Z11.791 
N1344 X-297.732 Y7.120 Z11.784 
N1345 X-297.532 Y5.910 Z11.776 
N1346 X-297.313 Y4.584 Z11.768 A1.4642 
N1347 X-297.076 Y3.154 Z11.759 A1.4642 
N1348 X-296.824 Y1.637 Z11.750 A1.4640 
N1349 X-296.562 Y0.052 Z11.740 A1.4637 
N1350 X-296.292 Y-1.574 Z11.730 A1.4635 
N1351 X-296.021 Y-3.215 Z11.719 A1.4639 
N1352 X-295.751 Y-4.841 Z11.709 A1.4658 
N1353 X-295.489 Y-6.426 Z11.700 A1.4702 
N1354 X-295.238 Y-7.942 Z11.691 A1.4786 
N1355 X-295.002 Y-9.369 Z11.684 A1.4914 
N1356 X-294.784 Y-10.689 Z11.678 A1.5088 
N1357 X-294.585 Y-11.888 Z11.672 A1.5210 
N1358 X-294.408 Y-12.960 Z11.665 A1.5216 
N1359 X-294.251 Y-13.904 Z11.655 A1.4753 
N1360 X-294.116 Y-14.719 Z11.651 A1.4635 
N1361 X-294.001 Y-15.417 Z11.649 
N1362 X-293.909 Y-16.011 Z11.684 A1.7790 
N1363 X-293.847 Y-16.508 Z11.808 A2.8751 
N1364 X-293.817 Y-16.931 Z12.053 A5.0585 
N1365 X-293.817 Y-17.310 Z12.436 A8.5013 
N1366 X-293.836 Y-17.675 Z12.927 A12.9903 
N1367 X-293.863 Y-18.047 Z13.467 A18.0631 
N1368 X-293.886 Y-18.444 Z14.015 A23.4141 
N1369 X-293.899 Y-18.837 Z14.492 A28.3448 
N1370 X-293.900 Y-19.190 Z14.860 A32.4168 
N1371 X-293.895 Y-19.507 Z15.148 A35.8327 
N1372 X-293.885 Y-19.807 Z15.394 A38.9282 
N1373 X-293.873 Y-20.089 Z15.605 A41.7521 
N1374 X-293.859 Y-20.360 Z15.792 A44.3895 
N1375 X-293.842 Y-20.629 Z15.962 A46.9476 
N1376 X-293.824 Y-20.892 Z16.115 A49.3920 
N1377 X-293.803 Y-21.156 Z16.257 A51.8034 
N1378 X-293.781 Y-21.423 Z16.387 A54.2025 
N1379 X-293.756 Y-21.689 Z16.505 A56.5473 
N1380 X-293.728 Y-21.965 Z16.616 A58.9522 
N1381 X-293.700 Y-22.235 Z16.713 A61.2740 
N1382 X-293.668 Y-22.514 Z16.801 A63.6400 
N1383 X-293.634 Y-22.797 Z16.879 A66.0154 
N1384 X-293.598 Y-23.081 Z16.945 A68.3731 
N1385 X-293.559 Y-23.371 Z17.001 A70.7634 
N1386 X-293.519 Y-23.661 Z17.045 A73.1440 
N1387 X-293.476 Y-23.953 Z17.077 A75.5286 
N1388 X-293.431 Y-24.248 Z17.097 A77.9262 
N1389 X-293.383 Y-24.545 Z17.105 A80.3328 
N1390 X-293.333 Y-24.842 Z17.101 A82.7378 
N1391 X-293.282 Y-25.139 Z17.083 A85.1499 
N1392 X-293.227 Y-25.441 Z17.052 A87.6098 
N1393 X-293.171 Y-25.738 Z17.008 A90.0414 
N1394 X-293.111 Y-26.042 Z16.949 A92.5501 
N1395 X-293.049 Y-26.347 Z16.874 A95.0939 
N1396 X-292.985 Y-26.647 Z16.785 A97.6184 
N1397 X-292.913 Y-26.971 Z16.670 A100.3953 
N1398 X-292.842 Y-27.278 Z16.541 A103.0790 
N1399 X-292.757 Y-27.626 Z16.371 A106.2014 
N1400 X-292.669 Y-27.966 Z16.177 A109.3477 
N1401 X-292.572 Y-28.324 Z15.939 A112.7882 
N1402 X-292.462 Y-28.698 Z15.644 A116.5876 
N1403 X-292.348 Y-29.057 Z15.300 A120.5201 
N1404 X-292.231 Y-29.382 Z14.912 A124.4769 
N1405 X-292.114 Y-29.662 Z14.473 A128.4570 
N1406 X-292.009 Y-29.855 Z14.022 A132.0478 
N1407 X-291.923 Y-29.939 Z13.576 A135.0500 
N1408 X-291.861 Y-29.900 Z13.160 A137.2574 
N1409 X-291.825 Y-29.746 Z12.781 A138.6775 
N1410 X-291.808 Y-29.488 Z12.415 A139.5064 
N1411 X-291.805 Y-29.146 Z12.048 A139.9205 
N1412 X-291.811 Y-28.728 Z11.657 A140.0933 
N1413 X-291.821 Y-28.247 Z11.233 A140.1365 
N1414 X-291.834 Y-27.706 Z10.767 A140.1190 
N1415 X-291.849 Y-27.116 Z10.258 A140.0997 
N1416 X-291.864 Y-26.477 Z9.703 
N1417 X-291.879 Y-25.798 Z9.106 A140.1452 
N1418 X-291.891 Y-25.094 Z8.464 A140.3590 
N1419 X-291.899 Y-24.373 Z7.781 A140.7893 
N1420 X-291.902 Y-23.645 Z7.061 A141.4881 
N1421 X-291.901 Y-22.911 Z6.314 A142.4570 
N1422 X-291.899 Y-22.172 Z5.552 A143.6628 
N1423 X-291.897 Y-21.429 Z4.785 A145.0767 
N1424 X-291.896 Y-20.683 Z4.019 A146.7010 
N1425 X-291.895 Y-19.935 Z3.255 A148.5657 
N1426 X-291.895 Y-19.185 Z2.494 A150.7042 
N1427 X-291.897 Y-18.429 Z1.735 A153.1348 
N1428 X-291.901 Y-17.661 Z0.983 A155.8497 
N1429 X-291.911 Y-16.871 Z0.244 A158.8175 
N1430 X-291.930 Y-16.051 Z-0.475 A161.9817 
N1431 X-291.962 Y-15.190 Z-1.150 A165.1656 
N1432 X-292.014 Y-14.282 Z-1.750 A168.1081 
N1433 X-292.089 Y-13.330 Z-2.254 A170.5943 
N1434 X-292.186 Y-12.344 Z-2.653 A172.5065 
N1435 X-292.305 Y-11.334 Z-2.949 A173.7951 
N1436 X-292.439 Y-10.314 Z-3.159 A174.5065 
N1437 X-292.583 Y-9.294 Z-3.306 A174.7766 
N1438 X-292.730 Y-8.285 Z-3.420 A174.7956 
N1439 X-292.876 Y-7.298 Z-3.522 A174.7163 
N1440 X-293.016 Y-6.344 Z-3.627 A174.6810 
N1441 X-293.150 Y-5.426 Z-3.734 
N1442 X-293.278 Y-4.547 Z-3.837 A174.6964 
N1443 X-293.392 Y-3.728 Z-3.966 A175.0025 
N1444 X-293.492 Y-2.967 Z-4.120 A175.6230 
N1445 X-293.576 Y-2.269 Z-4.312 A176.7067 
N1446 X-293.642 Y-1.629 Z-4.554 A178.3624 
N1447 X-293.691 Y-1.045 Z-4.846 A180.6401 
N1448 X-293.726 Y-0.500 Z-5.181 A183.4789 
N1449 X-293.753 Y0.014 Z-5.538 A186.7083 
N1450 X-293.776 Y0.503 Z-5.890 A190.1019 
N1451 X-293.799 Y0.974 Z-6.226 A193.5474 
N1452 X-293.824 Y1.432 Z-6.536 A196.9537 
N1453 X-293.852 Y1.870 Z-6.811 A200.2015 
N1454 X-293.883 Y2.298 Z-7.052 A203.3153 
N1455 X-293.917 Y2.712 Z-7.260 A206.2556 
N1456 X-293.955 Y3.116 Z-7.438 A209.0608 
N1457 X-293.996 Y3.512 Z-7.588 A211.7448 
N1458 X-294.040 Y3.903 Z-7.712 A214.3183 
N1459 X-294.088 Y4.289 Z-7.811 A216.7936 
N1460 X-294.139 Y4.671 Z-7.886 A219.1790 
N1461 X-294.192 Y5.049 Z-7.937 A221.4794 
N1462 X-294.249 Y5.423 Z-7.966 A223.6993 
N1463 X-294.309 Y5.791 Z-7.972 A225.8418 
N1464 X-294.371 Y6.155 Z-7.958 A227.9086 
N1465 X-294.436 Y6.512 Z-7.923 A229.9034 
N1466 X-294.502 Y6.863 Z-7.870 A231.8315 
N1467 X-294.570 Y7.206 Z-7.801 A233.6988 
N1468 X-294.638 Y7.542 Z-7.717 A235.5139 
N1469 X-294.708 Y7.870 Z-7.620 A237.2889 
N1470 X-294.778 Y8.191 Z-7.513 A239.0390 
N1471 X-294.849 Y8.507 Z-7.399 A240.7807 
N1472 X-294.920 Y8.819 Z-7.279 A242.5317 
N1473 X-294.991 Y9.127 Z-7.154 A244.3106 
N1474 X-295.062 Y9.434 Z-7.028 A246.1363 
N1475 X-295.133 Y9.742 Z-6.900 A248.0265 
N1476 X-295.205 Y10.052 Z-6.771 A249.9962 
N1477 X-295.278 Y10.364 Z-6.640 A252.0466 
N1478 X-295.351 Y10.678 Z-6.508 A254.1742 
N1479 X-295.425 Y10.996 Z-6.372 A256.3952 
N1480 X-295.501 Y11.316 Z-6.233 A258.6867 
N1481 X-295.577 Y11.639 Z-6.087 A261.0647 
N1482 X-295.656 Y11.963 Z-5.933 A263.5185 
N1483 X-295.736 Y12.292 Z-5.769 A266.0603 
N1484 X-295.820 Y12.623 Z-5.592 A268.6907 
N1485 X-295.906 Y12.957 Z-5.399 A271.4162 
N1486 X-295.997 Y13.296 Z-5.185 A274.2715 
N1487 X-296.091 Y13.638 Z-4.948 A277.2405 
N1488 X-296.193 Y13.988 Z-4.678 A280.3961 
N1489 X-296.299 Y14.334 Z-4.376 A283.6788 
N1490 X-296.410 Y14.672 Z-4.035 A287.0732 
N1491 X-296.525 Y14.995 Z-3.651 A290.5724 
N1492 X-296.642 Y15.284 Z-3.224 A294.0698 
N1493 X-296.753 Y15.512 Z-2.769 A297.3476 
N1494 X-296.853 Y15.657 Z-2.304 A300.1983 
N1495 X-296.938 Y15.715 Z-1.833 A302.5768 
N1496 X-297.009 Y15.686 Z-1.370 A304.4265 
N1497 X-297.064 Y15.577 Z-0.918 A305.7717 
N1498 X-297.106 Y15.395 Z-0.475 A306.6530 
N1499 X-297.136 Y15.156 Z-0.045 A307.1350 
N1500 X-297.159 Y14.874 Z0.380 A307.3234 
N1501 X-297.177 Y14.566 Z0.804 A307.3357 
N1502 X-297.194 Y14.248 Z1.230 A307.2811 
N1503 X-297.211 Y13.929 Z1.657 A307.2227 
N1504 X-297.229 Y13.618 Z2.083 A307.1901 
N1505 X-297.247 Y13.319 Z2.501 
N1506 X-297.265 Y13.030 Z2.907 
N1507 X-297.283 Y12.749 Z3.300 
N1508 X-297.305 Y12.499 Z3.689 A307.3819 
N1509 X-297.342 Y12.324 Z4.096 A308.2128 
N1510 X-297.399 Y12.236 Z4.538 A309.8591 
N1511 X-297.479 Y12.237 Z5.031 A312.4749 
N1512 X-297.579 Y12.304 Z5.575 A315.9348 
N1513 X-297.693 Y12.404 Z6.175 A320.1129 
N1514 X-297.815 Y12.509 Z6.827 A324.8454 
N1515 X-297.943 Y12.588 Z7.531 A330.0436 
N1516 X-298.066 Y12.609 Z8.273 A335.5125 
N1517 X-298.185 Y12.550 Z9.060 A341.3218 
N1518 X-298.297 Y12.394 Z9.910 A347.6720 
N1519 X-298.382 Y12.097 Z10.736 A353.9533 
N1520 X-298.406 Y11.646 Z11.344 A358.6592 
N1521 X-298.360 Y11.081 Z11.633 A0.9565 
N1522 X-298.261 Y10.421 Z11.692 A1.4738 
N1523 X-298.134 Y9.657 Z11.685 A1.4650 
N1524 X-297.988 Y8.780 Z11.676 A1.4410 
N1525 X-297.822 Y7.778 Z11.670 
N1526 X-297.636 Y6.654 Z11.663 
N1527 X-297.430 Y5.408 Z11.655 
N1528 X-297.205 Y4.049 Z11.647 A1.4416 
N1529 X-296.963 Y2.591 Z11.638 A1.4418 
N1530 X-296.708 Y1.052 Z11.628 A1.4416 
N1531 X-296.444 Y-0.544 Z11.618 A1.4413 
N1532 X-296.174 Y-2.173 Z11.608 A1.4411 
N1533 X-295.904 Y-3.805 Z11.598 A1.4415 
N1534 X-295.638 Y-5.412 Z11.589 A1.4436 
N1535 X-295.380 Y-6.967 Z11.580 A1.4491 
N1536 X-295.136 Y-8.446 Z11.572 A1.4601 
N1537 X-294.907 Y-9.828 Z11.566 A1.4777 
N1538 X-294.697 Y-11.097 Z11.560 A1.4962 
N1539 X-294.508 Y-12.241 Z11.554 A1.5029 
N1540 X-294.339 Y-13.258 Z11.546 A1.4813 
N1541 X-294.192 Y-14.147 Z11.538 A1.4410 
N1542 X-294.066 Y-14.908 Z11.536 
N1543 X-293.958 Y-15.562 Z11.536 A1.4621 
N1544 X-293.877 Y-16.109 Z11.589 A1.9295 
N1545 X-293.822 Y-16.570 Z11.716 A3.0604 
N1546 X-293.798 Y-16.954 Z11.957 A5.2087 
N1547 X-293.805 Y-17.310 Z12.366 A8.8594 
N1548 X-293.838 Y-17.665 Z12.925 A13.9034 
N1549 X-293.876 Y-18.065 Z13.568 A19.9087 
N1550 X-293.902 Y-18.476 Z14.143 A25.5627 
N1551 X-293.911 Y-18.862 Z14.591 A30.2988 
N1552 X-293.909 Y-19.210 Z14.934 A34.2037 
N1553 X-293.902 Y-19.530 Z15.213 A37.5990 
N1554 X-293.891 Y-19.811 Z15.434 A40.4565 
N1555 X-293.878 Y-20.091 Z15.633 A43.2102 
N1556 X-293.862 Y-20.351 Z15.804 A45.7050 
N1557 X-293.845 Y-20.617 Z15.964 A48.2011 
N1558 X-293.825 Y-20.872 Z16.105 A50.5424 
N1559 X-293.804 Y-21.138 Z16.240 A52.9392 
N1560 X-293.781 Y-21.394 Z16.358 A55.2106 
N1561 X-293.755 Y-21.660 Z16.470 A57.5399 
N1562 X-293.727 Y-21.927 Z16.571 A59.8476 
N1563 X-293.698 Y-22.198 Z16.663 A62.1583 
N1564 X-293.665 Y-22.478 Z16.746 A64.5139 
N1565 X-293.631 Y-22.754 Z16.816 A66.8230 
N1566 X-293.594 Y-23.038 Z16.878 A69.1740 
N1567 X-293.555 Y-23.325 Z16.929 A71.5367 
N1568 X-293.514 Y-23.613 Z16.968 A73.8914 
N1569 X-293.471 Y-23.906 Z16.996 A76.2724 
N1570 X-293.425 Y-24.199 Z17.012 A78.6569 
N1571 X-293.377 Y-24.494 Z17.017 A81.0455 
N1572 X-293.327 Y-24.789 Z17.009 A83.4392 
N1573 X-293.275 Y-25.088 Z16.988 A85.8701 
N1574 X-293.220 Y-25.385 Z16.954 A88.2949 
N1575 X-293.164 Y-25.682 Z16.907 A90.7262 
N1576 X-293.103 Y-25.988 Z16.844 A93.2554 
N1577 X-293.042 Y-26.285 Z16.769 A95.7427 
N1578 X-292.975 Y-26.598 Z16.673 A98.3861 
N1579 X-292.905 Y-26.910 Z16.559 A101.0766 
N1580 X-292.830 Y-27.230 Z16.423 A103.8792 
N1581 X-292.748 Y-27.566 Z16.256 A106.9016 
N1582 X-292.659 Y-27.912 Z16.056 A110.1226 
N1583 X-292.564 Y-28.256 Z15.825 A113.4476 
N1584 X-292.454 Y-28.633 Z15.525 A117.2993 
N1585 X-292.336 Y-29.003 Z15.172 A121.3598 
N1586 X-292.214 Y-29.345 Z14.768 A125.5309 
N1587 X-292.094 Y-29.631 Z14.321 A129.6173 
N1588 X-291.992 Y-29.813 Z13.874 A133.1518 
N1589 X-291.911 Y-29.881 Z13.445 A135.9998 
N1590 X-291.854 Y-29.835 Z13.048 A138.0935 
N1591 X-291.818 Y-29.682 Z12.669 A139.5673 
N1592 X-291.800 Y-29.435 Z12.309 A140.4738 
N1593 X-291.797 Y-29.097 Z11.945 A140.9563 
N1594 X-291.804 Y-28.683 Z11.570 A141.1361 
N1595 X-291.818 Y-28.200 Z11.164 A141.1483 
N1596 X-291.834 Y-27.659 Z10.719 A141.0908 
N1597 X-291.852 Y-27.069 Z10.226 A141.0640 
N1598 X-291.869 Y-26.431 Z9.687 
N1599 X-291.888 Y-25.745 Z9.107 A141.0774 
N1600 X-291.903 Y-25.038 Z8.479 A141.2988 
N1601 X-291.914 Y-24.309 Z7.813 A141.7003 
N1602 X-291.923 Y-23.570 Z7.115 A142.3236 
N1603 X-291.929 Y-22.823 Z6.394 A143.1725 
N1604 X-291.933 Y-22.074 Z5.657 A144.2617 
N1605 X-291.935 Y-21.326 Z4.911 A145.5928 
N1606 X-291.937 Y-20.580 Z4.165 A147.1611 
N1607 X-291.938 Y-19.838 Z3.422 A148.9689 
N1608 X-291.941 Y-19.097 Z2.684 A151.0307 
N1609 X-291.944 Y-18.357 Z1.955 A153.3555 
N1610 X-291.950 Y-17.611 Z1.236 A155.9345 
N1611 X-291.961 Y-16.854 Z0.533 A158.7293 
N1612 X-291.979 Y-16.077 Z-0.143 A161.6619 
N1613 X-292.008 Y-15.273 Z-0.781 A164.6366 
N1614 X-292.050 Y-14.440 Z-1.364 A167.5173 
N1615 X-292.110 Y-13.576 Z-1.872 A170.1100 
N1616 X-292.189 Y-12.686 Z-2.288 A172.2409 
N1617 X-292.286 Y-11.780 Z-2.611 A173.8449 
N1618 X-292.398 Y-10.866 Z-2.850 A174.9418 
N1619 X-292.520 Y-9.956 Z-3.020 A175.5922 
N1620 X-292.648 Y-9.058 Z-3.139 A175.8961 
N1621 X-292.779 Y-8.179 Z-3.228 A175.9886 
N1622 X-292.906 Y-7.329 Z-3.308 A176.0302 
N1623 X-293.026 Y-6.514 Z-3.394 A176.1622 
N1624 X-293.136 Y-5.741 Z-3.498 A176.5005 
N1625 X-293.235 Y-5.013 Z-3.631 A177.1490 
N1626 X-293.319 Y-4.334 Z-3.798 A178.1973 
N1627 X-293.389 Y-3.703 Z-4.006 A179.7145 
N1628 X-293.446 Y-3.116 Z-4.251 A181.7093 
N1629 X-293.492 Y-2.566 Z-4.530 A184.1523 
N1630 X-293.528 Y-2.043 Z-4.833 A186.9876 
N1631 X-293.559 Y-1.547 Z-5.148 A190.0888 
N1632 X-293.588 Y-1.065 Z-5.461 A193.3638 
N1633 X-293.617 Y-0.596 Z-5.758 A196.6698 
N1634 X-293.648 Y-0.139 Z-6.029 A199.9200 
N1635 X-293.682 Y0.302 Z-6.268 A203.0405 
N1636 X-293.719 Y0.734 Z-6.478 A206.0524 
N1637 X-293.759 Y1.158 Z-6.658 A208.9331 
N1638 X-293.803 Y1.571 Z-6.807 A211.6750 
N1639 X-293.850 Y1.978 Z-6.928 A214.2974 
N1640 X-293.901 Y2.378 Z-7.023 A216.8105 
N1641 X-293.955 Y2.773 Z-7.091 A219.2193 
N1642 X-294.012 Y3.162 Z-7.135 A221.5301 
N1643 X-294.072 Y3.545 Z-7.154 A223.7477 
N1644 X-294.135 Y3.922 Z-7.150 A225.8755 
N1645 X-294.200 Y4.293 Z-7.124 A227.9183 
N1646 X-294.267 Y4.656 Z-7.078 A229.8820 
N1647 X-294.336 Y5.011 Z-7.013 A231.7730 
N1648 X-294.406 Y5.358 Z-6.931 A233.5998 
N1649 X-294.478 Y5.697 Z-6.835 A235.3750 
N1650 X-294.550 Y6.028 Z-6.727 A237.1130 
N1651 X-294.622 Y6.353 Z-6.610 A238.8303 
N1652 X-294.695 Y6.673 Z-6.485 A240.5460 
N1653 X-294.768 Y6.988 Z-6.356 A242.2828 
N1654 X-294.841 Y7.303 Z-6.224 A244.0646 
N1655 X-294.915 Y7.618 Z-6.090 A245.9143 
N1656 X-294.989 Y7.935 Z-5.955 A247.8482 
N1657 X-295.064 Y8.256 Z-5.820 A249.8765 
N1658 X-295.140 Y8.582 Z-5.682 A252.0091 
N1659 X-295.217 Y8.913 Z-5.542 A254.2528 
N1660 X-295.296 Y9.251 Z-5.396 A256.6126 
N1661 X-295.378 Y9.594 Z-5.243 A259.0780 
N1662 X-295.462 Y9.944 Z-5.079 A261.6638 
N1663 X-295.549 Y10.301 Z-4.903 A264.3703 
N1664 X-295.641 Y10.664 Z-4.708 A267.2067 
N1665 X-295.736 Y11.033 Z-4.493 A270.1690 
N1666 X-295.836 Y11.402 Z-4.252 A273.2378 
N1667 X-295.941 Y11.770 Z-3.981 A276.4118 
N1668 X-296.049 Y12.129 Z-3.676 A279.6594 
N1669 X-296.159 Y12.465 Z-3.338 A282.8803 
N1670 X-296.268 Y12.762 Z-2.970 A285.9686 
N1671 X-296.373 Y13.011 Z-2.575 A288.8577 
N1672 X-296.471 Y13.201 Z-2.160 A291.4556 
N1673 X-296.561 Y13.324 Z-1.737 A293.6893 
N1674 X-296.639 Y13.380 Z-1.309 A295.5249 
N1675 X-296.707 Y13.371 Z-0.883 A296.9521 
N1676 X-296.764 Y13.303 Z-0.462 A298.0005 
N1677 X-296.812 Y13.188 Z-0.048 A298.7320 
N1678 X-296.854 Y13.037 Z0.361 A299.2173 
N1679 X-296.890 Y12.862 Z0.765 A299.5283 
N1680 X-296.924 Y12.675 Z1.163 A299.7444 
N1681 X-296.957 Y12.487 Z1.558 A299.9602 
N1682 X-296.992 Y12.313 Z1.950 A300.2771 
N1683 X-297.031 Y12.162 Z2.342 A300.7829 
N1684 X-297.075 Y12.042 Z2.733 A301.5530 
N1685 X-297.125 Y11.960 Z3.127 A302.6461 
N1686 X-297.182 Y11.920 Z3.522 A304.1050 
N1687 X-297.249 Y11.921 Z3.929 A305.9946 
N1688 X-297.323 Y11.962 Z4.344 A308.2782 
N1689 X-297.404 Y12.033 Z4.773 A310.9439 
N1690 X-297.491 Y12.125 Z5.218 A313.9319 
N1691 X-297.583 Y12.226 Z5.680 A317.2000 
N1692 X-297.678 Y12.329 Z6.163 A320.7220 
N1693 X-297.776 Y12.423 Z6.668 A324.4659 
N1694 X-297.876 Y12.499 Z7.208 A328.4851 
N1695 X-297.977 Y12.545 Z7.786 A332.7869 
N1696 X-298.077 Y12.545 Z8.401 A337.3489 
N1697 X-298.173 Y12.482 Z9.062 A342.2347 
N1698 X-298.266 Y12.340 Z9.778 A347.5865 
N1699 X-298.344 Y12.085 Z10.518 A353.1986 
N1700 X-298.379 Y11.698 Z11.122 A357.8599 
N1701 X-298.351 Y11.190 Z11.464 A0.5700 
N1702 X-298.269 Y10.590 Z11.569 A1.4416 
N1703 X-298.158 Y9.893 Z11.591 A1.6798 
N1704 X-298.026 Y9.090 Z11.596 A1.8078 
N1705 X-297.875 Y8.172 Z11.593 A1.8996 
N1706 X-297.703 Y7.138 Z11.584 A1.9597 
N1707 X-297.511 Y5.989 Z11.569 A1.9902 
N1708 X-297.301 Y4.729 Z11.548 A1.9943 
N1709 X-297.073 Y3.370 Z11.524 A1.9824 
N1710 X-296.832 Y1.928 Z11.499 A1.9644 
N1711 X-296.580 Y0.421 Z11.476 
N1712 X-296.321 Y-1.128 Z11.453 
N1713 X-296.061 Y-2.693 Z11.437 A2.0393 
N1714 X-295.804 Y-4.248 Z11.431 A2.2096 
N1715 X-295.554 Y-5.765 Z11.433 A2.4661 
N1716 X-295.315 Y-7.219 Z11.435 A2.7540 
N1717 X-295.090 Y-8.588 Z11.433 A2.9904 
N1718 X-294.880 Y-9.854 Z11.424 A3.1160 
N1719 X-294.688 Y-11.004 Z11.407 A3.0863 
N1720 X-294.515 Y-12.030 Z11.385 A2.8981 
N1721 X-294.363 Y-12.932 Z11.363 A2.5838 
N1722 X-294.234 Y-13.713 Z11.358 A2.3048 
N1723 X-294.131 Y-14.377 Z11.396 
N1724 X-294.040 Y-14.967 Z11.436 
N1725 X-293.959 Y-15.495 Z11.473 
N1726 X-293.884 Y-15.980 Z11.501 
N1727 X-293.837 Y-16.396 Z11.635 A3.2765 
N1728 X-293.820 Y-16.759 Z11.896 A5.4263 
N1729 X-293.826 Y-17.081 Z12.261 A8.5853 
N1730 X-293.849 Y-17.396 Z12.722 A12.6939 
N1731 X-293.876 Y-17.714 Z13.213 A17.2187 
N1732 X-293.900 Y-18.036 Z13.685 A21.7307 
N1733 X-293.914 Y-18.346 Z14.089 A25.7855 
N1734 X-293.921 Y-18.639 Z14.425 A29.3408 
N1735 X-293.921 Y-18.900 Z14.695 A32.3410 
N1736 X-293.918 Y-19.154 Z14.933 A35.1244 
N1737 X-293.912 Y-19.405 Z15.149 A37.7681 
N1738 X-293.903 Y-19.642 Z15.337 A40.1954 
N1739 X-293.892 Y-19.884 Z15.514 A42.5953 
N1740 X-293.879 Y-20.121 Z15.674 A44.8882 
N1741 X-293.864 Y-20.363 Z15.825 A47.1784 
N1742 X-293.846 Y-20.607 Z15.965 A49.4376 
N1743 X-293.827 Y-20.853 Z16.095 A51.6826 
N1744 X-293.805 Y-21.107 Z16.218 A53.9538 
N1745 X-293.782 Y-21.361 Z16.330 A56.1881 
N1746 X-293.755 Y-21.624 Z16.436 A58.4716 
N1747 X-293.727 Y-21.887 Z16.530 A60.7314 
N1748 X-293.697 Y-22.156 Z16.616 A63.0157 
N1749 X-293.664 Y-22.432 Z16.694 A65.3322 
N1750 X-293.629 Y-22.708 Z16.760 A67.6226 
N1751 X-293.592 Y-22.990 Z16.817 A69.9556 
N1752 X-293.553 Y-23.275 Z16.863 A72.2932 
N1753 X-293.511 Y-23.562 Z16.898 A74.6320 
N1754 X-293.467 Y-23.853 Z16.922 A77.0003 
N1755 X-293.421 Y-24.145 Z16.934 A79.3666 
N1756 X-293.373 Y-24.438 Z16.935 A81.7420 
N1757 X-293.323 Y-24.732 Z16.924 A84.1273 
N1758 X-293.270 Y-25.029 Z16.900 A86.5475 
N1759 X-293.215 Y-25.325 Z16.863 A88.9625 
N1760 X-293.159 Y-25.621 Z16.813 A91.3944 
N1761 X-293.098 Y-25.924 Z16.748 A93.9124 
N1762 X-293.036 Y-26.221 Z16.669 A96.3977 
N1763 X-292.969 Y-26.533 Z16.571 A99.0459 
N1764 X-292.899 Y-26.845 Z16.454 A101.7409 
N1765 X-292.824 Y-27.164 Z16.316 A104.5518 
N1766 X-292.740 Y-27.503 Z16.145 A107.6177 
N1767 X-292.650 Y-27.850 Z15.941 A110.8564 
N1768 X-292.554 Y-28.199 Z15.703 A114.2551 
N1769 X-292.442 Y-28.580 Z15.396 A118.1700 
N1770 X-292.321 Y-28.953 Z15.034 A122.3133 
N1771 X-292.198 Y-29.298 Z14.621 A126.5608 
N1772 X-292.080 Y-29.574 Z14.177 A130.5941 
N1773 X-291.977 Y-29.753 Z13.721 A134.1988 
N1774 X-291.898 Y-29.813 Z13.295 A137.0194 
N1775 X-291.843 Y-29.760 Z12.903 A139.0848 
N1776 X-291.809 Y-29.600 Z12.532 A140.5249 
N1777 X-291.794 Y-29.345 Z12.179 A141.4001 
N1778 X-291.793 Y-29.003 Z11.827 A141.8518 
N1779 X-291.803 Y-28.582 Z11.460 A142.0119 
N1780 X-291.819 Y-28.095 Z11.064 A142.0142 
N1781 X-291.838 Y-27.547 Z10.627 A141.9544 
N1782 X-291.858 Y-26.951 Z10.143 A141.9339 
N1783 X-291.878 Y-26.303 Z9.613 
N1784 X-291.900 Y-25.608 Z9.043 A141.9446 
N1785 X-291.918 Y-24.890 Z8.426 A142.1518 
N1786 X-291.934 Y-24.149 Z7.773 A142.5269 
N1787 X-291.947 Y-23.397 Z7.089 A143.1117 
N1788 X-291.958 Y-22.639 Z6.384 A143.9134 
N1789 X-291.966 Y-21.881 Z5.665 A144.9485 
N1790 X-291.972 Y-21.128 Z4.939 A146.2212 
N1791 X-291.977 Y-20.381 Z4.214 A147.7272 
N1792 X-291.982 Y-19.644 Z3.495 A149.4675 
N1793 X-291.987 Y-18.916 Z2.787 A151.4443 
N1794 X-291.993 Y-18.196 Z2.091 A153.6548 
N1795 X-292.000 Y-17.481 Z1.413 A156.0740 
N1796 X-292.012 Y-16.766 Z0.758 A158.6574 
N1797 X-292.029 Y-16.046 Z0.133 A161.3331 
N1798 X-292.054 Y-15.317 Z-0.451 A164.0133 
N1799 X-292.089 Y-14.575 Z-0.987 A166.6151 
N1800 X-292.136 Y-13.820 Z-1.466 A169.0412 
N1801 X-292.195 Y-13.055 Z-1.880 A171.2031 
N1802 X-292.265 Y-12.285 Z-2.227 A173.0492 
N1803 X-292.346 Y-11.513 Z-2.510 A174.5735 
N1804 X-292.436 Y-10.747 Z-2.737 A175.7970 
N1805 X-292.531 Y-9.992 Z-2.917 A176.7683 
N1806 X-292.628 Y-9.255 Z-3.064 A177.5678 
N1807 X-292.726 Y-8.537 Z-3.192 A178.3063 
N1808 X-292.820 Y-7.845 Z-3.316 A179.0950 
N1809 X-292.908 Y-7.181 Z-3.446 A180.0249 
N1810 X-292.989 Y-6.546 Z-3.589 A181.1643 
N1811 X-293.062 Y-5.942 Z-3.749 A182.5574 
N1812 X-293.128 Y-5.366 Z-3.930 A184.2447 
N1813 X-293.186 Y-4.817 Z-4.131 A186.2304 
N1814 X-293.237 Y-4.291 Z-4.349 A188.4888 
N1815 X-293.284 Y-3.782 Z-4.578 A190.9888 
N1816 X-293.327 Y-3.291 Z-4.810 A193.6596 
N1817 X-293.368 Y-2.812 Z-5.041 A196.4614 
N1818 X-293.410 Y-2.342 Z-5.263 A199.3410 
N1819 X-293.452 Y-1.882 Z-5.470 A202.2249 
N1820 X-293.496 Y-1.430 Z-5.657 A205.0827 
N1821 X-293.542 Y-0.983 Z-5.822 A207.8955 
N1822 X-293.592 Y-0.545 Z-5.963 A210.6259 
N1823 X-293.644 Y-0.113 Z-6.078 A213.2702 
N1824 X-293.700 Y0.312 Z-6.168 A215.8268 
N1825 X-293.758 Y0.732 Z-6.232 A218.2896 
N1826 X-293.820 Y1.145 Z-6.271 A220.6608 
N1827 X-293.884 Y1.551 Z-6.286 A222.9441 
N1828 X-293.952 Y1.951 Z-6.278 A225.1421 
N1829 X-294.021 Y2.343 Z-6.247 A227.2596 
N1830 X-294.093 Y2.729 Z-6.195 A229.3023 
N1831 X-294.167 Y3.106 Z-6.124 A231.2757 
N1832 X-294.242 Y3.475 Z-6.035 A233.1891 
N1833 X-294.319 Y3.837 Z-5.929 A235.0533 
N1834 X-294.396 Y4.192 Z-5.810 A236.8801 
N1835 X-294.475 Y4.540 Z-5.678 A238.6870 
N1836 X-294.554 Y4.883 Z-5.537 A240.4961 
N1837 X-294.635 Y5.224 Z-5.388 A242.3308 
N1838 X-294.716 Y5.564 Z-5.233 A244.2150 
N1839 X-294.798 Y5.905 Z-5.072 A246.1713 
N1840 X-294.882 Y6.250 Z-4.907 A248.2161 
N1841 X-294.967 Y6.598 Z-4.735 A250.3600 
N1842 X-295.054 Y6.951 Z-4.556 A252.6078 
N1843 X-295.143 Y7.308 Z-4.369 A254.9588 
N1844 X-295.234 Y7.667 Z-4.171 A257.4065 
N1845 X-295.328 Y8.028 Z-3.960 A259.9353 
N1846 X-295.424 Y8.385 Z-3.733 A262.5232 
N1847 X-295.521 Y8.737 Z-3.489 A265.1454 
N1848 X-295.620 Y9.077 Z-3.226 A267.7712 
N1849 X-295.719 Y9.401 Z-2.945 A270.3591 
N1850 X-295.817 Y9.702 Z-2.645 A272.8654 
N1851 X-295.913 Y9.975 Z-2.328 A275.2524 
N1852 X-296.007 Y10.216 Z-1.997 A277.4860 
N1853 X-296.096 Y10.423 Z-1.655 A279.5521 
N1854 X-296.182 Y10.599 Z-1.304 A281.4551 
N1855 X-296.264 Y10.744 Z-0.948 A283.2027 
N1856 X-296.341 Y10.861 Z-0.588 A284.8156 
N1857 X-296.416 Y10.956 Z-0.225 A286.3250 
N1858 X-296.487 Y11.033 Z0.138 A287.7616 
N1859 X-296.557 Y11.097 Z0.499 A289.1572 
N1860 X-296.624 Y11.151 Z0.859 A290.5399 
N1861 X-296.690 Y11.200 Z1.217 A291.9361 
N1862 X-296.755 Y11.246 Z1.569 A293.3605 
N1863 X-296.819 Y11.293 Z1.918 A294.8397 
N1864 X-296.883 Y11.342 Z2.263 A296.3938 
N1865 X-296.947 Y11.396 Z2.605 A298.0374 
N1866 X-297.012 Y11.457 Z2.942 A299.7821 
N1867 X-297.078 Y11.526 Z3.277 A301.6382 
N1868 X-297.144 Y11.602 Z3.611 A303.6155 
N1869 X-297.213 Y11.686 Z3.946 A305.7229 
N1870 X-297.281 Y11.774 Z4.280 A307.9247 
N1871 X-297.351 Y11.867 Z4.617 A310.2383 
N1872 X-297.422 Y11.961 Z4.956 A312.6360 
N1873 X-297.493 Y12.054 Z5.300 A315.1339 
N1874 X-297.563 Y12.143 Z5.644 A317.6620 
N1875 X-297.634 Y12.226 Z5.994 A320.2578 
N1876 X-297.704 Y12.301 Z6.349 A322.9148 
N1877 X-297.773 Y12.365 Z6.712 A325.6281 
N1878 X-297.842 Y12.418 Z7.083 A328.4033 
N1879 X-297.910 Y12.456 Z7.466 A331.2701 
N1880 X-297.978 Y12.476 Z7.865 A334.2434 
N1881 X-298.045 Y12.474 Z8.279 A337.3226 
N1882 X-298.111 Y12.444 Z8.713 A340.5432 
N1883 X-298.174 Y12.378 Z9.171 A343.9445 
N1884 X-298.233 Y12.269 Z9.647 A347.4900 
N1885 X-298.285 Y12.104 Z10.132 A351.1376 
N1886 X-298.326 Y11.873 Z10.618 A354.8395 
N1887 X-298.350 Y11.571 Z11.074 A358.3959 
N1888 X-298.354 Y11.186 Z11.487 A1.7475 
N1889 X-298.331 Y10.725 Z11.818 A4.6177 
N1890 X-298.281 Y10.193 Z12.047 A6.8578 
N1891 X-298.201 Y9.588 Z12.167 A8.3911 
N1892 X-298.093 Y8.920 Z12.178 A9.1778 
N1893 X-297.959 Y8.179 Z12.107 A9.3844 
N1894 X-297.805 Y7.361 Z11.988 A9.2301 
N1895 X-297.634 Y6.457 Z11.853 A8.9145 
N1896 X-297.450 Y5.465 Z11.722 A8.5666 
N1897 X-297.259 Y4.390 Z11.635 A8.4753 
N1898 X-297.058 Y3.231 Z11.570 
N1899 X-296.845 Y1.995 Z11.513 
N1900 X-296.624 Y0.706 Z11.460 
N1901 X-296.399 Y-0.612 Z11.412 
N1902 X-296.174 Y-1.940 Z11.369 
N1903 X-295.950 Y-3.261 Z11.331 
N1904 X-295.734 Y-4.558 Z11.314 A8.6067 
N1905 X-295.531 Y-5.810 Z11.331 A9.0061 
N1906 X-295.341 Y-6.997 Z11.368 A9.5621 
N1907 X-295.166 Y-8.102 Z11.410 A10.1383 
N1908 X-295.005 Y-9.109 Z11.442 A10.5526 
N1909 X-294.860 Y-10.004 Z11.453 A10.6644 
N1910 X-294.728 Y-10.787 Z11.432 A10.3505 
N1911 X-294.611 Y-11.455 Z11.392 A9.6871 
N1912 X-294.512 Y-12.024 Z11.356 A8.8832 
N1913 X-294.437 Y-12.507 Z11.387 A8.4753 
N1914 X-294.384 Y-12.926 Z11.483 
N1915 X-294.336 Y-13.322 Z11.589 
N1916 X-294.291 Y-13.700 Z11.698 
N1917 X-294.247 Y-14.076 Z11.808 
N1918 X-294.203 Y-14.444 Z11.911 
N1919 X-294.158 Y-14.812 Z12.005 
N1920 X-294.111 Y-15.174 Z12.083 
N1921 X-294.061 Y-15.536 Z12.144 
N1922 X-294.014 Y-15.874 Z12.193 A8.5429 
N1923 X-293.975 Y-16.191 Z12.275 A9.0180 
N1924 X-293.942 Y-16.486 Z12.370 A9.7436 
N1925 X-293.916 Y-16.753 Z12.486 A10.7643 
N1926 X-293.900 Y-16.995 Z12.631 A12.1193 
N1927 X-293.893 Y-17.217 Z12.810 A13.8286 
N1928 X-293.893 Y-17.426 Z13.022 A15.8705 
N1929 X-293.897 Y-17.616 Z13.242 A18.0151 
N1930 X-293.905 Y-17.805 Z13.483 A20.3703 
N1931 X-293.914 Y-17.995 Z13.730 A22.8204 
N1932 X-293.921 Y-18.185 Z13.969 A25.2447 
N1933 X-293.927 Y-18.382 Z14.204 A27.6953 
N1934 X-293.930 Y-18.579 Z14.423 A30.0436 
N1935 X-293.931 Y-18.784 Z14.635 A32.4010 
N1936 X-293.929 Y-18.989 Z14.831 A34.6754 
N1937 X-293.924 Y-19.202 Z15.020 A36.9601 
N1938 X-293.918 Y-19.418 Z15.197 A39.1933 
N1939 X-293.909 Y-19.640 Z15.366 A41.4315 
N1940 X-293.897 Y-19.865 Z15.526 A43.6489 
N1941 X-293.884 Y-20.096 Z15.677 A45.8642 
N1942 X-293.868 Y-20.333 Z15.820 A48.0879 
N1943 X-293.850 Y-20.573 Z15.954 A50.2931 
N1944 X-293.830 Y-20.821 Z16.081 A52.5386 
N1945 X-293.808 Y-21.069 Z16.197 A54.7420 
N1946 X-293.784 Y-21.325 Z16.306 A56.9863 
N1947 X-293.757 Y-21.585 Z16.407 A59.2348 
N1948 X-293.728 Y-21.849 Z16.498 A61.4878 
N1949 X-293.697 Y-22.121 Z16.581 A63.7884 
N1950 X-293.664 Y-22.392 Z16.652 A66.0515 
N1951 X-293.629 Y-22.670 Z16.715 A68.3543 
N1952 X-293.591 Y-22.952 Z16.768 A70.6786 
N1953 X-293.551 Y-23.234 Z16.810 A72.9909 
N1954 X-293.509 Y-23.522 Z16.842 A75.3379 
N1955 X-293.464 Y-23.812 Z16.862 A77.6892 
N1956 X-293.418 Y-24.102 Z16.871 A80.0447 
N1957 X-293.369 Y-24.395 Z16.869 A82.4182 
N1958 X-293.319 Y-24.689 Z16.854 A84.8065 
N1959 X-293.266 Y-24.983 Z16.827 A87.1980 
N1960 X-293.211 Y-25.275 Z16.787 A89.5855 
N1961 X-293.153 Y-25.576 Z16.733 A92.0684 
N1962 X-293.093 Y-25.872 Z16.666 A94.5309 
N1963 X-293.031 Y-26.171 Z16.584 A97.0423 
N1964 X-292.963 Y-26.482 Z16.482 A99.6862 
N1965 X-292.895 Y-26.782 Z16.367 A102.2847 
N1966 X-292.815 Y-27.119 Z16.218 A105.2670 
N1967 X-292.736 Y-27.440 Z16.052 A108.1847 
N1968 X-292.641 Y-27.802 Z15.835 A111.5911 
N1969 X-292.542 Y-28.158 Z15.586 A115.0864 
N1970 X-292.434 Y-28.521 Z15.288 A118.8483 
N1971 X-292.312 Y-28.895 Z14.919 A123.0392 
N1972 X-292.191 Y-29.226 Z14.508 A127.1986 
N1973 X-292.073 Y-29.495 Z14.055 A131.2560 
N1974 X-291.975 Y-29.659 Z13.617 A134.6737 
N1975 X-291.895 Y-29.720 Z13.185 A137.5564 
N1976 X-291.838 Y-29.672 Z12.783 A139.7406 
N1977 X-291.802 Y-29.516 Z12.404 A141.2853 
N1978 X-291.787 Y-29.261 Z12.051 A142.2077 
N1979 X-291.788 Y-28.911 Z11.702 A142.6600 
N1980 X-291.800 Y-28.484 Z11.344 A142.7929 
N1981 X-291.819 Y-27.988 Z10.954 A142.7754 
N1982 X-291.840 Y-27.433 Z10.525 A142.7118 
N1983 X-291.862 Y-26.829 Z10.045 A142.7063 
N1984 X-291.885 Y-26.173 Z9.522 
N1985 X-291.910 Y-25.467 Z8.959 A142.7176 
N1986 X-291.932 Y-24.736 Z8.352 A142.8949 
N1987 X-291.952 Y-23.981 Z7.711 A143.2223 
N1988 X-291.969 Y-23.215 Z7.039 A143.7565 
N1989 X-291.983 Y-22.444 Z6.345 A144.5213 
N1990 X-291.994 Y-21.677 Z5.634 A145.5383 
N1991 X-292.003 Y-20.916 Z4.917 A146.8024 
N1992 X-292.011 Y-20.165 Z4.203 A148.3003 
N1993 X-292.018 Y-19.427 Z3.498 A150.0222 
N1994 X-292.026 Y-18.701 Z2.807 A151.9628 
N1995 X-292.034 Y-17.989 Z2.134 A154.1042 
N1996 X-292.044 Y-17.287 Z1.485 A156.4074 
N1997 X-292.058 Y-16.593 Z0.865 A158.8180 
N1998 X-292.077 Y-15.904 Z0.283 A161.2647 
N1999 X-292.102 Y-15.217 Z-0.256 A163.6786 
N2000 X-292.135 Y-14.532 Z-0.748 A166.0034 
N2001 X-292.176 Y-13.849 Z-1.191 A168.1952 
N2002 X-292.224 Y-13.170 Z-1.584 A170.2226 
N2003 X-292.279 Y-12.496 Z-1.929 A172.0768 
N2004 X-292.340 Y-11.830 Z-2.230 A173.7633 
N2005 X-292.405 Y-11.175 Z-2.493 A175.3107 
N2006 X-292.473 Y-10.533 Z-2.725 A176.7603 
N2007 X-292.542 Y-9.907 Z-2.934 A178.1564 
N2008 X-292.611 Y-9.298 Z-3.126 A179.5456 
N2009 X-292.679 Y-8.705 Z-3.308 A180.9827 
N2010 X-292.745 Y-8.133 Z-3.485 A182.5066 
N2011 X-292.807 Y-7.578 Z-3.663 A184.1541 
N2012 X-292.866 Y-7.040 Z-3.843 A185.9454 
N2013 X-292.923 Y-6.518 Z-4.026 A187.8874 
N2014 X-292.976 Y-6.012 Z-4.211 A189.9702 
N2015 X-293.027 Y-5.516 Z-4.398 A192.2013 
N2016 X-293.077 Y-5.031 Z-4.583 A194.5455 
N2017 X-293.126 Y-4.555 Z-4.764 A196.9881 
N2018 X-293.175 Y-4.084 Z-4.938 A199.5048 
N2019 X-293.226 Y-3.619 Z-5.101 A202.0724 
N2020 X-293.277 Y-3.157 Z-5.252 A204.6661 
N2021 X-293.331 Y-2.700 Z-5.386 A207.2593 
N2022 X-293.387 Y-2.244 Z-5.502 A209.8442 
N2023 X-293.446 Y-1.791 Z-5.598 A212.4000 
N2024 X-293.508 Y-1.341 Z-5.672 A214.9153 
N2025 X-293.574 Y-0.893 Z-5.722 A217.3813 
N2026 X-293.642 Y-0.449 Z-5.749 A219.7887 
N2027 X-293.714 Y-0.009 Z-5.751 A222.1325 
N2028 X-293.790 Y0.427 Z-5.729 A224.4109 
N2029 X-293.868 Y0.856 Z-5.682 A226.6180 
N2030 X-293.949 Y1.280 Z-5.611 A228.7574 
N2031 X-294.033 Y1.696 Z-5.517 A230.8259 
N2032 X-294.119 Y2.105 Z-5.401 A232.8302 
N2033 X-294.207 Y2.505 Z-5.264 A234.7748 
N2034 X-294.297 Y2.896 Z-5.108 A236.6655 
N2035 X-294.388 Y3.279 Z-4.935 A238.5163 
N2036 X-294.480 Y3.654 Z-4.748 A240.3424 
N2037 X-294.573 Y4.023 Z-4.548 A242.1640 
N2038 X-294.667 Y4.387 Z-4.337 A244.0008 
N2039 X-294.762 Y4.747 Z-4.117 A245.8671 
N2040 X-294.858 Y5.102 Z-3.890 A247.7739 
N2041 X-294.954 Y5.454 Z-3.655 A249.7229 
N2042 X-295.050 Y5.801 Z-3.414 A251.7137 
N2043 X-295.146 Y6.142 Z-3.166 A253.7468 
N2044 X-295.243 Y6.477 Z-2.912 A255.8087 
N2045 X-295.339 Y6.804 Z-2.652 A257.9003 
N2046 X-295.434 Y7.121 Z-2.386 A260.0001 
N2047 X-295.529 Y7.429 Z-2.115 A262.1077 
N2048 X-295.622 Y7.724 Z-1.839 A264.2076 
N2049 X-295.714 Y8.006 Z-1.559 A266.2873 
N2050 X-295.804 Y8.275 Z-1.276 A268.3486 
N2051 X-295.893 Y8.531 Z-0.990 A270.3905 
N2052 X-295.979 Y8.775 Z-0.702 A272.4170 
N2053 X-296.065 Y9.007 Z-0.413 A274.4325 
N2054 X-296.148 Y9.230 Z-0.123 A276.4445 
N2055 X-296.230 Y9.443 Z0.167 A278.4575 
N2056 X-296.311 Y9.647 Z0.457 A280.4716 
N2057 X-296.390 Y9.842 Z0.747 A282.4907 
N2058 X-296.468 Y10.030 Z1.037 A284.5190 
N2059 X-296.545 Y10.211 Z1.327 A286.5600 
N2060 X-296.620 Y10.384 Z1.617 A288.6076 
N2061 X-296.694 Y10.549 Z1.905 A290.6546 
N2062 X-296.768 Y10.708 Z2.195 A292.7254 
N2063 X-296.839 Y10.859 Z2.481 A294.7880 
N2064 X-296.910 Y11.005 Z2.771 A296.8813 
N2065 X-296.979 Y11.144 Z3.057 A298.9663 
N2066 X-297.048 Y11.277 Z3.345 A301.0803 
N2067 X-297.116 Y11.404 Z3.635 A303.2111 
N2068 X-297.183 Y11.525 Z3.924 A305.3492 
N2069 X-297.249 Y11.640 Z4.215 A307.5147 
N2070 X-297.314 Y11.750 Z4.508 A309.7058 
N2071 X-297.379 Y11.853 Z4.805 A311.9224 
N2072 X-297.444 Y11.949 Z5.103 A314.1546 
N2073 X-297.507 Y12.038 Z5.404 A316.4127 
N2074 X-297.570 Y12.120 Z5.709 A318.7003 
N2075 X-297.632 Y12.193 Z6.018 A321.0196 
N2076 X-297.694 Y12.258 Z6.333 A323.3747 
N2077 X-297.755 Y12.313 Z6.654 A325.7709 
N2078 X-297.816 Y12.357 Z6.982 A328.2149 
N2079 X-297.875 Y12.390 Z7.318 A330.7147 
N2080 X-297.935 Y12.408 Z7.663 A333.2774 
N2081 X-297.992 Y12.410 Z8.018 A335.9069 
N2082 X-298.049 Y12.394 Z8.383 A338.6006 
N2083 X-298.104 Y12.354 Z8.764 A341.4196 
N2084 X-298.158 Y12.288 Z9.163 A344.3767 
N2085 X-298.209 Y12.193 Z9.575 A347.4475 
N2086 X-298.258 Y12.055 Z10.014 A350.7533 
N2087 X-298.298 Y11.869 Z10.449 A354.0781 
N2088 X-298.327 Y11.629 Z10.876 A357.3986 
N2089 X-298.345 Y11.329 Z11.286 A0.6914 
N2090 X-298.346 Y10.960 Z11.667 A3.9053 
N2091 X-298.327 Y10.529 Z11.987 A6.8061 
N2092 X-298.285 Y10.040 Z12.228 A9.2717 
N2093 X-298.219 Y9.492 Z12.374 A11.1873 
N2094 X-298.128 Y8.894 Z12.420 A12.4760 
N2095 X-298.015 Y8.248 Z12.378 A13.2131 
N2096 X-297.882 Y7.547 Z12.270 A13.5310 
N2097 X-297.732 Y6.791 Z12.113 A13.5489 
N2098 X-297.568 Y5.977 Z11.932 A13.4086 
N2099 X-297.395 Y5.103 Z11.748 A13.2654 
N2100 X-297.214 Y4.171 Z11.580 A13.2492 
N2101 X-297.029 Y3.190 Z11.433 A13.3831 
N2102 X-296.840 Y2.171 Z11.301 A13.5889 
N2103 X-296.647 Y1.128 Z11.173 A13.7398 
N2104 X-296.452 Y0.073 Z11.043 A13.7416 
N2105 X-296.257 Y-0.982 Z10.912 A13.5450 
N2106 X-296.065 Y-2.027 Z10.786 A13.1538 
N2107 X-295.878 Y-3.058 Z10.679 A12.6556 
N2108 X-295.701 Y-4.070 Z10.615 A12.2455 
N2109 X-295.538 Y-5.060 Z10.618 A12.1364 
N2110 X-295.391 Y-6.022 Z10.688 A12.3996 
N2111 X-295.258 Y-6.945 Z10.805 A12.9341 
N2112 X-295.137 Y-7.816 Z10.939 A13.5503 
N2113 X-295.025 Y-8.624 Z11.069 A14.0851 
N2114 X-294.921 Y-9.359 Z11.176 A14.3905 
N2115 X-294.825 Y-10.015 Z11.248 A14.3514 
N2116 X-294.735 Y-10.590 Z11.280 A13.9362 
N2117 X-294.653 Y-11.094 Z11.282 A13.2193 
N2118 X-294.579 Y-11.537 Z11.277 A12.3725 
N2119 X-294.514 Y-11.934 Z11.280 A11.5308 
N2120 X-294.458 Y-12.298 Z11.306 A10.8083 
N2121 X-294.412 Y-12.638 Z11.366 A10.3096 
N2122 X-294.375 Y-12.964 Z11.466 A10.0692 
N2123 X-294.344 Y-13.285 Z11.605 A10.0930 
N2124 X-294.319 Y-13.598 Z11.765 A10.3083 
N2125 X-294.295 Y-13.913 Z11.937 A10.6429 
N2126 X-294.271 Y-14.229 Z12.109 A11.0537 
N2127 X-294.245 Y-14.548 Z12.276 A11.5133 
N2128 X-294.217 Y-14.859 Z12.415 A11.9018 
N2129 X-294.185 Y-15.171 Z12.536 A12.2807 
N2130 X-294.151 Y-15.477 Z12.634 A12.6229 
N2131 X-294.113 Y-15.773 Z12.706 A12.9043 
N2132 X-294.075 Y-16.055 Z12.756 A13.1526 
N2133 X-294.037 Y-16.323 Z12.795 A13.4326 
N2134 X-294.002 Y-16.575 Z12.835 A13.8355 
N2135 X-293.972 Y-16.812 Z12.891 A14.4524 
N2136 X-293.948 Y-17.027 Z12.960 A15.2352 
N2137 X-293.932 Y-17.228 Z13.062 A16.3519 
N2138 X-293.923 Y-17.418 Z13.202 A17.8181 
N2139 X-293.920 Y-17.596 Z13.366 A19.5071 
N2140 X-293.923 Y-17.775 Z13.561 A21.4925 
N2141 X-293.927 Y-17.950 Z13.766 A23.5780 
N2142 X-293.932 Y-18.132 Z13.983 A25.8193 
N2143 X-293.937 Y-18.316 Z14.197 A28.0605 
N2144 X-293.939 Y-18.509 Z14.409 A30.3529 
N2145 X-293.940 Y-18.705 Z14.609 A32.5943 
N2146 X-293.938 Y-18.909 Z14.804 A34.8522 
N2147 X-293.933 Y-19.116 Z14.986 A37.0625 
N2148 X-293.926 Y-19.330 Z15.162 A39.2849 
N2149 X-293.917 Y-19.548 Z15.328 A41.4811 
N2150 X-293.906 Y-19.773 Z15.486 A43.6827 
N2151 X-293.893 Y-20.002 Z15.636 A45.8797 
N2152 X-293.877 Y-20.236 Z15.776 A48.0724 
N2153 X-293.859 Y-20.477 Z15.910 A50.2882 
N2154 X-293.839 Y-20.719 Z16.034 A52.4780 
N2155 X-293.817 Y-20.970 Z16.151 A54.7087 
N2156 X-293.793 Y-21.223 Z16.259 A56.9211 
N2157 X-293.766 Y-21.482 Z16.358 A59.1586 
N2158 X-293.737 Y-21.747 Z16.450 A61.4210 
N2159 X-293.707 Y-22.013 Z16.531 A63.6678 
N2160 X-293.673 Y-22.288 Z16.604 A65.9617 
N2161 X-293.638 Y-22.563 Z16.666 A68.2465 
N2162 X-293.601 Y-22.843 Z16.719 A70.5481 
N2163 X-293.560 Y-23.129 Z16.762 A72.8906 
N2164 X-293.519 Y-23.412 Z16.793 A75.2022 
N2165 X-293.475 Y-23.701 Z16.814 A77.5456 
N2166 X-293.428 Y-23.992 Z16.823 A79.9079 
N2167 X-293.380 Y-24.283 Z16.821 A82.2662 
N2168 X-293.330 Y-24.575 Z16.807 A84.6384 
N2169 X-293.277 Y-24.870 Z16.781 A87.0345 
N2170 X-293.222 Y-25.165 Z16.741 A89.4501 
N2171 X-293.166 Y-25.457 Z16.690 A91.8545 
N2172 X-293.105 Y-25.758 Z16.623 A94.3487 
N2173 X-293.043 Y-26.058 Z16.542 A96.8688 
N2174 X-292.978 Y-26.355 Z16.447 A99.3977 
N2175 X-292.905 Y-26.678 Z16.325 A102.1917 
N2176 X-292.833 Y-26.986 Z16.190 A104.9135 
N2177 X-292.748 Y-27.330 Z16.016 A108.0223 
N2178 X-292.662 Y-27.660 Z15.823 A111.1066 
N2179 X-292.558 Y-28.039 Z15.564 A114.8019 
N2180 X-292.448 Y-28.410 Z15.265 A118.6330 
N2181 X-292.333 Y-28.769 Z14.916 A122.6222 
N2182 X-292.214 Y-29.097 Z14.517 A126.7004 
N2183 X-292.099 Y-29.368 Z14.083 A130.6574 
N2184 X-291.995 Y-29.559 Z13.637 A134.2709 
N2185 X-291.907 Y-29.654 Z13.189 A137.4316 
N2186 X-291.840 Y-29.637 Z12.762 A139.9469 
N2187 X-291.800 Y-29.503 Z12.375 A141.6732 
N2188 X-291.783 Y-29.260 Z12.023 A142.6779 
N2189 X-291.783 Y-28.920 Z11.684 A143.1525 
N2190 X-291.796 Y-28.500 Z11.335 A143.3032 
N2191 X-291.815 Y-28.013 Z10.957 A143.3129 
N2192 X-291.837 Y-27.464 Z10.536 A143.2813 
N2193 X-291.861 Y-26.860 Z10.070 A143.2655 
N2194 X-291.886 Y-26.204 Z9.560 
N2195 X-291.913 Y-25.498 Z9.011 
N2196 X-291.939 Y-24.758 Z8.422 A143.3676 
N2197 X-291.963 Y-23.995 Z7.795 A143.6272 
N2198 X-291.984 Y-23.219 Z7.133 A144.1111 
N2199 X-292.000 Y-22.441 Z6.443 A144.8552 
N2200 X-292.013 Y-21.665 Z5.736 A145.8601 
N2201 X-292.024 Y-20.895 Z5.023 A147.0986 
N2202 X-292.034 Y-20.135 Z4.316 A148.5477 
N2203 X-292.045 Y-19.388 Z3.620 A150.1959 
N2204 X-292.055 Y-18.657 Z2.943 A152.0302 
N2205 X-292.066 Y-17.943 Z2.290 A154.0254 
N2206 X-292.080 Y-17.247 Z1.666 A156.1375 
N2207 X-292.096 Y-16.567 Z1.077 A158.3171 
N2208 X-292.117 Y-15.902 Z0.528 A160.5076 
N2209 X-292.141 Y-15.252 Z0.021 A162.6690 
N2210 X-292.170 Y-14.618 Z-0.444 A164.7748 
N2211 X-292.203 Y-13.999 Z-0.869 A166.8178 
N2212 X-292.240 Y-13.395 Z-1.257 A168.7961 
N2213 X-292.279 Y-12.808 Z-1.612 A170.7195 
N2214 X-292.320 Y-12.235 Z-1.938 A172.6080 
N2215 X-292.363 Y-11.679 Z-2.239 A174.4723 
N2216 X-292.407 Y-11.136 Z-2.520 A176.3407 
N2217 X-292.451 Y-10.608 Z-2.784 A178.2276 
N2218 X-292.495 Y-10.093 Z-3.033 A180.1467 
N2219 X-292.540 Y-9.589 Z-3.271 A182.1102 
N2220 X-292.584 Y-9.096 Z-3.498 A184.1286 
N2221 X-292.629 Y-8.612 Z-3.714 A186.1951 
N2222 X-292.673 Y-8.135 Z-3.921 A188.3232 
N2223 X-292.719 Y-7.666 Z-4.119 A190.4979 
N2224 X-292.765 Y-7.202 Z-4.306 A192.7182 
N2225 X-292.812 Y-6.741 Z-4.483 A194.9808 
N2226 X-292.861 Y-6.283 Z-4.648 A197.2788 
N2227 X-292.911 Y-5.827 Z-4.801 A199.6063 
N2228 X-292.963 Y-5.371 Z-4.940 A201.9573 
N2229 X-293.018 Y-4.915 Z-5.065 A204.3256 
N2230 X-293.076 Y-4.458 Z-5.174 A206.7061 
N2231 X-293.136 Y-3.999 Z-5.266 A209.0964 
N2232 X-293.200 Y-3.539 Z-5.341 A211.4895 
N2233 X-293.267 Y-3.076 Z-5.395 A213.8777 
N2234 X-293.338 Y-2.610 Z-5.429 A216.2555 
N2235 X-293.413 Y-2.144 Z-5.440 A218.6142 
N2236 X-293.492 Y-1.676 Z-5.428 A220.9448 
N2237 X-293.575 Y-1.210 Z-5.390 A223.2398 
N2238 X-293.662 Y-0.744 Z-5.327 A225.4931 
N2239 X-293.753 Y-0.282 Z-5.237 A227.6981 
N2240 X-293.847 Y0.176 Z-5.120 A229.8477 
N2241 X-293.945 Y0.628 Z-4.977 A231.9368 
N2242 X-294.045 Y1.071 Z-4.809 A233.9611 
N2243 X-294.148 Y1.505 Z-4.616 A235.9174 
N2244 X-294.252 Y1.928 Z-4.401 A237.8021 
N2245 X-294.358 Y2.338 Z-4.164 A239.6138 
N2246 X-294.465 Y2.733 Z-3.909 A241.3578 
N2247 X-294.571 Y3.115 Z-3.639 A243.0442 
N2248 X-294.678 Y3.484 Z-3.356 A244.6873 
N2249 X-294.784 Y3.840 Z-3.065 A246.3031 
N2250 X-294.889 Y4.185 Z-2.769 A247.9095 
N2251 X-294.992 Y4.519 Z-2.470 A249.5271 
N2252 X-295.094 Y4.846 Z-2.172 A251.1761 
N2253 X-295.195 Y5.165 Z-1.876 A252.8725 
N2254 X-295.294 Y5.478 Z-1.585 A254.6207 
N2255 X-295.390 Y5.784 Z-1.299 A256.4211 
N2256 X-295.485 Y6.084 Z-1.017 A258.2785 
N2257 X-295.578 Y6.375 Z-0.744 A260.1675 
N2258 X-295.668 Y6.662 Z-0.475 A262.1113 
N2259 X-295.757 Y6.941 Z-0.214 A264.0971 
N2260 X-295.843 Y7.215 Z0.040 A266.1252 
N2261 X-295.928 Y7.485 Z0.288 A268.2072 
N2262 X-296.011 Y7.751 Z0.532 A270.3406 
N2263 X-296.093 Y8.012 Z0.770 A272.5020 
N2264 X-296.173 Y8.269 Z1.005 A274.7101 
N2265 X-296.253 Y8.525 Z1.239 A276.9685 
N2266 X-296.331 Y8.772 Z1.469 A279.2238 
N2267 X-296.409 Y9.016 Z1.701 A281.5183 
N2268 X-296.486 Y9.255 Z1.934 A283.8373 
N2269 X-296.561 Y9.485 Z2.164 A286.1363 
N2270 X-296.636 Y9.710 Z2.397 A288.4507 
N2271 X-296.710 Y9.928 Z2.633 A290.7725 
N2272 X-296.784 Y10.138 Z2.872 A293.0964 
N2273 X-296.856 Y10.341 Z3.113 A295.4195 
N2274 X-296.928 Y10.537 Z3.357 A297.7401 
N2275 X-296.999 Y10.724 Z3.606 A300.0586 
N2276 X-297.069 Y10.902 Z3.858 A302.3758 
N2277 X-297.139 Y11.072 Z4.114 A304.6927 
N2278 X-297.208 Y11.233 Z4.375 A307.0096 
N2279 X-297.276 Y11.385 Z4.640 A309.3263 
N2280 X-297.343 Y11.527 Z4.909 A311.6362 
N2281 X-297.409 Y11.658 Z5.182 A313.9453 
N2282 X-297.474 Y11.780 Z5.460 A316.2592 
N2283 X-297.538 Y11.891 Z5.743 A318.5780 
N2284 X-297.601 Y11.991 Z6.030 A320.9012 
N2285 X-297.663 Y12.079 Z6.322 A323.2303 
N2286 X-297.724 Y12.156 Z6.620 A325.5811 
N2287 X-297.784 Y12.221 Z6.925 A327.9576 
N2288 X-297.843 Y12.273 Z7.237 A330.3679 
N2289 X-297.901 Y12.311 Z7.555 A332.8079 
N2290 X-297.957 Y12.333 Z7.877 A335.2570 
N2291 X-298.010 Y12.336 Z8.200 A337.6870 
N2292 X-298.059 Y12.318 Z8.521 A340.0803 
N2293 X-298.105 Y12.279 Z8.845 A342.4848 
N2294 X-298.151 Y12.221 Z9.186 A345.0310 
N2295 X-298.199 Y12.145 Z9.560 A347.8538 
N2296 X-298.245 Y12.040 Z9.950 A350.8246 
N2297 X-298.283 Y11.893 Z10.331 A353.7524 
N2298 X-298.310 Y11.709 Z10.688 A356.5238 
N2299 X-298.332 Y11.479 Z11.054 A359.4341 
N2300 X-298.344 Y11.204 Z11.408 A2.3502 
N2301 X-298.344 Y10.874 Z11.742 A5.2283 
N2302 X-298.329 Y10.496 Z12.035 A7.9399 
N2303 X-298.297 Y10.065 Z12.277 A10.4261 
N2304 X-298.249 Y9.589 Z12.461 A12.6342 
N2305 X-298.182 Y9.064 Z12.581 A14.5478 
N2306 X-298.097 Y8.500 Z12.633 A16.1153 
N2307 X-297.996 Y7.898 Z12.619 A17.3510 
N2308 X-297.879 Y7.258 Z12.546 A18.2909 
N2309 X-297.748 Y6.586 Z12.420 A18.9712 
N2310 X-297.605 Y5.883 Z12.252 A19.4327 
N2311 X-297.452 Y5.155 Z12.052 A19.7268 
N2312 X-297.293 Y4.405 Z11.833 A19.9071 
N2313 X-297.130 Y3.638 Z11.606 A20.0187 
N2314 X-296.966 Y2.860 Z11.379 A20.0889 
N2315 X-296.801 Y2.078 Z11.162 A20.1285 
N2316 X-296.640 Y1.297 Z10.957 A20.1313 
N2317 X-296.482 Y0.522 Z10.769 A20.0802 
N2318 X-296.328 Y-0.241 Z10.598 A19.9510 
N2319 X-296.181 Y-0.989 Z10.446 A19.7242 
N2320 X-296.038 Y-1.722 Z10.314 A19.4030 
N2321 X-295.903 Y-2.442 Z10.208 A19.0221 
N2322 X-295.774 Y-3.151 Z10.135 A18.6493 
N2323 X-295.653 Y-3.854 Z10.104 A18.3542 
N2324 X-295.541 Y-4.553 Z10.117 A18.1882 
N2325 X-295.435 Y-5.250 Z10.177 A18.1813 
N2326 X-295.338 Y-5.942 Z10.277 A18.3231 
N2327 X-295.246 Y-6.628 Z10.406 A18.5550 
N2328 X-295.158 Y-7.301 Z10.548 A18.7747 
N2329 X-295.072 Y-7.954 Z10.683 A18.8659 
N2330 X-294.988 Y-8.582 Z10.797 A18.7246 
N2331 X-294.902 Y-9.179 Z10.877 A18.2640 
N2332 X-294.816 Y-9.742 Z10.914 A17.4276 
N2333 X-294.728 Y-10.271 Z10.908 A16.2171 
N2334 X-294.639 Y-10.770 Z10.870 A14.7110 
N2335 X-294.554 Y-11.240 Z10.821 A13.0857 
N2336 X-294.475 Y-11.686 Z10.785 A11.5193 
N2337 X-294.405 Y-12.106 Z10.785 A10.1951 
N2338 X-294.350 Y-12.499 Z10.840 A9.2886 
N2339 X-294.310 Y-12.866 Z10.968 A8.9352 
N2340 X-294.287 Y-13.210 Z11.174 A9.2030 
N2341 X-294.278 Y-13.528 Z11.444 A10.0336 
N2342 X-294.279 Y-13.832 Z11.755 A11.2545 
N2343 X-294.282 Y-14.119 Z12.065 A12.6010 
N2344 X-294.282 Y-14.390 Z12.345 A13.8612 
N2345 X-294.279 Y-14.656 Z12.592 A14.9762 
N2346 X-294.269 Y-14.906 Z12.784 A15.8099 
N2347 X-294.253 Y-15.157 Z12.943 A16.4751 
N2348 X-294.232 Y-15.411 Z13.070 A16.9920 
N2349 X-294.206 Y-15.671 Z13.176 A17.4343 
N2350 X-294.178 Y-15.943 Z13.276 A17.9383 
N2351 X-294.145 Y-16.208 Z13.339 A18.2888 
N2352 X-294.111 Y-16.482 Z13.413 A18.8515 
N2353 X-294.079 Y-16.753 Z13.486 A19.5562 
N2354 X-294.048 Y-17.014 Z13.564 A20.4239 
N2355 X-294.021 Y-17.258 Z13.645 A21.4297 
N2356 X-294.000 Y-17.491 Z13.751 A22.7283 
N2357 X-293.984 Y-17.701 Z13.866 A24.1333 
N2358 X-293.975 Y-17.901 Z14.009 A25.8083 
N2359 X-293.970 Y-18.094 Z14.175 A27.6941 
N2360 X-293.968 Y-18.286 Z14.358 A29.7442 
N2361 X-293.967 Y-18.480 Z14.552 A31.9196 
N2362 X-293.966 Y-18.681 Z14.749 A34.1719 
N2363 X-293.963 Y-18.881 Z14.932 A36.3466 
N2364 X-293.957 Y-19.083 Z15.101 A38.4507 
N2365 X-293.949 Y-19.274 Z15.242 A40.3371 
N2366 X-293.938 Y-19.453 Z15.358 A42.0221 
N2367 X-293.925 Y-19.621 Z15.452 A43.5217 
N2368 X-293.912 Y-19.780 Z15.530 A44.8876 
N2369 X-293.898 Y-19.936 Z15.601 A46.2079 
N2370 X-293.882 Y-20.097 Z15.670 A47.5579 
N2371 X-293.866 Y-20.267 Z15.744 A48.9953 
N2372 X-293.849 Y-20.455 Z15.827 A50.6164 
N2373 X-293.830 Y-20.659 Z15.918 A52.3918 
N2374 X-293.809 Y-20.893 Z16.024 A54.4478 
N2375 X-293.785 Y-21.151 Z16.136 A56.7183 
N2376 X-293.757 Y-21.434 Z16.253 A59.2013 
N2377 X-293.724 Y-21.748 Z16.372 A61.9281 
N2378 X-293.691 Y-22.055 Z16.474 A64.5543 
N2379 X-293.653 Y-22.374 Z16.566 A67.2597 
N2380 X-293.613 Y-22.695 Z16.643 A69.9448 
N2381 X-293.573 Y-22.993 Z16.700 A72.4122 
N2382 X-293.531 Y-23.291 Z16.744 A74.8662 
N2383 X-293.487 Y-23.589 Z16.774 A77.3036 
N2384 X-293.444 Y-23.864 Z16.791 A79.5507 
N2385 X-293.400 Y-24.141 Z16.797 A81.8037 
N2386 X-293.353 Y-24.418 Z16.792 A84.0597 
N2387 X-293.306 Y-24.688 Z16.777 A86.2587 
N2388 X-293.259 Y-24.953 Z16.752 A88.4238 
N2389 X-293.209 Y-25.220 Z16.717 A90.6148 
N2390 X-293.155 Y-25.499 Z16.670 A92.9180 
N2391 X-293.092 Y-25.822 Z16.604 A95.6102 
N2392 X-293.020 Y-26.175 Z16.519 A98.5731 
