; PROGRAM NAME: B01143032
; ORDER       : B011430
; OPER. NAME  : Spiral Finish Transition:112
; OPER. DESCR.: Spiral transition - Semi finish transition root/promienie przejsc pwk
; OPER. TYPE  : finTransRoot
; GEO. OPTION : 7
; MACHINE     : HSTM_500_SIM840D_Py
;             : HSTM500 - HAMUEL: 5-axis milling machine - SIM840D Traori PP_Script
; CONTROL     : SINUMERIK 840D
; created:   2022-10-26 13:19:47.397191
;-------DODATKOWE DANE-------------------
; PROGRAMISTA : Zbigniew Papierowski
; PARTID      : 135T006774P1021_-
;  ae         : 1.5
;  lean_angle : 5.0
;  tilt_angle : -31.0
;  airf_offset: 0.05
;  plat_offset: 0.3
;----------------------------------------
;RAPORT("TB011430","Spiral Finish Transition:112")
N10 TRAFOOF
N11 D0
N12 G90 G94
N13 G0 G53 D0 Z550 B0
N14 STOPRE
M9 ; chlodziwo wyl
; --- Spiral Finish Transition:112 - Spiral transition - Semi finish transition root/promienie przejsc pwk ---
N16 ;ToolChange : concat=None ,current_tdmid=None, PP.tdmId=940626
N17 TRAFOOF
N18 G0 G53 D0 X-200 Y150 Z550 B0
N19 T="7740626"
;RAPORT("TB011430","ToolChangeStart 7740626")
N20 M6
;RAPORT("TB011430","ToolChangeEnd")
N21 STOPRE
N22 MSG(" TLID=940626 D=8.391 R=5.0 Ang=10.0 Len=155.0 ")
N23 ; (Preloading tool)
N24 T="7740661"
N25 S6987 M03
N26 STOPRE
N27 CYCLE832(0.01,1,1)
N28 G0 G53 A133.1889 B-31.0000
N29 TRAORI
N30 G54 D1
N31 D1 
N32 TRANS  X=R3 A=R25
STOPRE
E_ZDARZ=400004
;ACS_PREFINISH_UBG_B_CONST_BBK_ROOT=7740626
STOPRE
N33 ; DELTA A > 40.1
N34 TRAFOOF
N35 D1
N36 STOPRE
N37 G00 G54 Z231.000
N38 G01 A133.1889 F10000
N39 TRAORI
N40 G54 D1
N41 STOPRE
N42 TRANS  X=R3 A=R25
N43 G00 X-217.434 Y-56.035 Z-35.587 A133.1889 B-31.0000 
N44 M342 ; chlodziwo woda
N45 X-191.682 Y-24.787 Z-6.254 
N46 G01 X-191.682 Y-23.092 Z-3.625 F1456 
N47 X-191.682 Y-22.292 Z-0.600 
N48 X-191.682 Y-22.466 Z2.524 
N49 X-191.682 Y-23.597 Z5.441 
N50 X-191.682 Y-25.574 Z7.866 
N51 X-191.679 Y-25.695 Z7.968 A130.4029 
N52 X-191.677 Y-25.852 Z8.115 A126.0656 
N53 X-191.675 Y-26.008 Z8.284 A121.2143 
N54 X-191.674 Y-26.141 Z8.455 A116.5450 
N55 X-191.674 Y-26.251 Z8.620 A112.2026 
N56 X-191.673 Y-26.329 Z8.760 A108.6705 
N57 X-191.672 Y-26.390 Z8.884 A105.6057 
N58 X-191.671 Y-26.436 Z8.993 A102.9714 
N59 X-191.670 Y-26.470 Z9.087 A100.7408 
N60 X-191.669 Y-26.499 Z9.175 A98.6822 
N61 X-191.668 Y-26.522 Z9.257 A96.7784 
N62 X-191.667 Y-26.541 Z9.334 A94.9954 
N63 X-191.666 Y-26.557 Z9.409 A93.2666 
N64 X-191.665 Y-26.571 Z9.483 A91.5803 
N65 X-191.664 Y-26.582 Z9.556 A89.9278 
N66 X-191.663 Y-26.591 Z9.628 A88.3017 
N67 X-191.662 Y-26.597 Z9.699 A86.6950 
N68 X-191.661 Y-26.602 Z9.770 A85.1036 
N69 X-191.660 Y-26.604 Z9.840 A83.5233 
N70 X-191.660 Y-26.605 Z9.910 A81.9512 
N71 X-191.659 Y-26.604 Z9.980 A80.3853 
N72 X-191.658 Y-26.601 Z10.049 A78.8233 
N73 X-191.657 Y-26.596 Z10.118 A77.2645 
N74 X-191.657 Y-26.589 Z10.187 A75.7067 
N75 X-191.656 Y-26.580 Z10.255 A74.1498 
N76 X-191.656 Y-26.569 Z10.324 A72.5918 
N77 X-191.655 Y-26.557 Z10.392 A71.0328 
N78 X-191.655 Y-26.543 Z10.460 A69.4715 
N79 X-191.654 Y-26.527 Z10.527 A67.9075 
N80 X-191.654 Y-26.509 Z10.594 A66.3403 
N81 X-191.654 Y-26.489 Z10.661 A64.7694 
N82 X-191.653 Y-26.467 Z10.727 A63.1948 
N83 X-191.653 Y-26.444 Z10.793 A61.6161 
N84 X-191.653 Y-26.418 Z10.858 A60.0336 
N85 X-191.652 Y-26.391 Z10.922 A58.4468 
N86 X-191.652 Y-26.362 Z10.986 A56.8562 
N87 X-191.652 Y-26.331 Z11.049 A55.2617 
N88 X-191.652 Y-26.299 Z11.112 A53.6635 
N89 X-191.652 Y-26.265 Z11.173 A52.0618 
N90 X-191.652 Y-26.229 Z11.234 A50.4569 
N91 X-191.651 Y-26.191 Z11.293 A48.8492 
N92 X-191.651 Y-26.152 Z11.352 A47.2388 
N93 X-191.651 Y-26.111 Z11.409 A45.6261 
N94 X-191.651 Y-26.068 Z11.465 A44.0114 
N95 X-191.651 Y-26.024 Z11.520 A42.3950 
N96 X-191.651 Y-25.978 Z11.574 A40.7770 
N97 X-191.651 Y-25.931 Z11.627 A39.1579 
N98 X-191.651 Y-25.883 Z11.678 A37.5377 
N99 X-191.651 Y-25.833 Z11.727 A35.9166 
N100 X-191.651 Y-25.782 Z11.775 A34.2945 
N101 X-191.650 Y-25.729 Z11.822 A32.6714 
N102 X-191.650 Y-25.676 Z11.867 A31.0473 
N103 X-191.650 Y-25.621 Z11.910 A29.4213 
N104 X-191.650 Y-25.565 Z11.952 A27.7935 
N105 X-191.650 Y-25.507 Z11.993 A26.1625 
N106 X-191.649 Y-25.449 Z12.032 A24.5285 
N107 X-191.649 Y-25.389 Z12.069 A22.8893 
N108 X-191.649 Y-25.329 Z12.104 A21.2445 
N109 X-191.649 Y-25.267 Z12.138 A19.5918 
N110 X-191.648 Y-25.204 Z12.170 A17.9300 
N111 X-191.648 Y-25.140 Z12.201 A16.2560 
N112 X-191.647 Y-25.075 Z12.229 A14.5674 
N113 X-191.647 Y-25.008 Z12.257 A12.8597 
N114 X-191.647 Y-24.939 Z12.282 A11.1283 
N115 X-191.646 Y-24.869 Z12.306 A9.3665 
N116 X-191.646 Y-24.797 Z12.328 A7.5663 
N117 X-191.645 Y-24.722 Z12.349 A5.7183 
N118 X-191.645 Y-24.644 Z12.367 A3.8107 
N119 X-191.644 Y-24.563 Z12.384 A1.8340 
N120 X-191.644 Y-24.475 Z12.399 A359.6970 
N121 X-191.644 Y-24.379 Z12.412 A357.3755 
N122 X-191.643 Y-24.273 Z12.422 A354.8507 
N123 X-191.643 Y-24.149 Z12.428 A351.8876 
N124 X-191.644 Y-24.006 Z12.428 A348.4762 
N125 X-191.645 Y-23.844 Z12.417 A344.6192 
N126 X-191.646 Y-23.676 Z12.395 A340.6670 
N127 X-191.648 Y-23.505 Z12.360 A336.6907 
N128 X-191.650 Y-23.341 Z12.313 A332.9500 
N129 X-191.653 Y-23.206 Z12.264 A330.0544 
N130 X-191.657 Y-23.101 Z12.218 A328.1398 
N131 X-191.663 Y-23.019 Z12.176 A327.0870 
N132 X-191.670 Y-22.947 Z12.136 A326.6936 
N133 X-191.680 Y-22.870 Z12.091 A326.5817 
N134 X-191.693 Y-22.777 Z12.036 A326.5868 
N135 X-191.710 Y-22.664 Z11.971 A326.6840 
N136 X-191.732 Y-22.526 Z11.892 A326.8607 
N137 X-191.758 Y-22.360 Z11.798 A327.0781 
N138 X-191.790 Y-22.161 Z11.687 A327.3395 
N139 X-191.828 Y-21.928 Z11.559 A327.6489 
N140 X-191.873 Y-21.658 Z11.413 A328.0112 
N141 X-191.925 Y-21.351 Z11.249 A328.4328 
N142 X-191.984 Y-21.007 Z11.069 A328.9213 
N143 X-192.052 Y-20.627 Z10.875 A329.4853 
N144 X-192.126 Y-20.213 Z10.667 A330.1326 
N145 X-192.209 Y-19.767 Z10.451 A330.8681 
N146 X-192.299 Y-19.294 Z10.229 A331.6931 
N147 X-192.397 Y-18.798 Z10.006 A332.6062 
N148 X-192.502 Y-18.284 Z9.784 A333.6059 
N149 X-192.613 Y-17.756 Z9.568 A334.6914 
N150 X-192.731 Y-17.219 Z9.360 A335.8620 
N151 X-192.853 Y-16.679 Z9.163 A337.1159 
N152 X-192.980 Y-16.139 Z8.980 A338.4502 
N153 X-193.111 Y-15.602 Z8.812 A339.8597 
N154 X-193.246 Y-15.071 Z8.661 A341.3384 
N155 X-193.384 Y-14.549 Z8.527 A342.8801 
N156 X-193.525 Y-14.034 Z8.409 A344.4796 
N157 X-193.670 Y-13.529 Z8.309 A346.1323 
N158 X-193.817 Y-13.030 Z8.224 A347.8345 
N159 X-193.968 Y-12.538 Z8.156 A349.5824 
N160 X-194.122 Y-12.049 Z8.104 A351.3726 
N161 X-194.282 Y-11.561 Z8.067 A353.2009 
N162 X-194.448 Y-11.071 Z8.047 A355.0625 
N163 X-194.621 Y-10.574 Z8.042 A356.9514 
N164 X-194.802 Y-10.067 Z8.056 A358.8596 
N165 X-194.993 Y-9.548 Z8.088 A0.7771 
N166 X-195.194 Y-9.013 Z8.141 A2.6912 
N167 X-195.407 Y-8.460 Z8.216 A4.5873 
N168 X-195.632 Y-7.887 Z8.314 A6.4490 
N169 X-195.869 Y-7.295 Z8.439 A8.2584 
N170 X-196.118 Y-6.685 Z8.589 A9.9980 
N171 X-196.378 Y-6.055 Z8.766 A11.5695 
N172 X-196.647 Y-5.408 Z8.968 A12.9408 
N173 X-196.923 Y-4.748 Z9.193 A14.0836 
N174 X-197.202 Y-4.080 Z9.436 A14.9785 
N175 X-197.482 Y-3.408 Z9.691 A15.6176 
N176 X-197.760 Y-2.739 Z9.953 A16.0043 
N177 X-198.031 Y-2.080 Z10.216 A16.1505 
N178 X-198.292 Y-1.436 Z10.472 A16.0723 
N179 X-198.541 Y-0.815 Z10.718 A15.7830 
N180 X-198.774 Y-0.220 Z10.949 A15.2882 
N181 X-198.990 Y0.342 Z11.161 A14.5861 
N182 X-199.187 Y0.871 Z11.354 A13.6752 
N183 X-199.365 Y1.364 Z11.524 A12.5611 
N184 X-199.523 Y1.821 Z11.672 A11.2574 
N185 X-199.662 Y2.240 Z11.797 A9.7767 
N186 X-199.782 Y2.621 Z11.900 A8.2103 
N187 X-199.885 Y2.966 Z11.983 A6.5701 
N188 X-199.972 Y3.276 Z12.048 A4.8749 
N189 X-200.046 Y3.554 Z12.098 A3.1375 
N190 X-200.107 Y3.803 Z12.136 A1.3628 
N191 X-200.158 Y4.028 Z12.164 A359.5555 
N192 X-200.200 Y4.230 Z12.182 A357.7233 
N193 X-200.235 Y4.413 Z12.194 A355.8739 
N194 X-200.263 Y4.581 Z12.200 A354.0133 
N195 X-200.287 Y4.734 Z12.200 A352.1459 
N196 X-200.306 Y4.876 Z12.196 A350.2757 
N197 X-200.322 Y5.008 Z12.189 A348.4066 
N198 X-200.336 Y5.131 Z12.178 A346.5426 
N199 X-200.347 Y5.248 Z12.165 A344.6883 
N200 X-200.356 Y5.358 Z12.148 A342.8483 
N201 X-200.364 Y5.462 Z12.130 A341.0270 
N202 X-200.371 Y5.562 Z12.109 A339.2279 
N203 X-200.376 Y5.657 Z12.086 A337.4533 
N204 X-200.381 Y5.748 Z12.061 A335.7047 
N205 X-200.385 Y5.835 Z12.034 A333.9823 
N206 X-200.388 Y5.918 Z12.006 A332.2857 
N207 X-200.391 Y5.999 Z11.976 A330.6139 
N208 X-200.393 Y6.076 Z11.944 A328.9652 
N209 X-200.395 Y6.151 Z11.912 A327.3378 
N210 X-200.397 Y6.224 Z11.878 A325.7298 
N211 X-200.398 Y6.294 Z11.842 A324.1389 
N212 X-200.399 Y6.362 Z11.805 A322.5630 
N213 X-200.399 Y6.428 Z11.767 A320.9999 
N214 X-200.400 Y6.492 Z11.728 A319.4474 
N215 X-200.400 Y6.555 Z11.687 A317.9036 
N216 X-200.399 Y6.616 Z11.645 A316.3664 
N217 X-200.399 Y6.675 Z11.602 A314.8340 
N218 X-200.398 Y6.733 Z11.557 A313.3045 
N219 X-200.397 Y6.789 Z11.511 A311.7763 
N220 X-200.396 Y6.844 Z11.464 A310.2477 
N221 X-200.395 Y6.898 Z11.416 A308.7170 
N222 X-200.393 Y6.951 Z11.365 A307.1826 
N223 X-200.392 Y7.002 Z11.314 A305.6428 
N224 X-200.390 Y7.052 Z11.261 A304.0960 
N225 X-200.388 Y7.101 Z11.206 A302.5407 
N226 X-200.385 Y7.149 Z11.150 A300.9751 
N227 X-200.383 Y7.195 Z11.091 A299.3976 
N228 X-200.380 Y7.241 Z11.031 A297.8068 
N229 X-200.377 Y7.285 Z10.969 A296.2010 
N230 X-200.374 Y7.328 Z10.905 A294.5791 
N231 X-200.370 Y7.371 Z10.838 A292.9397 
N232 X-200.366 Y7.412 Z10.769 A291.2819 
N233 X-200.361 Y7.451 Z10.697 A289.6053 
N234 X-200.356 Y7.490 Z10.623 A287.9098 
N235 X-200.351 Y7.527 Z10.545 A286.1965 
N236 X-200.345 Y7.563 Z10.464 A284.4672 
N237 X-200.338 Y7.597 Z10.379 A282.7254 
N238 X-200.331 Y7.630 Z10.291 A280.9757 
N239 X-200.322 Y7.660 Z10.198 A279.2241 
N240 X-200.313 Y7.689 Z10.101 A277.4779 
N241 X-200.302 Y7.715 Z10.000 A275.7447 
N242 X-200.289 Y7.739 Z9.893 A274.0321 
N243 X-200.275 Y7.760 Z9.780 A272.3468 
N244 X-200.258 Y7.778 Z9.662 A270.6944 
N245 X-200.239 Y7.793 Z9.536 A269.0790 
N246 X-200.217 Y7.805 Z9.403 A267.5034 
N247 X-200.191 Y7.813 Z9.261 A265.9681 
N248 X-200.162 Y7.818 Z9.109 A264.4719 
N249 X-200.129 Y7.818 Z8.946 A263.0123 
N250 X-200.092 Y7.813 Z8.771 A261.5859 
N251 X-200.049 Y7.803 Z8.583 A260.1884 
N252 X-200.001 Y7.787 Z8.381 A258.8140 
N253 X-199.947 Y7.764 Z8.164 A257.4554 
N254 X-199.887 Y7.734 Z7.931 A256.1064 
N255 X-199.820 Y7.695 Z7.682 A254.7655 
N256 X-199.746 Y7.647 Z7.417 A253.4351 
N257 X-199.665 Y7.590 Z7.136 A252.1163 
N258 X-199.577 Y7.521 Z6.840 A250.8079 
N259 X-199.482 Y7.442 Z6.529 A249.5078 
N260 X-199.379 Y7.351 Z6.204 A248.2146 
N261 X-199.270 Y7.249 Z5.867 A246.9271 
N262 X-199.155 Y7.134 Z5.519 A245.6431 
N263 X-199.034 Y7.008 Z5.161 A244.3579 
N264 X-198.907 Y6.870 Z4.797 A243.0647 
N265 X-198.776 Y6.721 Z4.426 A241.7563 
N266 X-198.641 Y6.560 Z4.052 A240.4268 
N267 X-198.503 Y6.388 Z3.677 A239.0726 
N268 X-198.362 Y6.206 Z3.302 A237.6931 
N269 X-198.220 Y6.015 Z2.931 A236.2885 
N270 X-198.077 Y5.814 Z2.564 A234.8592 
N271 X-197.933 Y5.605 Z2.205 A233.4049 
N272 X-197.790 Y5.390 Z1.853 A231.9242 
N273 X-197.648 Y5.167 Z1.511 A230.4158 
N274 X-197.508 Y4.940 Z1.180 A228.8792 
N275 X-197.370 Y4.707 Z0.860 A227.3145 
N276 X-197.234 Y4.470 Z0.552 A225.7228 
N277 X-197.101 Y4.230 Z0.257 A224.1061 
N278 X-196.971 Y3.987 Z-0.025 A222.4665 
N279 X-196.844 Y3.741 Z-0.294 A220.8065 
N280 X-196.720 Y3.493 Z-0.550 A219.1287 
N281 X-196.599 Y3.244 Z-0.793 A217.4356 
N282 X-196.482 Y2.993 Z-1.024 A215.7295 
N283 X-196.368 Y2.741 Z-1.242 A214.0127 
N284 X-196.256 Y2.488 Z-1.448 A212.2875 
N285 X-196.148 Y2.234 Z-1.643 A210.5558 
N286 X-196.042 Y1.979 Z-1.827 A208.8195 
N287 X-195.939 Y1.723 Z-2.000 A207.0801 
N288 X-195.838 Y1.466 Z-2.162 A205.3391 
N289 X-195.739 Y1.208 Z-2.315 A203.5976 
N290 X-195.642 Y0.948 Z-2.458 A201.8566 
N291 X-195.548 Y0.687 Z-2.591 A200.1168 
N292 X-195.455 Y0.424 Z-2.716 A198.3790 
N293 X-195.363 Y0.160 Z-2.832 A196.6438 
N294 X-195.273 Y-0.107 Z-2.939 A194.9117 
N295 X-195.184 Y-0.377 Z-3.038 A193.1832 
N296 X-195.096 Y-0.649 Z-3.129 A191.4587 
N297 X-195.009 Y-0.924 Z-3.211 A189.7382 
N298 X-194.923 Y-1.203 Z-3.286 A188.0220 
N299 X-194.838 Y-1.486 Z-3.353 A186.3099 
N300 X-194.753 Y-1.773 Z-3.411 A184.6020 
N301 X-194.668 Y-2.064 Z-3.462 A182.8981 
N302 X-194.584 Y-2.362 Z-3.504 A181.1982 
N303 X-194.499 Y-2.665 Z-3.538 A179.5021 
N304 X-194.415 Y-2.974 Z-3.563 A177.8095 
N305 X-194.330 Y-3.292 Z-3.580 A176.1202 
N306 X-194.245 Y-3.617 Z-3.587 A174.4337 
N307 X-194.159 Y-3.951 Z-3.584 A172.7495 
N308 X-194.073 Y-4.296 Z-3.571 A171.0671 
N309 X-193.986 Y-4.652 Z-3.547 A169.3859 
N310 X-193.897 Y-5.022 Z-3.511 A167.7056 
N311 X-193.807 Y-5.406 Z-3.461 A166.0260 
N312 X-193.715 Y-5.806 Z-3.398 A164.3469 
N313 X-193.622 Y-6.225 Z-3.318 A162.6689 
N314 X-193.526 Y-6.666 Z-3.221 A160.9927 
N315 X-193.429 Y-7.129 Z-3.103 A159.3202 
N316 X-193.328 Y-7.619 Z-2.963 A157.6538 
N317 X-193.225 Y-8.138 Z-2.798 A155.9975 
N318 X-193.120 Y-8.688 Z-2.604 A154.3563 
N319 X-193.013 Y-9.272 Z-2.378 A152.7374 
N320 X-192.903 Y-9.890 Z-2.117 A151.1496 
N321 X-192.792 Y-10.545 Z-1.818 A149.6034 
N322 X-192.680 Y-11.236 Z-1.478 A148.1110 
N323 X-192.568 Y-11.961 Z-1.095 A146.6847 
N324 X-192.457 Y-12.718 Z-0.670 A145.3357 
N325 X-192.348 Y-13.504 Z-0.203 A144.0723 
N326 X-192.241 Y-14.314 Z0.303 A142.9011 
N327 X-192.137 Y-15.140 Z0.844 A141.8269 
N328 X-192.038 Y-15.976 Z1.413 A140.8532 
N329 X-191.944 Y-16.812 Z2.004 A139.9818 
N330 X-191.854 Y-17.639 Z2.606 A139.2124 
N331 X-191.771 Y-18.447 Z3.211 A138.5431 
N332 X-191.693 Y-19.226 Z3.807 A137.9692 
N333 X-191.622 Y-19.969 Z4.385 A137.4834 
N334 X-191.556 Y-20.666 Z4.936 A137.0761 
N335 X-191.496 Y-21.311 Z5.452 A136.7381 
N336 X-191.443 Y-21.900 Z5.927 A136.4612 
N337 X-191.396 Y-22.427 Z6.357 A136.2372 
N338 X-191.354 Y-22.893 Z6.739 A136.0574 
N339 X-191.318 Y-23.298 Z7.072 A135.9130 
N340 X-191.287 Y-23.643 Z7.358 A135.7959 
N341 X-191.261 Y-23.934 Z7.599 A135.6988 
N342 X-191.239 Y-24.173 Z7.799 A135.6155 
N343 X-191.221 Y-24.368 Z7.963 A135.5402 
N344 X-191.206 Y-24.523 Z8.094 A135.4665 
N345 X-191.195 Y-24.645 Z8.197 A135.3873 
N346 X-191.185 Y-24.739 Z8.278 A135.2950 
N347 X-191.177 Y-24.812 Z8.342 A135.1358 
N348 X-191.172 Y-24.877 Z8.396 A134.6084 
N349 X-191.167 Y-24.949 Z8.453 A133.1889 
N350 X-191.164 Y-25.042 Z8.524 A130.4029 
N351 X-191.162 Y-25.159 Z8.620 A126.0656 
N352 X-191.160 Y-25.275 Z8.728 A121.2143 
N353 X-191.159 Y-25.374 Z8.838 A116.5450 
N354 X-191.159 Y-25.457 Z8.944 A112.2026 
N355 X-191.158 Y-25.517 Z9.034 A108.6705 
N356 X-191.157 Y-25.564 Z9.115 A105.6057 
N357 X-191.156 Y-25.600 Z9.186 A102.9714 
N358 X-191.155 Y-25.628 Z9.247 A100.7408 
N359 X-191.154 Y-25.651 Z9.304 A98.6822 
N360 X-191.153 Y-25.671 Z9.358 A96.7784 
N361 X-191.152 Y-25.687 Z9.408 A94.9954 
N362 X-191.151 Y-25.701 Z9.458 A93.2666 
N363 X-191.150 Y-25.714 Z9.507 A91.5803 
N364 X-191.149 Y-25.725 Z9.555 A89.9278 
N365 X-191.148 Y-25.734 Z9.602 A88.3017 
N366 X-191.147 Y-25.741 Z9.650 A86.6950 
N367 X-191.146 Y-25.748 Z9.697 A85.1036 
N368 X-191.145 Y-25.753 Z9.743 A83.5233 
N369 X-191.145 Y-25.756 Z9.790 A81.9512 
N370 X-191.144 Y-25.759 Z9.836 A80.3853 
N371 X-191.143 Y-25.760 Z9.883 A78.8233 
N372 X-191.142 Y-25.760 Z9.929 A77.2645 
N373 X-191.142 Y-25.758 Z9.975 A75.7067 
N374 X-191.141 Y-25.755 Z10.021 A74.1498 
N375 X-191.141 Y-25.752 Z10.067 A72.5918 
N376 X-191.140 Y-25.746 Z10.113 A71.0328 
N377 X-191.140 Y-25.740 Z10.159 A69.4715 
N378 X-191.139 Y-25.732 Z10.205 A67.9075 
N379 X-191.139 Y-25.724 Z10.250 A66.3403 
N380 X-191.139 Y-25.713 Z10.295 A64.7694 
N381 X-191.138 Y-25.702 Z10.340 A63.1948 
N382 X-191.138 Y-25.690 Z10.385 A61.6161 
N383 X-191.138 Y-25.676 Z10.430 A60.0336 
N384 X-191.137 Y-25.661 Z10.474 A58.4468 
N385 X-191.137 Y-25.645 Z10.517 A56.8562 
N386 X-191.137 Y-25.627 Z10.561 A55.2617 
N387 X-191.137 Y-25.608 Z10.604 A53.6635 
N388 X-191.137 Y-25.589 Z10.646 A52.0618 
N389 X-191.137 Y-25.568 Z10.688 A50.4569 
N390 X-191.136 Y-25.546 Z10.729 A48.8492 
N391 X-191.136 Y-25.522 Z10.770 A47.2388 
N392 X-191.136 Y-25.498 Z10.810 A45.6261 
N393 X-191.136 Y-25.473 Z10.849 A44.0114 
N394 X-191.136 Y-25.446 Z10.887 A42.3950 
N395 X-191.136 Y-25.419 Z10.925 A40.7770 
N396 X-191.136 Y-25.390 Z10.962 A39.1579 
N397 X-191.136 Y-25.361 Z10.998 A37.5377 
N398 X-191.136 Y-25.330 Z11.033 A35.9166 
N399 X-191.135 Y-25.299 Z11.067 A34.2945 
N400 X-191.135 Y-25.267 Z11.100 A32.6714 
N401 X-191.135 Y-25.234 Z11.133 A31.0473 
N402 X-191.135 Y-25.200 Z11.164 A29.4213 
N403 X-191.135 Y-25.165 Z11.194 A27.7935 
N404 X-191.135 Y-25.129 Z11.223 A26.1625 
N405 X-191.134 Y-25.093 Z11.252 A24.5285 
N406 X-191.134 Y-25.056 Z11.279 A22.8893 
N407 X-191.134 Y-25.018 Z11.305 A21.2445 
N408 X-191.133 Y-24.980 Z11.330 A19.5918 
N409 X-191.133 Y-24.940 Z11.355 A17.9300 
N410 X-191.133 Y-24.900 Z11.378 A16.2560 
N411 X-191.132 Y-24.859 Z11.400 A14.5674 
N412 X-191.132 Y-24.817 Z11.421 A12.8597 
N413 X-191.131 Y-24.774 Z11.441 A11.1283 
N414 X-191.131 Y-24.729 Z11.460 A9.3665 
N415 X-191.131 Y-24.684 Z11.479 A7.5663 
N416 X-191.130 Y-24.636 Z11.496 A5.7183 
N417 X-191.130 Y-24.587 Z11.512 A3.8107 
N418 X-191.129 Y-24.536 Z11.527 A1.8340 
N419 X-191.129 Y-24.479 Z11.542 A359.6970 
N420 X-191.128 Y-24.418 Z11.556 A357.3755 
N421 X-191.128 Y-24.350 Z11.568 A354.8507 
N422 X-191.128 Y-24.270 Z11.580 A351.8876 
N423 X-191.129 Y-24.177 Z11.588 A348.4762 
N424 X-191.130 Y-24.071 Z11.591 A344.6192 
N425 X-191.131 Y-23.959 Z11.586 A340.6670 
N426 X-191.133 Y-23.844 Z11.572 A336.6907 
N427 X-191.135 Y-23.731 Z11.550 A332.9500 
N428 X-191.138 Y-23.634 Z11.521 A330.0544 
N429 X-191.142 Y-23.554 Z11.490 A328.1398 
N430 X-191.148 Y-23.484 Z11.457 A327.0870 
N431 X-191.155 Y-23.418 Z11.420 A326.6936 
N432 X-191.165 Y-23.342 Z11.375 A326.5817 
N433 X-191.178 Y-23.249 Z11.321 A326.5868 
N434 X-191.195 Y-23.134 Z11.254 A326.6840 
N435 X-191.217 Y-22.995 Z11.174 A326.8607 
N436 X-191.243 Y-22.826 Z11.078 A327.0781 
N437 X-191.275 Y-22.624 Z10.965 A327.3395 
N438 X-191.313 Y-22.387 Z10.835 A327.6489 
N439 X-191.358 Y-22.113 Z10.686 A328.0112 
N440 X-191.410 Y-21.800 Z10.519 A328.4328 
N441 X-191.469 Y-21.450 Z10.335 A328.9213 
N442 X-191.537 Y-21.062 Z10.136 A329.4853 
N443 X-191.611 Y-20.639 Z9.924 A330.1326 
N444 X-191.694 Y-20.184 Z9.702 A330.8681 
N445 X-191.784 Y-19.701 Z9.475 A331.6931 
N446 X-191.882 Y-19.193 Z9.245 A332.6062 
N447 X-191.987 Y-18.665 Z9.016 A333.6059 
N448 X-192.098 Y-18.122 Z8.793 A334.6914 
N449 X-192.216 Y-17.570 Z8.577 A335.8620 
N450 X-192.338 Y-17.012 Z8.373 A337.1159 
N451 X-192.465 Y-16.453 Z8.183 A338.4502 
N452 X-192.596 Y-15.897 Z8.007 A339.8597 
N453 X-192.731 Y-15.346 Z7.849 A341.3384 
N454 X-192.869 Y-14.801 Z7.707 A342.8801 
N455 X-193.010 Y-14.264 Z7.583 A344.4796 
N456 X-193.155 Y-13.734 Z7.476 A346.1323 
N457 X-193.302 Y-13.211 Z7.387 A347.8345 
N458 X-193.453 Y-12.693 Z7.313 A349.5824 
N459 X-193.607 Y-12.178 Z7.256 A351.3726 
N460 X-193.767 Y-11.663 Z7.216 A353.2009 
N461 X-193.933 Y-11.144 Z7.193 A355.0625 
N462 X-194.106 Y-10.619 Z7.187 A356.9514 
N463 X-194.287 Y-10.084 Z7.199 A358.8596 
N464 X-194.478 Y-9.536 Z7.231 A0.7771 
N465 X-194.679 Y-8.973 Z7.285 A2.6912 
N466 X-194.892 Y-8.391 Z7.361 A4.5873 
N467 X-195.117 Y-7.791 Z7.463 A6.4490 
N468 X-195.354 Y-7.172 Z7.590 A8.2584 
N469 X-195.603 Y-6.536 Z7.744 A9.9980 
N470 X-195.863 Y-5.883 Z7.926 A11.5695 
N471 X-196.132 Y-5.216 Z8.132 A12.9408 
N472 X-196.408 Y-4.540 Z8.361 A14.0836 
N473 X-196.687 Y-3.858 Z8.608 A14.9785 
N474 X-196.967 Y-3.177 Z8.866 A15.6176 
N475 X-197.245 Y-2.503 Z9.129 A16.0043 
N476 X-197.516 Y-1.841 Z9.392 A16.1505 
N477 X-197.777 Y-1.199 Z9.648 A16.0723 
N478 X-198.025 Y-0.581 Z9.893 A15.7830 
N479 X-198.259 Y0.006 Z10.122 A15.2882 
N480 X-198.475 Y0.558 Z10.332 A14.5861 
N481 X-198.672 Y1.074 Z10.521 A13.6752 
N482 X-198.850 Y1.551 Z10.687 A12.5611 
N483 X-199.008 Y1.988 Z10.831 A11.2574 
N484 X-199.147 Y2.386 Z10.952 A9.7767 
N485 X-199.267 Y2.744 Z11.051 A8.2103 
N486 X-199.370 Y3.064 Z11.131 A6.5701 
N487 X-199.457 Y3.349 Z11.194 A4.8749 
N488 X-199.530 Y3.601 Z11.242 A3.1375 
N489 X-199.592 Y3.824 Z11.279 A1.3628 
N490 X-199.643 Y4.021 Z11.306 A359.5555 
N491 X-199.685 Y4.196 Z11.326 A357.7233 
N492 X-199.720 Y4.352 Z11.339 A355.8739 
N493 X-199.748 Y4.491 Z11.347 A354.0133 
N494 X-199.772 Y4.617 Z11.351 A352.1459 
N495 X-199.791 Y4.731 Z11.352 A350.2757 
N496 X-199.807 Y4.836 Z11.349 A348.4066 
N497 X-199.821 Y4.932 Z11.345 A346.5426 
N498 X-199.832 Y5.022 Z11.338 A344.6883 
N499 X-199.841 Y5.105 Z11.329 A342.8483 
N500 X-199.849 Y5.184 Z11.319 A341.0270 
N501 X-199.856 Y5.258 Z11.307 A339.2279 
N502 X-199.861 Y5.328 Z11.294 A337.4533 
N503 X-199.866 Y5.395 Z11.280 A335.7047 
N504 X-199.870 Y5.459 Z11.264 A333.9823 
N505 X-199.873 Y5.520 Z11.247 A332.2857 
N506 X-199.876 Y5.578 Z11.229 A330.6139 
N507 X-199.878 Y5.634 Z11.210 A328.9652 
N508 X-199.880 Y5.689 Z11.190 A327.3378 
N509 X-199.882 Y5.741 Z11.169 A325.7298 
N510 X-199.883 Y5.792 Z11.147 A324.1389 
N511 X-199.884 Y5.841 Z11.125 A322.5630 
N512 X-199.884 Y5.889 Z11.101 A320.9999 
N513 X-199.884 Y5.935 Z11.076 A319.4474 
N514 X-199.885 Y5.980 Z11.051 A317.9036 
N515 X-199.884 Y6.024 Z11.025 A316.3664 
N516 X-199.884 Y6.067 Z10.998 A314.8340 
N517 X-199.883 Y6.109 Z10.969 A313.3045 
N518 X-199.882 Y6.150 Z10.940 A311.7763 
N519 X-199.881 Y6.190 Z10.910 A310.2477 
N520 X-199.880 Y6.229 Z10.879 A308.7170 
N521 X-199.878 Y6.268 Z10.847 A307.1826 
N522 X-199.877 Y6.305 Z10.814 A305.6428 
N523 X-199.875 Y6.342 Z10.780 A304.0960 
N524 X-199.873 Y6.378 Z10.745 A302.5407 
N525 X-199.870 Y6.414 Z10.708 A300.9751 
N526 X-199.868 Y6.448 Z10.671 A299.3976 
N527 X-199.865 Y6.483 Z10.631 A297.8068 
N528 X-199.862 Y6.516 Z10.591 A296.2010 
N529 X-199.858 Y6.549 Z10.548 A294.5791 
N530 X-199.855 Y6.581 Z10.504 A292.9397 
N531 X-199.851 Y6.613 Z10.458 A291.2819 
N532 X-199.846 Y6.644 Z10.410 A289.6053 
N533 X-199.841 Y6.674 Z10.359 A287.9098 
N534 X-199.836 Y6.704 Z10.306 A286.1965 
N535 X-199.830 Y6.733 Z10.250 A284.4672 
N536 X-199.823 Y6.761 Z10.190 A282.7254 
N537 X-199.816 Y6.788 Z10.127 A280.9757 
N538 X-199.807 Y6.814 Z10.061 A279.2241 
N539 X-199.798 Y6.839 Z9.990 A277.4779 
N540 X-199.787 Y6.862 Z9.914 A275.7447 
N541 X-199.774 Y6.884 Z9.832 A274.0321 
N542 X-199.759 Y6.903 Z9.745 A272.3468 
N543 X-199.743 Y6.921 Z9.651 A270.6944 
N544 X-199.724 Y6.936 Z9.550 A269.0790 
N545 X-199.702 Y6.949 Z9.440 A267.5034 
N546 X-199.676 Y6.958 Z9.321 A265.9681 
N547 X-199.647 Y6.965 Z9.191 A264.4719 
N548 X-199.614 Y6.967 Z9.050 A263.0123 
N549 X-199.577 Y6.965 Z8.896 A261.5859 
N550 X-199.534 Y6.958 Z8.729 A260.1884 
N551 X-199.486 Y6.946 Z8.547 A258.8140 
N552 X-199.432 Y6.927 Z8.350 A257.4554 
N553 X-199.371 Y6.902 Z8.137 A256.1064 
N554 X-199.305 Y6.868 Z7.907 A254.7655 
N555 X-199.231 Y6.826 Z7.661 A253.4351 
N556 X-199.150 Y6.774 Z7.399 A252.1163 
N557 X-199.062 Y6.712 Z7.121 A250.8079 
N558 X-198.967 Y6.639 Z6.829 A249.5078 
N559 X-198.864 Y6.555 Z6.522 A248.2146 
N560 X-198.755 Y6.460 Z6.203 A246.9271 
N561 X-198.640 Y6.354 Z5.872 A245.6431 
N562 X-198.519 Y6.235 Z5.532 A244.3579 
N563 X-198.392 Y6.106 Z5.185 A243.0647 
N564 X-198.261 Y5.966 Z4.832 A241.7563 
N565 X-198.126 Y5.815 Z4.475 A240.4268 
N566 X-197.988 Y5.653 Z4.117 A239.0726 
N567 X-197.847 Y5.482 Z3.760 A237.6931 
N568 X-197.705 Y5.302 Z3.407 A236.2885 
N569 X-197.562 Y5.113 Z3.058 A234.8592 
N570 X-197.418 Y4.917 Z2.716 A233.4049 
N571 X-197.275 Y4.715 Z2.382 A231.9242 
N572 X-197.133 Y4.507 Z2.057 A230.4158 
N573 X-196.993 Y4.294 Z1.743 A228.8792 
N574 X-196.855 Y4.077 Z1.441 A227.3145 
N575 X-196.719 Y3.857 Z1.151 A225.7228 
N576 X-196.586 Y3.633 Z0.873 A224.1061 
N577 X-196.456 Y3.408 Z0.607 A222.4665 
N578 X-196.329 Y3.181 Z0.355 A220.8065 
N579 X-196.205 Y2.952 Z0.115 A219.1287 
N580 X-196.084 Y2.723 Z-0.113 A217.4356 
N581 X-195.967 Y2.492 Z-0.328 A215.7295 
N582 X-195.852 Y2.261 Z-0.532 A214.0127 
N583 X-195.741 Y2.030 Z-0.724 A212.2875 
N584 X-195.633 Y1.798 Z-0.905 A210.5558 
N585 X-195.527 Y1.566 Z-1.076 A208.8195 
N586 X-195.423 Y1.333 Z-1.237 A207.0801 
N587 X-195.323 Y1.099 Z-1.388 A205.3391 
N588 X-195.224 Y0.864 Z-1.529 A203.5976 
N589 X-195.127 Y0.629 Z-1.662 A201.8566 
N590 X-195.033 Y0.392 Z-1.786 A200.1168 
N591 X-194.940 Y0.154 Z-1.902 A198.3790 
N592 X-194.848 Y-0.086 Z-2.010 A196.6438 
N593 X-194.758 Y-0.328 Z-2.111 A194.9117 
N594 X-194.669 Y-0.572 Z-2.203 A193.1832 
N595 X-194.581 Y-0.819 Z-2.289 A191.4587 
N596 X-194.494 Y-1.069 Z-2.367 A189.7382 
N597 X-194.408 Y-1.323 Z-2.437 A188.0220 
N598 X-194.323 Y-1.580 Z-2.501 A186.3099 
N599 X-194.238 Y-1.841 Z-2.557 A184.6020 
N600 X-194.153 Y-2.108 Z-2.606 A182.8981 
N601 X-194.069 Y-2.380 Z-2.647 A181.1982 
N602 X-193.984 Y-2.657 Z-2.681 A179.5021 
N603 X-193.900 Y-2.942 Z-2.707 A177.8095 
N604 X-193.815 Y-3.234 Z-2.725 A176.1202 
N605 X-193.730 Y-3.534 Z-2.734 A174.4337 
N606 X-193.644 Y-3.843 Z-2.734 A172.7495 
N607 X-193.558 Y-4.163 Z-2.724 A171.0671 
N608 X-193.471 Y-4.494 Z-2.704 A169.3859 
N609 X-193.382 Y-4.839 Z-2.673 A167.7056 
N610 X-193.292 Y-5.199 Z-2.630 A166.0260 
N611 X-193.200 Y-5.575 Z-2.572 A164.3469 
N612 X-193.107 Y-5.970 Z-2.500 A162.6689 
N613 X-193.011 Y-6.387 Z-2.410 A160.9927 
N614 X-192.914 Y-6.827 Z-2.301 A159.3202 
N615 X-192.813 Y-7.294 Z-2.170 A157.6538 
N616 X-192.710 Y-7.789 Z-2.015 A155.9975 
N617 X-192.605 Y-8.317 Z-1.831 A154.3563 
N618 X-192.498 Y-8.879 Z-1.616 A152.7374 
N619 X-192.388 Y-9.477 Z-1.366 A151.1496 
N620 X-192.277 Y-10.111 Z-1.079 A149.6034 
N621 X-192.165 Y-10.783 Z-0.750 A148.1110 
N622 X-192.053 Y-11.490 Z-0.379 A146.6847 
N623 X-191.942 Y-12.231 Z0.035 A145.3357 
N624 X-191.833 Y-13.001 Z0.491 A144.0723 
N625 X-191.726 Y-13.797 Z0.987 A142.9011 
N626 X-191.622 Y-14.611 Z1.518 A141.8269 
N627 X-191.523 Y-15.435 Z2.078 A140.8532 
N628 X-191.429 Y-16.261 Z2.660 A139.9818 
N629 X-191.339 Y-17.079 Z3.255 A139.2124 
N630 X-191.256 Y-17.879 Z3.853 A138.5431 
N631 X-191.178 Y-18.652 Z4.444 A137.9692 
N632 X-191.106 Y-19.390 Z5.017 A137.4834 
N633 X-191.041 Y-20.082 Z5.564 A137.0761 
N634 X-190.981 Y-20.724 Z6.077 A136.7381 
N635 X-190.928 Y-21.309 Z6.549 A136.4612 
N636 X-190.881 Y-21.834 Z6.976 A136.2372 
N637 X-190.839 Y-22.298 Z7.356 A136.0574 
N638 X-190.803 Y-22.701 Z7.688 A135.9130 
N639 X-190.772 Y-23.046 Z7.972 A135.7959 
N640 X-190.746 Y-23.335 Z8.213 A135.6988 
N641 X-190.724 Y-23.574 Z8.412 A135.6155 
N642 X-190.706 Y-23.767 Z8.574 A135.5402 
N643 X-190.691 Y-23.922 Z8.705 A135.4665 
N644 X-190.680 Y-24.043 Z8.807 A135.3873 
N645 X-190.670 Y-24.136 Z8.887 A135.2950 
N646 X-190.662 Y-24.208 Z8.949 A135.1358 
N647 X-190.657 Y-24.267 Z8.998 A134.6084 
N648 X-190.652 Y-24.324 Z9.039 A133.1889 
N649 X-190.651 Y-24.391 Z9.078 A130.4029 
N650 X-190.650 Y-24.471 Z9.121 A126.0656 
N651 X-190.650 Y-24.549 Z9.168 A121.2143 
N652 X-190.651 Y-24.618 Z9.216 A116.5450 
N653 X-190.652 Y-24.677 Z9.263 A112.2026 
N654 X-190.653 Y-24.721 Z9.303 A108.6705 
N655 X-190.654 Y-24.758 Z9.340 A105.6057 
N656 X-190.655 Y-24.787 Z9.373 A102.9714 
N657 X-190.655 Y-24.811 Z9.402 A100.7408 
N658 X-190.656 Y-24.832 Z9.429 A98.6822 
N659 X-190.657 Y-24.851 Z9.455 A96.7784 
N660 X-190.658 Y-24.868 Z9.480 A94.9954 
N661 X-190.658 Y-24.883 Z9.505 A93.2666 
N662 X-190.659 Y-24.897 Z9.529 A91.5803 
N663 X-190.660 Y-24.910 Z9.554 A89.9278 
N664 X-190.660 Y-24.923 Z9.578 A88.3017 
N665 X-190.661 Y-24.934 Z9.603 A86.6950 
N666 X-190.662 Y-24.945 Z9.628 A85.1036 
N667 X-190.663 Y-24.955 Z9.653 A83.5233 
N668 X-190.664 Y-24.964 Z9.678 A81.9512 
N669 X-190.665 Y-24.973 Z9.703 A80.3853 
N670 X-190.666 Y-24.981 Z9.729 A78.8233 
N671 X-190.667 Y-24.988 Z9.755 A77.2645 
N672 X-190.668 Y-24.994 Z9.781 A75.7067 
N673 X-190.669 Y-25.000 Z9.807 A74.1498 
N674 X-190.670 Y-25.005 Z9.833 A72.5918 
N675 X-190.672 Y-25.009 Z9.860 A71.0328 
N676 X-190.673 Y-25.012 Z9.887 A69.4715 
N677 X-190.674 Y-25.015 Z9.913 A67.9075 
N678 X-190.676 Y-25.017 Z9.941 A66.3403 
N679 X-190.677 Y-25.018 Z9.968 A64.7694 
N680 X-190.678 Y-25.019 Z9.995 A63.1948 
N681 X-190.680 Y-25.019 Z10.023 A61.6161 
N682 X-190.681 Y-25.018 Z10.050 A60.0336 
N683 X-190.683 Y-25.016 Z10.078 A58.4468 
N684 X-190.684 Y-25.013 Z10.105 A56.8562 
N685 X-190.686 Y-25.010 Z10.133 A55.2617 
N686 X-190.687 Y-25.006 Z10.160 A53.6635 
N687 X-190.689 Y-25.001 Z10.188 A52.0618 
N688 X-190.690 Y-24.995 Z10.215 A50.4569 
N689 X-190.692 Y-24.989 Z10.242 A48.8492 
N690 X-190.694 Y-24.981 Z10.269 A47.2388 
N691 X-190.695 Y-24.973 Z10.296 A45.6261 
N692 X-190.697 Y-24.965 Z10.323 A44.0114 
N693 X-190.698 Y-24.955 Z10.350 A42.3950 
N694 X-190.700 Y-24.945 Z10.376 A40.7770 
N695 X-190.702 Y-24.934 Z10.402 A39.1579 
N696 X-190.703 Y-24.922 Z10.427 A37.5377 
N697 X-190.705 Y-24.910 Z10.453 A35.9166 
N698 X-190.707 Y-24.897 Z10.477 A34.2945 
N699 X-190.708 Y-24.883 Z10.502 A32.6714 
N700 X-190.710 Y-24.868 Z10.526 A31.0473 
N701 X-190.711 Y-24.853 Z10.550 A29.4213 
N702 X-190.713 Y-24.837 Z10.573 A27.7935 
N703 X-190.714 Y-24.821 Z10.596 A26.1625 
N704 X-190.716 Y-24.804 Z10.618 A24.5285 
N705 X-190.717 Y-24.786 Z10.640 A22.8893 
N706 X-190.719 Y-24.768 Z10.661 A21.2445 
N707 X-190.720 Y-24.749 Z10.682 A19.5918 
N708 X-190.721 Y-24.729 Z10.703 A17.9300 
N709 X-190.723 Y-24.709 Z10.723 A16.2560 
N710 X-190.724 Y-24.688 Z10.742 A14.5674 
N711 X-190.725 Y-24.666 Z10.761 A12.8597 
N712 X-190.727 Y-24.644 Z10.780 A11.1283 
N713 X-190.728 Y-24.620 Z10.798 A9.3665 
N714 X-190.729 Y-24.596 Z10.816 A7.5663 
N715 X-190.730 Y-24.570 Z10.834 A5.7183 
N716 X-190.732 Y-24.543 Z10.851 A3.8107 
N717 X-190.733 Y-24.514 Z10.868 A1.8340 
N718 X-190.734 Y-24.483 Z10.885 A359.6970 
N719 X-190.736 Y-24.448 Z10.903 A357.3755 
N720 X-190.737 Y-24.409 Z10.920 A354.8507 
N721 X-190.739 Y-24.362 Z10.938 A351.8876 
N722 X-190.741 Y-24.306 Z10.956 A348.4762 
N723 X-190.744 Y-24.241 Z10.972 A344.6192 
N724 X-190.747 Y-24.171 Z10.983 A340.6670 
N725 X-190.750 Y-24.096 Z10.988 A336.6907 
N726 X-190.754 Y-24.019 Z10.985 A332.9500 
N727 X-190.759 Y-23.949 Z10.975 A330.0544 
N728 X-190.765 Y-23.885 Z10.957 A328.1398 
N729 X-190.772 Y-23.824 Z10.932 A327.0870 
N730 X-190.781 Y-23.760 Z10.900 A326.6936 
N731 X-190.793 Y-23.683 Z10.859 A326.5817 
N732 X-190.808 Y-23.588 Z10.806 A326.5868 
N733 X-190.827 Y-23.471 Z10.742 A326.6840 
N734 X-190.850 Y-23.329 Z10.663 A326.8607 
N735 X-190.878 Y-23.156 Z10.568 A327.0781 
N736 X-190.911 Y-22.950 Z10.456 A327.3395 
N737 X-190.951 Y-22.709 Z10.326 A327.6489 
N738 X-190.998 Y-22.430 Z10.178 A328.0112 
N739 X-191.052 Y-22.112 Z10.011 A328.4328 
N740 X-191.113 Y-21.756 Z9.827 A328.9213 
N741 X-191.182 Y-21.362 Z9.627 A329.4853 
N742 X-191.258 Y-20.932 Z9.414 A330.1326 
N743 X-191.343 Y-20.469 Z9.192 A330.8681 
N744 X-191.435 Y-19.977 Z8.962 A331.6931 
N745 X-191.534 Y-19.459 Z8.731 A332.6062 
N746 X-191.641 Y-18.921 Z8.500 A333.6059 
N747 X-191.754 Y-18.367 Z8.274 A334.6914 
N748 X-191.873 Y-17.803 Z8.057 A335.8620 
N749 X-191.997 Y-17.233 Z7.850 A337.1159 
N750 X-192.126 Y-16.661 Z7.657 A338.4502 
N751 X-192.259 Y-16.091 Z7.480 A339.8597 
N752 X-192.395 Y-15.525 Z7.319 A341.3384 
N753 X-192.535 Y-14.965 Z7.176 A342.8801 
N754 X-192.678 Y-14.412 Z7.050 A344.4796 
N755 X-192.824 Y-13.866 Z6.942 A346.1323 
N756 X-192.973 Y-13.326 Z6.851 A347.8345 
N757 X-193.125 Y-12.792 Z6.778 A349.5824 
N758 X-193.282 Y-12.259 Z6.721 A351.3726 
N759 X-193.443 Y-11.727 Z6.681 A353.2009 
N760 X-193.611 Y-11.190 Z6.659 A355.0625 
N761 X-193.785 Y-10.648 Z6.654 A356.9514 
N762 X-193.968 Y-10.095 Z6.669 A358.8596 
N763 X-194.161 Y-9.529 Z6.704 A0.7771 
N764 X-194.364 Y-8.948 Z6.760 A2.6912 
N765 X-194.578 Y-8.350 Z6.841 A4.5873 
N766 X-194.805 Y-7.733 Z6.947 A6.4490 
N767 X-195.044 Y-7.098 Z7.080 A8.2584 
N768 X-195.295 Y-6.447 Z7.239 A9.9980 
N769 X-195.556 Y-5.780 Z7.426 A11.5695 
N770 X-195.827 Y-5.102 Z7.638 A12.9408 
N771 X-196.104 Y-4.417 Z7.872 A14.0836 
N772 X-196.386 Y-3.729 Z8.123 A14.9785 
N773 X-196.668 Y-3.043 Z8.385 A15.6176 
N774 X-196.947 Y-2.366 Z8.653 A16.0043 
N775 X-197.219 Y-1.704 Z8.919 A16.1505 
N776 X-197.482 Y-1.063 Z9.177 A16.0723 
N777 X-197.733 Y-0.449 Z9.424 A15.7830 
N778 X-197.968 Y0.133 Z9.654 A15.2882 
N779 X-198.186 Y0.680 Z9.866 A14.5861 
N780 X-198.385 Y1.187 Z10.056 A13.6752 
N781 X-198.564 Y1.654 Z10.223 A12.5611 
N782 X-198.724 Y2.080 Z10.367 A11.2574 
N783 X-198.864 Y2.466 Z10.489 A9.7767 
N784 X-198.986 Y2.811 Z10.589 A8.2103 
N785 X-199.091 Y3.117 Z10.670 A6.5701 
N786 X-199.180 Y3.388 Z10.734 A4.8749 
N787 X-199.255 Y3.626 Z10.784 A3.1375 
N788 X-199.318 Y3.835 Z10.824 A1.3628 
N789 X-199.371 Y4.017 Z10.854 A359.5555 
N790 X-199.414 Y4.178 Z10.876 A357.7233 
N791 X-199.451 Y4.320 Z10.893 A355.8739 
N792 X-199.481 Y4.445 Z10.905 A354.0133 
N793 X-199.506 Y4.557 Z10.914 A352.1459 
N794 X-199.528 Y4.657 Z10.919 A350.2757 
N795 X-199.546 Y4.748 Z10.922 A348.4066 
N796 X-199.561 Y4.831 Z10.924 A346.5426 
N797 X-199.574 Y4.908 Z10.923 A344.6883 
N798 X-199.585 Y4.979 Z10.921 A342.8483 
N799 X-199.594 Y5.046 Z10.918 A341.0270 
N800 X-199.603 Y5.108 Z10.913 A339.2279 
N801 X-199.610 Y5.168 Z10.907 A337.4533 
N802 X-199.616 Y5.224 Z10.901 A335.7047 
N803 X-199.622 Y5.278 Z10.893 A333.9823 
N804 X-199.627 Y5.329 Z10.884 A332.2857 
N805 X-199.631 Y5.378 Z10.874 A330.6139 
N806 X-199.635 Y5.426 Z10.864 A328.9652 
N807 X-199.639 Y5.472 Z10.852 A327.3378 
N808 X-199.642 Y5.517 Z10.840 A325.7298 
N809 X-199.645 Y5.560 Z10.827 A324.1389 
N810 X-199.648 Y5.602 Z10.813 A322.5630 
N811 X-199.650 Y5.643 Z10.798 A320.9999 
N812 X-199.652 Y5.683 Z10.782 A319.4474 
N813 X-199.654 Y5.723 Z10.766 A317.9036 
N814 X-199.655 Y5.761 Z10.749 A316.3664 
N815 X-199.656 Y5.799 Z10.731 A314.8340 
N816 X-199.658 Y5.836 Z10.712 A313.3045 
N817 X-199.658 Y5.872 Z10.692 A311.7763 
N818 X-199.659 Y5.908 Z10.671 A310.2477 
N819 X-199.659 Y5.943 Z10.650 A308.7170 
N820 X-199.660 Y5.978 Z10.627 A307.1826 
N821 X-199.660 Y6.012 Z10.604 A305.6428 
N822 X-199.659 Y6.045 Z10.579 A304.0960 
N823 X-199.659 Y6.079 Z10.554 A302.5407 
N824 X-199.658 Y6.111 Z10.527 A300.9751 
N825 X-199.658 Y6.144 Z10.499 A299.3976 
N826 X-199.657 Y6.176 Z10.470 A297.8068 
N827 X-199.655 Y6.207 Z10.439 A296.2010 
N828 X-199.653 Y6.239 Z10.406 A294.5791 
N829 X-199.652 Y6.270 Z10.372 A292.9397 
N830 X-199.649 Y6.300 Z10.336 A291.2819 
N831 X-199.647 Y6.331 Z10.298 A289.6053 
N832 X-199.643 Y6.361 Z10.258 A287.9098 
N833 X-199.640 Y6.390 Z10.215 A286.1965 
N834 X-199.635 Y6.419 Z10.169 A284.4672 
N835 X-199.630 Y6.448 Z10.120 A282.7254 
N836 X-199.625 Y6.476 Z10.067 A280.9757 
N837 X-199.618 Y6.503 Z10.010 A279.2241 
N838 X-199.610 Y6.529 Z9.949 A277.4779 
N839 X-199.601 Y6.554 Z9.883 A275.7447 
N840 X-199.590 Y6.578 Z9.811 A274.0321 
N841 X-199.577 Y6.600 Z9.733 A272.3468 
N842 X-199.562 Y6.620 Z9.648 A270.6944 
N843 X-199.544 Y6.638 Z9.555 A269.0790 
N844 X-199.524 Y6.654 Z9.453 A267.5034 
N845 X-199.501 Y6.667 Z9.341 A265.9681 
N846 X-199.473 Y6.676 Z9.219 A264.4719 
N847 X-199.442 Y6.682 Z9.085 A263.0123 
N848 X-199.406 Y6.684 Z8.938 A261.5859 
N849 X-199.365 Y6.681 Z8.777 A260.1884 
N850 X-199.319 Y6.673 Z8.601 A258.8140 
N851 X-199.266 Y6.659 Z8.410 A257.4554 
N852 X-199.208 Y6.637 Z8.202 A256.1064 
N853 X-199.143 Y6.608 Z7.978 A254.7655 
N854 X-199.071 Y6.570 Z7.737 A253.4351 
N855 X-198.991 Y6.523 Z7.480 A252.1163 
N856 X-198.905 Y6.465 Z7.207 A250.8079 
N857 X-198.811 Y6.398 Z6.919 A249.5078 
N858 X-198.711 Y6.319 Z6.617 A248.2146 
N859 X-198.604 Y6.228 Z6.301 A246.9271 
N860 X-198.490 Y6.126 Z5.975 A245.6431 
N861 X-198.371 Y6.013 Z5.639 A244.3579 
N862 X-198.246 Y5.889 Z5.295 A243.0647 
N863 X-198.117 Y5.753 Z4.946 A241.7563 
N864 X-197.983 Y5.608 Z4.593 A240.4268 
N865 X-197.847 Y5.452 Z4.238 A239.0726 
N866 X-197.708 Y5.286 Z3.884 A237.6931 
N867 X-197.567 Y5.111 Z3.534 A236.2885 
N868 X-197.426 Y4.928 Z3.188 A234.8592 
N869 X-197.284 Y4.738 Z2.849 A233.4049 
N870 X-197.142 Y4.541 Z2.518 A231.9242 
N871 X-197.002 Y4.339 Z2.196 A230.4158 
N872 X-196.864 Y4.132 Z1.885 A228.8792 
N873 X-196.727 Y3.921 Z1.585 A227.3145 
N874 X-196.593 Y3.707 Z1.297 A225.7228 
N875 X-196.462 Y3.490 Z1.021 A224.1061 
N876 X-196.333 Y3.270 Z0.757 A222.4665 
N877 X-196.208 Y3.050 Z0.507 A220.8065 
N878 X-196.086 Y2.827 Z0.268 A219.1287 
N879 X-195.967 Y2.604 Z0.042 A217.4356 
N880 X-195.851 Y2.380 Z-0.172 A215.7295 
N881 X-195.739 Y2.156 Z-0.375 A214.0127 
N882 X-195.629 Y1.930 Z-0.566 A212.2875 
N883 X-195.522 Y1.705 Z-0.747 A210.5558 
N884 X-195.418 Y1.479 Z-0.918 A208.8195 
N885 X-195.317 Y1.252 Z-1.078 A207.0801 
N886 X-195.218 Y1.024 Z-1.229 A205.3391 
N887 X-195.121 Y0.796 Z-1.372 A203.5976 
N888 X-195.026 Y0.566 Z-1.505 A201.8566 
N889 X-194.933 Y0.335 Z-1.630 A200.1168 
N890 X-194.841 Y0.103 Z-1.747 A198.3790 
N891 X-194.752 Y-0.132 Z-1.857 A196.6438 
N892 X-194.663 Y-0.368 Z-1.958 A194.9117 
N893 X-194.576 Y-0.607 Z-2.053 A193.1832 
N894 X-194.490 Y-0.849 Z-2.140 A191.4587 
N895 X-194.405 Y-1.094 Z-2.220 A189.7382 
N896 X-194.320 Y-1.343 Z-2.293 A188.0220 
N897 X-194.237 Y-1.596 Z-2.358 A186.3099 
N898 X-194.153 Y-1.853 Z-2.417 A184.6020 
N899 X-194.070 Y-2.115 Z-2.468 A182.8981 
N900 X-193.988 Y-2.382 Z-2.512 A181.1982 
N901 X-193.905 Y-2.656 Z-2.549 A179.5021 
N902 X-193.822 Y-2.937 Z-2.578 A177.8095 
N903 X-193.739 Y-3.225 Z-2.599 A176.1202 
N904 X-193.656 Y-3.522 Z-2.611 A174.4337 
N905 X-193.572 Y-3.828 Z-2.614 A172.7495 
N906 X-193.487 Y-4.145 Z-2.608 A171.0671 
N907 X-193.402 Y-4.473 Z-2.592 A169.3859 
N908 X-193.315 Y-4.815 Z-2.564 A167.7056 
N909 X-193.227 Y-5.172 Z-2.524 A166.0260 
N910 X-193.137 Y-5.546 Z-2.470 A164.3469 
N911 X-193.045 Y-5.939 Z-2.401 A162.6689 
N912 X-192.951 Y-6.354 Z-2.315 A160.9927 
N913 X-192.855 Y-6.792 Z-2.210 A159.3202 
N914 X-192.756 Y-7.258 Z-2.083 A157.6538 
N915 X-192.655 Y-7.752 Z-1.931 A155.9975 
N916 X-192.552 Y-8.279 Z-1.751 A154.3563 
N917 X-192.446 Y-8.840 Z-1.540 A152.7374 
N918 X-192.338 Y-9.437 Z-1.294 A151.1496 
N919 X-192.229 Y-10.071 Z-1.009 A149.6034 
N920 X-192.119 Y-10.742 Z-0.684 A148.1110 
N921 X-192.009 Y-11.449 Z-0.317 A146.6847 
N922 X-191.899 Y-12.190 Z0.094 A145.3357 
N923 X-191.792 Y-12.961 Z0.547 A144.0723 
N924 X-191.686 Y-13.757 Z1.039 A142.9011 
N925 X-191.585 Y-14.572 Z1.567 A141.8269 
N926 X-191.487 Y-15.397 Z2.125 A140.8532 
N927 X-191.394 Y-16.224 Z2.704 A139.9818 
N928 X-191.307 Y-17.043 Z3.297 A139.2124 
N929 X-191.225 Y-17.845 Z3.892 A138.5431 
N930 X-191.149 Y-18.620 Z4.480 A137.9692 
N931 X-191.079 Y-19.359 Z5.051 A137.4834 
N932 X-191.015 Y-20.053 Z5.596 A137.0761 
N933 X-190.957 Y-20.696 Z6.106 A136.7381 
N934 X-190.906 Y-21.283 Z6.576 A136.4612 
N935 X-190.860 Y-21.810 Z7.001 A136.2372 
N936 X-190.820 Y-22.276 Z7.379 A136.0574 
N937 X-190.786 Y-22.681 Z7.708 A135.9130 
N938 X-190.757 Y-23.028 Z7.991 A135.7959 
N939 X-190.732 Y-23.319 Z8.229 A135.6988 
N940 X-190.712 Y-23.560 Z8.426 A135.6155 
N941 X-190.696 Y-23.755 Z8.587 A135.5402 
N942 X-190.683 Y-23.911 Z8.715 A135.4665 
N943 X-190.673 Y-24.035 Z8.816 A135.3873 
N944 X-190.665 Y-24.130 Z8.894 A135.2950 
N945 X-190.659 Y-24.204 Z8.953 A135.1358 
N946 X-190.655 Y-24.264 Z9.000 A134.6084 
N947 X-190.652 Y-24.324 Z9.039 A133.1888 
N948 X-190.651 Y-24.391 Z9.078 A130.3992 
N949 X-190.650 Y-24.471 Z9.121 A126.0521 
N950 X-190.650 Y-24.550 Z9.168 A121.1828 
N951 X-190.651 Y-24.619 Z9.216 A116.4841 
N952 X-190.652 Y-24.678 Z9.264 A112.0883 
N953 X-190.653 Y-24.724 Z9.306 A108.4154 
N954 X-190.654 Y-24.759 Z9.342 A105.4607 
N955 X-190.655 Y-24.788 Z9.374 A102.8815 
N956 X-190.655 Y-24.812 Z9.403 A100.6750 
N957 X-190.656 Y-24.833 Z9.430 A98.6310 
N958 X-190.657 Y-24.851 Z9.456 A96.7363 
N959 X-190.658 Y-24.868 Z9.481 A94.9589 
N960 X-190.658 Y-24.883 Z9.505 A93.2346 
N961 X-190.659 Y-24.897 Z9.530 A91.5521 
N962 X-190.660 Y-24.911 Z9.554 A89.9028 
N963 X-190.660 Y-24.923 Z9.579 A88.2795 
N964 X-190.661 Y-24.934 Z9.603 A86.6754 
N965 X-190.662 Y-24.945 Z9.628 A85.0864 
N966 X-190.663 Y-24.955 Z9.653 A83.5085 
N967 X-190.664 Y-24.964 Z9.678 A81.9386 
N968 X-190.665 Y-24.973 Z9.703 A80.3749 
N969 X-190.666 Y-24.981 Z9.729 A78.8151 
N970 X-190.667 Y-24.988 Z9.755 A77.2584 
N971 X-190.668 Y-24.994 Z9.781 A75.7027 
N972 X-190.669 Y-25.000 Z9.807 A74.1479 
N973 X-190.670 Y-25.005 Z9.833 A72.5920 
N974 X-190.672 Y-25.009 Z9.860 A71.0351 
N975 X-190.673 Y-25.012 Z9.886 A69.4758 
N976 X-190.674 Y-25.015 Z9.913 A67.9140 
N977 X-190.675 Y-25.017 Z9.940 A66.3488 
N978 X-190.677 Y-25.018 Z9.968 A64.7802 
N979 X-190.678 Y-25.019 Z9.995 A63.2076 
N980 X-190.680 Y-25.019 Z10.022 A61.6310 
N981 X-190.681 Y-25.018 Z10.050 A60.0506 
N982 X-190.683 Y-25.016 Z10.077 A58.4658 
N983 X-190.684 Y-25.013 Z10.105 A56.8774 
N984 X-190.686 Y-25.010 Z10.132 A55.2849 
N985 X-190.687 Y-25.006 Z10.160 A53.6888 
N986 X-190.689 Y-25.001 Z10.187 A52.0893 
N987 X-190.690 Y-24.995 Z10.215 A50.4866 
N988 X-190.692 Y-24.989 Z10.242 A48.8809 
N989 X-190.694 Y-24.982 Z10.269 A47.2727 
N990 X-190.695 Y-24.974 Z10.296 A45.6621 
N991 X-190.697 Y-24.965 Z10.322 A44.0495 
N992 X-190.698 Y-24.955 Z10.349 A42.4352 
N993 X-190.700 Y-24.945 Z10.375 A40.8194 
N994 X-190.702 Y-24.934 Z10.401 A39.2025 
N995 X-190.703 Y-24.922 Z10.427 A37.5843 
N996 X-190.705 Y-24.910 Z10.452 A35.9654 
N997 X-190.707 Y-24.897 Z10.477 A34.3454 
N998 X-190.708 Y-24.883 Z10.501 A32.7245 
N999 X-190.710 Y-24.869 Z10.525 A31.1024 
N1000 X-190.711 Y-24.854 Z10.549 A29.4787 
N1001 X-190.713 Y-24.838 Z10.572 A27.8532 
N1002 X-190.714 Y-24.822 Z10.595 A26.2246 
N1003 X-190.716 Y-24.805 Z10.617 A24.5929 
N1004 X-190.717 Y-24.787 Z10.639 A22.9561 
N1005 X-190.719 Y-24.769 Z10.660 A21.3140 
N1006 X-190.720 Y-24.750 Z10.681 A19.6640 
N1007 X-190.721 Y-24.730 Z10.702 A18.0053 
N1008 X-190.723 Y-24.710 Z10.722 A16.3345 
N1009 X-190.724 Y-24.689 Z10.741 A14.6496 
N1010 X-190.725 Y-24.667 Z10.760 A12.9460 
N1011 X-190.727 Y-24.645 Z10.779 A11.2194 
N1012 X-190.728 Y-24.622 Z10.797 A9.4631 
N1013 X-190.729 Y-24.597 Z10.815 A7.6695 
N1014 X-190.730 Y-24.572 Z10.833 A5.8296 
N1015 X-190.732 Y-24.545 Z10.850 A3.9312 
N1016 X-190.733 Y-24.516 Z10.867 A1.9660 
N1017 X-190.734 Y-24.485 Z10.884 A359.8428 
N1018 X-190.736 Y-24.450 Z10.902 A357.5433 
N1019 X-190.737 Y-24.412 Z10.919 A355.0433 
N1020 X-190.739 Y-24.365 Z10.937 A352.1121 
N1021 X-190.741 Y-24.311 Z10.955 A348.7332 
N1022 X-190.743 Y-24.246 Z10.971 A344.8980 
N1023 X-190.746 Y-24.177 Z10.982 A340.9611 
N1024 X-190.750 Y-24.102 Z10.988 A336.9897 
N1025 X-190.754 Y-24.025 Z10.986 A333.2181 
N1026 X-190.759 Y-23.954 Z10.976 A330.2538 
N1027 X-190.765 Y-23.890 Z10.959 A328.2657 
N1028 X-190.772 Y-23.829 Z10.934 A327.1568 
N1029 X-190.781 Y-23.765 Z10.903 A326.7316 
N1030 X-190.792 Y-23.690 Z10.862 A326.6015 
N1031 X-190.807 Y-23.597 Z10.811 A326.5942 
N1032 X-190.825 Y-23.481 Z10.747 A326.6834 
N1033 X-190.848 Y-23.341 Z10.669 A326.8549 
N1034 X-190.875 Y-23.170 Z10.576 A327.0680 
N1035 X-190.909 Y-22.967 Z10.465 A327.3256 
N1036 X-190.948 Y-22.727 Z10.336 A327.6316 
N1037 X-190.994 Y-22.450 Z10.189 A327.9909 
N1038 X-191.048 Y-22.135 Z10.023 A328.4095 
N1039 X-191.108 Y-21.780 Z9.839 A328.8952 
N1040 X-191.176 Y-21.387 Z9.640 A329.4565 
N1041 X-191.253 Y-20.958 Z9.427 A330.1014 
N1042 X-191.336 Y-20.495 Z9.204 A330.8352 
N1043 X-191.428 Y-20.002 Z8.974 A331.6593 
N1044 X-191.526 Y-19.483 Z8.741 A332.5726 
N1045 X-191.631 Y-18.943 Z8.509 A333.5735 
N1046 X-191.743 Y-18.387 Z8.282 A334.6614 
N1047 X-191.859 Y-17.820 Z8.063 A335.8353 
N1048 X-191.980 Y-17.247 Z7.855 A337.0938 
N1049 X-192.105 Y-16.671 Z7.661 A338.4336 
N1050 X-192.233 Y-16.097 Z7.482 A339.8497 
N1051 X-192.363 Y-15.527 Z7.320 A341.3356 
N1052 X-192.495 Y-14.964 Z7.176 A342.8850 
N1053 X-192.629 Y-14.407 Z7.049 A344.4922 
N1054 X-192.764 Y-13.858 Z6.941 A346.1523 
N1055 X-192.901 Y-13.316 Z6.850 A347.8610 
N1056 X-193.041 Y-12.779 Z6.776 A349.6144 
N1057 X-193.183 Y-12.245 Z6.720 A351.4083 
N1058 X-193.330 Y-11.712 Z6.680 A353.2384 
N1059 X-193.482 Y-11.176 Z6.658 A355.0997 
N1060 X-193.640 Y-10.634 Z6.654 A356.9861 
N1061 X-193.807 Y-10.083 Z6.669 A358.8897 
N1062 X-193.982 Y-9.519 Z6.704 A0.8006 
N1063 X-194.167 Y-8.941 Z6.761 A2.7067 
N1064 X-194.364 Y-8.346 Z6.842 A4.5938 
N1065 X-194.572 Y-7.734 Z6.947 A6.4460 
N1066 X-194.793 Y-7.104 Z7.078 A8.2462 
N1067 X-195.026 Y-6.457 Z7.236 A9.9773 
N1068 X-195.269 Y-5.795 Z7.421 A11.5428 
N1069 X-195.521 Y-5.122 Z7.631 A12.9114 
N1070 X-195.781 Y-4.441 Z7.863 A14.0549 
N1071 X-196.044 Y-3.757 Z8.112 A14.9539 
N1072 X-196.308 Y-3.075 Z8.373 A15.6001 
N1073 X-196.570 Y-2.401 Z8.639 A15.9962 
N1074 X-196.825 Y-1.742 Z8.903 A16.1536 
N1075 X-197.072 Y-1.102 Z9.161 A16.0881 
N1076 X-197.307 Y-0.489 Z9.408 A15.8128 
N1077 X-197.527 Y0.093 Z9.638 A15.3339 
N1078 X-197.731 Y0.639 Z9.850 A14.6497 
N1079 X-197.916 Y1.148 Z10.041 A13.7580 
N1080 X-198.084 Y1.616 Z10.210 A12.6636 
N1081 X-198.233 Y2.044 Z10.355 A11.3790 
N1082 X-198.363 Y2.431 Z10.478 A9.9165 
N1083 X-198.477 Y2.778 Z10.580 A8.3675 
N1084 X-198.574 Y3.087 Z10.662 A6.7430 
N1085 X-198.657 Y3.360 Z10.728 A5.0618 
N1086 X-198.727 Y3.600 Z10.779 A3.3377 
N1087 X-198.785 Y3.811 Z10.819 A1.5758 
N1088 X-198.835 Y3.996 Z10.850 A359.7807 
N1089 X-198.876 Y4.158 Z10.874 A357.9595 
N1090 X-198.910 Y4.302 Z10.891 A356.1197 
N1091 X-198.939 Y4.428 Z10.904 A354.2674 
N1092 X-198.963 Y4.541 Z10.913 A352.4071 
N1093 X-198.983 Y4.643 Z10.919 A350.5425 
N1094 X-199.000 Y4.735 Z10.922 A348.6775 
N1095 X-199.015 Y4.819 Z10.924 A346.8163 
N1096 X-199.028 Y4.897 Z10.923 A344.9632 
N1097 X-199.038 Y4.969 Z10.922 A343.1231 
N1098 X-199.048 Y5.036 Z10.918 A341.3007 
N1099 X-199.056 Y5.099 Z10.914 A339.4998 
N1100 X-199.063 Y5.159 Z10.908 A337.7233 
N1101 X-199.069 Y5.215 Z10.902 A335.9730 
N1102 X-199.075 Y5.269 Z10.894 A334.2494 
N1103 X-199.079 Y5.321 Z10.885 A332.5525 
N1104 X-199.084 Y5.371 Z10.876 A330.8814 
N1105 X-199.088 Y5.418 Z10.865 A329.2346 
N1106 X-199.091 Y5.464 Z10.854 A327.6105 
N1107 X-199.094 Y5.509 Z10.842 A326.0071 
N1108 X-199.097 Y5.552 Z10.829 A324.4222 
N1109 X-199.099 Y5.594 Z10.815 A322.8537 
N1110 X-199.101 Y5.635 Z10.801 A321.2992 
N1111 X-199.103 Y5.675 Z10.786 A319.7567 
N1112 X-199.105 Y5.715 Z10.769 A318.2239 
N1113 X-199.106 Y5.753 Z10.753 A316.6988 
N1114 X-199.107 Y5.790 Z10.735 A315.1794 
N1115 X-199.108 Y5.827 Z10.716 A313.6638 
N1116 X-199.109 Y5.863 Z10.697 A312.1500 
N1117 X-199.109 Y5.899 Z10.677 A310.6364 
N1118 X-199.109 Y5.934 Z10.656 A309.1210 
N1119 X-199.109 Y5.968 Z10.634 A307.6022 
N1120 X-199.109 Y6.002 Z10.611 A306.0780 
N1121 X-199.108 Y6.036 Z10.587 A304.5468 
N1122 X-199.108 Y6.069 Z10.562 A303.0066 
N1123 X-199.107 Y6.101 Z10.535 A301.4556 
N1124 X-199.106 Y6.134 Z10.508 A299.8920 
N1125 X-199.104 Y6.166 Z10.479 A298.3141 
N1126 X-199.103 Y6.197 Z10.449 A296.7200 
N1127 X-199.101 Y6.228 Z10.417 A295.1082 
N1128 X-199.098 Y6.259 Z10.384 A293.4773 
N1129 X-199.095 Y6.290 Z10.348 A291.8260 
N1130 X-199.092 Y6.321 Z10.311 A290.1536 
N1131 X-199.089 Y6.351 Z10.271 A288.4599 
N1132 X-199.085 Y6.381 Z10.229 A286.7455 
N1133 X-199.080 Y6.410 Z10.184 A285.0123 
N1134 X-199.074 Y6.439 Z10.135 A283.2633 
N1135 X-199.068 Y6.467 Z10.083 A281.5030 
N1136 X-199.060 Y6.495 Z10.027 A279.7376 
N1137 X-199.052 Y6.522 Z9.967 A277.9744 
N1138 X-199.042 Y6.547 Z9.902 A276.2216 
N1139 X-199.030 Y6.571 Z9.831 A274.4873 
N1140 X-199.017 Y6.594 Z9.753 A272.7789 
N1141 X-199.001 Y6.615 Z9.669 A271.1028 
N1142 X-198.983 Y6.634 Z9.577 A269.4638 
N1143 X-198.962 Y6.650 Z9.477 A267.8652 
N1144 X-198.938 Y6.664 Z9.367 A266.3082 
N1145 X-198.910 Y6.675 Z9.246 A264.7920 
N1146 X-198.879 Y6.681 Z9.113 A263.3144 
N1147 X-198.842 Y6.684 Z8.968 A261.8720 
N1148 X-198.801 Y6.682 Z8.809 A260.4606 
N1149 X-198.754 Y6.675 Z8.635 A259.0748 
N1150 X-198.701 Y6.662 Z8.446 A257.7072 
N1151 X-198.643 Y6.641 Z8.240 A256.3509 
N1152 X-198.577 Y6.614 Z8.018 A255.0036 
N1153 X-198.505 Y6.577 Z7.780 A253.6670 
N1154 X-198.426 Y6.531 Z7.525 A252.3428 
N1155 X-198.339 Y6.476 Z7.254 A251.0299 
N1156 X-198.246 Y6.409 Z6.968 A249.7260 
N1157 X-198.145 Y6.332 Z6.667 A248.4299 
N1158 X-198.038 Y6.244 Z6.354 A247.1402 
N1159 X-197.923 Y6.144 Z6.029 A245.8548 
N1160 X-197.803 Y6.032 Z5.694 A244.5694 
N1161 X-197.677 Y5.910 Z5.352 A243.2775 
N1162 X-197.547 Y5.776 Z5.003 A241.9717 
N1163 X-197.411 Y5.632 Z4.650 A240.6458 
N1164 X-197.272 Y5.478 Z4.296 A239.2957 
N1165 X-197.130 Y5.314 Z3.942 A237.9203 
N1166 X-196.986 Y5.140 Z3.591 A236.5196 
N1167 X-196.840 Y4.959 Z3.245 A235.0940 
N1168 X-196.694 Y4.770 Z2.904 A233.6433 
N1169 X-196.547 Y4.574 Z2.572 A232.1660 
N1170 X-196.401 Y4.373 Z2.248 A230.6609 
N1171 X-196.255 Y4.166 Z1.935 A229.1269 
N1172 X-196.111 Y3.956 Z1.633 A227.5642 
N1173 X-195.969 Y3.741 Z1.342 A225.9736 
N1174 X-195.828 Y3.524 Z1.064 A224.3568 
N1175 X-195.690 Y3.305 Z0.798 A222.7158 
N1176 X-195.554 Y3.083 Z0.544 A221.0530 
N1177 X-195.421 Y2.861 Z0.303 A219.3708 
N1178 X-195.291 Y2.637 Z0.074 A217.6715 
N1179 X-195.165 Y2.411 Z-0.143 A215.9575 
N1180 X-195.041 Y2.185 Z-0.349 A214.2311 
N1181 X-194.920 Y1.959 Z-0.543 A212.4945 
N1182 X-194.801 Y1.731 Z-0.727 A210.7498 
N1183 X-194.686 Y1.503 Z-0.900 A208.9990 
N1184 X-194.573 Y1.274 Z-1.063 A207.2440 
N1185 X-194.463 Y1.044 Z-1.217 A205.4862 
N1186 X-194.355 Y0.813 Z-1.361 A203.7272 
N1187 X-194.249 Y0.581 Z-1.497 A201.9680 
N1188 X-194.144 Y0.348 Z-1.624 A200.2098 
N1189 X-194.042 Y0.112 Z-1.743 A198.4534 
N1190 X-193.942 Y-0.125 Z-1.853 A196.6997 
N1191 X-193.842 Y-0.364 Z-1.956 A194.9495 
N1192 X-193.744 Y-0.605 Z-2.052 A193.2034 
N1193 X-193.648 Y-0.850 Z-2.140 A191.4618 
N1194 X-193.552 Y-1.097 Z-2.221 A189.7252 
N1195 X-193.457 Y-1.348 Z-2.294 A187.9937 
N1196 X-193.363 Y-1.603 Z-2.360 A186.2674 
N1197 X-193.269 Y-1.862 Z-2.419 A184.5464 
N1198 X-193.176 Y-2.127 Z-2.470 A182.8307 
N1199 X-193.083 Y-2.396 Z-2.514 A181.1202 
N1200 X-192.991 Y-2.672 Z-2.551 A179.4149 
N1201 X-192.898 Y-2.954 Z-2.579 A177.7145 
N1202 X-192.805 Y-3.244 Z-2.600 A176.0186 
N1203 X-192.711 Y-3.543 Z-2.611 A174.3269 
N1204 X-192.617 Y-3.850 Z-2.614 A172.6389 
N1205 X-192.522 Y-4.168 Z-2.607 A170.9540 
N1206 X-192.426 Y-4.498 Z-2.590 A169.2715 
N1207 X-192.329 Y-4.841 Z-2.561 A167.5912 
N1208 X-192.230 Y-5.199 Z-2.520 A165.9127 
N1209 X-192.129 Y-5.573 Z-2.466 A164.2359 
N1210 X-192.027 Y-5.967 Z-2.396 A162.5611 
N1211 X-191.922 Y-6.382 Z-2.309 A160.8891 
N1212 X-191.814 Y-6.820 Z-2.203 A159.2216 
N1213 X-191.703 Y-7.285 Z-2.075 A157.5610 
N1214 X-191.589 Y-7.779 Z-1.922 A155.9110 
N1215 X-191.473 Y-8.305 Z-1.741 A154.2767 
N1216 X-191.353 Y-8.866 Z-1.529 A152.6650 
N1217 X-191.231 Y-9.462 Z-1.283 A151.0845 
N1218 X-191.107 Y-10.094 Z-0.998 A149.5459 
N1219 X-190.981 Y-10.764 Z-0.673 A148.0609 
N1220 X-190.855 Y-11.470 Z-0.305 A146.6417 
N1221 X-190.729 Y-12.209 Z0.105 A145.2994 
N1222 X-190.604 Y-12.979 Z0.557 A144.0421 
N1223 X-190.481 Y-13.773 Z1.049 A142.8764 
N1224 X-190.361 Y-14.586 Z1.577 A141.8071 
N1225 X-190.246 Y-15.409 Z2.133 A140.8376 
N1226 X-190.135 Y-16.235 Z2.712 A139.9698 
N1227 X-190.030 Y-17.052 Z3.303 A139.2034 
N1228 X-189.931 Y-17.853 Z3.898 A138.5365 
N1229 X-189.839 Y-18.626 Z4.485 A137.9646 
N1230 X-189.754 Y-19.364 Z5.055 A137.4802 
N1231 X-189.676 Y-20.057 Z5.599 A137.0740 
N1232 X-189.605 Y-20.700 Z6.108 A136.7368 
N1233 X-189.542 Y-21.286 Z6.578 A136.4604 
N1234 X-189.486 Y-21.812 Z7.002 A136.2368 
N1235 X-189.437 Y-22.278 Z7.380 A136.0573 
N1236 X-189.394 Y-22.682 Z7.709 A135.9131 
N1237 X-189.359 Y-23.028 Z7.991 A135.7959 
N1238 X-189.329 Y-23.319 Z8.229 A135.6988 
N1239 X-189.304 Y-23.560 Z8.426 A135.6155 
N1240 X-189.284 Y-23.755 Z8.587 A135.5400 
N1241 X-189.268 Y-23.912 Z8.715 A135.4662 
N1242 X-189.256 Y-24.035 Z8.816 A135.3869 
N1243 X-189.246 Y-24.130 Z8.894 A135.2946 
N1244 X-189.239 Y-24.204 Z8.953 A135.1354 
N1245 X-189.234 Y-24.265 Z9.000 A134.6079 
N1246 X-189.230 Y-24.324 Z9.039 A133.1888 
N1247 X-189.228 Y-24.372 Z9.067 A131.3020 
N1248 X-189.227 Y-24.420 Z9.093 A128.9586 
N1249 X-189.228 Y-24.462 Z9.116 A126.7081 
N1250 X-189.229 Y-24.496 Z9.137 A124.6919 
N1251 X-189.231 Y-24.526 Z9.155 A122.8118 
N1252 X-189.233 Y-24.550 Z9.170 A121.2530 
N1253 X-189.234 Y-24.571 Z9.183 A119.8561 
N1254 X-189.236 Y-24.589 Z9.195 A118.6189 
N1255 X-189.237 Y-24.604 Z9.206 A117.5100 
N1256 X-189.238 Y-24.619 Z9.216 A116.4634 
N1257 X-189.240 Y-24.633 Z9.226 A115.4585 
N1258 X-189.241 Y-24.646 Z9.237 A114.4794 
N1259 X-189.242 Y-24.659 Z9.247 A113.5128 
N1260 X-189.244 Y-24.671 Z9.257 A112.5464 
N1261 X-189.245 Y-24.684 Z9.268 A111.5681 
N1262 X-189.247 Y-24.697 Z9.279 A110.5643 
N1263 X-189.249 Y-24.710 Z9.291 A109.5272 
N1264 X-189.251 Y-24.723 Z9.303 A108.4486 
N1265 X-189.253 Y-24.737 Z9.316 A107.3158 
N1266 X-189.256 Y-24.751 Z9.331 A106.1275 
N1267 X-189.259 Y-24.765 Z9.346 A104.8758 
N1268 X-189.262 Y-24.780 Z9.363 A103.5598 
N1269 X-189.266 Y-24.795 Z9.381 A102.1754 
N1270 X-189.270 Y-24.811 Z9.400 A100.6655 
N1271 X-189.275 Y-24.828 Z9.422 A99.0299 
N1272 X-189.280 Y-24.846 Z9.446 A97.2629 
N1273 X-189.286 Y-24.864 Z9.473 A95.3693 
N1274 X-189.293 Y-24.882 Z9.502 A93.3500 
N1275 X-189.301 Y-24.900 Z9.533 A91.2043 
N1276 X-189.310 Y-24.918 Z9.567 A88.9296 
N1277 X-189.319 Y-24.935 Z9.604 A86.5318 
N1278 X-189.330 Y-24.952 Z9.643 A84.0113 
N1279 X-189.341 Y-24.968 Z9.686 A81.3684 
N1280 X-189.353 Y-24.982 Z9.731 A78.5992 
N1281 X-189.367 Y-24.994 Z9.778 A75.7657 
N1282 X-189.381 Y-25.004 Z9.827 A72.8676 
N1283 X-189.396 Y-25.012 Z9.878 A69.9062 
N1284 X-189.413 Y-25.017 Z9.930 A66.8836 
N1285 X-189.430 Y-25.019 Z9.983 A63.8049 
N1286 X-189.448 Y-25.019 Z10.038 A60.6739 
N1287 X-189.466 Y-25.015 Z10.093 A57.4975 
N1288 X-189.485 Y-25.008 Z10.149 A54.2818 
N1289 X-189.505 Y-24.998 Z10.205 A51.0340 
N1290 X-189.525 Y-24.984 Z10.260 A47.7622 
N1291 X-189.546 Y-24.967 Z10.315 A44.4748 
N1292 X-189.566 Y-24.947 Z10.369 A41.1803 
N1293 X-189.587 Y-24.924 Z10.422 A37.8876 
N1294 X-189.607 Y-24.899 Z10.473 A34.6056 
N1295 X-189.627 Y-24.870 Z10.522 A31.3433 
N1296 X-189.646 Y-24.840 Z10.569 A28.1096 
N1297 X-189.665 Y-24.807 Z10.613 A24.9137 
N1298 X-189.683 Y-24.772 Z10.655 A21.7639 
N1299 X-189.701 Y-24.737 Z10.694 A18.6680 
N1300 X-189.718 Y-24.700 Z10.731 A15.6339 
N1301 X-189.733 Y-24.662 Z10.764 A12.6660 
N1302 X-189.748 Y-24.624 Z10.795 A9.7659 
N1303 X-189.761 Y-24.586 Z10.822 A6.9978 
N1304 X-189.774 Y-24.549 Z10.847 A4.3609 
N1305 X-189.785 Y-24.512 Z10.868 A1.8562 
N1306 X-189.795 Y-24.477 Z10.887 A359.4899 
N1307 X-189.805 Y-24.443 Z10.904 A357.2584 
N1308 X-189.813 Y-24.411 Z10.918 A355.1671 
N1309 X-189.821 Y-24.380 Z10.930 A353.2131 
N1310 X-189.828 Y-24.351 Z10.941 A351.3930 
N1311 X-189.834 Y-24.323 Z10.950 A349.7038 
N1312 X-189.839 Y-24.297 Z10.957 A348.1418 
N1313 X-189.844 Y-24.273 Z10.963 A346.7033 
N1314 X-189.848 Y-24.251 Z10.969 A345.3850 
N1315 X-189.852 Y-24.230 Z10.973 A344.1221 
N1316 X-189.856 Y-24.209 Z10.977 A342.9082 
N1317 X-189.859 Y-24.189 Z10.980 A341.7353 
N1318 X-189.862 Y-24.169 Z10.983 A340.5901 
N1319 X-189.865 Y-24.149 Z10.985 A339.4592 
N1320 X-189.868 Y-24.129 Z10.987 A338.3280 
N1321 X-189.871 Y-24.108 Z10.988 A337.1828 
N1322 X-189.875 Y-24.086 Z10.989 A336.0088 
N1323 X-189.878 Y-24.063 Z10.989 A334.8010 
N1324 X-189.882 Y-24.038 Z10.989 A333.5602 
N1325 X-189.887 Y-24.011 Z10.986 A332.2967 
N1326 X-189.892 Y-23.980 Z10.982 A331.0284 
N1327 X-189.896 Y-23.946 Z10.975 A329.7880 
N1328 X-189.901 Y-23.907 Z10.964 A328.6527 
N1329 X-189.907 Y-23.866 Z10.949 A327.7899 
N1330 X-189.913 Y-23.821 Z10.929 A327.2239 
N1331 X-189.920 Y-23.767 Z10.902 A326.9473 
N1332 X-189.928 Y-23.702 Z10.867 A326.8093 
N1333 X-189.939 Y-23.621 Z10.823 A326.7922 
N1334 X-189.953 Y-23.520 Z10.767 A326.8801 
N1335 X-189.971 Y-23.394 Z10.697 A327.0173 
N1336 X-189.993 Y-23.241 Z10.613 A327.2025 
N1337 X-190.019 Y-23.056 Z10.512 A327.4365 
N1338 X-190.051 Y-22.837 Z10.393 A327.7219 
N1339 X-190.088 Y-22.581 Z10.256 A328.0620 
N1340 X-190.131 Y-22.286 Z10.100 A328.4615 
N1341 X-190.181 Y-21.952 Z9.926 A328.9261 
N1342 X-190.238 Y-21.579 Z9.735 A329.4627 
N1343 X-190.302 Y-21.168 Z9.528 A330.0782 
N1344 X-190.373 Y-20.721 Z9.310 A330.7782 
N1345 X-190.451 Y-20.242 Z9.083 A331.5659 
N1346 X-190.537 Y-19.734 Z8.850 A332.4416 
N1347 X-190.629 Y-19.202 Z8.617 A333.4046 
N1348 X-190.727 Y-18.651 Z8.386 A334.4540 
N1349 X-190.832 Y-18.086 Z8.162 A335.5894 
N1350 X-190.942 Y-17.511 Z7.947 A336.8096 
N1351 X-191.057 Y-16.932 Z7.745 A338.1123 
N1352 X-191.176 Y-16.352 Z7.557 A339.4937 
N1353 X-191.299 Y-15.775 Z7.386 A340.9488 
N1354 X-191.425 Y-15.203 Z7.233 A342.4716 
N1355 X-191.555 Y-14.636 Z7.098 A344.0568 
N1356 X-191.687 Y-14.077 Z6.980 A345.6993 
N1357 X-191.822 Y-13.524 Z6.881 A347.3944 
N1358 X-191.960 Y-12.977 Z6.800 A349.1377 
N1359 X-192.102 Y-12.433 Z6.737 A350.9246 
N1360 X-192.249 Y-11.891 Z6.691 A352.7502 
N1361 X-192.400 Y-11.346 Z6.663 A354.6092 
N1362 X-192.558 Y-10.796 Z6.653 A356.4951 
N1363 X-192.722 Y-10.237 Z6.663 A358.4006 
N1364 X-192.896 Y-9.667 Z6.693 A0.3166 
N1365 X-193.078 Y-9.084 Z6.745 A2.2330 
N1366 X-193.272 Y-8.484 Z6.821 A4.1381 
N1367 X-193.476 Y-7.867 Z6.922 A6.0198 
N1368 X-193.692 Y-7.233 Z7.050 A7.8664 
N1369 X-193.919 Y-6.583 Z7.204 A9.6213 
N1370 X-194.158 Y-5.919 Z7.385 A11.2629 
N1371 X-194.404 Y-5.243 Z7.591 A12.7753 
N1372 X-194.657 Y-4.560 Z7.821 A14.0248 
N1373 X-194.913 Y-3.872 Z8.068 A15.0036 
N1374 X-195.169 Y-3.187 Z8.328 A15.7096 
N1375 X-195.422 Y-2.508 Z8.595 A16.1496 
N1376 X-195.669 Y-1.843 Z8.861 A16.3387 
N1377 X-195.906 Y-1.197 Z9.122 A16.2957 
N1378 X-196.130 Y-0.577 Z9.371 A16.0360 
N1379 X-196.340 Y0.013 Z9.606 A15.5647 
N1380 X-196.533 Y0.568 Z9.822 A14.8737 
N1381 X-196.709 Y1.085 Z10.018 A13.9485 
N1382 X-196.868 Y1.563 Z10.191 A12.7739 
N1383 X-197.008 Y1.999 Z10.341 A11.4653 
N1384 X-197.131 Y2.395 Z10.467 A10.0250 
N1385 X-197.238 Y2.749 Z10.572 A8.4601 
N1386 X-197.330 Y3.066 Z10.657 A6.7832 
N1387 X-197.408 Y3.346 Z10.725 A5.0595 
N1388 X-197.474 Y3.592 Z10.778 A3.2972 
N1389 X-197.530 Y3.808 Z10.820 A1.4990 
N1390 X-197.577 Y3.997 Z10.851 A359.6677 
N1391 X-197.617 Y4.164 Z10.875 A357.8088 
N1392 X-197.651 Y4.310 Z10.892 A355.9283 
N1393 X-197.679 Y4.440 Z10.905 A354.0317 
N1394 X-197.703 Y4.555 Z10.914 A352.1237 
N1395 X-197.723 Y4.659 Z10.919 A350.2086 
N1396 X-197.740 Y4.753 Z10.923 A348.2911 
N1397 X-197.755 Y4.839 Z10.924 A346.3764 
N1398 X-197.768 Y4.918 Z10.923 A344.4697 
N1399 X-197.780 Y4.991 Z10.920 A342.5765 
N1400 X-197.789 Y5.059 Z10.917 A340.7023 
N1401 X-197.798 Y5.123 Z10.912 A338.8511 
N1402 X-197.806 Y5.184 Z10.905 A337.0262 
N1403 X-197.812 Y5.241 Z10.898 A335.2294 
N1404 X-197.818 Y5.296 Z10.889 A333.4620 
N1405 X-197.824 Y5.348 Z10.880 A331.7240 
N1406 X-197.828 Y5.398 Z10.870 A330.0145 
N1407 X-197.833 Y5.446 Z10.858 A328.3321 
N1408 X-197.836 Y5.492 Z10.846 A326.6750 
N1409 X-197.840 Y5.537 Z10.833 A325.0416 
N1410 X-197.843 Y5.580 Z10.820 A323.4294 
N1411 X-197.845 Y5.622 Z10.805 A321.8361 
N1412 X-197.847 Y5.663 Z10.790 A320.2592 
N1413 X-197.849 Y5.703 Z10.774 A318.6960 
N1414 X-197.851 Y5.742 Z10.757 A317.1441 
N1415 X-197.852 Y5.780 Z10.740 A315.6011 
N1416 X-197.853 Y5.818 Z10.721 A314.0646 
N1417 X-197.854 Y5.854 Z10.702 A312.5321 
N1418 X-197.855 Y5.890 Z10.682 A311.0015 
N1419 X-197.855 Y5.926 Z10.661 A309.4703 
N1420 X-197.855 Y5.960 Z10.639 A307.9363 
N1421 X-197.855 Y5.995 Z10.616 A306.3971 
N1422 X-197.855 Y6.029 Z10.592 A304.8503 
N1423 X-197.854 Y6.062 Z10.567 A303.2937 
N1424 X-197.853 Y6.095 Z10.541 A301.7249 
N1425 X-197.852 Y6.128 Z10.513 A300.1416 
N1426 X-197.850 Y6.160 Z10.484 A298.5418 
N1427 X-197.848 Y6.192 Z10.454 A296.9232 
N1428 X-197.846 Y6.224 Z10.422 A295.2840 
N1429 X-197.843 Y6.256 Z10.388 A293.6227 
N1430 X-197.840 Y6.287 Z10.352 A291.9382 
N1431 X-197.837 Y6.319 Z10.314 A290.2297 
N1432 X-197.833 Y6.350 Z10.274 A288.4977 
N1433 X-197.828 Y6.380 Z10.230 A286.7434 
N1434 X-197.823 Y6.410 Z10.184 A284.9694 
N1435 X-197.816 Y6.440 Z10.134 A283.1794 
N1436 X-197.809 Y6.469 Z10.080 A281.3783 
N1437 X-197.801 Y6.497 Z10.022 A279.5732 
N1438 X-197.791 Y6.525 Z9.959 A277.7716 
N1439 X-197.780 Y6.551 Z9.890 A275.9820 
N1440 X-197.768 Y6.576 Z9.815 A274.2129 
N1441 X-197.753 Y6.599 Z9.734 A272.4715 
N1442 X-197.737 Y6.620 Z9.645 A270.7639 
N1443 X-197.718 Y6.638 Z9.548 A269.0947 
N1444 X-197.696 Y6.654 Z9.441 A267.4667 
N1445 X-197.671 Y6.667 Z9.324 A265.8807 
N1446 X-197.642 Y6.677 Z9.195 A264.3357 
N1447 X-197.609 Y6.682 Z9.054 A262.8292 
N1448 X-197.572 Y6.683 Z8.899 A261.3580 
N1449 X-197.531 Y6.679 Z8.730 A259.9177 
N1450 X-197.484 Y6.669 Z8.546 A258.5026 
N1451 X-197.432 Y6.652 Z8.345 A257.1063 
N1452 X-197.373 Y6.628 Z8.128 A255.7242 
N1453 X-197.309 Y6.595 Z7.894 A254.3555 
N1454 X-197.238 Y6.553 Z7.643 A253.0007 
N1455 X-197.161 Y6.501 Z7.377 A251.6593 
N1456 X-197.077 Y6.439 Z7.094 A250.3291 
N1457 X-196.987 Y6.366 Z6.797 A249.0079 
N1458 X-196.889 Y6.282 Z6.486 A247.6940 
N1459 X-196.785 Y6.186 Z6.164 A246.3852 
N1460 X-196.674 Y6.079 Z5.831 A245.0780 
N1461 X-196.558 Y5.960 Z5.489 A243.7674 
N1462 X-196.436 Y5.830 Z5.140 A242.4469 
N1463 X-196.309 Y5.690 Z4.788 A241.1106 
N1464 X-196.177 Y5.539 Z4.432 A239.7539 
N1465 X-196.041 Y5.378 Z4.077 A238.3743 
N1466 X-195.902 Y5.207 Z3.723 A236.9709 
N1467 X-195.760 Y5.028 Z3.373 A235.5431 
N1468 X-195.615 Y4.841 Z3.029 A234.0905 
N1469 X-195.470 Y4.646 Z2.691 A232.6119 
N1470 X-195.323 Y4.446 Z2.363 A231.1057 
N1471 X-195.175 Y4.240 Z2.044 A229.5710 
N1472 X-195.027 Y4.029 Z1.736 A228.0073 
N1473 X-194.880 Y3.815 Z1.439 A226.4148 
N1474 X-194.733 Y3.597 Z1.154 A224.7946 
N1475 X-194.587 Y3.376 Z0.881 A223.1482 
N1476 X-194.441 Y3.153 Z0.621 A221.4772 
N1477 X-194.297 Y2.927 Z0.373 A219.7838 
N1478 X-194.156 Y2.700 Z0.137 A218.0697 
N1479 X-194.017 Y2.472 Z-0.087 A216.3370 
N1480 X-193.881 Y2.242 Z-0.299 A214.5879 
N1481 X-193.747 Y2.010 Z-0.500 A212.8246 
N1482 X-193.616 Y1.778 Z-0.690 A211.0493 
N1483 X-193.488 Y1.544 Z-0.870 A209.2641 
N1484 X-193.363 Y1.309 Z-1.039 A207.4713 
N1485 X-193.239 Y1.072 Z-1.199 A205.6729 
N1486 X-193.118 Y0.835 Z-1.348 A203.8706 
N1487 X-193.000 Y0.596 Z-1.489 A202.0662 
N1488 X-192.883 Y0.355 Z-1.620 A200.2612 
N1489 X-192.768 Y0.112 Z-1.743 A198.4571 
N1490 X-192.656 Y-0.132 Z-1.857 A196.6551 
N1491 X-192.544 Y-0.379 Z-1.962 A194.8564 
N1492 X-192.435 Y-0.628 Z-2.060 A193.0619 
N1493 X-192.327 Y-0.880 Z-2.150 A191.2726 
N1494 X-192.220 Y-1.135 Z-2.232 A189.4890 
N1495 X-192.114 Y-1.394 Z-2.306 A187.7116 
N1496 X-192.009 Y-1.657 Z-2.373 A185.9408 
N1497 X-191.905 Y-1.924 Z-2.431 A184.1767 
N1498 X-191.802 Y-2.196 Z-2.482 A182.4195 
N1499 X-191.699 Y-2.474 Z-2.525 A180.6692 
N1500 X-191.597 Y-2.758 Z-2.560 A178.9258 
N1501 X-191.495 Y-3.049 Z-2.587 A177.1889 
N1502 X-191.393 Y-3.348 Z-2.605 A175.4584 
N1503 X-191.290 Y-3.655 Z-2.613 A173.7338 
N1504 X-191.188 Y-3.973 Z-2.612 A172.0146 
N1505 X-191.084 Y-4.301 Z-2.601 A170.3005 
N1506 X-190.980 Y-4.642 Z-2.579 A168.5911 
N1507 X-190.875 Y-4.996 Z-2.545 A166.8861 
N1508 X-190.768 Y-5.367 Z-2.497 A165.1856 
N1509 X-190.659 Y-5.756 Z-2.435 A163.4899 
N1510 X-190.549 Y-6.165 Z-2.356 A161.7999 
N1511 X-190.436 Y-6.597 Z-2.258 A160.1170 
N1512 X-190.321 Y-7.054 Z-2.140 A158.4435 
N1513 X-190.203 Y-7.540 Z-1.998 A156.7825 
N1514 X-190.082 Y-8.056 Z-1.829 A155.1385 
N1515 X-189.959 Y-8.606 Z-1.629 A153.5170 
N1516 X-189.833 Y-9.191 Z-1.396 A151.9252 
N1517 X-189.706 Y-9.813 Z-1.126 A150.3714 
N1518 X-189.577 Y-10.473 Z-0.816 A148.8651 
N1519 X-189.448 Y-11.169 Z-0.464 A147.4160 
N1520 X-189.320 Y-11.900 Z-0.068 A146.0330 
N1521 X-189.193 Y-12.663 Z0.370 A144.7227 
N1522 X-189.068 Y-13.453 Z0.849 A143.4888 
N1523 X-188.947 Y-14.264 Z1.366 A142.3331 
N1524 X-188.830 Y-15.089 Z1.915 A141.2544 
N1525 X-188.718 Y-15.919 Z2.488 A140.3212 
N1526 X-188.612 Y-16.743 Z3.078 A139.5303 
N1527 X-188.513 Y-17.553 Z3.674 A138.8828 
N1528 X-188.421 Y-18.339 Z4.267 A138.3102 
N1529 X-188.336 Y-19.093 Z4.846 A137.8114 
N1530 X-188.258 Y-19.804 Z5.401 A137.3821 
N1531 X-188.187 Y-20.467 Z5.925 A137.0163 
N1532 X-188.124 Y-21.075 Z6.410 A136.7081 
N1533 X-188.068 Y-21.624 Z6.851 A136.4512 
N1534 X-188.019 Y-22.111 Z7.246 A136.2385 
N1535 X-187.977 Y-22.537 Z7.592 A136.0624 
N1536 X-187.941 Y-22.904 Z7.890 A135.9155 
N1537 X-187.911 Y-23.213 Z8.143 A135.7908 
N1538 X-187.887 Y-23.470 Z8.353 A135.6821 
N1539 X-187.866 Y-23.680 Z8.525 A135.5835 
N1540 X-187.850 Y-23.849 Z8.663 A135.4889 
N1541 X-187.838 Y-23.982 Z8.772 A135.3918 
N1542 X-187.828 Y-24.085 Z8.856 A135.2853 
N1543 X-187.821 Y-24.164 Z8.921 A135.1629 
N1544 X-187.815 Y-24.225 Z8.970 A134.9698 
N1545 X-187.811 Y-24.275 Z9.008 A134.4227 
N1546 X-187.808 Y-24.324 Z9.039 A133.1911 
N1547 X-187.806 Y-24.364 Z9.063 A131.6671 
N1548 X-187.805 Y-24.401 Z9.083 A129.9567 
N1549 X-187.806 Y-24.430 Z9.099 A128.5298 
N1550 X-187.807 Y-24.453 Z9.113 A127.2876 
N1551 X-187.808 Y-24.473 Z9.124 A126.1256 
N1552 X-187.810 Y-24.491 Z9.134 A125.0624 
N1553 X-187.811 Y-24.506 Z9.143 A124.1000 
N1554 X-187.812 Y-24.519 Z9.150 A123.2253 
N1555 X-187.814 Y-24.532 Z9.158 A122.4220 
N1556 X-187.815 Y-24.543 Z9.164 A121.6829 
N1557 X-187.816 Y-24.553 Z9.171 A120.9868 
N1558 X-187.817 Y-24.563 Z9.177 A120.3177 
N1559 X-187.818 Y-24.572 Z9.183 A119.6628 
N1560 X-187.820 Y-24.582 Z9.189 A119.0112 
N1561 X-187.821 Y-24.591 Z9.196 A118.3537 
N1562 X-187.822 Y-24.601 Z9.202 A117.6805 
N1563 X-187.824 Y-24.611 Z9.209 A116.9800 
N1564 X-187.826 Y-24.621 Z9.217 A116.2448 
N1565 X-187.828 Y-24.631 Z9.225 A115.4685 
N1566 X-187.830 Y-24.643 Z9.233 A114.6398 
N1567 X-187.832 Y-24.655 Z9.243 A113.7518 
N1568 X-187.835 Y-24.667 Z9.253 A112.7988 
N1569 X-187.838 Y-24.681 Z9.264 A111.7710 
N1570 X-187.842 Y-24.695 Z9.277 A110.6690 
N1571 X-187.847 Y-24.711 Z9.291 A109.4157 
N1572 X-187.852 Y-24.728 Z9.308 A108.0018 
N1573 X-187.859 Y-24.747 Z9.327 A106.4256 
N1574 X-187.866 Y-24.767 Z9.348 A104.6797 
N1575 X-187.875 Y-24.789 Z9.373 A102.7532 
N1576 X-187.886 Y-24.812 Z9.400 A100.6368 
N1577 X-187.899 Y-24.835 Z9.431 A98.3318 
N1578 X-187.914 Y-24.859 Z9.466 A95.8396 
N1579 X-187.932 Y-24.883 Z9.504 A93.1666 
N1580 X-187.952 Y-24.908 Z9.548 A90.1498 
N1581 X-187.975 Y-24.932 Z9.597 A86.9537 
N1582 X-188.002 Y-24.955 Z9.650 A83.5736 
N1583 X-188.031 Y-24.975 Z9.707 A80.0176 
N1584 X-188.064 Y-24.992 Z9.769 A76.2955 
N1585 X-188.100 Y-25.006 Z9.835 A72.4173 
N1586 X-188.139 Y-25.015 Z9.904 A68.3943 
N1587 X-188.181 Y-25.019 Z9.976 A64.2373 
N1588 X-188.225 Y-25.018 Z10.049 A60.0168 
N1589 X-188.272 Y-25.011 Z10.124 A55.7416 
N1590 X-188.320 Y-24.999 Z10.198 A51.4241 
N1591 X-188.370 Y-24.981 Z10.272 A47.0789 
N1592 X-188.420 Y-24.957 Z10.344 A42.7221 
N1593 X-188.470 Y-24.928 Z10.415 A38.3702 
N1594 X-188.519 Y-24.894 Z10.482 A34.0397 
N1595 X-188.567 Y-24.855 Z10.546 A29.7458 
N1596 X-188.614 Y-24.813 Z10.605 A25.5018 
N1597 X-188.658 Y-24.767 Z10.661 A21.3182 
N1598 X-188.699 Y-24.720 Z10.711 A17.2683 
N1599 X-188.738 Y-24.671 Z10.756 A13.3672 
N1600 X-188.774 Y-24.622 Z10.796 A9.6238 
N1601 X-188.806 Y-24.572 Z10.831 A6.0435 
N1602 X-188.835 Y-24.523 Z10.862 A2.6231 
N1603 X-188.861 Y-24.475 Z10.888 A359.3549 
N1604 X-188.884 Y-24.429 Z10.910 A356.3592 
N1605 X-188.903 Y-24.386 Z10.928 A353.6214 
N1606 X-188.921 Y-24.346 Z10.942 A351.1303 
N1607 X-188.935 Y-24.310 Z10.954 A348.8974 
N1608 X-188.948 Y-24.277 Z10.962 A346.9288 
N1609 X-188.959 Y-24.248 Z10.969 A345.2416 
N1610 X-188.968 Y-24.222 Z10.974 A343.7065 
N1611 X-188.976 Y-24.198 Z10.978 A342.3290 
N1612 X-188.983 Y-24.176 Z10.981 A341.1076 
N1613 X-188.988 Y-24.157 Z10.984 A340.0341 
N1614 X-188.993 Y-24.140 Z10.985 A339.0975 
N1615 X-188.998 Y-24.124 Z10.986 A338.2257 
N1616 X-189.002 Y-24.109 Z10.987 A337.4126 
N1617 X-189.005 Y-24.095 Z10.988 A336.6503 
N1618 X-189.008 Y-24.082 Z10.988 A335.9273 
N1619 X-189.011 Y-24.069 Z10.989 A335.2335 
N1620 X-189.014 Y-24.056 Z10.989 A334.5564 
N1621 X-189.017 Y-24.043 Z10.988 A333.8845 
N1622 X-189.020 Y-24.030 Z10.988 A333.2076 
N1623 X-189.023 Y-24.016 Z10.987 A332.5164 
N1624 X-189.026 Y-24.001 Z10.986 A331.8046 
N1625 X-189.030 Y-23.984 Z10.984 A331.0736 
N1626 X-189.034 Y-23.965 Z10.981 A330.3311 
N1627 X-189.039 Y-23.944 Z10.976 A329.5924 
N1628 X-189.043 Y-23.919 Z10.969 A328.8839 
N1629 X-189.048 Y-23.890 Z10.959 A328.2329 
N1630 X-189.054 Y-23.856 Z10.945 A327.6614 
N1631 X-189.060 Y-23.815 Z10.926 A327.2673 
N1632 X-189.066 Y-23.767 Z10.901 A327.0556 
N1633 X-189.074 Y-23.706 Z10.868 A326.9340 
N1634 X-189.084 Y-23.629 Z10.826 A326.8935 
N1635 X-189.096 Y-23.532 Z10.773 A326.9236 
N1636 X-189.112 Y-23.413 Z10.707 A327.0155 
N1637 X-189.132 Y-23.267 Z10.627 A327.1636 
N1638 X-189.155 Y-23.090 Z10.530 A327.3661 
N1639 X-189.184 Y-22.879 Z10.416 A327.6232 
N1640 X-189.218 Y-22.632 Z10.284 A327.9372 
N1641 X-189.258 Y-22.347 Z10.132 A328.3116 
N1642 X-189.305 Y-22.022 Z9.963 A328.7515 
N1643 X-189.357 Y-21.658 Z9.776 A329.2635 
N1644 X-189.417 Y-21.256 Z9.573 A329.8548 
N1645 X-189.483 Y-20.817 Z9.357 A330.5316 
N1646 X-189.556 Y-20.345 Z9.131 A331.2977 
N1647 X-189.636 Y-19.843 Z8.900 A332.1538 
N1648 X-189.722 Y-19.315 Z8.666 A333.0990 
N1649 X-189.815 Y-18.767 Z8.434 A334.1324 
N1650 X-189.914 Y-18.203 Z8.208 A335.2535 
N1651 X-190.019 Y-17.629 Z7.991 A336.4613 
N1652 X-190.127 Y-17.049 Z7.785 A337.7539 
N1653 X-190.241 Y-16.467 Z7.594 A339.1276 
N1654 X-190.357 Y-15.888 Z7.419 A340.5773 
N1655 X-190.478 Y-15.312 Z7.262 A342.0969 
N1656 X-190.601 Y-14.743 Z7.122 A343.6806 
N1657 X-190.726 Y-14.180 Z7.001 A345.3228 
N1658 X-190.855 Y-13.624 Z6.898 A347.0188 
N1659 X-190.986 Y-13.074 Z6.814 A348.7639 
N1660 X-191.120 Y-12.528 Z6.747 A350.5533 
N1661 X-191.258 Y-11.984 Z6.698 A352.3821 
N1662 X-191.401 Y-11.439 Z6.666 A354.2448 
N1663 X-191.549 Y-10.890 Z6.654 A356.1352 
N1664 X-191.704 Y-10.334 Z6.660 A358.0456 
N1665 X-191.867 Y-9.767 Z6.686 A359.9671 
N1666 X-192.038 Y-9.186 Z6.735 A1.8892 
N1667 X-192.220 Y-8.591 Z6.806 A3.7999 
N1668 X-192.412 Y-7.980 Z6.902 A5.6864 
N1669 X-192.615 Y-7.351 Z7.024 A7.5359 
N1670 X-192.830 Y-6.708 Z7.172 A9.3364 
N1671 X-193.057 Y-6.050 Z7.347 A11.0215 
N1672 X-193.291 Y-5.381 Z7.547 A12.5773 
N1673 X-193.532 Y-4.703 Z7.771 A13.8726 
N1674 X-193.776 Y-4.020 Z8.013 A14.8980 
N1675 X-194.021 Y-3.337 Z8.270 A15.6475 
N1676 X-194.262 Y-2.661 Z8.534 A16.1223 
N1677 X-194.497 Y-1.996 Z8.800 A16.3291 
N1678 X-194.723 Y-1.348 Z9.061 A16.2736 
N1679 X-194.936 Y-0.724 Z9.314 A15.9484 
N1680 X-195.134 Y-0.128 Z9.552 A15.4685 
N1681 X-195.317 Y0.433 Z9.772 A14.8181 
N1682 X-195.484 Y0.957 Z9.971 A13.9857 
N1683 X-195.633 Y1.441 Z10.149 A12.9678 
N1684 X-195.766 Y1.886 Z10.303 A11.7725 
N1685 X-195.883 Y2.289 Z10.435 A10.4142 
N1686 X-195.983 Y2.653 Z10.545 A8.9078 
N1687 X-196.070 Y2.979 Z10.635 A7.2687 
N1688 X-196.144 Y3.268 Z10.707 A5.5730 
N1689 X-196.207 Y3.522 Z10.764 A3.8323 
N1690 X-196.261 Y3.746 Z10.808 A2.0514 
N1691 X-196.307 Y3.943 Z10.842 A0.2327 
N1692 X-196.346 Y4.115 Z10.868 A358.3815 
N1693 X-196.380 Y4.267 Z10.888 A356.5040 
N1694 X-196.408 Y4.402 Z10.902 A354.6063 
N1695 X-196.433 Y4.522 Z10.912 A352.6933 
N1696 X-196.454 Y4.629 Z10.918 A350.7694 
N1697 X-196.472 Y4.727 Z10.922 A348.8395 
N1698 X-196.488 Y4.815 Z10.924 A346.9091 
N1699 X-196.502 Y4.896 Z10.923 A344.9839 
N1700 X-196.514 Y4.972 Z10.921 A343.0701 
N1701 X-196.525 Y5.042 Z10.918 A341.1739 
N1702 X-196.535 Y5.108 Z10.913 A339.3009 
N1703 X-196.544 Y5.169 Z10.907 A337.4547 
N1704 X-196.551 Y5.228 Z10.900 A335.6384 
N1705 X-196.558 Y5.283 Z10.891 A333.8537 
N1706 X-196.564 Y5.336 Z10.882 A332.1013 
N1707 X-196.569 Y5.387 Z10.872 A330.3808 
N1708 X-196.574 Y5.436 Z10.861 A328.6909 
N1709 X-196.579 Y5.482 Z10.849 A327.0303 
N1710 X-196.583 Y5.527 Z10.836 A325.3970 
N1711 X-196.586 Y5.571 Z10.823 A323.7887 
N1712 X-196.589 Y5.613 Z10.809 A322.2029 
N1713 X-196.592 Y5.654 Z10.794 A320.6370 
N1714 X-196.594 Y5.693 Z10.778 A319.0882 
N1715 X-196.596 Y5.732 Z10.762 A317.5538 
N1716 X-196.598 Y5.770 Z10.744 A316.0312 
N1717 X-196.599 Y5.807 Z10.727 A314.5177 
N1718 X-196.600 Y5.843 Z10.708 A313.0105 
N1719 X-196.601 Y5.879 Z10.688 A311.5072 
N1720 X-196.601 Y5.913 Z10.668 A310.0049 
N1721 X-196.601 Y5.948 Z10.647 A308.5011 
N1722 X-196.601 Y5.982 Z10.625 A306.9930 
N1723 X-196.601 Y6.015 Z10.602 A305.4781 
N1724 X-196.600 Y6.048 Z10.578 A303.9534 
N1725 X-196.600 Y6.081 Z10.552 A302.4162 
N1726 X-196.598 Y6.113 Z10.526 A300.8639 
N1727 X-196.597 Y6.145 Z10.498 A299.2937 
N1728 X-196.595 Y6.177 Z10.469 A297.7032 
N1729 X-196.593 Y6.209 Z10.438 A296.0897 
N1730 X-196.590 Y6.240 Z10.405 A294.4513 
N1731 X-196.587 Y6.272 Z10.371 A292.7864 
N1732 X-196.583 Y6.303 Z10.334 A291.0940 
N1733 X-196.579 Y6.334 Z10.294 A289.3733 
N1734 X-196.574 Y6.365 Z10.252 A287.6256 
N1735 X-196.569 Y6.395 Z10.207 A285.8522 
N1736 X-196.562 Y6.426 Z10.159 A284.0565 
N1737 X-196.555 Y6.455 Z10.106 A282.2439 
N1738 X-196.547 Y6.484 Z10.050 A280.4213 
N1739 X-196.537 Y6.512 Z9.988 A278.5966 
N1740 X-196.526 Y6.539 Z9.922 A276.7797 
N1741 X-196.514 Y6.565 Z9.849 A274.9796 
N1742 X-196.500 Y6.589 Z9.770 A273.2050 
N1743 X-196.484 Y6.611 Z9.684 A271.4637 
N1744 X-196.466 Y6.631 Z9.589 A269.7616 
N1745 X-196.446 Y6.648 Z9.486 A268.1026 
N1746 X-196.423 Y6.663 Z9.372 A266.4886 
N1747 X-196.397 Y6.674 Z9.247 A264.9192 
N1748 X-196.368 Y6.681 Z9.111 A263.3923 
N1749 X-196.335 Y6.684 Z8.961 A261.9047 
N1750 X-196.298 Y6.681 Z8.797 A260.4523 
N1751 X-196.256 Y6.673 Z8.618 A259.0296 
N1752 X-196.210 Y6.659 Z8.424 A257.6297 
N1753 X-196.159 Y6.638 Z8.213 A256.2464 
N1754 X-196.102 Y6.609 Z7.986 A254.8775 
N1755 X-196.040 Y6.571 Z7.743 A253.5237 
N1756 X-195.972 Y6.523 Z7.483 A252.1854 
N1757 X-195.899 Y6.465 Z7.208 A250.8609 
N1758 X-195.819 Y6.397 Z6.919 A249.5478 
N1759 X-195.733 Y6.318 Z6.616 A248.2444 
N1760 X-195.640 Y6.228 Z6.301 A246.9490 
N1761 X-195.541 Y6.126 Z5.975 A245.6588 
N1762 X-195.437 Y6.014 Z5.641 A244.3692 
N1763 X-195.326 Y5.890 Z5.299 A243.0740 
N1764 X-195.210 Y5.756 Z4.953 A241.7667 
N1765 X-195.089 Y5.612 Z4.603 A240.4418 
N1766 X-194.962 Y5.458 Z4.253 A239.0956 
N1767 X-194.832 Y5.295 Z3.903 A237.7265 
N1768 X-194.697 Y5.123 Z3.557 A236.3341 
N1769 X-194.559 Y4.943 Z3.215 A234.9180 
N1770 X-194.419 Y4.756 Z2.879 A233.4772 
N1771 X-194.276 Y4.562 Z2.551 A232.0101 
N1772 X-194.131 Y4.362 Z2.232 A230.5149 
N1773 X-193.985 Y4.158 Z1.922 A228.9905 
N1774 X-193.837 Y3.949 Z1.623 A227.4366 
N1775 X-193.688 Y3.736 Z1.334 A225.8532 
N1776 X-193.538 Y3.520 Z1.058 A224.2413 
N1777 X-193.387 Y3.301 Z0.793 A222.6023 
N1778 X-193.237 Y3.080 Z0.539 A220.9374 
N1779 X-193.086 Y2.857 Z0.298 A219.2483 
N1780 X-192.938 Y2.631 Z0.068 A217.5365 
N1781 X-192.792 Y2.403 Z-0.152 A215.8037 
N1782 X-192.647 Y2.173 Z-0.360 A214.0519 
N1783 X-192.506 Y1.941 Z-0.558 A212.2832 
N1784 X-192.366 Y1.708 Z-0.745 A210.5001 
N1785 X-192.229 Y1.473 Z-0.923 A208.7049 
N1786 X-192.094 Y1.236 Z-1.090 A206.9000 
N1787 X-191.961 Y0.997 Z-1.247 A205.0877 
N1788 X-191.830 Y0.757 Z-1.395 A203.2702 
N1789 X-191.702 Y0.515 Z-1.534 A201.4497 
N1790 X-191.575 Y0.271 Z-1.663 A199.6281 
N1791 X-191.451 Y0.025 Z-1.784 A197.8072 
N1792 X-191.328 Y-0.223 Z-1.897 A195.9888 
N1793 X-191.208 Y-0.473 Z-2.001 A194.1744 
N1794 X-191.089 Y-0.726 Z-2.096 A192.3653 
N1795 X-190.971 Y-0.982 Z-2.184 A190.5626 
N1796 X-190.855 Y-1.241 Z-2.263 A188.7671 
N1797 X-190.741 Y-1.503 Z-2.335 A186.9796 
N1798 X-190.628 Y-1.770 Z-2.399 A185.2004 
N1799 X-190.516 Y-2.040 Z-2.454 A183.4299 
N1800 X-190.404 Y-2.316 Z-2.502 A181.6683 
N1801 X-190.294 Y-2.598 Z-2.542 A179.9156 
N1802 X-190.184 Y-2.885 Z-2.573 A178.1715 
N1803 X-190.075 Y-3.179 Z-2.596 A176.4359 
N1804 X-189.966 Y-3.482 Z-2.610 A174.7083 
N1805 X-189.857 Y-3.793 Z-2.614 A172.9881 
N1806 X-189.748 Y-4.114 Z-2.609 A171.2746 
N1807 X-189.638 Y-4.446 Z-2.593 A169.5673 
N1808 X-189.528 Y-4.791 Z-2.566 A167.8654 
N1809 X-189.417 Y-5.150 Z-2.526 A166.1687 
N1810 X-189.304 Y-5.526 Z-2.473 A164.4770 
N1811 X-189.190 Y-5.920 Z-2.405 A162.7904 
N1812 X-189.075 Y-6.335 Z-2.319 A161.1097 
N1813 X-188.957 Y-6.774 Z-2.214 A159.4363 
N1814 X-188.837 Y-7.239 Z-2.088 A157.7728 
N1815 X-188.714 Y-7.733 Z-1.937 A156.1226 
N1816 X-188.589 Y-8.259 Z-1.758 A154.4907 
N1817 X-188.462 Y-8.819 Z-1.547 A152.8833 
N1818 X-188.333 Y-9.416 Z-1.302 A151.3088 
N1819 X-188.203 Y-10.049 Z-1.018 A149.7769 
N1820 X-188.072 Y-10.720 Z-0.694 A148.2984 
N1821 X-187.942 Y-11.428 Z-0.327 A146.8847 
N1822 X-187.813 Y-12.170 Z0.084 A145.5460 
N1823 X-187.686 Y-12.942 Z0.537 A144.2903 
N1824 X-187.563 Y-13.740 Z1.030 A143.1240 
N1825 X-187.443 Y-14.556 Z1.559 A142.0518 
N1826 X-187.329 Y-15.384 Z2.118 A141.0771 
N1827 X-187.221 Y-16.213 Z2.699 A140.2015 
N1828 X-187.120 Y-17.035 Z3.293 A139.4249 
N1829 X-187.025 Y-17.840 Z3.890 A138.7452 
N1830 X-186.938 Y-18.617 Z4.479 A138.1582 
N1831 X-186.859 Y-19.357 Z5.052 A137.6572 
N1832 X-186.786 Y-20.053 Z5.597 A137.2333 
N1833 X-186.721 Y-20.697 Z6.108 A136.8781 
N1834 X-186.664 Y-21.284 Z6.577 A136.5835 
N1835 X-186.613 Y-21.811 Z7.002 A136.3417 
N1836 X-186.570 Y-22.276 Z7.379 A136.1440 
N1837 X-186.532 Y-22.679 Z7.707 A135.9819 
N1838 X-186.500 Y-23.023 Z7.988 A135.8474 
N1839 X-186.474 Y-23.312 Z8.224 A135.7332 
N1840 X-186.453 Y-23.550 Z8.419 A135.6330 
N1841 X-186.435 Y-23.743 Z8.577 A135.5404 
N1842 X-186.422 Y-23.897 Z8.703 A135.4490 
N1843 X-186.411 Y-24.017 Z8.801 A135.3513 
N1844 X-186.403 Y-24.111 Z8.877 A135.2396 
N1845 X-186.397 Y-24.181 Z8.935 A135.1071 
N1846 X-186.392 Y-24.236 Z8.978 A134.8911 
N1847 X-186.389 Y-24.281 Z9.011 A134.3188 
N1848 X-186.386 Y-24.324 Z9.039 A133.1922 
N1849 X-186.383 Y-24.360 Z9.060 A131.8471 
N1850 X-186.383 Y-24.391 Z9.078 A130.4411 
N1851 X-186.383 Y-24.414 Z9.091 A129.3374 
N1852 X-186.384 Y-24.433 Z9.102 A128.3826 
N1853 X-186.385 Y-24.449 Z9.110 A127.4939 
N1854 X-186.387 Y-24.463 Z9.118 A126.6856 
N1855 X-186.388 Y-24.475 Z9.125 A125.9537 
N1856 X-186.389 Y-24.486 Z9.130 A125.2940 
N1857 X-186.390 Y-24.495 Z9.136 A124.6879 
N1858 X-186.391 Y-24.504 Z9.141 A124.1235 
N1859 X-186.392 Y-24.512 Z9.145 A123.5942 
N1860 X-186.393 Y-24.520 Z9.150 A123.0865 
N1861 X-186.394 Y-24.528 Z9.154 A122.5893 
N1862 X-186.395 Y-24.535 Z9.159 A122.0931 
N1863 X-186.397 Y-24.543 Z9.164 A121.5887 
N1864 X-186.398 Y-24.551 Z9.169 A121.0702 
N1865 X-186.399 Y-24.559 Z9.174 A120.5317 
N1866 X-186.401 Y-24.567 Z9.179 A119.9646 
N1867 X-186.403 Y-24.576 Z9.185 A119.3576 
N1868 X-186.405 Y-24.586 Z9.191 A118.7082 
N1869 X-186.407 Y-24.596 Z9.198 A118.0087 
N1870 X-186.409 Y-24.606 Z9.206 A117.2465 
N1871 X-186.412 Y-24.618 Z9.214 A116.4204 
N1872 X-186.416 Y-24.631 Z9.224 A115.5206 
N1873 X-186.420 Y-24.645 Z9.235 A114.4793 
N1874 X-186.425 Y-24.661 Z9.248 A113.2841 
N1875 X-186.432 Y-24.679 Z9.263 A111.9237 
N1876 X-186.439 Y-24.698 Z9.280 A110.3918 
N1877 X-186.449 Y-24.720 Z9.300 A108.6862 
N1878 X-186.461 Y-24.742 Z9.322 A106.8212 
N1879 X-186.475 Y-24.768 Z9.349 A104.6665 
N1880 X-186.493 Y-24.795 Z9.380 A102.2383 
N1881 X-186.514 Y-24.823 Z9.415 A99.5467 
N1882 X-186.540 Y-24.852 Z9.456 A96.5901 
N1883 X-186.570 Y-24.882 Z9.502 A93.3652 
N1884 X-186.605 Y-24.911 Z9.553 A89.8692 
N1885 X-186.646 Y-24.938 Z9.611 A86.0941 
N1886 X-186.693 Y-24.964 Z9.675 A82.0239 
N1887 X-186.745 Y-24.986 Z9.744 A77.7916 
N1888 X-186.803 Y-25.003 Z9.818 A73.3976 
N1889 X-186.867 Y-25.014 Z9.896 A68.8491 
N1890 X-186.936 Y-25.019 Z9.977 A64.1550 
N1891 X-187.010 Y-25.018 Z10.060 A59.3930 
N1892 X-187.087 Y-25.009 Z10.144 A54.5747 
N1893 X-187.167 Y-24.992 Z10.227 A49.7159 
N1894 X-187.248 Y-24.969 Z10.310 A44.8357 
N1895 X-187.330 Y-24.939 Z10.389 A39.9545 
N1896 X-187.411 Y-24.902 Z10.466 A35.0928 
N1897 X-187.490 Y-24.860 Z10.538 A30.2700 
N1898 X-187.566 Y-24.813 Z10.605 A25.5036 
N1899 X-187.638 Y-24.761 Z10.668 A20.8071 
N1900 X-187.705 Y-24.707 Z10.723 A16.2662 
N1901 X-187.768 Y-24.652 Z10.772 A11.8943 
N1902 X-187.824 Y-24.595 Z10.816 A7.6944 
N1903 X-187.875 Y-24.539 Z10.853 A3.6585 
N1904 X-187.919 Y-24.483 Z10.884 A359.9125 
N1905 X-187.959 Y-24.431 Z10.910 A356.4449 
N1906 X-187.992 Y-24.381 Z10.930 A353.2578 
N1907 X-188.021 Y-24.334 Z10.946 A350.3603 
N1908 X-188.046 Y-24.291 Z10.959 A347.7624 
N1909 X-188.066 Y-24.252 Z10.968 A345.4723 
N1910 X-188.083 Y-24.218 Z10.975 A343.4850 
N1911 X-188.097 Y-24.189 Z10.980 A341.8004 
N1912 X-188.109 Y-24.164 Z10.983 A340.4160 
N1913 X-188.118 Y-24.142 Z10.985 A339.1909 
N1914 X-188.127 Y-24.122 Z10.986 A338.1221 
N1915 X-188.133 Y-24.105 Z10.987 A337.2026 
N1916 X-188.139 Y-24.090 Z10.988 A336.4220 
N1917 X-188.143 Y-24.077 Z10.988 A335.7067 
N1918 X-188.148 Y-24.064 Z10.988 A335.0504 
N1919 X-188.151 Y-24.053 Z10.988 A334.4459 
N1920 X-188.155 Y-24.042 Z10.988 A333.8819 
N1921 X-188.157 Y-24.031 Z10.987 A333.3494 
N1922 X-188.160 Y-24.021 Z10.987 A332.8373 
N1923 X-188.163 Y-24.011 Z10.986 A332.3360 
N1924 X-188.166 Y-24.001 Z10.985 A331.8364 
N1925 X-188.169 Y-23.990 Z10.984 A331.3298 
N1926 X-188.172 Y-23.978 Z10.983 A330.8105 
N1927 X-188.175 Y-23.965 Z10.981 A330.2762 
N1928 X-188.179 Y-23.951 Z10.978 A329.7287 
N1929 X-188.183 Y-23.934 Z10.974 A329.1781 
N1930 X-188.188 Y-23.915 Z10.968 A328.6421 
N1931 X-188.193 Y-23.892 Z10.960 A328.1444 
N1932 X-188.198 Y-23.864 Z10.949 A327.7091 
N1933 X-188.203 Y-23.830 Z10.933 A327.3563 
N1934 X-188.209 Y-23.788 Z10.913 A327.0968 
N1935 X-188.216 Y-23.736 Z10.885 A326.9308 
N1936 X-188.224 Y-23.670 Z10.849 A326.8507 
N1937 X-188.234 Y-23.587 Z10.804 A326.8456 
N1938 X-188.247 Y-23.483 Z10.747 A326.9051 
N1939 X-188.263 Y-23.355 Z10.676 A327.0218 
N1940 X-188.283 Y-23.199 Z10.591 A327.1919 
N1941 X-188.307 Y-23.012 Z10.488 A327.4147 
N1942 X-188.336 Y-22.789 Z10.368 A327.6916 
N1943 X-188.370 Y-22.530 Z10.230 A328.0254 
N1944 X-188.410 Y-22.232 Z10.072 A328.4205 
N1945 X-188.456 Y-21.894 Z9.897 A328.8829 
N1946 X-188.508 Y-21.518 Z9.705 A329.4199 
N1947 X-188.567 Y-21.103 Z9.497 A330.0388 
N1948 X-188.632 Y-20.653 Z9.278 A330.7455 
N1949 X-188.703 Y-20.171 Z9.050 A331.5426 
N1950 X-188.782 Y-19.659 Z8.818 A332.4303 
N1951 X-188.866 Y-19.124 Z8.585 A333.4074 
N1952 X-188.957 Y-18.570 Z8.354 A334.4734 
N1953 X-189.053 Y-18.001 Z8.130 A335.6277 
N1954 X-189.154 Y-17.424 Z7.917 A336.8692 
N1955 X-189.260 Y-16.842 Z7.716 A338.1955 
N1956 X-189.369 Y-16.259 Z7.530 A339.6022 
N1957 X-189.481 Y-15.679 Z7.360 A341.0837 
N1958 X-189.597 Y-15.104 Z7.209 A342.6338 
N1959 X-189.715 Y-14.535 Z7.076 A344.2462 
N1960 X-189.836 Y-13.973 Z6.961 A345.9159 
N1961 X-189.958 Y-13.417 Z6.865 A347.6376 
N1962 X-190.084 Y-12.867 Z6.786 A349.4065 
N1963 X-190.213 Y-12.321 Z6.726 A351.2175 
N1964 X-190.345 Y-11.775 Z6.684 A353.0652 
N1965 X-190.482 Y-11.228 Z6.659 A354.9435 
N1966 X-190.624 Y-10.675 Z6.654 A356.8451 
N1967 X-190.773 Y-10.115 Z6.668 A358.7614 
N1968 X-190.930 Y-9.543 Z6.703 A0.6824 
N1969 X-191.096 Y-8.958 Z6.760 A2.5958 
N1970 X-191.271 Y-8.359 Z6.840 A4.4886 
N1971 X-191.458 Y-7.743 Z6.946 A6.3463 
N1972 X-191.656 Y-7.111 Z7.077 A8.1546 
N1973 X-191.865 Y-6.466 Z7.234 A9.8998 
N1974 X-192.084 Y-5.807 Z7.418 A11.4999 
N1975 X-192.311 Y-5.139 Z7.626 A12.9378 
N1976 X-192.542 Y-4.464 Z7.854 A14.2068 
N1977 X-192.775 Y-3.786 Z8.100 A15.1615 
N1978 X-193.006 Y-3.110 Z8.358 A15.8117 
N1979 X-193.233 Y-2.441 Z8.622 A16.1607 
N1980 X-193.451 Y-1.785 Z8.886 A16.2018 
N1981 X-193.659 Y-1.149 Z9.143 A16.0732 
N1982 X-193.853 Y-0.539 Z9.388 A15.7687 
N1983 X-194.032 Y0.041 Z9.619 A15.2833 
N1984 X-194.195 Y0.587 Z9.831 A14.6097 
N1985 X-194.343 Y1.096 Z10.023 A13.7429 
N1986 X-194.474 Y1.566 Z10.193 A12.6853 
N1987 X-194.590 Y1.996 Z10.340 A11.4482 
N1988 X-194.691 Y2.386 Z10.465 A10.0458 
N1989 X-194.778 Y2.737 Z10.569 A8.4900 
N1990 X-194.852 Y3.051 Z10.653 A6.8630 
N1991 X-194.916 Y3.329 Z10.721 A5.1782 
N1992 X-194.971 Y3.574 Z10.774 A3.4471 
N1993 X-195.018 Y3.790 Z10.816 A1.6739 
N1994 X-195.059 Y3.979 Z10.848 A359.8618 
N1995 X-195.094 Y4.146 Z10.873 A358.0164 
N1996 X-195.124 Y4.294 Z10.891 A356.1442 
N1997 X-195.151 Y4.425 Z10.904 A354.2510 
N1998 X-195.174 Y4.542 Z10.913 A352.3413 
N1999 X-195.194 Y4.647 Z10.919 A350.4197 
N2000 X-195.212 Y4.742 Z10.923 A348.4911 
N2001 X-195.228 Y4.830 Z10.924 A346.5611 
N2002 X-195.242 Y4.910 Z10.923 A344.6358 
N2003 X-195.255 Y4.984 Z10.921 A342.7220 
N2004 X-195.266 Y5.054 Z10.917 A340.8259 
N2005 X-195.276 Y5.119 Z10.912 A338.9534 
N2006 X-195.285 Y5.181 Z10.906 A337.1088 
N2007 X-195.293 Y5.239 Z10.898 A335.2952 
N2008 X-195.300 Y5.294 Z10.890 A333.5146 
N2009 X-195.307 Y5.346 Z10.880 A331.7676 
N2010 X-195.313 Y5.396 Z10.870 A330.0542 
N2011 X-195.318 Y5.445 Z10.859 A328.3734 
N2012 X-195.323 Y5.491 Z10.847 A326.7238 
N2013 X-195.327 Y5.535 Z10.834 A325.1034 
N2014 X-195.331 Y5.578 Z10.820 A323.5101 
N2015 X-195.334 Y5.620 Z10.806 A321.9414 
N2016 X-195.337 Y5.660 Z10.791 A320.3945 
N2017 X-195.339 Y5.699 Z10.776 A318.8666 
N2018 X-195.342 Y5.737 Z10.759 A317.3551 
N2019 X-195.343 Y5.774 Z10.742 A315.8569 
N2020 X-195.345 Y5.811 Z10.725 A314.3694 
N2021 X-195.346 Y5.846 Z10.706 A312.8895 
N2022 X-195.347 Y5.881 Z10.687 A311.4145 
N2023 X-195.347 Y5.915 Z10.667 A309.9413 
N2024 X-195.348 Y5.949 Z10.646 A308.4671 
N2025 X-195.348 Y5.982 Z10.625 A306.9887 
N2026 X-195.347 Y6.014 Z10.602 A305.5033 
N2027 X-195.347 Y6.047 Z10.578 A304.0076 
N2028 X-195.346 Y6.079 Z10.554 A302.4986 
N2029 X-195.344 Y6.111 Z10.528 A300.9731 
N2030 X-195.343 Y6.142 Z10.501 A299.4283 
N2031 X-195.341 Y6.174 Z10.472 A297.8610 
N2032 X-195.338 Y6.205 Z10.442 A296.2687 
N2033 X-195.335 Y6.236 Z10.409 A294.6491 
N2034 X-195.332 Y6.268 Z10.375 A293.0000 
N2035 X-195.328 Y6.299 Z10.339 A291.3202 
N2036 X-195.324 Y6.330 Z10.300 A289.6091 
N2037 X-195.319 Y6.360 Z10.259 A287.8674 
N2038 X-195.313 Y6.391 Z10.214 A286.0968 
N2039 X-195.306 Y6.421 Z10.166 A284.3007 
N2040 X-195.298 Y6.451 Z10.114 A282.4846 
N2041 X-195.290 Y6.480 Z10.058 A280.6554 
N2042 X-195.280 Y6.509 Z9.997 A278.8219 
N2043 X-195.269 Y6.536 Z9.930 A276.9940 
N2044 X-195.256 Y6.562 Z9.858 A275.1817 
N2045 X-195.242 Y6.587 Z9.779 A273.3946 
N2046 X-195.226 Y6.609 Z9.693 A271.6408 
N2047 X-195.209 Y6.629 Z9.599 A269.9268 
N2048 X-195.189 Y6.647 Z9.496 A268.2574 
N2049 X-195.168 Y6.662 Z9.383 A266.6346 
N2050 X-195.143 Y6.673 Z9.260 A265.0583 
N2051 X-195.116 Y6.680 Z9.124 A263.5268 
N2052 X-195.085 Y6.684 Z8.975 A262.0366 
N2053 X-195.051 Y6.682 Z8.813 A260.5837 
N2054 X-195.014 Y6.674 Z8.636 A259.1626 
N2055 X-194.972 Y6.661 Z8.443 A257.7661 
N2056 X-194.926 Y6.640 Z8.235 A256.3879 
N2057 X-194.875 Y6.612 Z8.011 A255.0251 
N2058 X-194.820 Y6.575 Z7.771 A253.6785 
N2059 X-194.760 Y6.529 Z7.515 A252.3489 
N2060 X-194.695 Y6.473 Z7.244 A251.0348 
N2061 X-194.624 Y6.407 Z6.959 A249.7339 
N2062 X-194.548 Y6.330 Z6.661 A248.4445 
N2063 X-194.465 Y6.243 Z6.351 A247.1650 
N2064 X-194.376 Y6.144 Z6.031 A245.8931 
N2065 X-194.281 Y6.035 Z5.703 A244.6246 
N2066 X-194.181 Y5.916 Z5.368 A243.3535 
N2067 X-194.075 Y5.786 Z5.028 A242.0731 
N2068 X-193.964 Y5.647 Z4.685 A240.7776 
N2069 X-193.847 Y5.498 Z4.341 A239.4630 
N2070 X-193.725 Y5.340 Z3.998 A238.1274 
N2071 X-193.598 Y5.174 Z3.658 A236.7699 
N2072 X-193.468 Y5.000 Z3.322 A235.3903 
N2073 X-193.334 Y4.819 Z2.991 A233.9876 
N2074 X-193.196 Y4.632 Z2.668 A232.5602 
N2075 X-193.055 Y4.439 Z2.352 A231.1061 
N2076 X-192.912 Y4.241 Z2.045 A229.6235 
N2077 X-192.766 Y4.038 Z1.748 A228.1114 
N2078 X-192.617 Y3.831 Z1.461 A226.5692 
N2079 X-192.466 Y3.621 Z1.185 A224.9972 
N2080 X-192.313 Y3.407 Z0.919 A223.3961 
N2081 X-192.158 Y3.191 Z0.665 A221.7669 
N2082 X-192.002 Y2.972 Z0.421 A220.1103 
N2083 X-191.846 Y2.750 Z0.188 A218.4273 
N2084 X-191.691 Y2.526 Z-0.035 A216.7190 
N2085 X-191.538 Y2.299 Z-0.248 A214.9870 
N2086 X-191.386 Y2.069 Z-0.451 A213.2332 
N2087 X-191.236 Y1.837 Z-0.644 A211.4598 
N2088 X-191.088 Y1.602 Z-0.827 A209.6692 
N2089 X-190.942 Y1.365 Z-1.000 A207.8641 
N2090 X-190.798 Y1.126 Z-1.163 A206.0473 
N2091 X-190.655 Y0.885 Z-1.318 A204.2213 
N2092 X-190.515 Y0.642 Z-1.462 A202.3890 
N2093 X-190.377 Y0.396 Z-1.598 A200.5528 
N2094 X-190.241 Y0.149 Z-1.725 A198.7152 
N2095 X-190.107 Y-0.101 Z-1.843 A196.8785 
N2096 X-189.975 Y-0.353 Z-1.952 A195.0449 
N2097 X-189.845 Y-0.607 Z-2.052 A193.2162 
N2098 X-189.717 Y-0.864 Z-2.145 A191.3941 
N2099 X-189.590 Y-1.124 Z-2.228 A189.5799 
N2100 X-189.466 Y-1.387 Z-2.304 A187.7748 
N2101 X-189.343 Y-1.654 Z-2.372 A185.9794 
N2102 X-189.221 Y-1.925 Z-2.431 A184.1944 
N2103 X-189.101 Y-2.200 Z-2.483 A182.4202 
N2104 X-188.982 Y-2.480 Z-2.526 A180.6570 
N2105 X-188.865 Y-2.765 Z-2.561 A178.9047 
N2106 X-188.748 Y-3.057 Z-2.587 A177.1631 
N2107 X-188.632 Y-3.356 Z-2.605 A175.4318 
N2108 X-188.516 Y-3.663 Z-2.613 A173.7102 
N2109 X-188.401 Y-3.979 Z-2.612 A171.9976 
N2110 X-188.285 Y-4.305 Z-2.601 A170.2931 
N2111 X-188.170 Y-4.643 Z-2.579 A168.5960 
N2112 X-188.054 Y-4.994 Z-2.545 A166.9055 
N2113 X-187.937 Y-5.360 Z-2.498 A165.2213 
N2114 X-187.820 Y-5.742 Z-2.437 A163.5431 
N2115 X-187.701 Y-6.144 Z-2.360 A161.8711 
N2116 X-187.580 Y-6.568 Z-2.266 A160.2061 
N2117 X-187.457 Y-7.016 Z-2.151 A158.5498 
N2118 X-187.333 Y-7.491 Z-2.013 A156.9048 
N2119 X-187.206 Y-7.995 Z-1.850 A155.2749 
N2120 X-187.078 Y-8.533 Z-1.657 A153.6656 
N2121 X-186.948 Y-9.104 Z-1.433 A152.0839 
N2122 X-186.817 Y-9.712 Z-1.172 A150.5384 
N2123 X-186.685 Y-10.357 Z-0.873 A149.0393 
N2124 X-186.554 Y-11.038 Z-0.533 A147.5980 
N2125 X-186.424 Y-11.754 Z-0.150 A146.2252 
N2126 X-186.296 Y-12.503 Z0.276 A144.9302 
N2127 X-186.171 Y-13.280 Z0.742 A143.7203 
N2128 X-186.051 Y-14.079 Z1.246 A142.6009 
N2129 X-185.936 Y-14.895 Z1.784 A141.5763 
N2130 X-185.826 Y-15.717 Z2.348 A140.6493 
N2131 X-185.723 Y-16.539 Z2.931 A139.8207 
N2132 X-185.628 Y-17.349 Z3.523 A139.0898 
N2133 X-185.539 Y-18.138 Z4.114 A138.4540 
N2134 X-185.458 Y-18.897 Z4.694 A137.9080 
N2135 X-185.385 Y-19.617 Z5.254 A137.4441 
N2136 X-185.319 Y-20.290 Z5.784 A137.0534 
N2137 X-185.260 Y-20.911 Z6.278 A136.7278 
N2138 X-185.208 Y-21.473 Z6.729 A136.4593 
N2139 X-185.163 Y-21.975 Z7.135 A136.2399 
N2140 X-185.124 Y-22.416 Z7.493 A136.0612 
N2141 X-185.091 Y-22.797 Z7.803 A135.9146 
N2142 X-185.063 Y-23.120 Z8.067 A135.7924 
N2143 X-185.040 Y-23.390 Z8.288 A135.6879 
N2144 X-185.021 Y-23.612 Z8.469 A135.5946 
N2145 X-185.007 Y-23.791 Z8.616 A135.5063 
N2146 X-184.995 Y-23.933 Z8.732 A135.4162 
N2147 X-184.986 Y-24.043 Z8.822 A135.3164 
N2148 X-184.979 Y-24.129 Z8.892 A135.1987 
N2149 X-184.973 Y-24.193 Z8.944 A135.0567 
N2150 X-184.969 Y-24.243 Z8.984 A134.8228 
N2151 X-184.966 Y-24.285 Z9.014 A134.2345 
N2152 X-184.963 Y-24.324 Z9.039 A133.1929 
N2153 X-184.961 Y-24.356 Z9.058 A132.0042 
N2154 X-184.960 Y-24.383 Z9.073 A130.8190 
N2155 X-184.960 Y-24.403 Z9.085 A129.9150 
N2156 X-184.961 Y-24.419 Z9.094 A129.1477 
N2157 X-184.962 Y-24.432 Z9.101 A128.4378 
N2158 X-184.963 Y-24.444 Z9.107 A127.7925 
N2159 X-184.964 Y-24.453 Z9.112 A127.2127 
N2160 X-184.965 Y-24.462 Z9.117 A126.6905 
N2161 X-184.966 Y-24.470 Z9.121 A126.2105 
N2162 X-184.967 Y-24.477 Z9.125 A125.7634 
N2163 X-184.968 Y-24.484 Z9.129 A125.3443 
N2164 X-184.969 Y-24.490 Z9.132 A124.9427 
N2165 X-184.970 Y-24.497 Z9.136 A124.5500 
N2166 X-184.971 Y-24.503 Z9.139 A124.1584 
N2167 X-184.972 Y-24.509 Z9.143 A123.7606 
N2168 X-184.973 Y-24.516 Z9.147 A123.3501 
N2169 X-184.974 Y-24.522 Z9.151 A122.9232 
N2170 X-184.976 Y-24.529 Z9.155 A122.4744 
N2171 X-184.977 Y-24.536 Z9.159 A121.9958 
N2172 X-184.979 Y-24.544 Z9.164 A121.4780 
N2173 X-184.981 Y-24.553 Z9.169 A120.9181 
N2174 X-184.983 Y-24.562 Z9.175 A120.3083 
N2175 X-184.986 Y-24.572 Z9.182 A119.6358 
N2176 X-184.988 Y-24.582 Z9.189 A118.8993 
N2177 X-184.992 Y-24.594 Z9.197 A118.0889 
N2178 X-184.997 Y-24.608 Z9.207 A117.1335 
N2179 X-185.002 Y-24.624 Z9.218 A116.0173 
N2180 X-185.009 Y-24.641 Z9.232 A114.7309 
N2181 X-185.017 Y-24.661 Z9.248 A113.2693 
N2182 X-185.028 Y-24.683 Z9.266 A111.6348 
N2183 X-185.042 Y-24.707 Z9.288 A109.6968 
N2184 X-185.059 Y-24.735 Z9.315 A107.4739 
N2185 X-185.080 Y-24.764 Z9.345 A104.9762 
N2186 X-185.107 Y-24.795 Z9.380 A102.2052 
N2187 X-185.139 Y-24.827 Z9.421 A99.1591 
N2188 X-185.177 Y-24.859 Z9.466 A95.8358 
N2189 X-185.223 Y-24.891 Z9.518 A92.2332 
N2190 X-185.276 Y-24.922 Z9.576 A88.3464 
N2191 X-185.338 Y-24.951 Z9.641 A84.1658 
N2192 X-185.408 Y-24.977 Z9.713 A79.6789 
N2193 X-185.487 Y-24.997 Z9.790 A75.0267 
N2194 X-185.574 Y-25.011 Z9.872 A70.2110 
N2195 X-185.669 Y-25.019 Z9.958 A65.2389 
N2196 X-185.770 Y-25.018 Z10.046 A60.1929 
N2197 X-185.877 Y-25.010 Z10.135 A55.0848 
N2198 X-185.988 Y-24.993 Z10.224 A49.9316 
N2199 X-186.102 Y-24.969 Z10.311 A44.7535 
N2200 X-186.216 Y-24.936 Z10.395 A39.5725 
N2201 X-186.328 Y-24.897 Z10.476 A34.4104 
N2202 X-186.438 Y-24.851 Z10.552 A29.2875 
N2203 X-186.543 Y-24.799 Z10.623 A24.2213 
N2204 X-186.642 Y-24.744 Z10.687 A19.2926 
N2205 X-186.734 Y-24.686 Z10.743 A14.5237 
N2206 X-186.818 Y-24.626 Z10.793 A9.9265 
N2207 X-186.893 Y-24.565 Z10.836 A5.4956 
N2208 X-186.960 Y-24.505 Z10.872 A1.3575 
N2209 X-187.019 Y-24.447 Z10.902 A357.5036 
N2210 X-187.070 Y-24.391 Z10.926 A353.9422 
N2211 X-187.113 Y-24.339 Z10.945 A350.6910 
N2212 X-187.149 Y-24.291 Z10.959 A347.7710 
N2213 X-187.179 Y-24.247 Z10.969 A345.1954 
N2214 X-187.204 Y-24.209 Z10.976 A342.9646 
N2215 X-187.224 Y-24.176 Z10.981 A341.0679 
N2216 X-187.240 Y-24.147 Z10.984 A339.4904 
N2217 X-187.253 Y-24.124 Z10.986 A338.2239 
N2218 X-187.264 Y-24.103 Z10.987 A337.1186 
N2219 X-187.273 Y-24.085 Z10.988 A336.1700 
N2220 X-187.280 Y-24.070 Z10.988 A335.3647 
N2221 X-187.286 Y-24.057 Z10.988 A334.6915 
N2222 X-187.290 Y-24.045 Z10.987 A334.0808 
N2223 X-187.295 Y-24.034 Z10.987 A333.5264 
N2224 X-187.298 Y-24.024 Z10.987 A333.0198 
N2225 X-187.301 Y-24.014 Z10.986 A332.5507 
N2226 X-187.304 Y-24.005 Z10.985 A332.1111 
N2227 X-187.307 Y-23.996 Z10.985 A331.6908 
N2228 X-187.310 Y-23.988 Z10.984 A331.2812 
N2229 X-187.312 Y-23.979 Z10.983 A330.8744 
N2230 X-187.315 Y-23.970 Z10.982 A330.4621 
N2231 X-187.318 Y-23.960 Z10.980 A330.0401 
N2232 X-187.321 Y-23.949 Z10.978 A329.6047 
N2233 X-187.325 Y-23.936 Z10.975 A329.1568 
N2234 X-187.329 Y-23.921 Z10.971 A328.7038 
N2235 X-187.334 Y-23.904 Z10.966 A328.2596 
N2236 X-187.339 Y-23.883 Z10.958 A327.8437 
N2237 X-187.345 Y-23.857 Z10.947 A327.4772 
N2238 X-187.350 Y-23.825 Z10.932 A327.1787 
N2239 X-187.356 Y-23.786 Z10.912 A326.9594 
N2240 X-187.362 Y-23.736 Z10.886 A326.8217 
N2241 X-187.369 Y-23.674 Z10.852 A326.7607 
N2242 X-187.378 Y-23.594 Z10.808 A326.7678 
N2243 X-187.390 Y-23.495 Z10.754 A326.8343 
N2244 X-187.405 Y-23.372 Z10.686 A326.9539 
N2245 X-187.423 Y-23.222 Z10.603 A327.1235 
N2246 X-187.445 Y-23.040 Z10.504 A327.3429 
N2247 X-187.471 Y-22.824 Z10.387 A327.6140 
N2248 X-187.502 Y-22.572 Z10.252 A327.9400 
N2249 X-187.539 Y-22.281 Z10.098 A328.3254 
N2250 X-187.582 Y-21.951 Z9.926 A328.7763 
N2251 X-187.630 Y-21.581 Z9.737 A329.3003 
N2252 X-187.685 Y-21.173 Z9.532 A329.9050 
N2253 X-187.746 Y-20.729 Z9.315 A330.5970 
N2254 X-187.812 Y-20.251 Z9.088 A331.3796 
N2255 X-187.886 Y-19.744 Z8.856 A332.2534 
N2256 X-187.965 Y-19.212 Z8.622 A333.2173 
N2257 X-188.050 Y-18.660 Z8.391 A334.2706 
N2258 X-188.141 Y-18.093 Z8.166 A335.4130 
N2259 X-188.237 Y-17.516 Z7.950 A336.6436 
N2260 X-188.337 Y-16.933 Z7.746 A337.9601 
N2261 X-188.440 Y-16.349 Z7.557 A339.3584 
N2262 X-188.546 Y-15.767 Z7.385 A340.8329 
N2263 X-188.656 Y-15.189 Z7.230 A342.3770 
N2264 X-188.767 Y-14.618 Z7.094 A343.9845 
N2265 X-188.881 Y-14.053 Z6.977 A345.6497 
N2266 X-188.997 Y-13.496 Z6.877 A347.3673 
N2267 X-189.115 Y-12.944 Z6.797 A349.1322 
N2268 X-189.236 Y-12.397 Z6.734 A350.9390 
N2269 X-189.360 Y-11.851 Z6.689 A352.7821 
N2270 X-189.488 Y-11.305 Z6.662 A354.6554 
N2271 X-189.621 Y-10.755 Z6.654 A356.5518 
N2272 X-189.759 Y-10.198 Z6.665 A358.4627 
N2273 X-189.905 Y-9.631 Z6.696 A0.3783 
N2274 X-190.059 Y-9.052 Z6.749 A2.2868 
N2275 X-190.223 Y-8.459 Z6.825 A4.1752 
N2276 X-190.397 Y-7.851 Z6.926 A6.0294 
N2277 X-190.581 Y-7.227 Z7.051 A7.8351 
N2278 X-190.778 Y-6.590 Z7.202 A9.5782 
N2279 X-190.985 Y-5.940 Z7.379 A11.1750 
N2280 X-191.199 Y-5.280 Z7.580 A12.6028 
N2281 X-191.417 Y-4.612 Z7.803 A13.8450 
N2282 X-191.638 Y-3.942 Z8.043 A14.8978 
N2283 X-191.858 Y-3.272 Z8.296 A15.6011 
N2284 X-192.072 Y-2.607 Z8.557 A15.9547 
N2285 X-192.279 Y-1.954 Z8.818 A16.1170 
N2286 X-192.476 Y-1.319 Z9.074 A16.0855 
N2287 X-192.659 Y-0.707 Z9.321 A15.8638 
N2288 X-192.827 Y-0.124 Z9.554 A15.4541 
N2289 X-192.980 Y0.427 Z9.770 A14.8537 
N2290 X-193.118 Y0.943 Z9.966 A14.0589 
N2291 X-193.241 Y1.420 Z10.141 A13.0703 
N2292 X-193.349 Y1.859 Z10.294 A11.8972 
N2293 X-193.443 Y2.258 Z10.424 A10.5531 
N2294 X-193.524 Y2.619 Z10.535 A9.0493 
N2295 X-193.593 Y2.942 Z10.625 A7.4694 
N2296 X-193.652 Y3.229 Z10.698 A5.8255 
N2297 X-193.703 Y3.483 Z10.755 A4.1317 
N2298 X-193.748 Y3.708 Z10.801 A2.3951 
N2299 X-193.787 Y3.905 Z10.836 A0.6184 
N2300 X-193.821 Y4.079 Z10.863 A358.8061 
N2301 X-193.851 Y4.232 Z10.883 A356.9646 
N2302 X-193.878 Y4.368 Z10.898 A355.0996 
N2303 X-193.901 Y4.490 Z10.909 A353.2160 
N2304 X-193.922 Y4.599 Z10.917 A351.3179 
N2305 X-193.940 Y4.698 Z10.921 A349.4095 
N2306 X-193.957 Y4.788 Z10.923 A347.4960 
N2307 X-193.972 Y4.871 Z10.924 A345.5828 
N2308 X-193.986 Y4.948 Z10.922 A343.6764 
N2309 X-193.999 Y5.019 Z10.919 A341.7833 
N2310 X-194.010 Y5.086 Z10.915 A339.9098 
N2311 X-194.020 Y5.149 Z10.909 A338.0611 
N2312 X-194.029 Y5.208 Z10.902 A336.2413 
N2313 X-194.037 Y5.265 Z10.894 A334.4531 
N2314 X-194.045 Y5.318 Z10.886 A332.6982 
N2315 X-194.052 Y5.370 Z10.876 A330.9773 
N2316 X-194.058 Y5.418 Z10.865 A329.2902 
N2317 X-194.063 Y5.465 Z10.853 A327.6362 
N2318 X-194.068 Y5.510 Z10.841 A326.0139 
N2319 X-194.073 Y5.554 Z10.828 A324.4214 
N2320 X-194.076 Y5.596 Z10.815 A322.8566 
N2321 X-194.080 Y5.636 Z10.800 A321.3171 
N2322 X-194.083 Y5.675 Z10.785 A319.8003 
N2323 X-194.085 Y5.713 Z10.770 A318.3034 
N2324 X-194.088 Y5.751 Z10.753 A316.8235 
N2325 X-194.090 Y5.787 Z10.736 A315.3578 
N2326 X-194.091 Y5.822 Z10.719 A313.9032 
N2327 X-194.092 Y5.856 Z10.701 A312.4568 
N2328 X-194.093 Y5.890 Z10.682 A311.0154 
N2329 X-194.094 Y5.923 Z10.662 A309.5760 
N2330 X-194.094 Y5.956 Z10.642 A308.1354 
N2331 X-194.094 Y5.988 Z10.620 A306.6902 
N2332 X-194.093 Y6.020 Z10.598 A305.2373 
N2333 X-194.093 Y6.052 Z10.575 A303.7732 
N2334 X-194.092 Y6.083 Z10.550 A302.2946 
N2335 X-194.090 Y6.114 Z10.525 A300.7982 
N2336 X-194.089 Y6.145 Z10.498 A299.2806 
N2337 X-194.086 Y6.176 Z10.470 A297.7389 
N2338 X-194.084 Y6.207 Z10.440 A296.1702 
N2339 X-194.081 Y6.238 Z10.408 A294.5720 
N2340 X-194.077 Y6.269 Z10.374 A292.9422 
N2341 X-194.073 Y6.299 Z10.338 A291.2796 
N2342 X-194.068 Y6.330 Z10.300 A289.5836 
N2343 X-194.062 Y6.361 Z10.258 A287.8549 
N2344 X-194.056 Y6.391 Z10.214 A286.0953 
N2345 X-194.049 Y6.421 Z10.166 A284.3086 
N2346 X-194.041 Y6.451 Z10.114 A282.5003 
N2347 X-194.032 Y6.480 Z10.058 A280.6775 
N2348 X-194.021 Y6.508 Z9.998 A278.8493 
N2349 X-194.010 Y6.536 Z9.932 A277.0258 
N2350 X-193.997 Y6.562 Z9.860 A275.2173 
N2351 X-193.983 Y6.586 Z9.782 A273.4335 
N2352 X-193.967 Y6.608 Z9.696 A271.6830 
N2353 X-193.950 Y6.629 Z9.603 A269.9724 
N2354 X-193.931 Y6.646 Z9.500 A268.3066 
N2355 X-193.910 Y6.661 Z9.388 A266.6880 
N2356 X-193.888 Y6.673 Z9.265 A265.1167 
N2357 X-193.862 Y6.680 Z9.130 A263.5907 
N2358 X-193.834 Y6.684 Z8.983 A262.1070 
N2359 X-193.803 Y6.682 Z8.822 A260.6615 
N2360 X-193.769 Y6.675 Z8.647 A259.2489 
N2361 X-193.732 Y6.662 Z8.457 A257.8621 
N2362 X-193.691 Y6.642 Z8.252 A256.4944 
N2363 X-193.646 Y6.615 Z8.031 A255.1429 
N2364 X-193.597 Y6.579 Z7.794 A253.8084 
N2365 X-193.545 Y6.534 Z7.543 A252.4919 
N2366 X-193.488 Y6.480 Z7.276 A251.1924 
N2367 X-193.426 Y6.416 Z6.996 A249.9076 
N2368 X-193.359 Y6.342 Z6.704 A248.6359 
N2369 X-193.286 Y6.257 Z6.400 A247.3760 
N2370 X-193.208 Y6.162 Z6.087 A246.1259 
N2371 X-193.123 Y6.057 Z5.766 A244.8818 
N2372 X-193.033 Y5.941 Z5.438 A243.6383 
N2373 X-192.938 Y5.817 Z5.106 A242.3889 
N2374 X-192.837 Y5.682 Z4.771 A241.1275 
N2375 X-192.730 Y5.540 Z4.436 A239.8498 
N2376 X-192.617 Y5.388 Z4.101 A238.5534 
N2377 X-192.500 Y5.229 Z3.768 A237.2375 
N2378 X-192.378 Y5.062 Z3.440 A235.9014 
N2379 X-192.252 Y4.889 Z3.116 A234.5446 
N2380 X-192.121 Y4.709 Z2.799 A233.1654 
N2381 X-191.986 Y4.524 Z2.489 A231.7616 
N2382 X-191.848 Y4.333 Z2.187 A230.3310 
N2383 X-191.705 Y4.138 Z1.894 A228.8718 
N2384 X-191.559 Y3.939 Z1.609 A227.3829 
N2385 X-191.410 Y3.736 Z1.335 A225.8636 
N2386 X-191.257 Y3.530 Z1.070 A224.3140 
N2387 X-191.101 Y3.320 Z0.815 A222.7342 
N2388 X-190.941 Y3.108 Z0.570 A221.1247 
N2389 X-190.780 Y2.892 Z0.335 A219.4855 
N2390 X-190.619 Y2.673 Z0.109 A217.8172 
