; PROGRAM NAME: B01143034T
; ORDER       : B011430
; OPER. NAME  : Spiral Finish Airfoil:141
; OPER. DESCR.: Spiral Finishing Airfoil/pioro wk-Tilt milling
; OPER. TYPE  : finAirfoil
; GEO. OPTION : 5
; MACHINE     : HSTM_500_SIM840D_Py
;             : HSTM500 - HAMUEL: 5-axis milling machine - SIM840D Traori PP_Script
; CONTROL     : SINUMERIK 840D
; created:   2022-10-26 13:21:43.592338
;-------DODATKOWE DANE-------------------
; PROGRAMISTA : Zbigniew Papierowski
; PARTID      : 135T006774P1021_-
;  ae         : 2.3
;  lean_angle : 20.0
;  airf_offset: 0.025
;----------------------------------------
;RAPORT("TB011430","Spiral Finish Airfoil:141")
N10 TRAFOOF
N11 D0
N12 G90 G94
N13 G0 G53 D0 Z550 B0
N14 STOPRE
M9 ; chlodziwo wyl
; --- Spiral Finish Airfoil:141 - Spiral Finishing Airfoil/pioro wk-Tilt milling ---
N16 ;ToolChange : concat=None ,current_tdmid=None, PP.tdmId=957163
N17 TRAFOOF
N18 G0 G53 D0 X-200 Y150 Z550 B0
N19 T="7757163"
;RAPORT("TB011430","ToolChangeStart 7757163")
N20 M6
;RAPORT("TB011430","ToolChangeEnd")
N21 STOPRE
N22 MSG(" TLID=957163 D=1.0 R=1.0 Ang=75.0 Len=124.0 ")
N23 ; (Preloading tool)
N24 T="7757774"
N25 S11140 M03
N26 STOPRE
N27 CYCLE832(0.01,1,1)
N28 G0 G53 A138.1927 B15.0000
N29 TRAORI
N30 G54 D1
N31 D1 
N32 TRANS  A=R25
STOPRE
E_ZDARZ=300001
;ACS_FINISH_AIRFOIL=7757163
STOPRE
N33 ; DELTA A > 40.1
N34 TRAFOOF
N35 D1
N36 STOPRE
N37 G00 G54 Z262.000
N38 G01 A138.1927 F10000
N39 TRAORI
N40 G54 D1
N41 STOPRE
N42 TRANS  A=R25
N43 G00 X-284.065 Y-56.237 Z-41.085 A138.1927 B15.0000 
N44 M340 ; chlodziwo centralne
N45 X-297.006 Y-24.041 Z-5.085 
N46 G01 X-297.006 Y-22.346 Z-2.456 F3119 
N47 X-297.006 Y-21.546 Z0.569 
N48 X-297.006 Y-21.721 Z3.693 
N49 X-297.006 Y-22.852 Z6.610 
N50 X-297.006 Y-24.829 Z9.035 
N51 X-297.006 Y-24.899 Z9.106 A135.1303 
N52 X-297.007 Y-24.994 Z9.215 A129.3380 
N53 X-297.008 Y-25.096 Z9.364 A121.3548 
N54 X-297.010 Y-25.174 Z9.522 A113.2689 
N55 X-297.013 Y-25.226 Z9.681 A105.4583 
N56 X-297.015 Y-25.253 Z9.825 A98.5683 
N57 X-297.018 Y-25.261 Z9.949 A92.7021 
N58 X-297.020 Y-25.258 Z10.053 A87.8104 
N59 X-297.023 Y-25.247 Z10.146 A83.3883 
N60 X-297.025 Y-25.231 Z10.230 A79.3615 
N61 X-297.028 Y-25.211 Z10.306 A75.6439 
N62 X-297.030 Y-25.187 Z10.375 A72.1579 
N63 X-297.033 Y-25.160 Z10.440 A68.8376 
N64 X-297.035 Y-25.131 Z10.502 A65.6313 
N65 X-297.038 Y-25.099 Z10.560 A62.4990 
N66 X-297.040 Y-25.065 Z10.615 A59.4102 
N67 X-297.043 Y-25.027 Z10.668 A56.3403 
N68 X-297.045 Y-24.987 Z10.719 A53.2683 
N69 X-297.048 Y-24.945 Z10.768 A50.1736 
N70 X-297.051 Y-24.899 Z10.815 A47.0334 
N71 X-297.053 Y-24.850 Z10.860 A43.8197 
N72 X-297.056 Y-24.797 Z10.904 A40.4963 
N73 X-297.059 Y-24.739 Z10.946 A37.0158 
N74 X-297.061 Y-24.676 Z10.987 A33.3158 
N75 X-297.064 Y-24.605 Z11.026 A29.3181 
N76 X-297.067 Y-24.525 Z11.064 A24.9320 
N77 X-297.070 Y-24.433 Z11.099 A20.0599 
N78 X-297.074 Y-24.328 Z11.128 A14.6297 
N79 X-297.077 Y-24.200 Z11.151 A8.0814 
N80 X-297.081 Y-24.058 Z11.160 A0.9806 
N81 X-297.085 Y-23.907 Z11.149 A353.5595 
N82 X-297.089 Y-23.757 Z11.119 A346.2536 
N83 X-297.093 Y-23.624 Z11.073 A339.9268 
N84 X-297.098 Y-23.525 Z11.028 A335.8308 
N85 X-297.102 Y-23.453 Z10.989 A333.7518 
N86 X-297.107 Y-23.387 Z10.950 A332.5674 
N87 X-297.113 Y-23.321 Z10.911 A332.0395 
N88 X-297.121 Y-23.246 Z10.866 A331.7562 
N89 X-297.129 Y-23.160 Z10.814 A331.6390 
N90 X-297.139 Y-23.059 Z10.756 A331.6304 
N91 X-297.150 Y-22.942 Z10.688 A331.6934 
N92 X-297.163 Y-22.808 Z10.611 A331.8065 
N93 X-297.178 Y-22.654 Z10.525 A331.9583 
N94 X-297.195 Y-22.480 Z10.429 A332.1429 
N95 X-297.214 Y-22.287 Z10.323 A332.3572 
N96 X-297.235 Y-22.075 Z10.208 A332.5995 
N97 X-297.257 Y-21.843 Z10.084 A332.8701 
N98 X-297.282 Y-21.594 Z9.953 A333.1706 
N99 X-297.309 Y-21.328 Z9.815 A333.5035 
N100 X-297.337 Y-21.047 Z9.672 A333.8721 
N101 X-297.367 Y-20.753 Z9.524 A334.2793 
N102 X-297.399 Y-20.447 Z9.374 A334.7266 
N103 X-297.432 Y-20.133 Z9.222 A335.2137 
N104 X-297.466 Y-19.810 Z9.070 A335.7380 
N105 X-297.502 Y-19.481 Z8.920 A336.2961 
N106 X-297.539 Y-19.147 Z8.771 A336.8847 
N107 X-297.577 Y-18.810 Z8.625 A337.5011 
N108 X-297.616 Y-18.471 Z8.482 A338.1440 
N109 X-297.656 Y-18.131 Z8.344 A338.8132 
N110 X-297.696 Y-17.790 Z8.210 A339.5088 
N111 X-297.738 Y-17.450 Z8.081 A340.2311 
N112 X-297.780 Y-17.110 Z7.957 A340.9806 
N113 X-297.823 Y-16.771 Z7.839 A341.7574 
N114 X-297.867 Y-16.434 Z7.726 A342.5610 
N115 X-297.911 Y-16.098 Z7.619 A343.3909 
N116 X-297.956 Y-15.764 Z7.518 A344.2459 
N117 X-298.002 Y-15.432 Z7.423 A345.1247 
N118 X-298.048 Y-15.101 Z7.334 A346.0260 
N119 X-298.095 Y-14.773 Z7.251 A346.9488 
N120 X-298.143 Y-14.446 Z7.175 A347.8923 
N121 X-298.192 Y-14.121 Z7.104 A348.8559 
N122 X-298.241 Y-13.797 Z7.039 A349.8391 
N123 X-298.291 Y-13.475 Z6.981 A350.8414 
N124 X-298.342 Y-13.154 Z6.928 A351.8621 
N125 X-298.394 Y-12.835 Z6.882 A352.9004 
N126 X-298.446 Y-12.517 Z6.841 A353.9552 
N127 X-298.499 Y-12.201 Z6.807 A355.0250 
N128 X-298.553 Y-11.885 Z6.779 A356.1085 
N129 X-298.608 Y-11.570 Z6.757 A357.2039 
N130 X-298.664 Y-11.256 Z6.741 A358.3093 
N131 X-298.720 Y-10.942 Z6.732 A359.4227 
N132 X-298.778 Y-10.629 Z6.728 A0.5419 
N133 X-298.836 Y-10.316 Z6.731 A1.6645 
N134 X-298.896 Y-10.002 Z6.740 A2.7882 
N135 X-298.957 Y-9.688 Z6.755 A3.9104 
N136 X-299.018 Y-9.373 Z6.776 A5.0285 
N137 X-299.081 Y-9.058 Z6.804 A6.1400 
N138 X-299.145 Y-8.741 Z6.838 A7.2421 
N139 X-299.211 Y-8.423 Z6.879 A8.3325 
N140 X-299.277 Y-8.102 Z6.926 A9.4085 
N141 X-299.345 Y-7.780 Z6.979 A10.4676 
N142 X-299.415 Y-7.455 Z7.039 A11.5072 
N143 X-299.485 Y-7.127 Z7.106 A12.5241 
N144 X-299.558 Y-6.796 Z7.180 A13.5146 
N145 X-299.632 Y-6.461 Z7.261 A14.4741 
N146 X-299.707 Y-6.123 Z7.349 A15.3974 
N147 X-299.785 Y-5.781 Z7.443 A16.2784 
N148 X-299.864 Y-5.434 Z7.545 A17.1111 
N149 X-299.944 Y-5.083 Z7.654 A17.8890 
N150 X-300.027 Y-4.727 Z7.770 A18.6064 
N151 X-300.110 Y-4.366 Z7.892 A19.2575 
N152 X-300.196 Y-4.001 Z8.020 A19.8377 
N153 X-300.282 Y-3.632 Z8.153 A20.3428 
N154 X-300.370 Y-3.260 Z8.292 A20.7700 
N155 X-300.459 Y-2.884 Z8.434 A21.1173 
N156 X-300.548 Y-2.506 Z8.580 A21.3841 
N157 X-300.638 Y-2.126 Z8.728 A21.5709 
N158 X-300.728 Y-1.746 Z8.877 A21.6791 
N159 X-300.817 Y-1.367 Z9.027 A21.7108 
N160 X-300.906 Y-0.990 Z9.175 A21.6683 
N161 X-300.994 Y-0.616 Z9.322 A21.5532 
N162 X-301.080 Y-0.247 Z9.465 A21.3655 
N163 X-301.164 Y0.117 Z9.605 A21.1032 
N164 X-301.247 Y0.472 Z9.740 A20.7614 
N165 X-301.326 Y0.820 Z9.869 A20.3338 
N166 X-301.403 Y1.158 Z9.991 A19.8133 
N167 X-301.476 Y1.486 Z10.106 A19.1941 
N168 X-301.547 Y1.803 Z10.213 A18.4729 
N169 X-301.613 Y2.108 Z10.311 A17.6495 
N170 X-301.676 Y2.400 Z10.400 A16.7249 
N171 X-301.735 Y2.680 Z10.480 A15.6999 
N172 X-301.790 Y2.945 Z10.550 A14.5737 
N173 X-301.840 Y3.198 Z10.611 A13.3457 
N174 X-301.887 Y3.436 Z10.663 A12.0198 
N175 X-301.930 Y3.661 Z10.705 A10.6043 
N176 X-301.970 Y3.872 Z10.740 A9.1011 
N177 X-302.005 Y4.069 Z10.767 A7.4997 
N178 X-302.037 Y4.253 Z10.786 A5.7818 
N179 X-302.066 Y4.426 Z10.799 A3.9308 
N180 X-302.092 Y4.587 Z10.805 A1.9332 
N181 X-302.115 Y4.738 Z10.806 A359.7743 
N182 X-302.135 Y4.879 Z10.800 A357.4366 
N183 X-302.152 Y5.011 Z10.789 A354.9027 
N184 X-302.168 Y5.136 Z10.773 A352.1600 
N185 X-302.181 Y5.253 Z10.752 A349.2062 
N186 X-302.193 Y5.365 Z10.725 A346.0545 
N187 X-302.202 Y5.469 Z10.693 A342.7324 
N188 X-302.211 Y5.568 Z10.656 A339.2755 
N189 X-302.218 Y5.660 Z10.615 A335.7198 
N190 X-302.224 Y5.747 Z10.569 A332.0964 
N191 X-302.228 Y5.828 Z10.519 A328.4274 
N192 X-302.232 Y5.904 Z10.465 A324.7255 
N193 X-302.235 Y5.975 Z10.407 A320.9948 
N194 X-302.238 Y6.042 Z10.345 A317.2341 
N195 X-302.239 Y6.104 Z10.279 A313.4409 
N196 X-302.240 Y6.162 Z10.209 A309.6153 
N197 X-302.240 Y6.216 Z10.134 A305.7645 
N198 X-302.239 Y6.265 Z10.054 A301.9063 
N199 X-302.238 Y6.310 Z9.969 A298.0716 
N200 X-302.235 Y6.351 Z9.879 A294.3024 
N201 X-302.231 Y6.386 Z9.783 A290.6481 
N202 X-302.226 Y6.416 Z9.683 A287.1601 
N203 X-302.219 Y6.441 Z9.577 A283.8842 
N204 X-302.210 Y6.460 Z9.467 A280.8532 
N205 X-302.200 Y6.475 Z9.350 A278.0800 
N206 X-302.188 Y6.485 Z9.227 A275.5592 
N207 X-302.174 Y6.490 Z9.097 A273.2728 
N208 X-302.157 Y6.490 Z8.959 A271.1946 
N209 X-302.138 Y6.486 Z8.812 A269.2954 
N210 X-302.117 Y6.477 Z8.654 A267.5464 
N211 X-302.093 Y6.463 Z8.487 A265.9218 
N212 X-302.066 Y6.444 Z8.309 A264.3980 
N213 X-302.036 Y6.419 Z8.120 A262.9510 
N214 X-302.004 Y6.388 Z7.920 A261.5599 
N215 X-301.969 Y6.350 Z7.709 A260.2137 
N216 X-301.931 Y6.305 Z7.487 A258.9109 
N217 X-301.890 Y6.253 Z7.256 A257.6511 
N218 X-301.846 Y6.194 Z7.017 A256.4304 
N219 X-301.800 Y6.128 Z6.768 A255.2428 
N220 X-301.752 Y6.054 Z6.513 A254.0842 
N221 X-301.701 Y5.972 Z6.251 A252.9521 
N222 X-301.648 Y5.884 Z5.984 A251.8448 
N223 X-301.593 Y5.788 Z5.713 A250.7589 
N224 X-301.536 Y5.685 Z5.438 A249.6893 
N225 X-301.478 Y5.576 Z5.161 A248.6283 
N226 X-301.418 Y5.460 Z4.882 A247.5679 
N227 X-301.358 Y5.339 Z4.602 A246.5008 
N228 X-301.296 Y5.211 Z4.323 A245.4215 
N229 X-301.233 Y5.077 Z4.045 A244.3274 
N230 X-301.170 Y4.937 Z3.768 A243.2178 
N231 X-301.106 Y4.792 Z3.494 A242.0928 
N232 X-301.042 Y4.642 Z3.224 A240.9528 
N233 X-300.978 Y4.487 Z2.957 A239.7970 
N234 X-300.914 Y4.327 Z2.695 A238.6235 
N235 X-300.849 Y4.163 Z2.437 A237.4292 
N236 X-300.785 Y3.994 Z2.185 A236.2109 
N237 X-300.721 Y3.822 Z1.938 A234.9659 
N238 X-300.657 Y3.646 Z1.697 A233.6918 
N239 X-300.593 Y3.466 Z1.462 A232.3872 
N240 X-300.530 Y3.282 Z1.234 A231.0510 
N241 X-300.467 Y3.095 Z1.012 A229.6830 
N242 X-300.405 Y2.905 Z0.798 A228.2830 
N243 X-300.344 Y2.711 Z0.590 A226.8513 
N244 X-300.283 Y2.515 Z0.390 A225.3884 
N245 X-300.223 Y2.315 Z0.197 A223.8949 
N246 X-300.163 Y2.113 Z0.011 A222.3715 
N247 X-300.104 Y1.908 Z-0.167 A220.8193 
N248 X-300.046 Y1.700 Z-0.338 A219.2394 
N249 X-299.989 Y1.490 Z-0.501 A217.6332 
N250 X-299.932 Y1.277 Z-0.657 A216.0024 
N251 X-299.876 Y1.062 Z-0.805 A214.3488 
N252 X-299.820 Y0.844 Z-0.946 A212.6745 
N253 X-299.766 Y0.624 Z-1.079 A210.9816 
N254 X-299.712 Y0.401 Z-1.205 A209.2723 
N255 X-299.659 Y0.176 Z-1.323 A207.5490 
N256 X-299.606 Y-0.052 Z-1.434 A205.8140 
N257 X-299.554 Y-0.281 Z-1.537 A204.0699 
N258 X-299.503 Y-0.514 Z-1.633 A202.3195 
N259 X-299.453 Y-0.749 Z-1.722 A200.5654 
N260 X-299.403 Y-0.986 Z-1.803 A198.8106 
N261 X-299.353 Y-1.225 Z-1.877 A197.0580 
N262 X-299.305 Y-1.468 Z-1.944 A195.3103 
N263 X-299.257 Y-1.713 Z-2.003 A193.5702 
N264 X-299.209 Y-1.960 Z-2.056 A191.8403 
N265 X-299.162 Y-2.210 Z-2.100 A190.1232 
N266 X-299.116 Y-2.463 Z-2.138 A188.4214 
N267 X-299.070 Y-2.719 Z-2.168 A186.7375 
N268 X-299.024 Y-2.977 Z-2.192 A185.0739 
N269 X-298.979 Y-3.238 Z-2.207 A183.4330 
N270 X-298.935 Y-3.503 Z-2.216 A181.8170 
N271 X-298.891 Y-3.770 Z-2.217 A180.2278 
N272 X-298.848 Y-4.040 Z-2.210 A178.6673 
N273 X-298.805 Y-4.313 Z-2.196 A177.1371 
N274 X-298.763 Y-4.589 Z-2.175 A175.6385 
N275 X-298.721 Y-4.868 Z-2.146 A174.1729 
N276 X-298.680 Y-5.151 Z-2.110 A172.7414 
N277 X-298.639 Y-5.436 Z-2.066 A171.3451 
N278 X-298.599 Y-5.724 Z-2.015 A169.9846 
N279 X-298.560 Y-6.016 Z-1.956 A168.6606 
N280 X-298.521 Y-6.310 Z-1.889 A167.3733 
N281 X-298.482 Y-6.607 Z-1.815 A166.1229 
N282 X-298.445 Y-6.907 Z-1.733 A164.9094 
N283 X-298.407 Y-7.211 Z-1.644 A163.7327 
N284 X-298.371 Y-7.517 Z-1.547 A162.5924 
N285 X-298.335 Y-7.825 Z-1.443 A161.4880 
N286 X-298.299 Y-8.137 Z-1.331 A160.4189 
N287 X-298.265 Y-8.451 Z-1.212 A159.3847 
N288 X-298.231 Y-8.767 Z-1.085 A158.3847 
N289 X-298.197 Y-9.086 Z-0.951 A157.4187 
N290 X-298.164 Y-9.408 Z-0.810 A156.4862 
N291 X-298.132 Y-9.732 Z-0.662 A155.5871 
N292 X-298.101 Y-10.058 Z-0.506 A154.7214 
N293 X-298.070 Y-10.386 Z-0.344 A153.8891 
N294 X-298.040 Y-10.717 Z-0.174 A153.0903 
N295 X-298.010 Y-11.049 Z0.002 A152.3251 
N296 X-297.981 Y-11.383 Z0.185 A151.5933 
N297 X-297.953 Y-11.720 Z0.374 A150.8945 
N298 X-297.926 Y-12.058 Z0.569 A150.2279 
N299 X-297.899 Y-12.397 Z0.771 A149.5922 
N300 X-297.872 Y-12.739 Z0.979 A148.9861 
N301 X-297.846 Y-13.082 Z1.192 A148.4080 
N302 X-297.821 Y-13.427 Z1.411 A147.8568 
N303 X-297.797 Y-13.773 Z1.635 A147.3311 
N304 X-297.773 Y-14.121 Z1.865 A146.8302 
N305 X-297.749 Y-14.470 Z2.100 A146.3532 
N306 X-297.726 Y-14.820 Z2.340 A145.8993 
N307 X-297.704 Y-15.172 Z2.585 A145.4679 
N308 X-297.682 Y-15.525 Z2.834 A145.0584 
N309 X-297.660 Y-15.879 Z3.088 A144.6703 
N310 X-297.639 Y-16.234 Z3.346 A144.3031 
N311 X-297.618 Y-16.590 Z3.609 A143.9564 
N312 X-297.598 Y-16.946 Z3.874 A143.6301 
N313 X-297.579 Y-17.304 Z4.144 A143.3240 
N314 X-297.559 Y-17.661 Z4.417 A143.0380 
N315 X-297.540 Y-18.019 Z4.692 A142.7722 
N316 X-297.522 Y-18.377 Z4.970 A142.5261 
N317 X-297.504 Y-18.734 Z5.249 A142.2990 
N318 X-297.486 Y-19.089 Z5.530 A142.0897 
N319 X-297.469 Y-19.443 Z5.811 A141.8968 
N320 X-297.452 Y-19.793 Z6.091 A141.7192 
N321 X-297.436 Y-20.139 Z6.370 A141.5560 
N322 X-297.420 Y-20.479 Z6.645 A141.4071 
N323 X-297.404 Y-20.812 Z6.917 A141.2725 
N324 X-297.390 Y-21.136 Z7.182 A141.1524 
N325 X-297.376 Y-21.450 Z7.440 A141.0467 
N326 X-297.362 Y-21.751 Z7.688 A140.9548 
N327 X-297.350 Y-22.038 Z7.926 A140.8755 
N328 X-297.338 Y-22.310 Z8.152 A140.8074 
N329 X-297.327 Y-22.564 Z8.364 A140.7488 
N330 X-297.317 Y-22.799 Z8.561 A140.6982 
N331 X-297.308 Y-23.015 Z8.742 A140.6540 
N332 X-297.300 Y-23.211 Z8.907 A140.6150 
N333 X-297.293 Y-23.386 Z9.055 A140.5801 
N334 X-297.287 Y-23.541 Z9.187 A140.5478 
N335 X-297.281 Y-23.676 Z9.302 A140.5162 
N336 X-297.277 Y-23.793 Z9.403 A140.4818 
N337 X-297.273 Y-23.892 Z9.489 A140.4396 
N338 X-297.270 Y-23.975 Z9.562 A140.3823 
N339 X-297.268 Y-24.044 Z9.623 A140.3023 
N340 X-297.266 Y-24.101 Z9.674 A140.1306 
N341 X-297.265 Y-24.147 Z9.717 A139.5892 
N342 X-297.265 Y-24.185 Z9.755 A138.1927 
N343 X-297.264 Y-24.220 Z9.788 A135.1303 
N344 X-297.264 Y-24.252 Z9.823 A129.3380 
N345 X-297.264 Y-24.279 Z9.861 A121.3548 
N346 X-297.266 Y-24.299 Z9.899 A113.2689 
N347 X-297.267 Y-24.311 Z9.934 A105.4583 
N348 X-297.269 Y-24.317 Z9.966 A98.5683 
N349 X-297.270 Y-24.320 Z9.994 A92.7021 
N350 X-297.272 Y-24.319 Z10.017 A87.8104 
N351 X-297.274 Y-24.317 Z10.038 A83.3883 
N352 X-297.275 Y-24.314 Z10.057 A79.3615 
N353 X-297.277 Y-24.310 Z10.075 A75.6439 
N354 X-297.278 Y-24.305 Z10.092 A72.1579 
N355 X-297.280 Y-24.300 Z10.107 A68.8376 
N356 X-297.281 Y-24.293 Z10.122 A65.6313 
N357 X-297.283 Y-24.286 Z10.137 A62.4990 
N358 X-297.285 Y-24.279 Z10.151 A59.4102 
N359 X-297.286 Y-24.270 Z10.164 A56.3403 
N360 X-297.288 Y-24.261 Z10.177 A53.2683 
N361 X-297.290 Y-24.251 Z10.190 A50.1736 
N362 X-297.292 Y-24.241 Z10.202 A47.0334 
N363 X-297.293 Y-24.229 Z10.213 A43.8197 
N364 X-297.295 Y-24.217 Z10.225 A40.4963 
N365 X-297.297 Y-24.203 Z10.235 A37.0158 
N366 X-297.299 Y-24.189 Z10.246 A33.3158 
N367 X-297.301 Y-24.172 Z10.256 A29.3181 
N368 X-297.303 Y-24.154 Z10.266 A24.9320 
N369 X-297.305 Y-24.132 Z10.275 A20.0599 
N370 X-297.308 Y-24.108 Z10.283 A14.6297 
N371 X-297.310 Y-24.078 Z10.290 A8.0814 
N372 X-297.313 Y-24.043 Z10.293 A0.9806 
N373 X-297.316 Y-24.004 Z10.291 A353.5595 
N374 X-297.320 Y-23.961 Z10.283 A346.2536 
N375 X-297.323 Y-23.918 Z10.269 A339.9268 
N376 X-297.326 Y-23.874 Z10.250 A335.8308 
N377 X-297.330 Y-23.829 Z10.227 A333.7518 
N378 X-297.334 Y-23.777 Z10.199 A332.5674 
N379 X-297.339 Y-23.717 Z10.166 A332.0395 
N380 X-297.346 Y-23.644 Z10.126 A331.7562 
N381 X-297.353 Y-23.558 Z10.078 A331.6390 
N382 X-297.362 Y-23.455 Z10.022 A331.6304 
N383 X-297.373 Y-23.336 Z9.957 A331.6934 
N384 X-297.385 Y-23.198 Z9.883 A331.8065 
N385 X-297.399 Y-23.041 Z9.798 A331.9583 
N386 X-297.415 Y-22.864 Z9.704 A332.1429 
N387 X-297.433 Y-22.666 Z9.599 A332.3572 
N388 X-297.453 Y-22.449 Z9.486 A332.5995 
N389 X-297.475 Y-22.213 Z9.363 A332.8701 
N390 X-297.498 Y-21.958 Z9.233 A333.1706 
N391 X-297.524 Y-21.686 Z9.096 A333.5035 
N392 X-297.551 Y-21.399 Z8.953 A333.8721 
N393 X-297.581 Y-21.099 Z8.806 A334.2793 
N394 X-297.611 Y-20.786 Z8.656 A334.7266 
N395 X-297.643 Y-20.464 Z8.504 A335.2137 
N396 X-297.677 Y-20.133 Z8.353 A335.7380 
N397 X-297.712 Y-19.796 Z8.202 A336.2961 
N398 X-297.748 Y-19.454 Z8.053 A336.8847 
N399 X-297.785 Y-19.108 Z7.907 A337.5011 
N400 X-297.823 Y-18.759 Z7.764 A338.1440 
N401 X-297.862 Y-18.409 Z7.625 A338.8132 
N402 X-297.902 Y-18.059 Z7.491 A339.5088 
N403 X-297.943 Y-17.708 Z7.362 A340.2311 
N404 X-297.984 Y-17.358 Z7.238 A340.9806 
N405 X-298.026 Y-17.008 Z7.119 A341.7574 
N406 X-298.069 Y-16.660 Z7.006 A342.5610 
N407 X-298.112 Y-16.313 Z6.900 A343.3909 
N408 X-298.156 Y-15.967 Z6.799 A344.2459 
N409 X-298.201 Y-15.623 Z6.704 A345.1247 
N410 X-298.247 Y-15.280 Z6.615 A346.0260 
N411 X-298.293 Y-14.939 Z6.533 A346.9488 
N412 X-298.340 Y-14.600 Z6.457 A347.8923 
N413 X-298.388 Y-14.262 Z6.387 A348.8559 
N414 X-298.436 Y-13.925 Z6.323 A349.8391 
N415 X-298.485 Y-13.590 Z6.265 A350.8414 
N416 X-298.535 Y-13.256 Z6.214 A351.8621 
N417 X-298.586 Y-12.924 Z6.169 A352.9004 
N418 X-298.637 Y-12.593 Z6.131 A353.9552 
N419 X-298.690 Y-12.262 Z6.099 A355.0250 
N420 X-298.743 Y-11.933 Z6.073 A356.1085 
N421 X-298.797 Y-11.605 Z6.053 A357.2039 
N422 X-298.852 Y-11.277 Z6.040 A358.3093 
N423 X-298.907 Y-10.949 Z6.034 A359.4227 
N424 X-298.964 Y-10.622 Z6.034 A0.5419 
N425 X-299.022 Y-10.295 Z6.040 A1.6645 
N426 X-299.080 Y-9.968 Z6.052 A2.7882 
N427 X-299.140 Y-9.641 Z6.072 A3.9104 
N428 X-299.201 Y-9.314 Z6.097 A5.0285 
N429 X-299.263 Y-8.985 Z6.130 A6.1400 
N430 X-299.326 Y-8.656 Z6.169 A7.2421 
N431 X-299.391 Y-8.325 Z6.214 A8.3325 
N432 X-299.456 Y-7.993 Z6.266 A9.4085 
N433 X-299.523 Y-7.659 Z6.325 A10.4676 
N434 X-299.592 Y-7.323 Z6.391 A11.5072 
N435 X-299.662 Y-6.984 Z6.464 A12.5241 
N436 X-299.733 Y-6.643 Z6.543 A13.5146 
N437 X-299.806 Y-6.299 Z6.630 A14.4741 
N438 X-299.881 Y-5.951 Z6.724 A15.3974 
N439 X-299.957 Y-5.600 Z6.824 A16.2784 
N440 X-300.036 Y-5.245 Z6.932 A17.1111 
N441 X-300.115 Y-4.886 Z7.047 A17.8890 
N442 X-300.197 Y-4.524 Z7.168 A18.6064 
N443 X-300.280 Y-4.158 Z7.295 A19.2575 
N444 X-300.364 Y-3.788 Z7.428 A19.8377 
N445 X-300.450 Y-3.415 Z7.567 A20.3428 
N446 X-300.537 Y-3.039 Z7.710 A20.7700 
N447 X-300.625 Y-2.661 Z7.857 A21.1173 
N448 X-300.713 Y-2.281 Z8.007 A21.3841 
N449 X-300.802 Y-1.901 Z8.159 A21.5709 
N450 X-300.891 Y-1.521 Z8.312 A21.6791 
N451 X-300.980 Y-1.143 Z8.464 A21.7108 
N452 X-301.067 Y-0.767 Z8.616 A21.6683 
N453 X-301.154 Y-0.396 Z8.765 A21.5532 
N454 X-301.240 Y-0.030 Z8.911 A21.3655 
N455 X-301.323 Y0.330 Z9.053 A21.1032 
N456 X-301.404 Y0.681 Z9.189 A20.7614 
N457 X-301.483 Y1.024 Z9.320 A20.3338 
N458 X-301.559 Y1.356 Z9.443 A19.8133 
N459 X-301.632 Y1.676 Z9.559 A19.1941 
N460 X-301.701 Y1.985 Z9.667 A18.4729 
N461 X-301.766 Y2.281 Z9.766 A17.6495 
N462 X-301.828 Y2.564 Z9.855 A16.7249 
N463 X-301.886 Y2.833 Z9.935 A15.6999 
N464 X-301.940 Y3.087 Z10.006 A14.5737 
N465 X-301.990 Y3.327 Z10.067 A13.3457 
N466 X-302.036 Y3.552 Z10.119 A12.0198 
N467 X-302.078 Y3.762 Z10.162 A10.6043 
N468 X-302.117 Y3.958 Z10.198 A9.1011 
N469 X-302.151 Y4.140 Z10.226 A7.4997 
N470 X-302.183 Y4.308 Z10.246 A5.7818 
N471 X-302.211 Y4.463 Z10.261 A3.9308 
N472 X-302.235 Y4.605 Z10.270 A1.9332 
N473 X-302.257 Y4.735 Z10.273 A359.7743 
N474 X-302.277 Y4.855 Z10.272 A357.4366 
N475 X-302.293 Y4.964 Z10.266 A354.9027 
N476 X-302.308 Y5.065 Z10.256 A352.1600 
N477 X-302.320 Y5.156 Z10.242 A349.2062 
N478 X-302.331 Y5.240 Z10.224 A346.0545 
N479 X-302.340 Y5.317 Z10.204 A342.7324 
N480 X-302.347 Y5.388 Z10.180 A339.2755 
N481 X-302.353 Y5.452 Z10.153 A335.7198 
N482 X-302.358 Y5.512 Z10.124 A332.0964 
N483 X-302.362 Y5.567 Z10.093 A328.4274 
N484 X-302.365 Y5.618 Z10.060 A324.7255 
N485 X-302.367 Y5.665 Z10.024 A320.9948 
N486 X-302.369 Y5.709 Z9.986 A317.2341 
N487 X-302.370 Y5.751 Z9.945 A313.4409 
N488 X-302.370 Y5.790 Z9.901 A309.6153 
N489 X-302.369 Y5.827 Z9.854 A305.7645 
N490 X-302.367 Y5.861 Z9.802 A301.9063 
N491 X-302.364 Y5.893 Z9.746 A298.0716 
N492 X-302.361 Y5.923 Z9.685 A294.3024 
N493 X-302.356 Y5.949 Z9.619 A290.6481 
N494 X-302.350 Y5.973 Z9.546 A287.1601 
N495 X-302.342 Y5.994 Z9.467 A283.8842 
N496 X-302.333 Y6.012 Z9.381 A280.8532 
N497 X-302.321 Y6.026 Z9.287 A278.0800 
N498 X-302.308 Y6.037 Z9.184 A275.5592 
N499 X-302.293 Y6.044 Z9.072 A273.2728 
N500 X-302.276 Y6.047 Z8.950 A271.1946 
N501 X-302.256 Y6.046 Z8.817 A269.2954 
N502 X-302.234 Y6.041 Z8.673 A267.5464 
N503 X-302.209 Y6.031 Z8.518 A265.9218 
N504 X-302.181 Y6.016 Z8.351 A264.3980 
N505 X-302.151 Y5.995 Z8.172 A262.9510 
N506 X-302.117 Y5.969 Z7.982 A261.5599 
N507 X-302.081 Y5.936 Z7.780 A260.2137 
N508 X-302.042 Y5.896 Z7.568 A258.9109 
N509 X-302.001 Y5.849 Z7.345 A257.6511 
N510 X-301.956 Y5.795 Z7.113 A256.4304 
N511 X-301.909 Y5.734 Z6.872 A255.2428 
N512 X-301.860 Y5.665 Z6.624 A254.0842 
N513 X-301.808 Y5.590 Z6.369 A252.9521 
N514 X-301.754 Y5.506 Z6.108 A251.8448 
N515 X-301.698 Y5.416 Z5.843 A250.7589 
N516 X-301.641 Y5.319 Z5.574 A249.6893 
N517 X-301.582 Y5.216 Z5.302 A248.6283 
N518 X-301.521 Y5.106 Z5.028 A247.5679 
N519 X-301.460 Y4.990 Z4.754 A246.5008 
N520 X-301.397 Y4.868 Z4.480 A245.4215 
N521 X-301.334 Y4.740 Z4.207 A244.3274 
N522 X-301.270 Y4.607 Z3.935 A243.2178 
N523 X-301.205 Y4.468 Z3.666 A242.0928 
N524 X-301.140 Y4.324 Z3.400 A240.9528 
N525 X-301.075 Y4.175 Z3.138 A239.7970 
N526 X-301.009 Y4.022 Z2.881 A238.6235 
N527 X-300.944 Y3.865 Z2.628 A237.4292 
N528 X-300.879 Y3.703 Z2.380 A236.2109 
N529 X-300.814 Y3.538 Z2.137 A234.9659 
N530 X-300.749 Y3.368 Z1.901 A233.6918 
N531 X-300.684 Y3.196 Z1.670 A232.3872 
N532 X-300.620 Y3.020 Z1.446 A231.0510 
N533 X-300.557 Y2.840 Z1.228 A229.6830 
N534 X-300.494 Y2.658 Z1.018 A228.2830 
N535 X-300.432 Y2.472 Z0.814 A226.8513 
N536 X-300.370 Y2.284 Z0.617 A225.3884 
N537 X-300.309 Y2.093 Z0.428 A223.8949 
N538 X-300.248 Y1.899 Z0.246 A222.3715 
N539 X-300.188 Y1.703 Z0.071 A220.8193 
N540 X-300.129 Y1.504 Z-0.097 A219.2394 
N541 X-300.071 Y1.302 Z-0.258 A217.6332 
N542 X-300.013 Y1.098 Z-0.411 A216.0024 
N543 X-299.956 Y0.892 Z-0.557 A214.3488 
N544 X-299.900 Y0.683 Z-0.695 A212.6745 
N545 X-299.845 Y0.472 Z-0.826 A210.9816 
N546 X-299.790 Y0.259 Z-0.951 A209.2723 
N547 X-299.736 Y0.043 Z-1.068 A207.5490 
N548 X-299.682 Y-0.175 Z-1.177 A205.8140 
N549 X-299.630 Y-0.396 Z-1.280 A204.0699 
N550 X-299.578 Y-0.619 Z-1.376 A202.3195 
N551 X-299.526 Y-0.845 Z-1.465 A200.5654 
N552 X-299.475 Y-1.073 Z-1.546 A198.8106 
N553 X-299.425 Y-1.304 Z-1.621 A197.0580 
N554 X-299.376 Y-1.538 Z-1.689 A195.3103 
N555 X-299.327 Y-1.774 Z-1.749 A193.5702 
N556 X-299.278 Y-2.013 Z-1.803 A191.8403 
N557 X-299.230 Y-2.255 Z-1.850 A190.1232 
N558 X-299.183 Y-2.500 Z-1.889 A188.4214 
N559 X-299.136 Y-2.748 Z-1.922 A186.7375 
N560 X-299.090 Y-2.999 Z-1.948 A185.0739 
N561 X-299.044 Y-3.253 Z-1.966 A183.4330 
N562 X-298.999 Y-3.510 Z-1.978 A181.8170 
N563 X-298.954 Y-3.771 Z-1.982 A180.2278 
N564 X-298.910 Y-4.034 Z-1.979 A178.6673 
N565 X-298.866 Y-4.302 Z-1.968 A177.1371 
N566 X-298.823 Y-4.572 Z-1.951 A175.6385 
N567 X-298.781 Y-4.846 Z-1.926 A174.1729 
N568 X-298.739 Y-5.123 Z-1.893 A172.7414 
N569 X-298.697 Y-5.404 Z-1.853 A171.3451 
N570 X-298.656 Y-5.687 Z-1.806 A169.9846 
N571 X-298.616 Y-5.975 Z-1.751 A168.6606 
N572 X-298.576 Y-6.265 Z-1.689 A167.3733 
N573 X-298.537 Y-6.559 Z-1.619 A166.1229 
N574 X-298.498 Y-6.856 Z-1.542 A164.9094 
N575 X-298.460 Y-7.156 Z-1.457 A163.7327 
N576 X-298.422 Y-7.459 Z-1.364 A162.5924 
N577 X-298.385 Y-7.765 Z-1.264 A161.4880 
N578 X-298.349 Y-8.075 Z-1.156 A160.4189 
N579 X-298.313 Y-8.387 Z-1.041 A159.3847 
N580 X-298.278 Y-8.702 Z-0.919 A158.3847 
N581 X-298.244 Y-9.019 Z-0.789 A157.4187 
N582 X-298.210 Y-9.339 Z-0.652 A156.4862 
N583 X-298.177 Y-9.662 Z-0.508 A155.5871 
N584 X-298.145 Y-9.987 Z-0.357 A154.7214 
N585 X-298.113 Y-10.315 Z-0.198 A153.8891 
N586 X-298.082 Y-10.645 Z-0.033 A153.0903 
N587 X-298.052 Y-10.977 Z0.140 A152.3251 
N588 X-298.022 Y-11.311 Z0.319 A151.5933 
N589 X-297.993 Y-11.647 Z0.504 A150.8945 
N590 X-297.965 Y-11.985 Z0.696 A150.2279 
N591 X-297.937 Y-12.325 Z0.894 A149.5922 
N592 X-297.909 Y-12.667 Z1.098 A148.9861 
N593 X-297.883 Y-13.011 Z1.307 A148.4080 
N594 X-297.857 Y-13.356 Z1.523 A147.8568 
N595 X-297.831 Y-13.703 Z1.744 A147.3311 
N596 X-297.806 Y-14.052 Z1.971 A146.8302 
N597 X-297.782 Y-14.402 Z2.202 A146.3532 
N598 X-297.758 Y-14.753 Z2.439 A145.8993 
N599 X-297.735 Y-15.106 Z2.680 A145.4679 
N600 X-297.712 Y-15.460 Z2.927 A145.0584 
N601 X-297.689 Y-15.816 Z3.177 A144.6703 
N602 X-297.667 Y-16.172 Z3.432 A144.3031 
N603 X-297.646 Y-16.529 Z3.691 A143.9564 
N604 X-297.625 Y-16.887 Z3.954 A143.6301 
N605 X-297.604 Y-17.246 Z4.221 A143.3240 
N606 X-297.584 Y-17.606 Z4.491 A143.0380 
N607 X-297.564 Y-17.965 Z4.763 A142.7722 
N608 X-297.545 Y-18.325 Z5.038 A142.5261 
N609 X-297.526 Y-18.683 Z5.315 A142.2990 
N610 X-297.507 Y-19.040 Z5.593 A142.0897 
N611 X-297.489 Y-19.396 Z5.871 A141.8968 
N612 X-297.471 Y-19.748 Z6.148 A141.7192 
N613 X-297.454 Y-20.095 Z6.424 A141.5560 
N614 X-297.437 Y-20.438 Z6.697 A141.4071 
N615 X-297.421 Y-20.773 Z6.966 A141.2725 
N616 X-297.406 Y-21.099 Z7.228 A141.1524 
N617 X-297.391 Y-21.415 Z7.483 A141.0467 
N618 X-297.376 Y-21.718 Z7.730 A140.9548 
N619 X-297.363 Y-22.007 Z7.965 A140.8755 
N620 X-297.350 Y-22.281 Z8.188 A140.8074 
N621 X-297.339 Y-22.537 Z8.397 A140.7488 
N622 X-297.328 Y-22.774 Z8.592 A140.6982 
N623 X-297.318 Y-22.992 Z8.770 A140.6540 
N624 X-297.309 Y-23.190 Z8.932 A140.6150 
N625 X-297.301 Y-23.367 Z9.078 A140.5801 
N626 X-297.294 Y-23.524 Z9.207 A140.5478 
N627 X-297.287 Y-23.661 Z9.320 A140.5162 
N628 X-297.282 Y-23.780 Z9.418 A140.4818 
N629 X-297.278 Y-23.881 Z9.502 A140.4396 
N630 X-297.274 Y-23.967 Z9.572 A140.3823 
N631 X-297.271 Y-24.038 Z9.631 A140.3023 
N632 X-297.268 Y-24.096 Z9.679 A140.1306 
N633 X-297.266 Y-24.145 Z9.720 A139.5892 
N634 X-297.265 Y-24.185 Z9.755 A138.1927 
N635 X-297.264 Y-24.220 Z9.788 A135.1320 
N636 X-297.264 Y-24.252 Z9.823 A129.3450 
N637 X-297.264 Y-24.279 Z9.861 A121.3704 
N638 X-297.266 Y-24.299 Z9.899 A113.2925 
N639 X-297.267 Y-24.311 Z9.934 A105.4890 
N640 X-297.269 Y-24.317 Z9.966 A98.6043 
N641 X-297.270 Y-24.320 Z9.993 A92.7421 
N642 X-297.272 Y-24.319 Z10.017 A87.8529 
N643 X-297.274 Y-24.317 Z10.038 A83.4330 
N644 X-297.275 Y-24.314 Z10.057 A79.4090 
N645 X-297.277 Y-24.310 Z10.075 A75.6938 
N646 X-297.278 Y-24.305 Z10.091 A72.2100 
N647 X-297.280 Y-24.300 Z10.107 A68.8922 
N648 X-297.281 Y-24.294 Z10.122 A65.6884 
N649 X-297.283 Y-24.287 Z10.136 A62.5588 
N650 X-297.285 Y-24.279 Z10.150 A59.4728 
N651 X-297.286 Y-24.270 Z10.164 A56.4062 
N652 X-297.288 Y-24.261 Z10.177 A53.3379 
N653 X-297.290 Y-24.251 Z10.189 A50.2476 
N654 X-297.292 Y-24.241 Z10.201 A47.1126 
N655 X-297.293 Y-24.229 Z10.213 A43.9055 
N656 X-297.295 Y-24.217 Z10.224 A40.5905 
N657 X-297.297 Y-24.204 Z10.235 A37.1207 
N658 X-297.299 Y-24.189 Z10.246 A33.4349 
N659 X-297.301 Y-24.173 Z10.256 A29.4552 
N660 X-297.303 Y-24.154 Z10.266 A25.0921 
N661 X-297.305 Y-24.133 Z10.275 A20.2481 
N662 X-297.307 Y-24.109 Z10.283 A14.8505 
N663 X-297.310 Y-24.079 Z10.290 A8.3352 
N664 X-297.313 Y-24.044 Z10.293 A1.2602 
N665 X-297.316 Y-24.006 Z10.291 A353.8464 
N666 X-297.319 Y-23.963 Z10.284 A346.5218 
N667 X-297.323 Y-23.919 Z10.269 A340.1388 
N668 X-297.326 Y-23.876 Z10.250 A335.9696 
N669 X-297.330 Y-23.831 Z10.228 A333.8368 
N670 X-297.334 Y-23.780 Z10.200 A332.6162 
N671 X-297.339 Y-23.720 Z10.167 A332.0681 
N672 X-297.345 Y-23.647 Z10.127 A331.7716 
N673 X-297.353 Y-23.562 Z10.080 A331.6459 
N674 X-297.362 Y-23.460 Z10.025 A331.6319 
N675 X-297.372 Y-23.341 Z9.960 A331.6914 
N676 X-297.384 Y-23.204 Z9.886 A331.8022 
N677 X-297.398 Y-23.048 Z9.802 A331.9523 
N678 X-297.414 Y-22.871 Z9.708 A332.1357 
N679 X-297.432 Y-22.675 Z9.604 A332.3489 
N680 X-297.451 Y-22.458 Z9.490 A332.5904 
N681 X-297.473 Y-22.222 Z9.368 A332.8602 
N682 X-297.496 Y-21.967 Z9.238 A333.1599 
N683 X-297.522 Y-21.696 Z9.101 A333.4921 
N684 X-297.549 Y-21.409 Z8.958 A333.8601 
N685 X-297.577 Y-21.108 Z8.811 A334.2668 
N686 X-297.607 Y-20.796 Z8.660 A334.7138 
N687 X-297.638 Y-20.473 Z8.509 A335.2008 
N688 X-297.671 Y-20.142 Z8.357 A335.7253 
N689 X-297.704 Y-19.804 Z8.205 A336.2842 
N690 X-297.738 Y-19.461 Z8.056 A336.8738 
N691 X-297.773 Y-19.114 Z7.909 A337.4915 
N692 X-297.808 Y-18.764 Z7.766 A338.1362 
N693 X-297.844 Y-18.413 Z7.627 A338.8074 
N694 X-297.880 Y-18.061 Z7.492 A339.5054 
N695 X-297.916 Y-17.709 Z7.362 A340.2306 
N696 X-297.952 Y-17.357 Z7.238 A340.9834 
N697 X-297.988 Y-17.006 Z7.119 A341.7637 
N698 X-298.024 Y-16.656 Z7.005 A342.5714 
N699 X-298.059 Y-16.307 Z6.898 A343.4057 
N700 X-298.094 Y-15.960 Z6.797 A344.2655 
N701 X-298.129 Y-15.614 Z6.701 A345.1495 
N702 X-298.163 Y-15.269 Z6.613 A346.0563 
N703 X-298.197 Y-14.927 Z6.530 A346.9850 
N704 X-298.231 Y-14.585 Z6.453 A347.9346 
N705 X-298.264 Y-14.245 Z6.383 A348.9045 
N706 X-298.297 Y-13.907 Z6.319 A349.8941 
N707 X-298.329 Y-13.570 Z6.262 A350.9030 
N708 X-298.362 Y-13.234 Z6.211 A351.9304 
N709 X-298.394 Y-12.900 Z6.166 A352.9753 
N710 X-298.427 Y-12.567 Z6.128 A354.0364 
N711 X-298.460 Y-12.235 Z6.096 A355.1125 
N712 X-298.494 Y-11.905 Z6.071 A356.2018 
N713 X-298.528 Y-11.575 Z6.052 A357.3026 
N714 X-298.563 Y-11.246 Z6.039 A358.4129 
N715 X-298.599 Y-10.917 Z6.033 A359.5307 
N716 X-298.636 Y-10.589 Z6.034 A0.6536 
N717 X-298.674 Y-10.262 Z6.041 A1.7794 
N718 X-298.713 Y-9.934 Z6.054 A2.9055 
N719 X-298.754 Y-9.606 Z6.074 A4.0295 
N720 X-298.796 Y-9.278 Z6.101 A5.1488 
N721 X-298.840 Y-8.949 Z6.134 A6.2609 
N722 X-298.885 Y-8.619 Z6.173 A7.3630 
N723 X-298.932 Y-8.288 Z6.220 A8.4528 
N724 X-298.981 Y-7.956 Z6.273 A9.5279 
N725 X-299.032 Y-7.621 Z6.332 A10.5856 
N726 X-299.084 Y-7.285 Z6.399 A11.6234 
N727 X-299.138 Y-6.946 Z6.472 A12.6381 
N728 X-299.194 Y-6.604 Z6.553 A13.6259 
N729 X-299.252 Y-6.259 Z6.640 A14.5821 
N730 X-299.311 Y-5.911 Z6.735 A15.5014 
N731 X-299.373 Y-5.559 Z6.836 A16.3779 
N732 X-299.436 Y-5.203 Z6.945 A17.2052 
N733 X-299.502 Y-4.844 Z7.061 A17.9770 
N734 X-299.569 Y-4.480 Z7.183 A18.6875 
N735 X-299.638 Y-4.113 Z7.311 A19.3311 
N736 X-299.708 Y-3.742 Z7.445 A19.9030 
N737 X-299.780 Y-3.368 Z7.584 A20.3993 
N738 X-299.854 Y-2.992 Z7.728 A20.8171 
N739 X-299.928 Y-2.613 Z7.876 A21.1548 
N740 X-300.003 Y-2.232 Z8.027 A21.4117 
N741 X-300.079 Y-1.851 Z8.179 A21.5884 
N742 X-300.154 Y-1.471 Z8.332 A21.6865 
N743 X-300.230 Y-1.092 Z8.485 A21.7082 
N744 X-300.306 Y-0.716 Z8.636 A21.6557 
N745 X-300.381 Y-0.345 Z8.785 A21.5304 
N746 X-300.454 Y0.021 Z8.931 A21.3321 
N747 X-300.526 Y0.380 Z9.072 A21.0584 
N748 X-300.596 Y0.731 Z9.208 A20.7042 
N749 X-300.663 Y1.073 Z9.338 A20.2627 
N750 X-300.728 Y1.404 Z9.461 A19.7272 
N751 X-300.791 Y1.723 Z9.576 A19.0920 
N752 X-300.850 Y2.031 Z9.682 A18.3544 
N753 X-300.906 Y2.325 Z9.780 A17.5145 
N754 X-300.959 Y2.606 Z9.868 A16.5734 
N755 X-301.008 Y2.873 Z9.947 A15.5318 
N756 X-301.054 Y3.125 Z10.016 A14.3887 
N757 X-301.096 Y3.363 Z10.076 A13.1441 
N758 X-301.135 Y3.586 Z10.127 A11.8028 
N759 X-301.170 Y3.794 Z10.169 A10.3731 
N760 X-301.202 Y3.988 Z10.203 A8.8552 
N761 X-301.231 Y4.168 Z10.229 A7.2367 
N762 X-301.257 Y4.333 Z10.249 A5.4992 
N763 X-301.280 Y4.486 Z10.263 A3.6269 
N764 X-301.300 Y4.626 Z10.271 A1.6065 
N765 X-301.318 Y4.755 Z10.273 A359.4230 
N766 X-301.334 Y4.873 Z10.271 A357.0588 
N767 X-301.347 Y4.980 Z10.264 A354.4970 
N768 X-301.359 Y5.079 Z10.254 A351.7264 
N769 X-301.368 Y5.169 Z10.239 A348.7469 
N770 X-301.376 Y5.252 Z10.221 A345.5740 
N771 X-301.383 Y5.328 Z10.200 A342.2367 
N772 X-301.388 Y5.397 Z10.176 A338.7711 
N773 X-301.392 Y5.461 Z10.149 A335.2122 
N774 X-301.396 Y5.520 Z10.120 A331.5895 
N775 X-301.398 Y5.574 Z10.089 A327.9236 
N776 X-301.399 Y5.624 Z10.055 A324.2255 
N777 X-301.400 Y5.671 Z10.019 A320.4980 
N778 X-301.400 Y5.715 Z9.981 A316.7394 
N779 X-301.399 Y5.756 Z9.940 A312.9470 
N780 X-301.397 Y5.795 Z9.895 A309.1216 
N781 X-301.395 Y5.831 Z9.847 A305.2715 
N782 X-301.391 Y5.865 Z9.795 A301.4164 
N783 X-301.387 Y5.897 Z9.739 A297.5886 
N784 X-301.381 Y5.926 Z9.677 A293.8317 
N785 X-301.374 Y5.953 Z9.610 A290.1958 
N786 X-301.366 Y5.976 Z9.537 A286.7322 
N787 X-301.356 Y5.997 Z9.457 A283.4856 
N788 X-301.344 Y6.014 Z9.369 A280.4867 
N789 X-301.329 Y6.028 Z9.274 A277.7460 
N790 X-301.313 Y6.038 Z9.170 A275.2560 
N791 X-301.294 Y6.044 Z9.057 A272.9974 
N792 X-301.273 Y6.047 Z8.933 A270.9437 
N793 X-301.248 Y6.046 Z8.799 A269.0652 
N794 X-301.221 Y6.040 Z8.654 A267.3336 
N795 X-301.191 Y6.029 Z8.497 A265.7234 
N796 X-301.158 Y6.014 Z8.329 A264.2111 
N797 X-301.121 Y5.992 Z8.149 A262.7727 
N798 X-301.082 Y5.965 Z7.957 A261.3882 
N799 X-301.039 Y5.931 Z7.754 A260.0482 
N800 X-300.993 Y5.891 Z7.540 A258.7517 
N801 X-300.943 Y5.843 Z7.317 A257.4980 
N802 X-300.891 Y5.788 Z7.084 A256.2828 
N803 X-300.836 Y5.726 Z6.842 A255.1000 
N804 X-300.778 Y5.657 Z6.593 A253.9459 
N805 X-300.717 Y5.580 Z6.338 A252.8183 
N806 X-300.654 Y5.496 Z6.077 A251.7151 
N807 X-300.589 Y5.405 Z5.811 A250.6329 
N808 X-300.522 Y5.308 Z5.542 A249.5662 
N809 X-300.454 Y5.203 Z5.271 A248.5073 
N810 X-300.384 Y5.093 Z4.997 A247.4481 
N811 X-300.312 Y4.976 Z4.723 A246.3815 
N812 X-300.240 Y4.854 Z4.450 A245.3025 
N813 X-300.166 Y4.726 Z4.177 A244.2085 
N814 X-300.092 Y4.592 Z3.906 A243.0991 
N815 X-300.018 Y4.453 Z3.638 A241.9744 
N816 X-299.943 Y4.309 Z3.373 A240.8347 
N817 X-299.868 Y4.160 Z3.112 A239.6792 
N818 X-299.793 Y4.007 Z2.855 A238.5057 
N819 X-299.718 Y3.849 Z2.603 A237.3111 
N820 X-299.643 Y3.687 Z2.356 A236.0923 
N821 X-299.568 Y3.522 Z2.114 A234.8465 
N822 X-299.494 Y3.353 Z1.879 A233.5715 
N823 X-299.420 Y3.180 Z1.649 A232.2659 
N824 X-299.347 Y3.004 Z1.426 A230.9287 
N825 X-299.274 Y2.824 Z1.209 A229.5595 
N826 X-299.202 Y2.642 Z1.000 A228.1584 
N827 X-299.131 Y2.456 Z0.797 A226.7257 
N828 X-299.060 Y2.268 Z0.601 A225.2617 
N829 X-298.990 Y2.077 Z0.412 A223.7671 
N830 X-298.921 Y1.883 Z0.231 A222.2427 
N831 X-298.852 Y1.686 Z0.056 A220.6895 
N832 X-298.785 Y1.487 Z-0.111 A219.1086 
N833 X-298.718 Y1.286 Z-0.270 A217.5015 
N834 X-298.652 Y1.082 Z-0.423 A215.8698 
N835 X-298.587 Y0.875 Z-0.568 A214.2154 
N836 X-298.522 Y0.666 Z-0.706 A212.5404 
N837 X-298.459 Y0.455 Z-0.837 A210.8469 
N838 X-298.396 Y0.242 Z-0.960 A209.1371 
N839 X-298.333 Y0.026 Z-1.076 A207.4134 
N840 X-298.272 Y-0.193 Z-1.186 A205.6782 
N841 X-298.211 Y-0.413 Z-1.288 A203.9341 
N842 X-298.151 Y-0.637 Z-1.383 A202.1837 
N843 X-298.092 Y-0.863 Z-1.471 A200.4299 
N844 X-298.033 Y-1.091 Z-1.552 A198.6756 
N845 X-297.974 Y-1.322 Z-1.626 A196.9237 
N846 X-297.917 Y-1.556 Z-1.693 A195.1770 
N847 X-297.860 Y-1.792 Z-1.754 A193.4380 
N848 X-297.803 Y-2.031 Z-1.807 A191.7095 
N849 X-297.747 Y-2.273 Z-1.853 A189.9939 
N850 X-297.692 Y-2.518 Z-1.892 A188.2940 
N851 X-297.637 Y-2.766 Z-1.924 A186.6121 
N852 X-297.582 Y-3.018 Z-1.949 A184.9508 
N853 X-297.528 Y-3.272 Z-1.967 A183.3124 
N854 X-297.474 Y-3.529 Z-1.978 A181.6991 
N855 X-297.421 Y-3.790 Z-1.982 A180.1128 
N856 X-297.368 Y-4.054 Z-1.978 A178.5554 
N857 X-297.316 Y-4.321 Z-1.967 A177.0283 
N858 X-297.264 Y-4.591 Z-1.949 A175.5331 
N859 X-297.212 Y-4.865 Z-1.924 A174.0710 
N860 X-297.161 Y-5.142 Z-1.891 A172.6430 
N861 X-297.110 Y-5.423 Z-1.850 A171.2503 
N862 X-297.060 Y-5.707 Z-1.803 A169.8935 
N863 X-297.010 Y-5.994 Z-1.747 A168.5731 
N864 X-296.961 Y-6.284 Z-1.685 A167.2896 
N865 X-296.912 Y-6.578 Z-1.614 A166.0429 
N866 X-296.863 Y-6.875 Z-1.536 A164.8331 
N867 X-296.815 Y-7.175 Z-1.451 A163.6599 
N868 X-296.767 Y-7.478 Z-1.358 A162.5232 
N869 X-296.720 Y-7.784 Z-1.258 A161.4222 
N870 X-296.673 Y-8.093 Z-1.150 A160.3565 
N871 X-296.626 Y-8.405 Z-1.035 A159.3256 
N872 X-296.581 Y-8.719 Z-0.912 A158.3289 
N873 X-296.535 Y-9.037 Z-0.782 A157.3659 
N874 X-296.490 Y-9.357 Z-0.645 A156.4365 
N875 X-296.446 Y-9.679 Z-0.500 A155.5404 
N876 X-296.402 Y-10.004 Z-0.349 A154.6776 
N877 X-296.358 Y-10.331 Z-0.190 A153.8480 
N878 X-296.316 Y-10.661 Z-0.024 A153.0519 
N879 X-296.273 Y-10.993 Z0.148 A152.2894 
N880 X-296.231 Y-11.326 Z0.327 A151.5601 
N881 X-296.190 Y-11.662 Z0.512 A150.8638 
N882 X-296.149 Y-12.000 Z0.704 A150.1995 
N883 X-296.108 Y-12.340 Z0.902 A149.5660 
N884 X-296.068 Y-12.681 Z1.106 A148.9618 
N885 X-296.029 Y-13.025 Z1.316 A148.3857 
N886 X-295.990 Y-13.370 Z1.531 A147.8361 
N887 X-295.951 Y-13.716 Z1.752 A147.3122 
N888 X-295.913 Y-14.064 Z1.979 A146.8128 
N889 X-295.875 Y-14.414 Z2.210 A146.3372 
N890 X-295.837 Y-14.765 Z2.447 A145.8847 
N891 X-295.800 Y-15.117 Z2.688 A145.4546 
N892 X-295.764 Y-15.471 Z2.934 A145.0463 
N893 X-295.727 Y-15.826 Z3.185 A144.6592 
N894 X-295.691 Y-16.182 Z3.439 A144.2931 
N895 X-295.656 Y-16.539 Z3.698 A143.9474 
N896 X-295.621 Y-16.896 Z3.961 A143.6220 
N897 X-295.586 Y-17.255 Z4.227 A143.3167 
N898 X-295.551 Y-17.614 Z4.497 A143.0316 
N899 X-295.517 Y-17.973 Z4.769 A142.7665 
N900 X-295.483 Y-18.332 Z5.044 A142.5211 
N901 X-295.449 Y-18.690 Z5.320 A142.2946 
N902 X-295.416 Y-19.047 Z5.598 A142.0859 
N903 X-295.384 Y-19.402 Z5.876 A141.8935 
N904 X-295.352 Y-19.753 Z6.153 A141.7163 
N905 X-295.320 Y-20.101 Z6.429 A141.5535 
N906 X-295.289 Y-20.443 Z6.701 A141.4049 
N907 X-295.259 Y-20.777 Z6.969 A141.2706 
N908 X-295.230 Y-21.103 Z7.232 A141.1509 
N909 X-295.202 Y-21.418 Z7.487 A141.0454 
N910 X-295.176 Y-21.721 Z7.732 A140.9537 
N911 X-295.150 Y-22.010 Z7.967 A140.8747 
N912 X-295.126 Y-22.283 Z8.190 A140.8067 
N913 X-295.104 Y-22.539 Z8.399 A140.7483 
N914 X-295.083 Y-22.776 Z8.593 A140.6977 
N915 X-295.064 Y-22.994 Z8.772 A140.6536 
N916 X-295.047 Y-23.191 Z8.934 A140.6147 
N917 X-295.032 Y-23.368 Z9.079 A140.5798 
N918 X-295.018 Y-23.525 Z9.208 A140.5476 
N919 X-295.006 Y-23.662 Z9.321 A140.5159 
N920 X-294.996 Y-23.781 Z9.419 A140.4815 
N921 X-294.987 Y-23.882 Z9.502 A140.4393 
N922 X-294.980 Y-23.967 Z9.572 A140.3818 
N923 X-294.974 Y-24.038 Z9.631 A140.3016 
N924 X-294.969 Y-24.096 Z9.679 A140.1296 
N925 X-294.965 Y-24.145 Z9.720 A139.5879 
N926 X-294.962 Y-24.185 Z9.755 A138.1927 
N927 X-294.960 Y-24.220 Z9.788 A135.1410 
N928 X-294.958 Y-24.252 Z9.823 A129.3762 
N929 X-294.958 Y-24.279 Z9.861 A121.4252 
N930 X-294.959 Y-24.299 Z9.898 A113.3629 
N931 X-294.960 Y-24.311 Z9.934 A105.5708 
N932 X-294.961 Y-24.317 Z9.965 A98.6914 
N933 X-294.962 Y-24.320 Z9.993 A92.8319 
N934 X-294.964 Y-24.319 Z10.016 A87.9450 
N935 X-294.965 Y-24.318 Z10.037 A83.5271 
N936 X-294.966 Y-24.314 Z10.057 A79.5067 
N937 X-294.968 Y-24.310 Z10.074 A75.7963 
N938 X-294.969 Y-24.306 Z10.091 A72.3179 
N939 X-294.970 Y-24.300 Z10.106 A69.0063 
N940 X-294.972 Y-24.294 Z10.121 A65.8098 
N941 X-294.973 Y-24.287 Z10.136 A62.6886 
N942 X-294.975 Y-24.279 Z10.150 A59.6119 
N943 X-294.976 Y-24.271 Z10.163 A56.5557 
N944 X-294.978 Y-24.262 Z10.176 A53.4992 
N945 X-294.979 Y-24.252 Z10.189 A50.4225 
N946 X-294.981 Y-24.241 Z10.201 A47.3039 
N947 X-294.982 Y-24.230 Z10.212 A44.1166 
N948 X-294.984 Y-24.218 Z10.224 A40.8260 
N949 X-294.985 Y-24.205 Z10.234 A37.3866 
N950 X-294.987 Y-24.190 Z10.245 A33.7395 
N951 X-294.989 Y-24.174 Z10.255 A29.8103 
N952 X-294.990 Y-24.156 Z10.265 A25.5093 
N953 X-294.992 Y-24.135 Z10.274 A20.7434 
N954 X-294.994 Y-24.111 Z10.282 A15.4333 
N955 X-294.997 Y-24.082 Z10.289 A9.0116 
N956 X-294.999 Y-24.048 Z10.293 A2.0136 
N957 X-295.002 Y-24.010 Z10.292 A354.6310 
N958 X-295.004 Y-23.968 Z10.285 A347.2694 
N959 X-295.007 Y-23.924 Z10.271 A340.7440 
N960 X-295.009 Y-23.882 Z10.253 A336.3742 
N961 X-295.011 Y-23.837 Z10.231 A334.0880 
N962 X-295.014 Y-23.787 Z10.204 A332.7617 
N963 X-295.017 Y-23.728 Z10.172 A332.1542 
N964 X-295.020 Y-23.657 Z10.133 A331.8177 
N965 X-295.025 Y-23.573 Z10.087 A331.6664 
N966 X-295.030 Y-23.474 Z10.032 A331.6360 
N967 X-295.036 Y-23.358 Z9.969 A331.6848 
N968 X-295.044 Y-23.223 Z9.896 A331.7882 
N969 X-295.052 Y-23.069 Z9.813 A331.9327 
N970 X-295.062 Y-22.895 Z9.720 A332.1113 
N971 X-295.073 Y-22.701 Z9.618 A332.3204 
N972 X-295.085 Y-22.487 Z9.505 A332.5580 
N973 X-295.099 Y-22.253 Z9.384 A332.8240 
N974 X-295.114 Y-22.001 Z9.255 A333.1195 
N975 X-295.130 Y-21.732 Z9.119 A333.4472 
N976 X-295.148 Y-21.447 Z8.977 A333.8102 
N977 X-295.167 Y-21.148 Z8.830 A334.2115 
N978 X-295.187 Y-20.837 Z8.680 A334.6529 
N979 X-295.208 Y-20.516 Z8.529 A335.1344 
N980 X-295.231 Y-20.186 Z8.377 A335.6538 
N981 X-295.254 Y-19.849 Z8.225 A336.2077 
N982 X-295.279 Y-19.507 Z8.076 A336.7927 
N983 X-295.305 Y-19.161 Z7.929 A337.4060 
N984 X-295.332 Y-18.812 Z7.785 A338.0461 
N985 X-295.360 Y-18.462 Z7.646 A338.7125 
N986 X-295.388 Y-18.110 Z7.511 A339.4055 
N987 X-295.418 Y-17.759 Z7.380 A340.1253 
N988 X-295.448 Y-17.408 Z7.255 A340.8723 
N989 X-295.479 Y-17.057 Z7.136 A341.6468 
N990 X-295.511 Y-16.708 Z7.022 A342.4483 
N991 X-295.544 Y-16.360 Z6.914 A343.2763 
N992 X-295.577 Y-16.014 Z6.812 A344.1296 
N993 X-295.612 Y-15.669 Z6.716 A345.0071 
N994 X-295.647 Y-15.325 Z6.626 A345.9074 
N995 X-295.683 Y-14.983 Z6.543 A346.8293 
N996 X-295.720 Y-14.643 Z6.466 A347.7722 
N997 X-295.758 Y-14.304 Z6.395 A348.7353 
N998 X-295.796 Y-13.966 Z6.330 A349.7181 
N999 X-295.835 Y-13.631 Z6.272 A350.7202 
N1000 X-295.876 Y-13.296 Z6.220 A351.7410 
N1001 X-295.917 Y-12.963 Z6.174 A352.7794 
N1002 X-295.958 Y-12.630 Z6.135 A353.8346 
N1003 X-296.001 Y-12.299 Z6.102 A354.9051 
N1004 X-296.045 Y-11.969 Z6.075 A355.9895 
N1005 X-296.090 Y-11.640 Z6.055 A357.0860 
N1006 X-296.135 Y-11.311 Z6.041 A358.1929 
N1007 X-296.182 Y-10.983 Z6.034 A359.3080 
N1008 X-296.229 Y-10.655 Z6.033 A0.4293 
N1009 X-296.278 Y-10.328 Z6.039 A1.5542 
N1010 X-296.327 Y-10.000 Z6.051 A2.6805 
N1011 X-296.378 Y-9.672 Z6.070 A3.8057 
N1012 X-296.429 Y-9.343 Z6.095 A4.9271 
N1013 X-296.482 Y-9.014 Z6.127 A6.0421 
N1014 X-296.536 Y-8.684 Z6.165 A7.1480 
N1015 X-296.591 Y-8.353 Z6.210 A8.2424 
N1016 X-296.648 Y-8.020 Z6.262 A9.3226 
N1017 X-296.706 Y-7.685 Z6.320 A10.3862 
N1018 X-296.765 Y-7.348 Z6.386 A11.4304 
N1019 X-296.825 Y-7.008 Z6.458 A12.4521 
N1020 X-296.887 Y-6.666 Z6.538 A13.4476 
N1021 X-296.951 Y-6.321 Z6.624 A14.4123 
N1022 X-297.016 Y-5.972 Z6.718 A15.3410 
N1023 X-297.083 Y-5.620 Z6.818 A16.2276 
N1024 X-297.151 Y-5.264 Z6.926 A17.0659 
N1025 X-297.220 Y-4.904 Z7.041 A17.8495 
N1026 X-297.292 Y-4.541 Z7.162 A18.5724 
N1027 X-297.365 Y-4.173 Z7.290 A19.2289 
N1028 X-297.439 Y-3.802 Z7.423 A19.8141 
N1029 X-297.514 Y-3.428 Z7.562 A20.3239 
N1030 X-297.591 Y-3.051 Z7.706 A20.7552 
N1031 X-297.668 Y-2.671 Z7.853 A21.1061 
N1032 X-297.746 Y-2.290 Z8.003 A21.3760 
N1033 X-297.824 Y-1.908 Z8.156 A21.5652 
N1034 X-297.903 Y-1.527 Z8.309 A21.6752 
N1035 X-297.981 Y-1.147 Z8.462 A21.7081 
N1036 X-298.058 Y-0.770 Z8.614 A21.6663 
N1037 X-298.135 Y-0.397 Z8.764 A21.5512 
N1038 X-298.210 Y-0.030 Z8.911 A21.3631 
N1039 X-298.284 Y0.331 Z9.053 A21.0998 
N1040 X-298.355 Y0.683 Z9.190 A20.7566 
N1041 X-298.425 Y1.027 Z9.321 A20.3269 
N1042 X-298.491 Y1.360 Z9.445 A19.8039 
N1043 X-298.555 Y1.681 Z9.561 A19.1816 
N1044 X-298.616 Y1.991 Z9.669 A18.4569 
N1045 X-298.674 Y2.287 Z9.768 A17.6297 
N1046 X-298.728 Y2.570 Z9.857 A16.7010 
N1047 X-298.779 Y2.839 Z9.937 A15.6716 
N1048 X-298.826 Y3.094 Z10.008 A14.5408 
N1049 X-298.870 Y3.333 Z10.069 A13.3080 
N1050 X-298.910 Y3.559 Z10.121 A11.9775 
N1051 X-298.946 Y3.769 Z10.164 A10.5576 
N1052 X-298.980 Y3.965 Z10.199 A9.0499 
N1053 X-299.010 Y4.146 Z10.226 A7.4435 
N1054 X-299.036 Y4.314 Z10.247 A5.7202 
N1055 X-299.060 Y4.468 Z10.261 A3.8635 
N1056 X-299.081 Y4.610 Z10.270 A1.8601 
N1057 X-299.100 Y4.740 Z10.273 A359.6951 
N1058 X-299.116 Y4.859 Z10.271 A357.3512 
N1059 X-299.130 Y4.968 Z10.265 A354.8111 
N1060 X-299.142 Y5.068 Z10.255 A352.0625 
N1061 X-299.152 Y5.159 Z10.241 A349.1038 
N1062 X-299.161 Y5.243 Z10.224 A345.9484 
N1063 X-299.168 Y5.319 Z10.203 A342.6243 
N1064 X-299.173 Y5.390 Z10.179 A339.1670 
N1065 X-299.177 Y5.454 Z10.153 A335.6122 
N1066 X-299.181 Y5.514 Z10.124 A331.9902 
N1067 X-299.183 Y5.568 Z10.092 A328.3229 
N1068 X-299.185 Y5.619 Z10.059 A324.6223 
N1069 X-299.185 Y5.666 Z10.023 A320.8920 
N1070 X-299.185 Y5.710 Z9.985 A317.1307 
N1071 X-299.185 Y5.752 Z9.944 A313.3358 
N1072 X-299.183 Y5.791 Z9.900 A309.5076 
N1073 X-299.181 Y5.828 Z9.852 A305.6536 
N1074 X-299.177 Y5.862 Z9.801 A301.7922 
N1075 X-299.173 Y5.894 Z9.744 A297.9548 
N1076 X-299.168 Y5.923 Z9.683 A294.1843 
N1077 X-299.161 Y5.950 Z9.617 A290.5305 
N1078 X-299.152 Y5.974 Z9.544 A287.0449 
N1079 X-299.142 Y5.995 Z9.464 A283.7735 
N1080 X-299.130 Y6.012 Z9.377 A280.7483 
N1081 X-299.116 Y6.026 Z9.283 A277.9817 
N1082 X-299.099 Y6.037 Z9.179 A275.4677 
N1083 X-299.080 Y6.044 Z9.067 A273.1877 
N1084 X-299.059 Y6.047 Z8.944 A271.1154 
N1085 X-299.034 Y6.046 Z8.811 A269.2212 
N1086 X-299.007 Y6.041 Z8.667 A267.4766 
N1087 X-298.977 Y6.031 Z8.511 A265.8556 
N1088 X-298.943 Y6.015 Z8.343 A264.3348 
N1089 X-298.907 Y5.994 Z8.164 A262.8900 
N1090 X-298.867 Y5.968 Z7.973 A261.5006 
N1091 X-298.823 Y5.934 Z7.771 A260.1561 
N1092 X-298.777 Y5.894 Z7.558 A258.8552 
N1093 X-298.727 Y5.847 Z7.335 A257.5974 
N1094 X-298.674 Y5.793 Z7.102 A256.3785 
N1095 X-298.618 Y5.731 Z6.861 A255.1926 
N1096 X-298.559 Y5.662 Z6.613 A254.0357 
N1097 X-298.498 Y5.586 Z6.358 A252.9054 
N1098 X-298.435 Y5.503 Z6.097 A251.7997 
N1099 X-298.369 Y5.412 Z5.832 A250.7154 
N1100 X-298.301 Y5.315 Z5.563 A249.6470 
N1101 X-298.231 Y5.211 Z5.291 A248.5871 
N1102 X-298.160 Y5.101 Z5.018 A247.5276 
N1103 X-298.088 Y4.985 Z4.744 A246.4610 
N1104 X-298.014 Y4.863 Z4.470 A245.3823 
N1105 X-297.940 Y4.735 Z4.197 A244.2888 
N1106 X-297.865 Y4.602 Z3.926 A243.1797 
N1107 X-297.789 Y4.463 Z3.657 A242.0554 
N1108 X-297.714 Y4.319 Z3.392 A240.9161 
N1109 X-297.637 Y4.171 Z3.130 A239.7609 
N1110 X-297.561 Y4.017 Z2.873 A238.5879 
N1111 X-297.485 Y3.860 Z2.620 A237.3940 
N1112 X-297.409 Y3.699 Z2.373 A236.1761 
N1113 X-297.333 Y3.533 Z2.131 A234.9313 
N1114 X-297.257 Y3.364 Z1.894 A233.6574 
N1115 X-297.182 Y3.191 Z1.664 A232.3527 
N1116 X-297.108 Y3.015 Z1.440 A231.0165 
N1117 X-297.034 Y2.836 Z1.223 A229.6483 
N1118 X-296.961 Y2.653 Z1.013 A228.2481 
N1119 X-296.888 Y2.468 Z0.809 A226.8161 
N1120 X-296.816 Y2.280 Z0.613 A225.3528 
N1121 X-296.745 Y2.088 Z0.424 A223.8587 
N1122 X-296.675 Y1.894 Z0.241 A222.3347 
N1123 X-296.605 Y1.698 Z0.067 A220.7817 
N1124 X-296.537 Y1.499 Z-0.101 A219.2009 
N1125 X-296.469 Y1.297 Z-0.261 A217.5937 
N1126 X-296.401 Y1.093 Z-0.414 A215.9617 
N1127 X-296.335 Y0.887 Z-0.560 A214.3069 
N1128 X-296.270 Y0.678 Z-0.699 A212.6313 
N1129 X-296.205 Y0.467 Z-0.830 A210.9370 
N1130 X-296.141 Y0.253 Z-0.954 A209.2262 
N1131 X-296.078 Y0.037 Z-1.071 A207.5014 
N1132 X-296.015 Y-0.182 Z-1.180 A205.7649 
N1133 X-295.953 Y-0.403 Z-1.283 A204.0193 
N1134 X-295.892 Y-0.626 Z-1.379 A202.2673 
N1135 X-295.832 Y-0.852 Z-1.467 A200.5118 
N1136 X-295.772 Y-1.080 Z-1.549 A198.7557 
N1137 X-295.713 Y-1.312 Z-1.623 A197.0018 
N1138 X-295.654 Y-1.545 Z-1.691 A195.2529 
N1139 X-295.596 Y-1.782 Z-1.751 A193.5118 
N1140 X-295.539 Y-2.021 Z-1.805 A191.7810 
N1141 X-295.482 Y-2.264 Z-1.851 A190.0632 
N1142 X-295.425 Y-2.509 Z-1.891 A188.3609 
N1143 X-295.369 Y-2.757 Z-1.923 A186.6766 
N1144 X-295.314 Y-3.008 Z-1.949 A185.0129 
N1145 X-295.259 Y-3.263 Z-1.967 A183.3721 
N1146 X-295.205 Y-3.520 Z-1.978 A181.7564 
N1147 X-295.151 Y-3.781 Z-1.982 A180.1677 
N1148 X-295.097 Y-4.045 Z-1.978 A178.6079 
N1149 X-295.044 Y-4.312 Z-1.968 A177.0785 
N1150 X-294.991 Y-4.583 Z-1.950 A175.5809 
N1151 X-294.938 Y-4.857 Z-1.925 A174.1165 
N1152 X-294.887 Y-5.134 Z-1.892 A172.6863 
N1153 X-294.835 Y-5.415 Z-1.852 A171.2914 
N1154 X-294.784 Y-5.699 Z-1.804 A169.9325 
N1155 X-294.733 Y-5.986 Z-1.749 A168.6101 
N1156 X-294.683 Y-6.276 Z-1.686 A167.3246 
N1157 X-294.633 Y-6.570 Z-1.616 A166.0760 
N1158 X-294.584 Y-6.867 Z-1.538 A164.8644 
N1159 X-294.535 Y-7.167 Z-1.453 A163.6895 
N1160 X-294.486 Y-7.470 Z-1.360 A162.5510 
N1161 X-294.438 Y-7.777 Z-1.260 A161.4485 
N1162 X-294.391 Y-8.086 Z-1.152 A160.3813 
N1163 X-294.344 Y-8.398 Z-1.037 A159.3489 
N1164 X-294.297 Y-8.713 Z-0.915 A158.3507 
N1165 X-294.251 Y-9.030 Z-0.785 A157.3865 
N1166 X-294.206 Y-9.350 Z-0.648 A156.4558 
N1167 X-294.161 Y-9.673 Z-0.503 A155.5584 
N1168 X-294.116 Y-9.998 Z-0.352 A154.6944 
N1169 X-294.072 Y-10.325 Z-0.193 A153.8638 
N1170 X-294.029 Y-10.655 Z-0.027 A153.0666 
N1171 X-293.986 Y-10.987 Z0.145 A152.3029 
N1172 X-293.943 Y-11.321 Z0.324 A151.5727 
N1173 X-293.901 Y-11.657 Z0.509 A150.8754 
N1174 X-293.860 Y-11.995 Z0.701 A150.2102 
N1175 X-293.819 Y-12.334 Z0.899 A149.5758 
N1176 X-293.778 Y-12.676 Z1.103 A148.9709 
N1177 X-293.738 Y-13.020 Z1.313 A148.3940 
N1178 X-293.698 Y-13.365 Z1.528 A147.8438 
N1179 X-293.659 Y-13.712 Z1.749 A147.3192 
N1180 X-293.620 Y-14.060 Z1.976 A146.8192 
N1181 X-293.582 Y-14.410 Z2.207 A146.3430 
N1182 X-293.544 Y-14.761 Z2.444 A145.8900 
N1183 X-293.507 Y-15.114 Z2.685 A145.4594 
N1184 X-293.469 Y-15.467 Z2.932 A145.0506 
N1185 X-293.433 Y-15.822 Z3.182 A144.6632 
N1186 X-293.396 Y-16.178 Z3.437 A144.2966 
N1187 X-293.360 Y-16.536 Z3.696 A143.9505 
N1188 X-293.325 Y-16.894 Z3.959 A143.6248 
N1189 X-293.289 Y-17.252 Z4.225 A143.3192 
N1190 X-293.254 Y-17.611 Z4.495 A143.0337 
N1191 X-293.220 Y-17.971 Z4.767 A142.7684 
N1192 X-293.185 Y-18.330 Z5.042 A142.5227 
N1193 X-293.152 Y-18.688 Z5.319 A142.2960 
N1194 X-293.118 Y-19.045 Z5.597 A142.0871 
N1195 X-293.085 Y-19.400 Z5.875 A141.8945 
N1196 X-293.053 Y-19.752 Z6.152 A141.7171 
N1197 X-293.021 Y-20.100 Z6.428 A141.5542 
N1198 X-292.990 Y-20.442 Z6.700 A141.4055 
N1199 X-292.959 Y-20.776 Z6.969 A141.2712 
N1200 X-292.930 Y-21.102 Z7.231 A141.1513 
N1201 X-292.902 Y-21.418 Z7.486 A141.0458 
N1202 X-292.875 Y-21.721 Z7.732 A140.9540 
N1203 X-292.849 Y-22.010 Z7.967 A140.8749 
N1204 X-292.825 Y-22.283 Z8.190 A140.8069 
N1205 X-292.802 Y-22.539 Z8.399 A140.7484 
N1206 X-292.781 Y-22.776 Z8.593 A140.6978 
N1207 X-292.762 Y-22.994 Z8.772 A140.6536 
N1208 X-292.745 Y-23.191 Z8.934 A140.6147 
N1209 X-292.729 Y-23.368 Z9.079 A140.5799 
N1210 X-292.716 Y-23.525 Z9.208 A140.5476 
N1211 X-292.704 Y-23.662 Z9.321 A140.5159 
N1212 X-292.693 Y-23.781 Z9.419 A140.4814 
N1213 X-292.684 Y-23.882 Z9.502 A140.4391 
N1214 X-292.677 Y-23.967 Z9.572 A140.3816 
N1215 X-292.671 Y-24.038 Z9.631 A140.3013 
N1216 X-292.666 Y-24.096 Z9.679 A140.1293 
N1217 X-292.662 Y-24.145 Z9.720 A139.5874 
N1218 X-292.659 Y-24.185 Z9.755 A138.1927 
N1219 X-292.657 Y-24.220 Z9.788 A135.1419 
N1220 X-292.655 Y-24.252 Z9.823 A129.3796 
N1221 X-292.655 Y-24.279 Z9.861 A121.4320 
N1222 X-292.656 Y-24.299 Z9.898 A113.3727 
N1223 X-292.657 Y-24.311 Z9.934 A105.5833 
N1224 X-292.658 Y-24.317 Z9.965 A98.7058 
N1225 X-292.660 Y-24.320 Z9.993 A92.8473 
N1226 X-292.661 Y-24.319 Z10.016 A87.9611 
N1227 X-292.662 Y-24.318 Z10.037 A83.5434 
N1228 X-292.664 Y-24.314 Z10.057 A79.5230 
N1229 X-292.665 Y-24.310 Z10.074 A75.8125 
N1230 X-292.666 Y-24.306 Z10.091 A72.3337 
N1231 X-292.668 Y-24.300 Z10.106 A69.0216 
N1232 X-292.669 Y-24.294 Z10.121 A65.8245 
N1233 X-292.670 Y-24.287 Z10.136 A62.7025 
N1234 X-292.672 Y-24.279 Z10.150 A59.6250 
N1235 X-292.673 Y-24.271 Z10.163 A56.5678 
N1236 X-292.675 Y-24.262 Z10.176 A53.5103 
N1237 X-292.676 Y-24.252 Z10.189 A50.4325 
N1238 X-292.678 Y-24.242 Z10.201 A47.3127 
N1239 X-292.680 Y-24.230 Z10.212 A44.1242 
N1240 X-292.681 Y-24.218 Z10.223 A40.8323 
N1241 X-292.683 Y-24.205 Z10.234 A37.3916 
N1242 X-292.684 Y-24.190 Z10.245 A33.7431 
N1243 X-292.686 Y-24.174 Z10.255 A29.8123 
N1244 X-292.688 Y-24.156 Z10.265 A25.5098 
N1245 X-292.690 Y-24.135 Z10.274 A20.7423 
N1246 X-292.692 Y-24.111 Z10.282 A15.4304 
N1247 X-292.694 Y-24.082 Z10.289 A9.0070 
N1248 X-292.697 Y-24.048 Z10.293 A2.0072 
N1249 X-292.699 Y-24.010 Z10.292 A354.6233 
N1250 X-292.702 Y-23.968 Z10.285 A347.2610 
N1251 X-292.705 Y-23.924 Z10.271 A340.7364 
N1252 X-292.707 Y-23.881 Z10.253 A336.3687 
N1253 X-292.709 Y-23.837 Z10.231 A334.0845 
N1254 X-292.712 Y-23.787 Z10.204 A332.7597 
N1255 X-292.715 Y-23.728 Z10.172 A332.1530 
N1256 X-292.719 Y-23.657 Z10.133 A331.8172 
N1257 X-292.723 Y-23.573 Z10.087 A331.6662 
N1258 X-292.729 Y-23.474 Z10.032 A331.6361 
N1259 X-292.735 Y-23.357 Z9.969 A331.6851 
N1260 X-292.743 Y-23.223 Z9.896 A331.7885 
N1261 X-292.752 Y-23.069 Z9.813 A331.9331 
N1262 X-292.762 Y-22.895 Z9.720 A332.1119 
N1263 X-292.773 Y-22.700 Z9.617 A332.3211 
N1264 X-292.785 Y-22.486 Z9.505 A332.5588 
N1265 X-292.800 Y-22.253 Z9.384 A332.8248 
N1266 X-292.815 Y-22.000 Z9.255 A333.1205 
N1267 X-292.832 Y-21.731 Z9.118 A333.4483 
N1268 X-292.850 Y-21.446 Z8.976 A333.8114 
N1269 X-292.869 Y-21.147 Z8.830 A334.2129 
N1270 X-292.890 Y-20.836 Z8.680 A334.6545 
N1271 X-292.912 Y-20.515 Z8.528 A335.1362 
N1272 X-292.935 Y-20.185 Z8.376 A335.6557 
N1273 X-292.959 Y-19.848 Z8.225 A336.2098 
N1274 X-292.985 Y-19.506 Z8.075 A336.7950 
N1275 X-293.011 Y-19.160 Z7.928 A337.4084 
N1276 X-293.039 Y-18.811 Z7.785 A338.0486 
N1277 X-293.067 Y-18.460 Z7.645 A338.7153 
N1278 X-293.097 Y-18.109 Z7.510 A339.4084 
N1279 X-293.127 Y-17.757 Z7.380 A340.1284 
N1280 X-293.158 Y-17.406 Z7.255 A340.8756 
N1281 X-293.190 Y-17.056 Z7.135 A341.6502 
N1282 X-293.223 Y-16.707 Z7.021 A342.4519 
N1283 X-293.256 Y-16.359 Z6.913 A343.2801 
N1284 X-293.290 Y-16.012 Z6.812 A344.1336 
N1285 X-293.326 Y-15.667 Z6.716 A345.0113 
N1286 X-293.362 Y-15.323 Z6.626 A345.9117 
N1287 X-293.399 Y-14.982 Z6.543 A346.8338 
N1288 X-293.436 Y-14.641 Z6.465 A347.7768 
N1289 X-293.475 Y-14.302 Z6.395 A348.7400 
N1290 X-293.514 Y-13.965 Z6.330 A349.7230 
N1291 X-293.554 Y-13.629 Z6.272 A350.7253 
N1292 X-293.595 Y-13.294 Z6.220 A351.7461 
N1293 X-293.637 Y-12.961 Z6.174 A352.7847 
N1294 X-293.680 Y-12.629 Z6.135 A353.8400 
N1295 X-293.724 Y-12.298 Z6.102 A354.9106 
N1296 X-293.768 Y-11.967 Z6.075 A355.9951 
N1297 X-293.814 Y-11.638 Z6.055 A357.0918 
N1298 X-293.860 Y-11.309 Z6.041 A358.1987 
N1299 X-293.908 Y-10.981 Z6.034 A359.3139 
N1300 X-293.956 Y-10.653 Z6.033 A0.4351 
N1301 X-294.006 Y-10.326 Z6.039 A1.5601 
N1302 X-294.056 Y-9.998 Z6.051 A2.6865 
N1303 X-294.108 Y-9.670 Z6.070 A3.8116 
N1304 X-294.161 Y-9.342 Z6.095 A4.9330 
N1305 X-294.215 Y-9.013 Z6.127 A6.0480 
N1306 X-294.270 Y-8.682 Z6.165 A7.1538 
N1307 X-294.326 Y-8.351 Z6.210 A8.2481 
N1308 X-294.384 Y-8.018 Z6.262 A9.3282 
N1309 X-294.443 Y-7.683 Z6.321 A10.3917 
N1310 X-294.503 Y-7.346 Z6.386 A11.4358 
N1311 X-294.565 Y-7.007 Z6.459 A12.4574 
N1312 X-294.628 Y-6.664 Z6.538 A13.4527 
N1313 X-294.693 Y-6.319 Z6.625 A14.4172 
N1314 X-294.759 Y-5.970 Z6.718 A15.3456 
N1315 X-294.827 Y-5.618 Z6.819 A16.2319 
N1316 X-294.897 Y-5.262 Z6.927 A17.0699 
N1317 X-294.968 Y-4.903 Z7.041 A17.8532 
N1318 X-295.040 Y-4.539 Z7.163 A18.5757 
N1319 X-295.115 Y-4.172 Z7.290 A19.2318 
N1320 X-295.190 Y-3.801 Z7.424 A19.8166 
N1321 X-295.267 Y-3.426 Z7.563 A20.3260 
N1322 X-295.345 Y-3.049 Z7.706 A20.7569 
N1323 X-295.424 Y-2.670 Z7.854 A21.1075 
N1324 X-295.503 Y-2.289 Z8.004 A21.3770 
N1325 X-295.583 Y-1.907 Z8.156 A21.5658 
N1326 X-295.663 Y-1.526 Z8.310 A21.6755 
N1327 X-295.743 Y-1.146 Z8.463 A21.7082 
N1328 X-295.822 Y-0.769 Z8.615 A21.6660 
N1329 X-295.900 Y-0.396 Z8.765 A21.5507 
N1330 X-295.977 Y-0.029 Z8.911 A21.3624 
N1331 X-296.052 Y0.332 Z9.053 A21.0989 
N1332 X-296.125 Y0.684 Z9.190 A20.7554 
N1333 X-296.195 Y1.028 Z9.321 A20.3255 
N1334 X-296.263 Y1.361 Z9.445 A19.8022 
N1335 X-296.329 Y1.682 Z9.561 A19.1797 
N1336 X-296.391 Y1.991 Z9.669 A18.4548 
N1337 X-296.449 Y2.288 Z9.768 A17.6273 
N1338 X-296.505 Y2.571 Z9.857 A16.6984 
N1339 X-296.557 Y2.840 Z9.937 A15.6688 
N1340 X-296.605 Y3.094 Z10.008 A14.5378 
N1341 X-296.649 Y3.334 Z10.069 A13.3048 
N1342 X-296.690 Y3.559 Z10.121 A11.9742 
N1343 X-296.727 Y3.769 Z10.164 A10.5541 
N1344 X-296.761 Y3.965 Z10.199 A9.0463 
N1345 X-296.791 Y4.146 Z10.226 A7.4398 
N1346 X-296.819 Y4.314 Z10.247 A5.7163 
N1347 X-296.843 Y4.468 Z10.261 A3.8595 
N1348 X-296.865 Y4.610 Z10.270 A1.8559 
N1349 X-296.884 Y4.740 Z10.273 A359.6909 
N1350 X-296.900 Y4.859 Z10.271 A357.3471 
N1351 X-296.914 Y4.968 Z10.265 A354.8071 
N1352 X-296.927 Y5.068 Z10.255 A352.0588 
N1353 X-296.937 Y5.159 Z10.241 A349.1006 
N1354 X-296.946 Y5.243 Z10.224 A345.9460 
N1355 X-296.953 Y5.319 Z10.203 A342.6229 
N1356 X-296.958 Y5.390 Z10.179 A339.1670 
N1357 X-296.963 Y5.454 Z10.153 A335.6137 
N1358 X-296.966 Y5.513 Z10.124 A331.9937 
N1359 X-296.969 Y5.568 Z10.092 A328.3285 
N1360 X-296.970 Y5.619 Z10.059 A324.6302 
N1361 X-296.971 Y5.666 Z10.023 A320.9024 
N1362 X-296.971 Y5.710 Z9.985 A317.1438 
N1363 X-296.970 Y5.752 Z9.944 A313.3516 
N1364 X-296.969 Y5.791 Z9.900 A309.5262 
N1365 X-296.966 Y5.827 Z9.853 A305.6748 
N1366 X-296.963 Y5.862 Z9.801 A301.8158 
N1367 X-296.959 Y5.894 Z9.745 A297.9804 
N1368 X-296.953 Y5.923 Z9.684 A294.2113 
N1369 X-296.946 Y5.950 Z9.617 A290.5582 
N1370 X-296.938 Y5.974 Z9.544 A287.0726 
N1371 X-296.927 Y5.995 Z9.465 A283.8005 
N1372 X-296.915 Y6.012 Z9.378 A280.7742 
N1373 X-296.901 Y6.026 Z9.284 A278.0061 
N1374 X-296.884 Y6.037 Z9.180 A275.4905 
N1375 X-296.865 Y6.044 Z9.068 A273.2089 
N1376 X-296.843 Y6.047 Z8.946 A271.1351 
N1377 X-296.819 Y6.046 Z8.812 A269.2397 
N1378 X-296.791 Y6.041 Z8.668 A267.4939 
N1379 X-296.760 Y6.031 Z8.513 A265.8720 
N1380 X-296.726 Y6.015 Z8.345 A264.3504 
N1381 X-296.689 Y5.995 Z8.166 A262.9050 
N1382 X-296.649 Y5.968 Z7.975 A261.5152 
N1383 X-296.605 Y5.935 Z7.773 A260.1704 
N1384 X-296.557 Y5.895 Z7.560 A258.8690 
N1385 X-296.507 Y5.848 Z7.337 A257.6108 
N1386 X-296.453 Y5.793 Z7.105 A256.3916 
N1387 X-296.397 Y5.732 Z6.864 A255.2054 
N1388 X-296.337 Y5.663 Z6.616 A254.0481 
N1389 X-296.275 Y5.587 Z6.361 A252.9176 
N1390 X-296.211 Y5.504 Z6.100 A251.8116 
N1391 X-296.144 Y5.413 Z5.835 A250.7271 
N1392 X-296.075 Y5.316 Z5.566 A249.6587 
N1393 X-296.005 Y5.213 Z5.294 A248.5988 
N1394 X-295.933 Y5.103 Z5.021 A247.5392 
N1395 X-295.859 Y4.987 Z4.747 A246.4728 
N1396 X-295.785 Y4.865 Z4.473 A245.3943 
N1397 X-295.709 Y4.737 Z4.200 A244.3009 
N1398 X-295.633 Y4.603 Z3.929 A243.1920 
N1399 X-295.556 Y4.465 Z3.660 A242.0679 
N1400 X-295.479 Y4.321 Z3.395 A240.9287 
N1401 X-295.402 Y4.172 Z3.133 A239.7737 
N1402 X-295.325 Y4.019 Z2.876 A238.6009 
N1403 X-295.247 Y3.862 Z2.623 A237.4073 
N1404 X-295.170 Y3.700 Z2.375 A236.1896 
N1405 X-295.093 Y3.535 Z2.133 A234.9450 
N1406 X-295.017 Y3.366 Z1.897 A233.6713 
N1407 X-294.941 Y3.193 Z1.667 A232.3670 
N1408 X-294.865 Y3.017 Z1.443 A231.0310 
N1409 X-294.790 Y2.838 Z1.226 A229.6631 
N1410 X-294.716 Y2.655 Z1.015 A228.2631 
N1411 X-294.642 Y2.470 Z0.811 A226.8313 
N1412 X-294.569 Y2.281 Z0.615 A225.3682 
N1413 X-294.497 Y2.090 Z0.425 A223.8743 
N1414 X-294.425 Y1.896 Z0.243 A222.3504 
N1415 X-294.355 Y1.700 Z0.068 A220.7975 
N1416 X-294.285 Y1.501 Z-0.099 A219.2167 
N1417 X-294.216 Y1.299 Z-0.260 A217.6096 
N1418 X-294.148 Y1.095 Z-0.413 A215.9776 
N1419 X-294.081 Y0.889 Z-0.559 A214.3228 
N1420 X-294.014 Y0.680 Z-0.697 A212.6471 
N1421 X-293.948 Y0.469 Z-0.829 A210.9527 
N1422 X-293.883 Y0.255 Z-0.953 A209.2419 
N1423 X-293.819 Y0.039 Z-1.070 A207.5169 
N1424 X-293.756 Y-0.180 Z-1.179 A205.7802 
N1425 X-293.693 Y-0.401 Z-1.282 A204.0345 
N1426 X-293.631 Y-0.624 Z-1.378 A202.2823 
N1427 X-293.570 Y-0.850 Z-1.466 A200.5265 
N1428 X-293.509 Y-1.079 Z-1.548 A198.7701 
N1429 X-293.449 Y-1.310 Z-1.623 A197.0160 
N1430 X-293.389 Y-1.543 Z-1.690 A195.2669 
N1431 X-293.331 Y-1.780 Z-1.751 A193.5255 
N1432 X-293.272 Y-2.019 Z-1.804 A191.7944 
N1433 X-293.215 Y-2.262 Z-1.851 A190.0763 
N1434 X-293.157 Y-2.507 Z-1.890 A188.3737 
N1435 X-293.101 Y-2.755 Z-1.923 A186.6892 
N1436 X-293.044 Y-3.006 Z-1.948 A185.0252 
N1437 X-292.989 Y-3.261 Z-1.967 A183.3841 
N1438 X-292.933 Y-3.518 Z-1.978 A181.7680 
N1439 X-292.878 Y-3.779 Z-1.982 A180.1791 
N1440 X-292.824 Y-4.043 Z-1.979 A178.6190 
N1441 X-292.770 Y-4.310 Z-1.968 A177.0893 
N1442 X-292.716 Y-4.581 Z-1.950 A175.5915 
N1443 X-292.663 Y-4.855 Z-1.925 A174.1268 
N1444 X-292.611 Y-5.132 Z-1.892 A172.6963 
N1445 X-292.558 Y-5.413 Z-1.852 A171.3012 
N1446 X-292.507 Y-5.697 Z-1.804 A169.9420 
N1447 X-292.455 Y-5.984 Z-1.749 A168.6193 
N1448 X-292.404 Y-6.274 Z-1.687 A167.3335 
N1449 X-292.354 Y-6.568 Z-1.617 A166.0846 
N1450 X-292.304 Y-6.865 Z-1.539 A164.8727 
N1451 X-292.254 Y-7.165 Z-1.454 A163.6976 
N1452 X-292.205 Y-7.468 Z-1.361 A162.5589 
N1453 X-292.156 Y-7.775 Z-1.261 A161.4561 
N1454 X-292.108 Y-8.084 Z-1.153 A160.3886 
N1455 X-292.060 Y-8.396 Z-1.038 A159.3559 
N1456 X-292.013 Y-8.710 Z-0.916 A158.3575 
N1457 X-291.967 Y-9.028 Z-0.786 A157.3930 
N1458 X-291.920 Y-9.348 Z-0.648 A156.4621 
N1459 X-291.875 Y-9.670 Z-0.504 A155.5645 
N1460 X-291.830 Y-9.996 Z-0.353 A154.7002 
N1461 X-291.785 Y-10.323 Z-0.194 A153.8692 
N1462 X-291.741 Y-10.653 Z-0.029 A153.0718 
N1463 X-291.698 Y-10.984 Z0.144 A152.3079 
N1464 X-291.654 Y-11.318 Z0.323 A151.5774 
N1465 X-291.612 Y-11.654 Z0.508 A150.8798 
N1466 X-291.570 Y-11.992 Z0.700 A150.2143 
N1467 X-291.528 Y-12.332 Z0.898 A149.5797 
N1468 X-291.487 Y-12.674 Z1.102 A148.9745 
N1469 X-291.447 Y-13.018 Z1.312 A148.3974 
N1470 X-291.407 Y-13.363 Z1.527 A147.8469 
N1471 X-291.367 Y-13.710 Z1.748 A147.3221 
N1472 X-291.328 Y-14.058 Z1.974 A146.8219 
N1473 X-291.289 Y-14.408 Z2.206 A146.3456 
N1474 X-291.251 Y-14.759 Z2.443 A145.8923 
N1475 X-291.213 Y-15.112 Z2.684 A145.4615 
N1476 X-291.175 Y-15.466 Z2.930 A145.0525 
N1477 X-291.138 Y-15.821 Z3.181 A144.6649 
N1478 X-291.101 Y-16.177 Z3.436 A144.2982 
N1479 X-291.065 Y-16.534 Z3.695 A143.9519 
N1480 X-291.029 Y-16.892 Z3.958 A143.6260 
N1481 X-290.993 Y-17.251 Z4.224 A143.3203 
N1482 X-290.958 Y-17.610 Z4.494 A143.0347 
N1483 X-290.923 Y-17.969 Z4.767 A142.7692 
N1484 X-290.888 Y-18.329 Z5.041 A142.5234 
N1485 X-290.854 Y-18.687 Z5.318 A142.2966 
N1486 X-290.820 Y-19.044 Z5.596 A142.0876 
N1487 X-290.787 Y-19.399 Z5.874 A141.8949 
N1488 X-290.754 Y-19.751 Z6.151 A141.7175 
N1489 X-290.722 Y-20.099 Z6.427 A141.5545 
N1490 X-290.690 Y-20.441 Z6.700 A141.4058 
N1491 X-290.659 Y-20.776 Z6.968 A141.2714 
N1492 X-290.630 Y-21.102 Z7.231 A141.1514 
N1493 X-290.601 Y-21.417 Z7.486 A141.0459 
N1494 X-290.574 Y-21.721 Z7.732 A140.9541 
N1495 X-290.548 Y-22.010 Z7.967 A140.8749 
N1496 X-290.524 Y-22.283 Z8.190 A140.8069 
N1497 X-290.501 Y-22.539 Z8.399 A140.7484 
N1498 X-290.480 Y-22.776 Z8.593 A140.6978 
N1499 X-290.460 Y-22.994 Z8.772 A140.6537 
N1500 X-290.443 Y-23.191 Z8.934 A140.6147 
N1501 X-290.427 Y-23.368 Z9.079 A140.5798 
N1502 X-290.413 Y-23.525 Z9.208 A140.5476 
N1503 X-290.401 Y-23.662 Z9.321 A140.5158 
N1504 X-290.391 Y-23.781 Z9.419 A140.4814 
N1505 X-290.382 Y-23.882 Z9.502 A140.4391 
N1506 X-290.374 Y-23.967 Z9.572 A140.3816 
N1507 X-290.368 Y-24.038 Z9.631 A140.3013 
N1508 X-290.363 Y-24.096 Z9.679 A140.1292 
N1509 X-290.359 Y-24.145 Z9.720 A139.5873 
N1510 X-290.356 Y-24.185 Z9.755 A138.1927 
N1511 X-290.354 Y-24.220 Z9.788 A135.1428 
N1512 X-290.352 Y-24.252 Z9.823 A129.3830 
N1513 X-290.352 Y-24.279 Z9.861 A121.4389 
N1514 X-290.353 Y-24.299 Z9.898 A113.3827 
N1515 X-290.354 Y-24.311 Z9.934 A105.5959 
N1516 X-290.355 Y-24.317 Z9.965 A98.7202 
N1517 X-290.357 Y-24.320 Z9.993 A92.8628 
N1518 X-290.358 Y-24.319 Z10.016 A87.9774 
N1519 X-290.359 Y-24.318 Z10.037 A83.5599 
N1520 X-290.361 Y-24.315 Z10.056 A79.5394 
N1521 X-290.362 Y-24.311 Z10.074 A75.8289 
N1522 X-290.363 Y-24.306 Z10.091 A72.3498 
N1523 X-290.365 Y-24.300 Z10.106 A69.0371 
N1524 X-290.366 Y-24.294 Z10.121 A65.8394 
N1525 X-290.368 Y-24.287 Z10.136 A62.7166 
N1526 X-290.369 Y-24.279 Z10.150 A59.6382 
N1527 X-290.371 Y-24.271 Z10.163 A56.5801 
N1528 X-290.372 Y-24.262 Z10.176 A53.5215 
N1529 X-290.374 Y-24.252 Z10.188 A50.4426 
N1530 X-290.375 Y-24.242 Z10.201 A47.3216 
N1531 X-290.377 Y-24.230 Z10.212 A44.1318 
N1532 X-290.379 Y-24.218 Z10.223 A40.8387 
N1533 X-290.380 Y-24.205 Z10.234 A37.3966 
N1534 X-290.382 Y-24.190 Z10.245 A33.7467 
N1535 X-290.384 Y-24.174 Z10.255 A29.8144 
N1536 X-290.386 Y-24.156 Z10.265 A25.5102 
N1537 X-290.388 Y-24.135 Z10.274 A20.7410 
N1538 X-290.390 Y-24.111 Z10.282 A15.4273 
N1539 X-290.392 Y-24.082 Z10.289 A9.0020 
N1540 X-290.395 Y-24.048 Z10.293 A2.0005 
N1541 X-290.397 Y-24.010 Z10.292 A354.6152 
N1542 X-290.400 Y-23.968 Z10.285 A347.2522 
N1543 X-290.403 Y-23.924 Z10.271 A340.7285 
N1544 X-290.405 Y-23.881 Z10.253 A336.3630 
N1545 X-290.407 Y-23.837 Z10.231 A334.0808 
N1546 X-290.410 Y-23.787 Z10.204 A332.7576 
N1547 X-290.413 Y-23.728 Z10.172 A332.1518 
N1548 X-290.417 Y-23.657 Z10.133 A331.8166 
N1549 X-290.422 Y-23.573 Z10.086 A331.6660 
N1550 X-290.428 Y-23.473 Z10.032 A331.6361 
N1551 X-290.434 Y-23.357 Z9.969 A331.6853 
N1552 X-290.442 Y-23.222 Z9.896 A331.7889 
N1553 X-290.451 Y-23.068 Z9.813 A331.9336 
N1554 X-290.461 Y-22.894 Z9.720 A332.1125 
N1555 X-290.473 Y-22.700 Z9.617 A332.3217 
N1556 X-290.486 Y-22.486 Z9.505 A332.5596 
N1557 X-290.500 Y-22.252 Z9.383 A332.8257 
N1558 X-290.516 Y-22.000 Z9.254 A333.1215 
N1559 X-290.533 Y-21.730 Z9.118 A333.4494 
N1560 X-290.552 Y-21.445 Z8.976 A333.8127 
N1561 X-290.572 Y-21.146 Z8.829 A334.2143 
N1562 X-290.593 Y-20.835 Z8.679 A334.6561 
N1563 X-290.616 Y-20.514 Z8.528 A335.1380 
N1564 X-290.639 Y-20.184 Z8.376 A335.6577 
N1565 X-290.664 Y-19.847 Z8.224 A336.2120 
N1566 X-290.691 Y-19.504 Z8.075 A336.7973 
N1567 X-290.718 Y-19.158 Z7.928 A337.4109 
N1568 X-290.746 Y-18.809 Z7.784 A338.0513 
N1569 X-290.775 Y-18.459 Z7.645 A338.7181 
N1570 X-290.805 Y-18.107 Z7.509 A339.4114 
N1571 X-290.836 Y-17.756 Z7.379 A340.1316 
N1572 X-290.868 Y-17.405 Z7.254 A340.8790 
N1573 X-290.901 Y-17.054 Z7.135 A341.6538 
N1574 X-290.934 Y-16.705 Z7.021 A342.4557 
N1575 X-290.968 Y-16.357 Z6.913 A343.2840 
N1576 X-291.004 Y-16.010 Z6.811 A344.1377 
N1577 X-291.040 Y-15.665 Z6.715 A345.0155 
N1578 X-291.076 Y-15.322 Z6.626 A345.9161 
N1579 X-291.114 Y-14.980 Z6.542 A346.8384 
N1580 X-291.152 Y-14.639 Z6.465 A347.7815 
N1581 X-291.192 Y-14.301 Z6.394 A348.7449 
N1582 X-291.232 Y-13.963 Z6.330 A349.7280 
N1583 X-291.273 Y-13.627 Z6.271 A350.7304 
N1584 X-291.315 Y-13.293 Z6.219 A351.7514 
N1585 X-291.358 Y-12.959 Z6.174 A352.7901 
N1586 X-291.402 Y-12.627 Z6.135 A353.8455 
N1587 X-291.446 Y-12.296 Z6.102 A354.9163 
N1588 X-291.492 Y-11.966 Z6.075 A356.0008 
N1589 X-291.538 Y-11.636 Z6.055 A357.0976 
N1590 X-291.586 Y-11.308 Z6.041 A358.2046 
N1591 X-291.634 Y-10.980 Z6.034 A359.3199 
N1592 X-291.684 Y-10.652 Z6.033 A0.4412 
N1593 X-291.734 Y-10.324 Z6.039 A1.5662 
N1594 X-291.786 Y-9.996 Z6.051 A2.6925 
N1595 X-291.838 Y-9.668 Z6.070 A3.8177 
N1596 X-291.892 Y-9.340 Z6.095 A4.9390 
N1597 X-291.947 Y-9.011 Z6.127 A6.0539 
N1598 X-292.003 Y-8.681 Z6.165 A7.1598 
N1599 X-292.061 Y-8.349 Z6.211 A8.2540 
N1600 X-292.120 Y-8.016 Z6.262 A9.3340 
N1601 X-292.180 Y-7.681 Z6.321 A10.3974 
N1602 X-292.241 Y-7.344 Z6.387 A11.4413 
N1603 X-292.304 Y-7.005 Z6.459 A12.4627 
N1604 X-292.369 Y-6.663 Z6.538 A13.4578 
N1605 X-292.435 Y-6.317 Z6.625 A14.4221 
N1606 X-292.502 Y-5.969 Z6.719 A15.3503 
N1607 X-292.572 Y-5.616 Z6.819 A16.2363 
N1608 X-292.642 Y-5.261 Z6.927 A17.0740 
N1609 X-292.715 Y-4.901 Z7.042 A17.8569 
N1610 X-292.789 Y-4.537 Z7.163 A18.5790 
N1611 X-292.865 Y-4.170 Z7.291 A19.2348 
N1612 X-292.942 Y-3.799 Z7.424 A19.8191 
N1613 X-293.020 Y-3.425 Z7.563 A20.3281 
N1614 X-293.100 Y-3.047 Z7.707 A20.7587 
N1615 X-293.180 Y-2.668 Z7.854 A21.1088 
N1616 X-293.261 Y-2.287 Z8.005 A21.3780 
N1617 X-293.342 Y-1.905 Z8.157 A21.5665 
N1618 X-293.424 Y-1.524 Z8.310 A21.6759 
N1619 X-293.505 Y-1.145 Z8.464 A21.7082 
N1620 X-293.585 Y-0.768 Z8.616 A21.6658 
N1621 X-293.665 Y-0.395 Z8.765 A21.5502 
N1622 X-293.743 Y-0.028 Z8.912 A21.3617 
N1623 X-293.820 Y0.333 Z9.054 A21.0979 
N1624 X-293.894 Y0.685 Z9.191 A20.7542 
N1625 X-293.966 Y1.029 Z9.322 A20.3240 
N1626 X-294.035 Y1.361 Z9.446 A19.8005 
N1627 X-294.102 Y1.683 Z9.562 A19.1778 
N1628 X-294.165 Y1.992 Z9.669 A18.4526 
N1629 X-294.225 Y2.289 Z9.768 A17.6249 
N1630 X-294.281 Y2.572 Z9.857 A16.6958 
N1631 X-294.334 Y2.840 Z9.937 A15.6659 
N1632 X-294.383 Y3.095 Z10.008 A14.5347 
N1633 X-294.428 Y3.335 Z10.069 A13.3016 
N1634 X-294.470 Y3.560 Z10.121 A11.9708 
N1635 X-294.508 Y3.770 Z10.164 A10.5506 
N1636 X-294.542 Y3.965 Z10.199 A9.0426 
N1637 X-294.573 Y4.147 Z10.226 A7.4360 
N1638 X-294.601 Y4.314 Z10.247 A5.7123 
N1639 X-294.626 Y4.469 Z10.261 A3.8554 
N1640 X-294.648 Y4.610 Z10.270 A1.8517 
N1641 X-294.667 Y4.740 Z10.273 A359.6867 
N1642 X-294.684 Y4.859 Z10.271 A357.3429 
N1643 X-294.699 Y4.968 Z10.265 A354.8030 
N1644 X-294.711 Y5.068 Z10.255 A352.0550 
N1645 X-294.722 Y5.159 Z10.241 A349.0973 
N1646 X-294.731 Y5.243 Z10.224 A345.9435 
N1647 X-294.738 Y5.320 Z10.203 A342.6215 
N1648 X-294.744 Y5.390 Z10.179 A339.1669 
N1649 X-294.748 Y5.454 Z10.153 A335.6154 
N1650 X-294.752 Y5.513 Z10.124 A331.9972 
N1651 X-294.754 Y5.568 Z10.092 A328.3341 
N1652 X-294.756 Y5.619 Z10.059 A324.6381 
N1653 X-294.757 Y5.666 Z10.023 A320.9129 
N1654 X-294.757 Y5.710 Z9.985 A317.1570 
N1655 X-294.756 Y5.752 Z9.944 A313.3676 
N1656 X-294.755 Y5.790 Z9.900 A309.5450 
N1657 X-294.752 Y5.827 Z9.853 A305.6963 
N1658 X-294.749 Y5.861 Z9.801 A301.8397 
N1659 X-294.744 Y5.894 Z9.745 A298.0064 
N1660 X-294.739 Y5.923 Z9.684 A294.2387 
N1661 X-294.732 Y5.950 Z9.618 A290.5864 
N1662 X-294.723 Y5.974 Z9.545 A287.1008 
N1663 X-294.713 Y5.995 Z9.466 A283.8281 
N1664 X-294.700 Y6.012 Z9.379 A280.8005 
N1665 X-294.686 Y6.026 Z9.285 A278.0310 
N1666 X-294.669 Y6.037 Z9.182 A275.5138 
N1667 X-294.650 Y6.044 Z9.069 A273.2305 
N1668 X-294.628 Y6.047 Z8.947 A271.1552 
N1669 X-294.603 Y6.046 Z8.814 A269.2585 
N1670 X-294.575 Y6.041 Z8.670 A267.5115 
N1671 X-294.544 Y6.031 Z8.514 A265.8886 
N1672 X-294.509 Y6.016 Z8.347 A264.3663 
N1673 X-294.472 Y5.995 Z8.168 A262.9203 
N1674 X-294.431 Y5.968 Z7.977 A261.5301 
N1675 X-294.386 Y5.935 Z7.775 A260.1848 
N1676 X-294.338 Y5.895 Z7.563 A258.8831 
N1677 X-294.287 Y5.848 Z7.340 A257.6244 
N1678 X-294.233 Y5.794 Z7.108 A256.4048 
N1679 X-294.175 Y5.733 Z6.867 A255.2184 
N1680 X-294.115 Y5.664 Z6.618 A254.0608 
N1681 X-294.052 Y5.588 Z6.363 A252.9300 
N1682 X-293.987 Y5.505 Z6.103 A251.8238 
N1683 X-293.919 Y5.414 Z5.838 A250.7391 
N1684 X-293.849 Y5.317 Z5.569 A249.6705 
N1685 X-293.778 Y5.214 Z5.297 A248.6106 
N1686 X-293.705 Y5.104 Z5.024 A247.5511 
N1687 X-293.630 Y4.988 Z4.750 A246.4848 
N1688 X-293.555 Y4.866 Z4.476 A245.4064 
N1689 X-293.478 Y4.738 Z4.203 A244.3132 
N1690 X-293.401 Y4.605 Z3.932 A243.2045 
N1691 X-293.323 Y4.466 Z3.663 A242.0805 
N1692 X-293.245 Y4.323 Z3.398 A240.9415 
N1693 X-293.167 Y4.174 Z3.136 A239.7867 
N1694 X-293.088 Y4.021 Z2.879 A238.6141 
N1695 X-293.010 Y3.864 Z2.626 A237.4207 
N1696 X-292.932 Y3.702 Z2.378 A236.2032 
N1697 X-292.854 Y3.537 Z2.136 A234.9589 
N1698 X-292.776 Y3.368 Z1.899 A233.6855 
N1699 X-292.699 Y3.195 Z1.669 A232.3815 
N1700 X-292.622 Y3.019 Z1.445 A231.0458 
N1701 X-292.546 Y2.840 Z1.228 A229.6781 
N1702 X-292.471 Y2.657 Z1.017 A228.2783 
N1703 X-292.396 Y2.472 Z0.814 A226.8467 
N1704 X-292.322 Y2.284 Z0.617 A225.3838 
N1705 X-292.249 Y2.092 Z0.427 A223.8901 
N1706 X-292.176 Y1.898 Z0.245 A222.3663 
N1707 X-292.104 Y1.702 Z0.070 A220.8135 
N1708 X-292.034 Y1.503 Z-0.098 A219.2329 
N1709 X-291.964 Y1.301 Z-0.258 A217.6257 
N1710 X-291.894 Y1.097 Z-0.411 A215.9938 
N1711 X-291.826 Y0.891 Z-0.557 A214.3390 
N1712 X-291.759 Y0.682 Z-0.696 A212.6632 
N1713 X-291.692 Y0.471 Z-0.827 A210.9687 
N1714 X-291.626 Y0.257 Z-0.952 A209.2578 
N1715 X-291.561 Y0.041 Z-1.069 A207.5327 
N1716 X-291.496 Y-0.178 Z-1.179 A205.7958 
N1717 X-291.433 Y-0.399 Z-1.281 A204.0499 
N1718 X-291.370 Y-0.622 Z-1.377 A202.2975 
N1719 X-291.308 Y-0.848 Z-1.466 A200.5415 
N1720 X-291.246 Y-1.077 Z-1.547 A198.7849 
N1721 X-291.185 Y-1.308 Z-1.622 A197.0304 
N1722 X-291.125 Y-1.542 Z-1.690 A195.2811 
N1723 X-291.065 Y-1.778 Z-1.750 A193.5394 
N1724 X-291.006 Y-2.018 Z-1.804 A191.8080 
N1725 X-290.947 Y-2.260 Z-1.851 A190.0896 
N1726 X-290.889 Y-2.505 Z-1.890 A188.3867 
N1727 X-290.832 Y-2.753 Z-1.923 A186.7019 
N1728 X-290.775 Y-3.004 Z-1.948 A185.0376 
N1729 X-290.718 Y-3.259 Z-1.967 A183.3962 
N1730 X-290.662 Y-3.516 Z-1.978 A181.7799 
N1731 X-290.606 Y-3.777 Z-1.982 A180.1907 
N1732 X-290.551 Y-4.041 Z-1.979 A178.6303 
N1733 X-290.496 Y-4.308 Z-1.968 A177.1003 
N1734 X-290.442 Y-4.579 Z-1.950 A175.6022 
N1735 X-290.388 Y-4.853 Z-1.925 A174.1372 
N1736 X-290.335 Y-5.130 Z-1.892 A172.7065 
N1737 X-290.282 Y-5.411 Z-1.852 A171.3110 
N1738 X-290.229 Y-5.695 Z-1.805 A169.9516 
N1739 X-290.177 Y-5.982 Z-1.750 A168.6287 
N1740 X-290.125 Y-6.272 Z-1.687 A167.3426 
N1741 X-290.074 Y-6.566 Z-1.617 A166.0934 
N1742 X-290.024 Y-6.863 Z-1.540 A164.8813 
N1743 X-289.973 Y-7.163 Z-1.454 A163.7059 
N1744 X-289.923 Y-7.466 Z-1.362 A162.5669 
N1745 X-289.874 Y-7.772 Z-1.262 A161.4638 
N1746 X-289.825 Y-8.081 Z-1.154 A160.3961 
N1747 X-289.777 Y-8.393 Z-1.039 A159.3631 
N1748 X-289.729 Y-8.708 Z-0.916 A158.3645 
N1749 X-289.682 Y-9.026 Z-0.787 A157.3997 
N1750 X-289.635 Y-9.346 Z-0.649 A156.4685 
N1751 X-289.589 Y-9.668 Z-0.505 A155.5706 
N1752 X-289.543 Y-9.993 Z-0.354 A154.7060 
N1753 X-289.498 Y-10.321 Z-0.195 A153.8748 
N1754 X-289.454 Y-10.650 Z-0.030 A153.0771 
N1755 X-289.409 Y-10.982 Z0.143 A152.3129 
N1756 X-289.366 Y-11.316 Z0.321 A151.5821 
N1757 X-289.323 Y-11.652 Z0.507 A150.8843 
N1758 X-289.280 Y-11.990 Z0.699 A150.2185 
N1759 X-289.238 Y-12.330 Z0.897 A149.5836 
N1760 X-289.197 Y-12.672 Z1.100 A148.9782 
N1761 X-289.156 Y-13.016 Z1.310 A148.4008 
N1762 X-289.115 Y-13.361 Z1.526 A147.8501 
N1763 X-289.075 Y-13.708 Z1.747 A147.3251 
N1764 X-289.035 Y-14.056 Z1.973 A146.8247 
N1765 X-288.996 Y-14.406 Z2.205 A146.3481 
N1766 X-288.957 Y-14.757 Z2.441 A145.8946 
N1767 X-288.919 Y-15.110 Z2.683 A145.4636 
N1768 X-288.881 Y-15.464 Z2.929 A145.0545 
N1769 X-288.843 Y-15.819 Z3.180 A144.6667 
N1770 X-288.806 Y-16.175 Z3.435 A144.2998 
N1771 X-288.769 Y-16.533 Z3.694 A143.9534 
N1772 X-288.733 Y-16.891 Z3.957 A143.6273 
N1773 X-288.697 Y-17.250 Z4.223 A143.3214 
N1774 X-288.661 Y-17.609 Z4.493 A143.0357 
N1775 X-288.625 Y-17.968 Z4.766 A142.7701 
N1776 X-288.590 Y-18.328 Z5.041 A142.5242 
N1777 X-288.556 Y-18.686 Z5.317 A142.2973 
N1778 X-288.522 Y-19.043 Z5.595 A142.0881 
N1779 X-288.488 Y-19.399 Z5.873 A141.8954 
N1780 X-288.455 Y-19.751 Z6.151 A141.7179 
N1781 X-288.422 Y-20.098 Z6.427 A141.5549 
N1782 X-288.390 Y-20.440 Z6.699 A141.4060 
N1783 X-288.360 Y-20.775 Z6.968 A141.2716 
N1784 X-288.330 Y-21.102 Z7.230 A141.1516 
N1785 X-288.301 Y-21.417 Z7.486 A141.0460 
N1786 X-288.273 Y-21.720 Z7.732 A140.9542 
N1787 X-288.247 Y-22.010 Z7.967 A140.8750 
N1788 X-288.222 Y-22.283 Z8.190 A140.8070 
N1789 X-288.199 Y-22.539 Z8.399 A140.7485 
N1790 X-288.178 Y-22.776 Z8.593 A140.6978 
N1791 X-288.158 Y-22.994 Z8.772 A140.6537 
N1792 X-288.141 Y-23.191 Z8.934 A140.6147 
N1793 X-288.125 Y-23.368 Z9.079 A140.5798 
N1794 X-288.111 Y-23.525 Z9.208 A140.5476 
N1795 X-288.098 Y-23.662 Z9.321 A140.5158 
N1796 X-288.088 Y-23.781 Z9.419 A140.4814 
N1797 X-288.079 Y-23.882 Z9.502 A140.4391 
N1798 X-288.071 Y-23.967 Z9.572 A140.3815 
N1799 X-288.065 Y-24.038 Z9.631 A140.3012 
N1800 X-288.060 Y-24.096 Z9.679 A140.1291 
N1801 X-288.056 Y-24.145 Z9.720 A139.5871 
N1802 X-288.053 Y-24.185 Z9.755 A138.1927 
N1803 X-288.051 Y-24.220 Z9.788 A135.1437 
N1804 X-288.049 Y-24.252 Z9.823 A129.3865 
N1805 X-288.049 Y-24.279 Z9.861 A121.4459 
N1806 X-288.050 Y-24.298 Z9.898 A113.3928 
N1807 X-288.051 Y-24.311 Z9.934 A105.6087 
N1808 X-288.052 Y-24.317 Z9.965 A98.7348 
N1809 X-288.054 Y-24.320 Z9.993 A92.8785 
N1810 X-288.055 Y-24.319 Z10.016 A87.9938 
N1811 X-288.057 Y-24.318 Z10.037 A83.5766 
N1812 X-288.058 Y-24.315 Z10.056 A79.5561 
N1813 X-288.059 Y-24.311 Z10.074 A75.8455 
N1814 X-288.061 Y-24.306 Z10.091 A72.3661 
N1815 X-288.062 Y-24.300 Z10.106 A69.0529 
N1816 X-288.064 Y-24.294 Z10.121 A65.8545 
N1817 X-288.065 Y-24.287 Z10.136 A62.7309 
N1818 X-288.067 Y-24.279 Z10.150 A59.6517 
N1819 X-288.068 Y-24.271 Z10.163 A56.5925 
N1820 X-288.070 Y-24.262 Z10.176 A53.5329 
N1821 X-288.071 Y-24.252 Z10.188 A50.4528 
N1822 X-288.073 Y-24.242 Z10.201 A47.3306 
N1823 X-288.075 Y-24.230 Z10.212 A44.1395 
N1824 X-288.076 Y-24.218 Z10.223 A40.8451 
N1825 X-288.078 Y-24.205 Z10.234 A37.4017 
N1826 X-288.080 Y-24.190 Z10.245 A33.7502 
N1827 X-288.081 Y-24.174 Z10.255 A29.8163 
N1828 X-288.083 Y-24.156 Z10.265 A25.5106 
N1829 X-288.085 Y-24.135 Z10.274 A20.7396 
N1830 X-288.087 Y-24.111 Z10.282 A15.4241 
N1831 X-288.090 Y-24.082 Z10.289 A8.9968 
N1832 X-288.092 Y-24.048 Z10.293 A1.9935 
N1833 X-288.095 Y-24.010 Z10.292 A354.6068 
N1834 X-288.098 Y-23.968 Z10.285 A347.2431 
N1835 X-288.101 Y-23.924 Z10.271 A340.7202 
N1836 X-288.103 Y-23.881 Z10.253 A336.3571 
N1837 X-288.106 Y-23.837 Z10.231 A334.0770 
N1838 X-288.108 Y-23.786 Z10.204 A332.7554 
N1839 X-288.112 Y-23.727 Z10.171 A332.1506 
N1840 X-288.116 Y-23.657 Z10.133 A331.8159 
N1841 X-288.121 Y-23.573 Z10.086 A331.6658 
N1842 X-288.126 Y-23.473 Z10.032 A331.6362 
N1843 X-288.133 Y-23.357 Z9.968 A331.6855 
N1844 X-288.141 Y-23.222 Z9.895 A331.7893 
N1845 X-288.150 Y-23.068 Z9.812 A331.9341 
N1846 X-288.161 Y-22.894 Z9.719 A332.1131 
N1847 X-288.173 Y-22.699 Z9.617 A332.3224 
N1848 X-288.186 Y-22.485 Z9.504 A332.5603 
N1849 X-288.201 Y-22.251 Z9.383 A332.8266 
N1850 X-288.217 Y-21.999 Z9.254 A333.1225 
N1851 X-288.235 Y-21.729 Z9.117 A333.4506 
N1852 X-288.254 Y-21.444 Z8.975 A333.8140 
N1853 X-288.275 Y-21.145 Z8.829 A334.2158 
N1854 X-288.296 Y-20.834 Z8.679 A334.6578 
N1855 X-288.320 Y-20.513 Z8.527 A335.1398 
N1856 X-288.344 Y-20.182 Z8.375 A335.6597 
N1857 X-288.370 Y-19.845 Z8.224 A336.2142 
N1858 X-288.396 Y-19.503 Z8.074 A336.7997 
N1859 X-288.424 Y-19.157 Z7.927 A337.4134 
N1860 X-288.453 Y-18.808 Z7.784 A338.0540 
N1861 X-288.483 Y-18.457 Z7.644 A338.7210 
N1862 X-288.514 Y-18.106 Z7.509 A339.4144 
N1863 X-288.545 Y-17.754 Z7.379 A340.1348 
N1864 X-288.578 Y-17.403 Z7.254 A340.8824 
N1865 X-288.611 Y-17.053 Z7.134 A341.6574 
N1866 X-288.646 Y-16.703 Z7.020 A342.4595 
N1867 X-288.681 Y-16.355 Z6.912 A343.2880 
N1868 X-288.717 Y-16.009 Z6.811 A344.1419 
N1869 X-288.753 Y-15.664 Z6.715 A345.0199 
N1870 X-288.791 Y-15.320 Z6.625 A345.9206 
N1871 X-288.829 Y-14.978 Z6.542 A346.8431 
N1872 X-288.869 Y-14.638 Z6.465 A347.7864 
N1873 X-288.909 Y-14.299 Z6.394 A348.7499 
N1874 X-288.950 Y-13.961 Z6.329 A349.7332 
N1875 X-288.992 Y-13.625 Z6.271 A350.7357 
N1876 X-289.035 Y-13.291 Z6.219 A351.7568 
N1877 X-289.079 Y-12.957 Z6.174 A352.7957 
N1878 X-289.123 Y-12.625 Z6.134 A353.8512 
N1879 X-289.169 Y-12.294 Z6.101 A354.9220 
N1880 X-289.215 Y-11.964 Z6.075 A356.0067 
N1881 X-289.263 Y-11.635 Z6.055 A357.1035 
N1882 X-289.311 Y-11.306 Z6.041 A358.2106 
N1883 X-289.360 Y-10.978 Z6.034 A359.3259 
N1884 X-289.411 Y-10.650 Z6.033 A0.4473 
N1885 X-289.462 Y-10.322 Z6.039 A1.5724 
N1886 X-289.515 Y-9.995 Z6.051 A2.6987 
N1887 X-289.569 Y-9.667 Z6.070 A3.8239 
N1888 X-289.624 Y-9.338 Z6.095 A4.9452 
N1889 X-289.680 Y-9.009 Z6.127 A6.0601 
N1890 X-289.737 Y-8.679 Z6.166 A7.1658 
N1891 X-289.796 Y-8.347 Z6.211 A8.2599 
N1892 X-289.856 Y-8.014 Z6.263 A9.3399 
N1893 X-289.917 Y-7.680 Z6.321 A10.4031 
N1894 X-289.980 Y-7.342 Z6.387 A11.4469 
N1895 X-290.044 Y-7.003 Z6.459 A12.4682 
N1896 X-290.109 Y-6.661 Z6.539 A13.4631 
N1897 X-290.177 Y-6.315 Z6.625 A14.4272 
N1898 X-290.246 Y-5.967 Z6.719 A15.3551 
N1899 X-290.316 Y-5.615 Z6.820 A16.2408 
N1900 X-290.388 Y-5.259 Z6.928 A17.0782 
N1901 X-290.462 Y-4.899 Z7.042 A17.8607 
N1902 X-290.538 Y-4.535 Z7.164 A18.5825 
N1903 X-290.615 Y-4.168 Z7.291 A19.2378 
N1904 X-290.693 Y-3.797 Z7.425 A19.8217 
N1905 X-290.773 Y-3.423 Z7.564 A20.3303 
N1906 X-290.854 Y-3.046 Z7.708 A20.7604 
N1907 X-290.936 Y-2.666 Z7.855 A21.1102 
N1908 X-291.018 Y-2.285 Z8.005 A21.3790 
N1909 X-291.101 Y-1.904 Z8.158 A21.5671 
N1910 X-291.184 Y-1.523 Z8.311 A21.6762 
N1911 X-291.267 Y-1.143 Z8.464 A21.7082 
N1912 X-291.349 Y-0.766 Z8.616 A21.6655 
N1913 X-291.430 Y-0.394 Z8.766 A21.5497 
N1914 X-291.510 Y-0.026 Z8.912 A21.3609 
N1915 X-291.587 Y0.334 Z9.054 A21.0969 
N1916 X-291.663 Y0.687 Z9.191 A20.7530 
N1917 X-291.737 Y1.030 Z9.322 A20.3226 
N1918 X-291.807 Y1.362 Z9.446 A19.7988 
N1919 X-291.875 Y1.684 Z9.562 A19.1758 
N1920 X-291.939 Y1.993 Z9.670 A18.4504 
N1921 X-292.000 Y2.290 Z9.768 A17.6224 
N1922 X-292.058 Y2.572 Z9.858 A16.6931 
N1923 X-292.112 Y2.841 Z9.938 A15.6631 
N1924 X-292.161 Y3.095 Z10.008 A14.5316 
N1925 X-292.208 Y3.335 Z10.069 A13.2983 
N1926 X-292.250 Y3.560 Z10.121 A11.9674 
N1927 X-292.289 Y3.770 Z10.164 A10.5470 
N1928 X-292.324 Y3.966 Z10.199 A9.0389 
N1929 X-292.355 Y4.147 Z10.227 A7.4321 
N1930 X-292.384 Y4.315 Z10.247 A5.7083 
N1931 X-292.409 Y4.469 Z10.261 A3.8513 
N1932 X-292.432 Y4.611 Z10.270 A1.8475 
N1933 X-292.451 Y4.741 Z10.273 A359.6824 
N1934 X-292.468 Y4.860 Z10.271 A357.3386 
N1935 X-292.483 Y4.969 Z10.265 A354.7989 
N1936 X-292.496 Y5.068 Z10.255 A352.0512 
N1937 X-292.507 Y5.159 Z10.241 A349.0940 
N1938 X-292.516 Y5.243 Z10.224 A345.9410 
N1939 X-292.523 Y5.320 Z10.203 A342.6201 
N1940 X-292.529 Y5.390 Z10.179 A339.1669 
N1941 X-292.534 Y5.454 Z10.153 A335.6170 
N1942 X-292.537 Y5.513 Z10.124 A332.0007 
N1943 X-292.540 Y5.568 Z10.092 A328.3398 
N1944 X-292.542 Y5.619 Z10.059 A324.6463 
N1945 X-292.542 Y5.666 Z10.023 A320.9236 
N1946 X-292.543 Y5.710 Z9.985 A317.1704 
N1947 X-292.542 Y5.751 Z9.944 A313.3839 
N1948 X-292.540 Y5.790 Z9.900 A309.5641 
N1949 X-292.538 Y5.827 Z9.853 A305.7181 
N1950 X-292.535 Y5.861 Z9.802 A301.8640 
N1951 X-292.530 Y5.893 Z9.746 A298.0327 
N1952 X-292.524 Y5.923 Z9.685 A294.2665 
N1953 X-292.517 Y5.950 Z9.618 A290.6149 
N1954 X-292.509 Y5.974 Z9.546 A287.1294 
N1955 X-292.498 Y5.994 Z9.466 A283.8560 
N1956 X-292.486 Y6.012 Z9.380 A280.8273 
N1957 X-292.471 Y6.026 Z9.286 A278.0562 
N1958 X-292.454 Y6.037 Z9.183 A275.5374 
N1959 X-292.434 Y6.044 Z9.070 A273.2525 
N1960 X-292.412 Y6.047 Z8.948 A271.1757 
N1961 X-292.387 Y6.046 Z8.815 A269.2776 
N1962 X-292.359 Y6.041 Z8.671 A267.5294 
N1963 X-292.327 Y6.031 Z8.516 A265.9055 
N1964 X-292.292 Y6.016 Z8.349 A264.3824 
N1965 X-292.254 Y5.995 Z8.170 A262.9358 
N1966 X-292.213 Y5.969 Z7.980 A261.5451 
N1967 X-292.168 Y5.936 Z7.778 A260.1995 
N1968 X-292.119 Y5.896 Z7.565 A258.8973 
N1969 X-292.067 Y5.849 Z7.342 A257.6383 
N1970 X-292.012 Y5.795 Z7.110 A256.4183 
N1971 X-291.954 Y5.733 Z6.870 A255.2315 
N1972 X-291.893 Y5.665 Z6.621 A254.0737 
N1973 X-291.829 Y5.589 Z6.366 A252.9426 
N1974 X-291.763 Y5.506 Z6.106 A251.8362 
N1975 X-291.694 Y5.416 Z5.841 A250.7513 
N1976 X-291.624 Y5.319 Z5.572 A249.6826 
N1977 X-291.551 Y5.215 Z5.300 A248.6226 
N1978 X-291.477 Y5.105 Z5.027 A247.5632 
N1979 X-291.402 Y4.989 Z4.753 A246.4970 
N1980 X-291.325 Y4.867 Z4.479 A245.4187 
N1981 X-291.248 Y4.740 Z4.206 A244.3257 
N1982 X-291.169 Y4.606 Z3.935 A243.2172 
N1983 X-291.091 Y4.468 Z3.666 A242.0934 
N1984 X-291.011 Y4.324 Z3.401 A240.9545 
N1985 X-290.932 Y4.176 Z3.139 A239.7999 
N1986 X-290.852 Y4.023 Z2.882 A238.6275 
N1987 X-290.773 Y3.865 Z2.629 A237.4343 
N1988 X-290.693 Y3.704 Z2.381 A236.2171 
N1989 X-290.614 Y3.539 Z2.139 A234.9731 
N1990 X-290.535 Y3.370 Z1.902 A233.6999 
N1991 X-290.457 Y3.197 Z1.672 A232.3961 
N1992 X-290.379 Y3.021 Z1.448 A231.0607 
N1993 X-290.302 Y2.842 Z1.230 A229.6933 
N1994 X-290.225 Y2.659 Z1.020 A228.2938 
N1995 X-290.150 Y2.474 Z0.816 A226.8624 
N1996 X-290.075 Y2.286 Z0.619 A225.3997 
N1997 X-290.000 Y2.094 Z0.429 A223.9061 
N1998 X-289.927 Y1.901 Z0.247 A222.3825 
N1999 X-289.854 Y1.704 Z0.072 A220.8298 
N2000 X-289.782 Y1.505 Z-0.096 A219.2492 
N2001 X-289.711 Y1.303 Z-0.257 A217.6422 
N2002 X-289.641 Y1.099 Z-0.410 A216.0103 
N2003 X-289.572 Y0.893 Z-0.556 A214.3554 
N2004 X-289.503 Y0.684 Z-0.695 A212.6796 
N2005 X-289.435 Y0.473 Z-0.826 A210.9850 
N2006 X-289.369 Y0.259 Z-0.950 A209.2739 
N2007 X-289.302 Y0.043 Z-1.068 A207.5487 
N2008 X-289.237 Y-0.176 Z-1.178 A205.8117 
N2009 X-289.173 Y-0.397 Z-1.280 A204.0655 
N2010 X-289.109 Y-0.620 Z-1.376 A202.3129 
N2011 X-289.046 Y-0.846 Z-1.465 A200.5567 
N2012 X-288.983 Y-1.075 Z-1.547 A198.7998 
N2013 X-288.921 Y-1.306 Z-1.621 A197.0451 
N2014 X-288.860 Y-1.540 Z-1.689 A195.2955 
N2015 X-288.800 Y-1.776 Z-1.750 A193.5535 
N2016 X-288.740 Y-2.016 Z-1.804 A191.8219 
N2017 X-288.680 Y-2.258 Z-1.850 A190.1032 
N2018 X-288.621 Y-2.503 Z-1.890 A188.4000 
N2019 X-288.563 Y-2.751 Z-1.923 A186.7149 
N2020 X-288.505 Y-3.002 Z-1.948 A185.0503 
N2021 X-288.448 Y-3.257 Z-1.966 A183.4086 
N2022 X-288.391 Y-3.514 Z-1.978 A181.7920 
N2023 X-288.334 Y-3.775 Z-1.982 A180.2024 
N2024 X-288.278 Y-4.039 Z-1.979 A178.6417 
N2025 X-288.223 Y-4.306 Z-1.968 A177.1115 
N2026 X-288.168 Y-4.577 Z-1.950 A175.6131 
N2027 X-288.113 Y-4.851 Z-1.925 A174.1478 
N2028 X-288.059 Y-5.128 Z-1.893 A172.7168 
N2029 X-288.005 Y-5.409 Z-1.853 A171.3211 
N2030 X-287.952 Y-5.692 Z-1.805 A169.9614 
N2031 X-287.899 Y-5.980 Z-1.750 A168.6382 
N2032 X-287.847 Y-6.270 Z-1.688 A167.3518 
N2033 X-287.795 Y-6.564 Z-1.618 A166.1024 
N2034 X-287.743 Y-6.861 Z-1.540 A164.8899 
N2035 X-287.693 Y-7.161 Z-1.455 A163.7143 
N2036 X-287.642 Y-7.464 Z-1.362 A162.5750 
N2037 X-287.592 Y-7.770 Z-1.262 A161.4717 
N2038 X-287.543 Y-8.079 Z-1.155 A160.4037 
N2039 X-287.494 Y-8.391 Z-1.040 A159.3704 
N2040 X-287.445 Y-8.706 Z-0.917 A158.3715 
N2041 X-287.397 Y-9.023 Z-0.788 A157.4065 
N2042 X-287.350 Y-9.343 Z-0.650 A156.4750 
N2043 X-287.303 Y-9.666 Z-0.506 A155.5768 
N2044 X-287.257 Y-9.991 Z-0.355 A154.7120 
N2045 X-287.211 Y-10.318 Z-0.196 A153.8805 
N2046 X-287.166 Y-10.648 Z-0.031 A153.0825 
N2047 X-287.121 Y-10.980 Z0.141 A152.3180 
N2048 X-287.077 Y-11.314 Z0.320 A151.5869 
N2049 X-287.034 Y-11.650 Z0.506 A150.8888 
N2050 X-286.991 Y-11.988 Z0.697 A150.2228 
N2051 X-286.948 Y-12.328 Z0.895 A149.5876 
N2052 X-286.906 Y-12.670 Z1.099 A148.9819 
N2053 X-286.865 Y-13.013 Z1.309 A148.4043 
N2054 X-286.823 Y-13.359 Z1.524 A147.8534 
N2055 X-286.783 Y-13.706 Z1.745 A147.3281 
N2056 X-286.743 Y-14.054 Z1.972 A146.8275 
N2057 X-286.703 Y-14.404 Z2.204 A146.3507 
N2058 X-286.664 Y-14.755 Z2.440 A145.8970 
N2059 X-286.625 Y-15.108 Z2.682 A145.4658 
N2060 X-286.586 Y-15.462 Z2.928 A145.0565 
N2061 X-286.548 Y-15.817 Z3.179 A144.6685 
N2062 X-286.511 Y-16.174 Z3.434 A144.3014 
N2063 X-286.474 Y-16.531 Z3.693 A143.9549 
N2064 X-286.437 Y-16.889 Z3.956 A143.6286 
N2065 X-286.400 Y-17.248 Z4.222 A143.3226 
N2066 X-286.364 Y-17.608 Z4.492 A143.0368 
N2067 X-286.328 Y-17.967 Z4.765 A142.7710 
N2068 X-286.293 Y-18.327 Z5.040 A142.5249 
N2069 X-286.258 Y-18.685 Z5.317 A142.2979 
N2070 X-286.223 Y-19.043 Z5.594 A142.0887 
N2071 X-286.189 Y-19.398 Z5.873 A141.8959 
N2072 X-286.156 Y-19.750 Z6.150 A141.7183 
N2073 X-286.123 Y-20.098 Z6.426 A141.5552 
N2074 X-286.091 Y-20.440 Z6.699 A141.4063 
N2075 X-286.060 Y-20.775 Z6.967 A141.2718 
N2076 X-286.029 Y-21.101 Z7.230 A141.1518 
N2077 X-286.000 Y-21.417 Z7.485 A141.0461 
N2078 X-285.972 Y-21.720 Z7.731 A140.9543 
N2079 X-285.946 Y-22.009 Z7.967 A140.8751 
N2080 X-285.921 Y-22.283 Z8.190 A140.8070 
N2081 X-285.898 Y-22.539 Z8.399 A140.7485 
N2082 X-285.876 Y-22.776 Z8.593 A140.6978 
N2083 X-285.856 Y-22.994 Z8.772 A140.6537 
N2084 X-285.838 Y-23.191 Z8.934 A140.6147 
N2085 X-285.822 Y-23.368 Z9.079 A140.5798 
N2086 X-285.808 Y-23.525 Z9.208 A140.5476 
N2087 X-285.796 Y-23.662 Z9.321 A140.5158 
N2088 X-285.785 Y-23.781 Z9.419 A140.4814 
N2089 X-285.776 Y-23.882 Z9.502 A140.4390 
N2090 X-285.768 Y-23.967 Z9.572 A140.3815 
N2091 X-285.762 Y-24.038 Z9.631 A140.3011 
N2092 X-285.757 Y-24.097 Z9.679 A140.1290 
N2093 X-285.753 Y-24.145 Z9.720 A139.5870 
N2094 X-285.750 Y-24.185 Z9.755 A138.1927 
N2095 X-285.748 Y-24.220 Z9.788 A135.1446 
N2096 X-285.746 Y-24.252 Z9.823 A129.3900 
N2097 X-285.746 Y-24.279 Z9.861 A121.4530 
N2098 X-285.747 Y-24.298 Z9.898 A113.4030 
N2099 X-285.748 Y-24.311 Z9.934 A105.6216 
N2100 X-285.749 Y-24.317 Z9.965 A98.7496 
N2101 X-285.751 Y-24.319 Z9.993 A92.8943 
N2102 X-285.752 Y-24.319 Z10.016 A88.0104 
N2103 X-285.754 Y-24.318 Z10.037 A83.5934 
N2104 X-285.755 Y-24.315 Z10.056 A79.5729 
N2105 X-285.757 Y-24.311 Z10.074 A75.8622 
N2106 X-285.758 Y-24.306 Z10.091 A72.3825 
N2107 X-285.759 Y-24.300 Z10.106 A69.0689 
N2108 X-285.761 Y-24.294 Z10.121 A65.8698 
N2109 X-285.762 Y-24.287 Z10.136 A62.7454 
N2110 X-285.764 Y-24.279 Z10.149 A59.6652 
N2111 X-285.766 Y-24.271 Z10.163 A56.6051 
N2112 X-285.767 Y-24.262 Z10.176 A53.5444 
N2113 X-285.769 Y-24.252 Z10.188 A50.4632 
N2114 X-285.770 Y-24.242 Z10.200 A47.3397 
N2115 X-285.772 Y-24.230 Z10.212 A44.1473 
N2116 X-285.774 Y-24.218 Z10.223 A40.8516 
N2117 X-285.775 Y-24.205 Z10.234 A37.4068 
N2118 X-285.777 Y-24.190 Z10.245 A33.7538 
N2119 X-285.779 Y-24.174 Z10.255 A29.8183 
N2120 X-285.781 Y-24.156 Z10.265 A25.5108 
N2121 X-285.783 Y-24.135 Z10.274 A20.7380 
N2122 X-285.785 Y-24.111 Z10.282 A15.4206 
N2123 X-285.788 Y-24.082 Z10.289 A8.9914 
N2124 X-285.790 Y-24.048 Z10.293 A1.9861 
N2125 X-285.793 Y-24.010 Z10.292 A354.5979 
N2126 X-285.796 Y-23.968 Z10.285 A347.2336 
N2127 X-285.799 Y-23.924 Z10.271 A340.7117 
N2128 X-285.801 Y-23.881 Z10.253 A336.3509 
N2129 X-285.804 Y-23.837 Z10.231 A334.0731 
N2130 X-285.807 Y-23.786 Z10.204 A332.7531 
N2131 X-285.810 Y-23.727 Z10.171 A332.1493 
N2132 X-285.814 Y-23.657 Z10.132 A331.8153 
N2133 X-285.819 Y-23.572 Z10.086 A331.6656 
N2134 X-285.825 Y-23.473 Z10.032 A331.6362 
N2135 X-285.832 Y-23.356 Z9.968 A331.6858 
N2136 X-285.840 Y-23.221 Z9.895 A331.7897 
N2137 X-285.850 Y-23.067 Z9.812 A331.9346 
N2138 X-285.861 Y-22.893 Z9.719 A332.1137 
N2139 X-285.873 Y-22.699 Z9.616 A332.3231 
N2140 X-285.887 Y-22.484 Z9.504 A332.5612 
N2141 X-285.902 Y-22.250 Z9.383 A332.8275 
N2142 X-285.918 Y-21.998 Z9.253 A333.1235 
N2143 X-285.937 Y-21.728 Z9.117 A333.4518 
N2144 X-285.956 Y-21.443 Z8.975 A333.8154 
N2145 X-285.977 Y-21.144 Z8.828 A334.2173 
N2146 X-286.000 Y-20.833 Z8.678 A334.6595 
N2147 X-286.023 Y-20.511 Z8.527 A335.1417 
N2148 X-286.048 Y-20.181 Z8.374 A335.6618 
N2149 X-286.075 Y-19.844 Z8.223 A336.2164 
N2150 X-286.102 Y-19.502 Z8.073 A336.8021 
N2151 X-286.131 Y-19.155 Z7.927 A337.4160 
N2152 X-286.160 Y-18.806 Z7.783 A338.0568 
N2153 X-286.191 Y-18.456 Z7.643 A338.7239 
N2154 X-286.222 Y-18.104 Z7.508 A339.4176 
N2155 X-286.255 Y-17.753 Z7.378 A340.1381 
N2156 X-286.288 Y-17.402 Z7.253 A340.8859 
N2157 X-286.322 Y-17.051 Z7.134 A341.6611 
N2158 X-286.357 Y-16.702 Z7.020 A342.4634 
N2159 X-286.393 Y-16.354 Z6.912 A343.2921 
N2160 X-286.430 Y-16.007 Z6.810 A344.1462 
N2161 X-286.467 Y-15.662 Z6.714 A345.0243 
N2162 X-286.506 Y-15.318 Z6.625 A345.9252 
N2163 X-286.545 Y-14.976 Z6.541 A346.8478 
N2164 X-286.585 Y-14.636 Z6.464 A347.7913 
N2165 X-286.626 Y-14.297 Z6.394 A348.7550 
N2166 X-286.668 Y-13.960 Z6.329 A349.7384 
N2167 X-286.711 Y-13.624 Z6.271 A350.7411 
N2168 X-286.755 Y-13.289 Z6.219 A351.7623 
N2169 X-286.799 Y-12.956 Z6.173 A352.8013 
N2170 X-286.845 Y-12.623 Z6.134 A353.8569 
N2171 X-286.891 Y-12.292 Z6.101 A354.9279 
N2172 X-286.939 Y-11.962 Z6.075 A356.0127 
N2173 X-286.987 Y-11.633 Z6.055 A357.1096 
N2174 X-287.036 Y-11.304 Z6.041 A358.2168 
N2175 X-287.087 Y-10.976 Z6.034 A359.3321 
N2176 X-287.138 Y-10.648 Z6.033 A0.4535 
N2177 X-287.191 Y-10.320 Z6.039 A1.5786 
N2178 X-287.244 Y-9.993 Z6.051 A2.7050 
N2179 X-287.299 Y-9.665 Z6.070 A3.8302 
N2180 X-287.355 Y-9.336 Z6.095 A4.9515 
N2181 X-287.412 Y-9.007 Z6.127 A6.0663 
N2182 X-287.471 Y-8.677 Z6.166 A7.1720 
N2183 X-287.530 Y-8.345 Z6.211 A8.2660 
N2184 X-287.591 Y-8.012 Z6.263 A9.3459 
N2185 X-287.654 Y-7.678 Z6.322 A10.4090 
N2186 X-287.718 Y-7.341 Z6.387 A11.4526 
N2187 X-287.783 Y-7.001 Z6.460 A12.4737 
N2188 X-287.850 Y-6.659 Z6.539 A13.4685 
N2189 X-287.919 Y-6.314 Z6.626 A14.4323 
N2190 X-287.989 Y-5.965 Z6.720 A15.3599 
N2191 X-288.061 Y-5.613 Z6.820 A16.2454 
N2192 X-288.134 Y-5.257 Z6.928 A17.0824 
N2193 X-288.210 Y-4.897 Z7.043 A17.8646 
N2194 X-288.287 Y-4.534 Z7.164 A18.5859 
N2195 X-288.365 Y-4.166 Z7.292 A19.2408 
N2196 X-288.445 Y-3.795 Z7.426 A19.8244 
N2197 X-288.526 Y-3.421 Z7.565 A20.3326 
N2198 X-288.609 Y-3.044 Z7.708 A20.7623 
N2199 X-288.692 Y-2.665 Z7.856 A21.1116 
N2200 X-288.776 Y-2.284 Z8.006 A21.3800 
N2201 X-288.860 Y-1.902 Z8.158 A21.5678 
N2202 X-288.945 Y-1.521 Z8.312 A21.6765 
N2203 X-289.029 Y-1.142 Z8.465 A21.7082 
N2204 X-289.113 Y-0.765 Z8.617 A21.6652 
N2205 X-289.195 Y-0.392 Z8.766 A21.5492 
N2206 X-289.276 Y-0.025 Z8.913 A21.3601 
N2207 X-289.355 Y0.335 Z9.055 A21.0959 
N2208 X-289.433 Y0.688 Z9.192 A20.7517 
N2209 X-289.507 Y1.031 Z9.322 A20.3211 
N2210 X-289.579 Y1.363 Z9.446 A19.7970 
N2211 X-289.648 Y1.685 Z9.562 A19.1738 
N2212 X-289.714 Y1.994 Z9.670 A18.4481 
N2213 X-289.776 Y2.290 Z9.769 A17.6200 
N2214 X-289.834 Y2.573 Z9.858 A16.6904 
N2215 X-289.889 Y2.842 Z9.938 A15.6602 
N2216 X-289.940 Y3.096 Z10.008 A14.5285 
N2217 X-289.987 Y3.336 Z10.069 A13.2950 
N2218 X-290.030 Y3.561 Z10.121 A11.9639 
N2219 X-290.069 Y3.771 Z10.164 A10.5434 
N2220 X-290.105 Y3.966 Z10.199 A9.0352 
N2221 X-290.137 Y4.148 Z10.227 A7.4282 
N2222 X-290.166 Y4.315 Z10.247 A5.7042 
N2223 X-290.192 Y4.469 Z10.261 A3.8471 
N2224 X-290.215 Y4.611 Z10.270 A1.8432 
N2225 X-290.235 Y4.741 Z10.273 A359.6780 
N2226 X-290.252 Y4.860 Z10.271 A357.3343 
N2227 X-290.268 Y4.969 Z10.265 A354.7947 
N2228 X-290.281 Y5.068 Z10.255 A352.0474 
N2229 X-290.292 Y5.160 Z10.241 A349.0907 
N2230 X-290.301 Y5.243 Z10.224 A345.9385 
N2231 X-290.308 Y5.320 Z10.203 A342.6187 
N2232 X-290.314 Y5.390 Z10.179 A339.1668 
N2233 X-290.319 Y5.454 Z10.153 A335.6186 
N2234 X-290.323 Y5.513 Z10.124 A332.0043 
N2235 X-290.325 Y5.568 Z10.092 A328.3456 
N2236 X-290.327 Y5.619 Z10.059 A324.6545 
N2237 X-290.328 Y5.666 Z10.023 A320.9344 
N2238 X-290.328 Y5.710 Z9.985 A317.1840 
N2239 X-290.328 Y5.751 Z9.945 A313.4003 
N2240 X-290.326 Y5.790 Z9.901 A309.5834 
N2241 X-290.324 Y5.827 Z9.853 A305.7402 
N2242 X-290.320 Y5.861 Z9.802 A301.8887 
N2243 X-290.316 Y5.893 Z9.746 A298.0594 
N2244 X-290.310 Y5.923 Z9.685 A294.2947 
N2245 X-290.303 Y5.949 Z9.619 A290.6439 
N2246 X-290.294 Y5.973 Z9.546 A287.1585 
N2247 X-290.284 Y5.994 Z9.467 A283.8844 
N2248 X-290.271 Y6.012 Z9.381 A280.8545 
N2249 X-290.256 Y6.026 Z9.287 A278.0819 
N2250 X-290.239 Y6.037 Z9.184 A275.5613 
N2251 X-290.219 Y6.044 Z9.072 A273.2748 
N2252 X-290.197 Y6.047 Z8.950 A271.1964 
N2253 X-290.171 Y6.046 Z8.817 A269.2969 
N2254 X-290.142 Y6.041 Z8.673 A267.5476 
N2255 X-290.111 Y6.031 Z8.518 A265.9227 
N2256 X-290.075 Y6.016 Z8.351 A264.3987 
N2257 X-290.037 Y5.995 Z8.172 A262.9516 
N2258 X-289.995 Y5.969 Z7.982 A261.5605 
N2259 X-289.949 Y5.936 Z7.780 A260.2144 
N2260 X-289.900 Y5.896 Z7.568 A258.9118 
N2261 X-289.848 Y5.849 Z7.345 A257.6523 
N2262 X-289.792 Y5.795 Z7.113 A256.4320 
N2263 X-289.733 Y5.734 Z6.872 A255.2449 
N2264 X-289.671 Y5.666 Z6.624 A254.0868 
N2265 X-289.606 Y5.590 Z6.369 A252.9554 
N2266 X-289.539 Y5.507 Z6.109 A251.8488 
N2267 X-289.470 Y5.417 Z5.844 A250.7637 
N2268 X-289.398 Y5.320 Z5.575 A249.6948 
N2269 X-289.325 Y5.216 Z5.303 A248.6348 
N2270 X-289.250 Y5.107 Z5.030 A247.5754 
N2271 X-289.173 Y4.991 Z4.756 A246.5093 
N2272 X-289.096 Y4.869 Z4.482 A245.4313 
N2273 X-289.017 Y4.741 Z4.209 A244.3384 
N2274 X-288.938 Y4.608 Z3.938 A243.2301 
N2275 X-288.858 Y4.469 Z3.669 A242.1065 
N2276 X-288.777 Y4.326 Z3.404 A240.9678 
N2277 X-288.697 Y4.177 Z3.142 A239.8133 
N2278 X-288.616 Y4.024 Z2.884 A238.6411 
N2279 X-288.535 Y3.867 Z2.632 A237.4481 
N2280 X-288.455 Y3.706 Z2.384 A236.2312 
N2281 X-288.374 Y3.541 Z2.141 A234.9874 
N2282 X-288.295 Y3.372 Z1.905 A233.7146 
N2283 X-288.215 Y3.199 Z1.674 A232.4110 
N2284 X-288.136 Y3.023 Z1.450 A231.0759 
N2285 X-288.058 Y2.844 Z1.233 A229.7087 
N2286 X-287.980 Y2.661 Z1.022 A228.3095 
N2287 X-287.903 Y2.476 Z0.818 A226.8783 
N2288 X-287.827 Y2.288 Z0.621 A225.4158 
N2289 X-287.752 Y2.096 Z0.431 A223.9224 
N2290 X-287.677 Y1.903 Z0.249 A222.3989 
N2291 X-287.604 Y1.706 Z0.074 A220.8464 
N2292 X-287.531 Y1.507 Z-0.094 A219.2659 
N2293 X-287.459 Y1.305 Z-0.255 A217.6588 
N2294 X-287.388 Y1.101 Z-0.408 A216.0270 
N2295 X-287.317 Y0.895 Z-0.554 A214.3721 
N2296 X-287.248 Y0.686 Z-0.693 A212.6962 
N2297 X-287.179 Y0.475 Z-0.825 A211.0016 
N2298 X-287.111 Y0.261 Z-0.949 A209.2904 
N2299 X-287.044 Y0.045 Z-1.067 A207.5650 
N2300 X-286.978 Y-0.174 Z-1.177 A205.8278 
N2301 X-286.912 Y-0.395 Z-1.280 A204.0814 
N2302 X-286.848 Y-0.618 Z-1.375 A202.3286 
N2303 X-286.784 Y-0.844 Z-1.464 A200.5722 
N2304 X-286.720 Y-1.073 Z-1.546 A198.8150 
N2305 X-286.658 Y-1.304 Z-1.621 A197.0601 
N2306 X-286.596 Y-1.538 Z-1.689 A195.3101 
N2307 X-286.534 Y-1.774 Z-1.749 A193.5679 
N2308 X-286.473 Y-2.014 Z-1.803 A191.8360 
N2309 X-286.413 Y-2.256 Z-1.850 A190.1170 
N2310 X-286.353 Y-2.501 Z-1.890 A188.4135 
N2311 X-286.294 Y-2.749 Z-1.922 A186.7280 
N2312 X-286.235 Y-3.001 Z-1.948 A185.0632 
N2313 X-286.177 Y-3.255 Z-1.966 A183.4212 
N2314 X-286.119 Y-3.512 Z-1.978 A181.8042 
N2315 X-286.062 Y-3.773 Z-1.982 A180.2144 
N2316 X-286.006 Y-4.037 Z-1.979 A178.6534 
N2317 X-285.949 Y-4.304 Z-1.968 A177.1229 
N2318 X-285.893 Y-4.575 Z-1.951 A175.6242 
N2319 X-285.838 Y-4.849 Z-1.925 A174.1586 
N2320 X-285.783 Y-5.126 Z-1.893 A172.7274 
N2321 X-285.729 Y-5.407 Z-1.853 A171.3313 
N2322 X-285.675 Y-5.690 Z-1.806 A169.9713 
N2323 X-285.621 Y-5.978 Z-1.751 A168.6478 
N2324 X-285.568 Y-6.268 Z-1.688 A167.3612 
N2325 X-285.515 Y-6.562 Z-1.618 A166.1115 
N2326 X-285.463 Y-6.859 Z-1.541 A164.8988 
N2327 X-285.412 Y-7.159 Z-1.456 A163.7228 
N2328 X-285.361 Y-7.462 Z-1.363 A162.5833 
N2329 X-285.310 Y-7.768 Z-1.263 A161.4796 
N2330 X-285.260 Y-8.077 Z-1.156 A160.4114 
N2331 X-285.210 Y-8.389 Z-1.041 A159.3779 
N2332 X-285.161 Y-8.704 Z-0.918 A158.3787 
N2333 X-285.113 Y-9.021 Z-0.788 A157.4134 
N2334 X-285.065 Y-9.341 Z-0.651 A156.4816 
N2335 X-285.017 Y-9.664 Z-0.507 A155.5832 
N2336 X-284.971 Y-9.989 Z-0.356 A154.7180 
N2337 X-284.924 Y-10.316 Z-0.197 A153.8863 
N2338 X-284.879 Y-10.646 Z-0.032 A153.0880 
N2339 X-284.833 Y-10.978 Z0.140 A152.3232 
N2340 X-284.789 Y-11.312 Z0.319 A151.5918 
N2341 X-284.745 Y-11.648 Z0.504 A150.8934 
N2342 X-284.701 Y-11.986 Z0.696 A150.2271 
N2343 X-284.658 Y-12.326 Z0.894 A149.5917 
N2344 X-284.615 Y-12.668 Z1.098 A148.9857 
N2345 X-284.573 Y-13.011 Z1.308 A148.4078 
N2346 X-284.532 Y-13.357 Z1.523 A147.8567 
N2347 X-284.491 Y-13.704 Z1.744 A147.3311 
N2348 X-284.450 Y-14.052 Z1.971 A146.8303 
N2349 X-284.410 Y-14.402 Z2.202 A146.3533 
N2350 X-284.370 Y-14.754 Z2.439 A145.8995 
N2351 X-284.331 Y-15.106 Z2.680 A145.4681 
N2352 X-284.292 Y-15.460 Z2.927 A145.0585 
N2353 X-284.254 Y-15.816 Z3.177 A144.6703 
N2354 X-284.216 Y-16.172 Z3.432 A144.3031 
N2355 X-284.178 Y-16.529 Z3.692 A143.9564 
N2356 X-284.141 Y-16.888 Z3.955 A143.6300 
N2357 X-284.104 Y-17.247 Z4.221 A143.3238 
N2358 X-284.067 Y-17.606 Z4.491 A143.0378 
N2359 X-284.031 Y-17.966 Z4.764 A142.7719 
N2360 X-283.995 Y-18.325 Z5.039 A142.5257 
N2361 X-283.960 Y-18.684 Z5.316 A142.2986 
N2362 X-283.925 Y-19.042 Z5.594 A142.0892 
N2363 X-283.891 Y-19.397 Z5.872 A141.8963 
N2364 X-283.857 Y-19.749 Z6.150 A141.7187 
N2365 X-283.824 Y-20.097 Z6.426 A141.5555 
N2366 X-283.791 Y-20.439 Z6.698 A141.4066 
N2367 X-283.760 Y-20.775 Z6.967 A141.2720 
N2368 X-283.729 Y-21.101 Z7.230 A141.1519 
N2369 X-283.700 Y-21.417 Z7.485 A141.0462 
N2370 X-283.672 Y-21.720 Z7.731 A140.9544 
N2371 X-283.645 Y-22.009 Z7.967 A140.8751 
N2372 X-283.620 Y-22.283 Z8.189 A140.8071 
N2373 X-283.596 Y-22.539 Z8.399 A140.7485 
N2374 X-283.574 Y-22.776 Z8.593 A140.6979 
N2375 X-283.554 Y-22.994 Z8.772 A140.6537 
N2376 X-283.536 Y-23.191 Z8.934 A140.6148 
N2377 X-283.520 Y-23.368 Z9.079 A140.5798 
N2378 X-283.506 Y-23.525 Z9.208 A140.5475 
N2379 X-283.493 Y-23.662 Z9.321 A140.5158 
N2380 X-283.483 Y-23.781 Z9.419 A140.4813 
N2381 X-283.473 Y-23.882 Z9.502 A140.4390 
N2382 X-283.466 Y-23.967 Z9.572 A140.3814 
N2383 X-283.459 Y-24.038 Z9.631 A140.3011 
N2384 X-283.454 Y-24.097 Z9.680 A140.1289 
N2385 X-283.450 Y-24.145 Z9.720 A139.5868 
N2386 X-283.447 Y-24.185 Z9.755 A138.1927 
N2387 X-283.445 Y-24.220 Z9.788 A135.1456 
N2388 X-283.443 Y-24.252 Z9.823 A129.3936 
N2389 X-283.443 Y-24.279 Z9.861 A121.4601 
N2390 X-283.444 Y-24.298 Z9.898 A113.4133 
N2391 X-283.445 Y-24.311 Z9.933 A105.6347 
N2392 X-283.447 Y-24.317 Z9.965 A98.7646 
N2393 X-283.448 Y-24.319 Z9.993 A92.9102 
N2394 X-283.449 Y-24.319 Z10.016 A88.0271 
N2395 X-283.451 Y-24.318 Z10.037 A83.6104 
N2396 X-283.452 Y-24.315 Z10.056 A79.5899 
N2397 X-283.454 Y-24.311 Z10.074 A75.8792 
N2398 X-283.455 Y-24.306 Z10.090 A72.3992 
N2399 X-283.457 Y-24.300 Z10.106 A69.0850 
N2400 X-283.458 Y-24.294 Z10.121 A65.8852 
N2401 X-283.460 Y-24.287 Z10.136 A62.7601 
