; PROGRAM NAME: B01143013
; ORDER       : B011430
; OPER. NAME  : Spiral Rough Airfoil:104
; OPER. DESCR.: spiral roughing airfoil/pioro zgr
; OPER. TYPE  : rouAirfoil
; GEO. OPTION : 6
; MACHINE     : HSTM_500_SIM840D_Py
;             : HSTM500 - HAMUEL: 5-axis milling machine - SIM840D Traori PP_Script
; CONTROL     : SINUMERIK 840D
; created:   2022-10-26 13:18:48.135674
;-------DODATKOWE DANE-------------------
; PROGRAMISTA : Zbigniew Papierowski
; PARTID      : 135T006774P1021_-
;  ap         : 1.7
;  ae         : 35.0
;  lean_angle : 1.0
;  airf_offset: 1.0
;----------------------------------------
;RAPORT("TB011430","Spiral Rough Airfoil:104")
N10 TRAFOOF
N11 D0
N12 G90 G94
N13 G0 G53 D0 Z550 B0
N14 STOPRE
M9 ; chlodziwo wyl
; --- Spiral Rough Airfoil:104 - spiral roughing airfoil/pioro zgr ---
N16 ;ToolChange : concat=None ,current_tdmid=None, PP.tdmId=941291
N17 TRAFOOF
N18 G0 G53 D0 X-200 Y150 Z550 B0
N19 T="7741291"
;RAPORT("TB011430","ToolChangeStart 7741291")
N20 M6
;RAPORT("TB011430","ToolChangeEnd")
N21 STOPRE
N22 MSG(" TLID=941291 D=50.0 R=6.0 Ang=0.0 Len=90.0 ")
N23 ; (Preloading tool)
N24 T="7741293"
N25 S1718 M03
N26 STOPRE
N27 CYCLE832(0.1,3,1)
N28 G0 G53 A90.9293 B0.0000
N29 TRAORI
N30 G54 D1
N31 D1 
N32 ; DELTA A > 40.1
N33 TRAFOOF
N34 D1
N35 STOPRE
N36 G00 G54 Z296.000
N37 G01 A90.9293 F10000
N38 TRAORI
N39 G54 D1
N40 STOPRE
N41 TRANS 
N42 G00 X-215.182 Y-92.479 Z45.804 A90.9293 
N43 M348 ; chlodziwo mgla
N44 X-215.182 Y-42.485 Z46.615 
N45 G01 X-215.182 Y-39.396 Z46.121 F2834 
N46 X-215.182 Y-36.610 Z44.697 
N47 X-215.182 Y-34.400 Z42.482 
N48 X-215.182 Y-32.983 Z39.693 
N49 X-215.182 Y-32.498 Z36.602 
N50 X-215.182 Y-32.536 Z33.067 A91.0347 
N51 X-215.182 Y-32.572 Z29.596 A91.1510 
N52 X-215.182 Y-32.539 Z26.246 A91.0442 
N53 X-215.182 Y-32.549 Z23.067 
N54 X-215.182 Y-32.560 Z20.094 A91.0500 
N55 X-215.182 Y-32.582 Z17.372 A91.0923 
N56 X-215.182 Y-32.593 Z14.917 A91.1050 
N57 X-215.182 Y-32.592 Z12.741 A91.0822 
N58 X-215.182 Y-32.588 Z10.841 A91.0442 
N59 X-215.182 Y-32.597 Z9.206 
N60 X-215.182 Y-32.610 Z7.800 A91.0645 
N61 X-215.182 Y-32.786 Z6.619 A91.5945 
N62 X-215.182 Y-33.245 Z5.616 A93.0261 
N63 X-215.182 Y-34.277 Z4.709 A96.2748 
N64 X-215.182 Y-36.236 Z3.686 A102.5236 
N65 X-215.182 Y-39.131 Z2.163 A112.1383 
N66 X-215.182 Y-42.381 Z-0.170 A124.0177 
N67 X-215.182 Y-45.382 Z-3.397 A137.1504 
N68 X-215.182 Y-47.545 Z-7.180 A150.1377 
N69 X-215.182 Y-48.670 Z-11.043 A162.0956 
N70 X-215.182 Y-48.772 Z-14.059 A170.9530 
N71 X-215.182 Y-48.271 Z-15.891 A176.2239 
N72 X-215.182 Y-47.477 Z-16.914 A179.1560 
N73 X-215.182 Y-46.482 Z-17.418 A180.6145 
N74 X-215.182 Y-45.292 Z-17.605 A181.1710 
N75 X-215.182 Y-43.887 Z-17.634 A181.2730 
N76 X-215.182 Y-42.243 Z-17.613 A181.2208 
N77 X-215.182 Y-40.347 Z-17.600 A181.1858 
N78 X-215.182 Y-38.189 Z-17.601 
N79 X-215.182 Y-35.769 Z-17.604 
N80 X-215.182 Y-33.105 Z-17.606 
N81 X-215.182 Y-30.224 Z-17.610 A181.1898 
N82 X-215.182 Y-27.161 Z-17.612 A181.1901 
N83 X-215.182 Y-23.961 Z-17.614 A181.1889 
N84 X-215.182 Y-20.677 Z-17.616 A181.1874 
N85 X-215.182 Y-17.366 Z-17.617 A181.1861 
N86 X-215.182 Y-14.086 Z-17.619 A181.1858 
N87 X-215.182 Y-10.895 Z-17.622 A181.1870 
N88 X-215.182 Y-7.844 Z-17.625 A181.1922 
N89 X-215.182 Y-4.979 Z-17.630 A181.2028 
N90 X-215.182 Y-2.335 Z-17.637 A181.2204 
N91 X-215.182 Y0.064 Z-17.644 A181.2361 
N92 X-215.182 Y2.203 Z-17.647 A181.2422 
N93 X-215.182 Y4.081 Z-17.636 A181.2000 
N94 X-215.182 Y5.700 Z-17.636 A181.1858 
N95 X-215.182 Y7.091 Z-17.642 
N96 X-215.182 Y8.279 Z-17.746 A181.4944 
N97 X-215.182 Y9.282 Z-18.175 A182.8255 
N98 X-215.182 Y10.177 Z-19.114 A185.7775 
N99 X-215.182 Y11.113 Z-20.766 A191.0406 
N100 X-215.182 Y12.391 Z-23.270 A199.2541 
N101 X-215.182 Y14.428 Z-26.467 A210.5060 
N102 X-215.182 Y17.208 Z-29.446 A222.6456 
N103 X-215.182 Y20.539 Z-31.787 A234.7836 
N104 X-215.182 Y24.051 Z-33.264 A246.1302 
N105 X-215.182 Y27.155 Z-33.838 A255.4787 
N106 X-215.182 Y29.554 Z-33.761 A262.4817 
N107 X-215.182 Y31.118 Z-33.292 A267.0005 
N108 X-215.182 Y31.980 Z-32.614 A269.4918 
N109 X-215.182 Y32.385 Z-31.798 A270.6718 
N110 X-215.182 Y32.542 Z-30.857 A271.1387 
N111 X-215.182 Y32.584 Z-29.787 A271.2776 
N112 X-215.182 Y32.584 Z-28.583 A271.2938 
N113 X-215.182 Y32.573 Z-27.249 A271.2766 
N114 X-215.182 Y32.562 Z-25.792 A271.2586 
N115 X-215.182 Y32.557 Z-24.227 A271.2583 
N116 X-215.182 Y32.553 Z-22.574 
N117 X-215.182 Y32.549 Z-20.858 
N118 X-215.182 Y32.546 Z-19.109 A271.2628 
N119 X-215.182 Y32.547 Z-17.359 A271.2800 
N120 X-215.182 Y32.549 Z-15.639 A271.3014 
N121 X-215.182 Y32.550 Z-13.978 A271.3192 
N122 X-215.182 Y32.546 Z-12.404 A271.3200 
N123 X-215.182 Y32.534 Z-10.937 A271.2917 
N124 X-215.182 Y32.523 Z-9.593 A271.2583 
N125 X-215.182 Y32.524 Z-8.379 
N126 X-215.182 Y32.525 Z-7.282 
N127 X-215.182 Y32.661 Z-6.322 A271.6776 
N128 X-215.182 Y32.983 Z-5.476 A272.6851 
N129 X-215.182 Y33.619 Z-4.716 A274.6895 
N130 X-215.182 Y34.769 Z-3.962 A278.3330 
N131 X-215.182 Y36.731 Z-3.013 A284.6315 
N132 X-215.182 Y39.575 Z-1.502 A294.1585 
N133 X-215.182 Y42.664 Z0.786 A305.6004 
N134 X-215.182 Y45.513 Z3.929 A318.2580 
N135 X-215.182 Y47.628 Z7.695 A331.1472 
N136 X-215.182 Y48.689 Z11.450 A342.7563 
N137 X-215.182 Y48.795 Z14.467 A351.6394 
N138 X-215.182 Y48.307 Z16.288 A356.9088 
N139 X-215.182 Y47.537 Z17.200 A359.5376 
N140 X-215.182 Y46.576 Z17.608 A0.7221 
N141 X-215.182 Y45.422 Z17.765 A1.1932 
N142 X-215.182 Y44.054 Z17.806 A1.3327 
N143 X-215.182 Y42.449 Z17.799 A1.3363 
N144 X-215.182 Y40.589 Z17.780 A1.3031 
N145 X-215.182 Y38.469 Z17.770 A1.2944 
N146 X-215.182 Y36.086 Z17.764 
N147 X-215.182 Y33.454 Z17.757 
N148 X-215.182 Y30.599 Z17.750 A1.2948 
N149 X-215.182 Y27.555 Z17.743 A1.2978 
N150 X-215.182 Y24.367 Z17.735 A1.2976 
N151 X-215.182 Y21.087 Z17.725 A1.2965 
N152 X-215.182 Y17.772 Z17.716 A1.2950 
N153 X-215.182 Y14.480 Z17.706 A1.2944 
N154 X-215.182 Y11.271 Z17.698 A1.2954 
N155 X-215.182 Y8.196 Z17.691 A1.2988 
N156 X-215.182 Y5.302 Z17.684 A1.3045 
N157 X-215.182 Y2.625 Z17.679 A1.3119 
N158 X-215.182 Y0.192 Z17.674 A1.3172 
N159 X-215.182 Y-1.981 Z17.669 A1.3190 
N160 X-215.182 Y-3.893 Z17.660 A1.3051 
N161 X-215.182 Y-5.547 Z17.654 A1.2944 
N162 X-215.182 Y-6.962 Z17.652 
N163 X-215.182 Y-8.167 Z17.690 A1.4169 
N164 X-215.182 Y-9.179 Z17.962 A2.2647 
N165 X-215.182 Y-10.063 Z18.727 A4.6560 
N166 X-215.182 Y-10.974 Z20.366 A9.8273 
N167 X-215.182 Y-12.259 Z23.043 A18.5203 
N168 X-215.182 Y-14.306 Z26.335 A30.0293 
N169 X-215.182 Y-17.163 Z29.437 A42.5968 
N170 X-215.182 Y-20.660 Z31.889 A55.3406 
N171 X-215.182 Y-24.045 Z33.265 A66.2116 
N172 X-215.182 Y-27.033 Z33.799 A75.1882 
N173 X-215.182 Y-29.353 Z33.719 A81.9441 
N174 X-215.182 Y-30.823 Z33.256 A86.1599 
N175 X-215.182 Y-31.684 Z32.589 A88.6182 
N176 X-215.182 Y-32.172 Z31.780 A90.0121 
N177 X-215.182 Y-32.425 Z30.844 A90.7416 
N178 X-215.182 Y-32.531 Z29.779 A91.0551 
N179 X-215.182 Y-32.556 Z28.585 A91.1357 
N180 X-215.182 Y-32.549 Z27.265 A91.1177 
N181 X-215.182 Y-32.537 Z25.826 A91.0836 
N182 X-215.182 Y-32.539 Z24.285 A91.0829 
N183 X-215.182 Y-32.541 Z22.658 
N184 X-215.182 Y-32.544 Z20.972 
N185 X-215.182 Y-32.549 Z19.256 A91.0886 
N186 X-215.182 Y-32.553 Z17.540 A91.0913 
N187 X-215.182 Y-32.556 Z15.855 A91.0893 
N188 X-215.182 Y-32.557 Z14.228 A91.0829 
N189 X-215.182 Y-32.561 Z12.685 
N190 X-215.182 Y-32.564 Z11.243 
N191 X-215.182 Y-32.569 Z9.914 A91.0916 
N192 X-215.182 Y-32.625 Z8.713 A91.2622 
N193 X-215.182 Y-32.756 Z7.640 A91.6743 
N194 X-215.182 Y-33.023 Z6.689 A92.5250 
N195 X-215.182 Y-33.524 Z5.838 A94.1248 
N196 X-215.182 Y-34.420 Z5.034 A96.9904 
N197 X-215.182 Y-35.915 Z4.157 A101.8029 
N198 X-215.182 Y-38.087 Z2.991 A108.9814 
N199 X-215.182 Y-40.685 Z1.319 A118.1059 
N200 X-215.182 Y-43.381 Z-1.017 A128.6991 
N201 X-215.182 Y-45.750 Z-3.977 A139.9784 
N202 X-215.182 Y-47.470 Z-7.344 A151.2190 
N203 X-215.182 Y-48.390 Z-10.788 A161.7859 
N204 X-215.182 Y-48.461 Z-13.541 A169.8284 
N205 X-215.182 Y-47.982 Z-15.326 A174.9179 
N206 X-215.182 Y-47.200 Z-16.403 A177.9600 
N207 X-215.182 Y-46.202 Z-17.009 A179.6692 
N208 X-215.182 Y-44.999 Z-17.317 A180.5398 
N209 X-215.182 Y-43.578 Z-17.453 A180.9311 
N210 X-215.182 Y-41.923 Z-17.502 A181.0785 
N211 X-215.182 Y-40.020 Z-17.512 A181.1163 
N212 X-215.182 Y-37.863 Z-17.507 A181.1128 
N213 X-215.182 Y-35.458 Z-17.500 A181.1002 
N214 X-215.182 Y-32.819 Z-17.497 A181.0981 
N215 X-215.182 Y-29.971 Z-17.495 
N216 X-215.182 Y-26.950 Z-17.493 
N217 X-215.182 Y-23.802 Z-17.492 
N218 X-215.182 Y-20.577 Z-17.490 A181.0992 
N219 X-215.182 Y-17.333 Z-17.490 A181.1029 
N220 X-215.182 Y-14.124 Z-17.490 A181.1113 
N221 X-215.182 Y-11.008 Z-17.493 A181.1242 
N222 X-215.182 Y-8.031 Z-17.493 A181.1330 
N223 X-215.182 Y-5.239 Z-17.491 A181.1306 
N224 X-215.182 Y-2.661 Z-17.482 A181.1017 
N225 X-215.182 Y-0.324 Z-17.484 A181.0981 
N226 X-215.182 Y1.769 Z-17.487 
N227 X-215.182 Y3.618 Z-17.520 A181.1958 
N228 X-215.182 Y5.222 Z-17.647 A181.6001 
N229 X-215.182 Y6.604 Z-17.906 A182.4402 
N230 X-215.182 Y7.795 Z-18.371 A183.9665 
N231 X-215.182 Y8.850 Z-19.150 A186.5236 
N232 X-215.182 Y9.869 Z-20.384 A190.5846 
N233 X-215.182 Y11.036 Z-22.226 A196.7343 
N234 X-215.182 Y12.632 Z-24.701 A205.3486 
N235 X-215.182 Y14.779 Z-27.310 A215.3363 
N236 X-215.182 Y17.383 Z-29.602 A225.6220 
N237 X-215.182 Y20.243 Z-31.334 A235.5353 
N238 X-215.182 Y23.120 Z-32.426 A244.6320 
N239 X-215.182 Y25.686 Z-32.879 A252.2719 
N240 X-215.182 Y27.748 Z-32.828 A258.1913 
N241 X-215.182 Y29.306 Z-32.436 A262.5761 
N242 X-215.182 Y30.459 Z-31.813 A265.7933 
N243 X-215.182 Y31.289 Z-31.015 A268.1123 
N244 X-215.182 Y31.852 Z-30.072 A269.6983 
N245 X-215.182 Y32.192 Z-28.997 A270.6755 
N246 X-215.182 Y32.366 Z-27.800 A271.1964 
N247 X-215.182 Y32.433 Z-26.487 A271.4208 
N248 X-215.182 Y32.445 Z-25.068 A271.4892 
N249 X-215.182 Y32.435 Z-23.557 A271.4970 
N250 X-215.182 Y32.420 Z-21.975 A271.4903 
N251 X-215.182 Y32.405 Z-20.344 A271.4860 
N252 X-215.182 Y32.392 Z-18.691 A271.4852 
N253 X-215.182 Y32.381 Z-17.045 A271.4856 
N254 X-215.182 Y32.369 Z-15.431 A271.4841 
N255 X-215.182 Y32.357 Z-13.876 A271.4791 
N256 X-215.182 Y32.348 Z-12.402 
N257 X-215.182 Y32.340 Z-11.021 
N258 X-215.182 Y32.377 Z-9.750 A271.6181 
N259 X-215.182 Y32.527 Z-8.594 A272.1129 
N260 X-215.182 Y32.860 Z-7.548 A273.1983 
N261 X-215.182 Y33.455 Z-6.590 A275.1325 
N262 X-215.182 Y34.355 Z-5.679 A278.0809 
N263 X-215.182 Y35.586 Z-4.744 A282.1654 
N264 X-215.182 Y37.173 Z-3.680 A287.5469 
N265 X-215.182 Y39.120 Z-2.336 A294.4147 
N266 X-215.182 Y41.261 Z-0.591 A302.5272 
N267 X-215.182 Y43.373 Z1.618 A311.5587 
N268 X-215.182 Y45.245 Z4.298 A321.2333 
N269 X-215.182 Y46.676 Z7.374 A331.2777 
N270 X-215.182 Y47.444 Z10.511 A340.7959 
N271 X-215.182 Y47.496 Z13.161 A348.4824 
N272 X-215.182 Y47.020 Z15.060 A353.8635 
N273 X-215.182 Y46.213 Z16.320 A357.4075 
N274 X-215.182 Y45.167 Z17.084 A359.5675 
N275 X-215.182 Y43.908 Z17.485 A0.7181 
N276 X-215.182 Y42.432 Z17.655 A1.2291 
N277 X-215.182 Y40.726 Z17.702 A1.4013 
N278 X-215.182 Y38.777 Z17.699 A1.4350 
N279 X-215.182 Y36.583 Z17.681 A1.4273 
N280 X-215.182 Y34.151 Z17.661 A1.4165 
N281 X-215.182 Y31.498 Z17.644 
N282 X-215.182 Y28.651 Z17.626 
N283 X-215.182 Y25.647 Z17.607 
N284 X-215.182 Y22.534 Z17.587 
N285 X-215.182 Y19.362 Z17.567 A1.4176 
N286 X-215.182 Y16.187 Z17.546 A1.4198 
N287 X-215.182 Y13.063 Z17.526 A1.4254 
N288 X-215.182 Y10.043 Z17.508 A1.4361 
N289 X-215.182 Y7.172 Z17.491 A1.4499 
N290 X-215.182 Y4.491 Z17.474 A1.4578 
N291 X-215.182 Y2.027 Z17.455 A1.4529 
N292 X-215.182 Y-0.201 Z17.431 A1.4245 
N293 X-215.182 Y-2.183 Z17.419 
N294 X-215.182 Y-3.929 Z17.409 
N295 X-215.182 Y-5.444 Z17.471 A1.6449 
N296 X-215.182 Y-6.749 Z17.695 A2.3783 
N297 X-215.182 Y-7.887 Z18.284 A4.2723 
N298 X-215.182 Y-8.968 Z19.567 A8.3887 
N299 X-215.182 Y-10.220 Z21.678 A15.3057 
N300 X-215.182 Y-11.771 Z24.036 A23.4899 
N301 X-215.182 Y-13.625 Z26.284 A32.0177 
N302 X-215.182 Y-15.764 Z28.286 A40.6329 
N303 X-215.182 Y-18.082 Z29.902 A48.9526 
N304 X-215.182 Y-20.536 Z31.127 A57.0220 
N305 X-215.182 Y-22.978 Z31.904 A64.5312 
N306 X-215.182 Y-25.361 Z32.272 A71.5497 
N307 X-215.182 Y-27.605 Z32.255 A78.0066 
N308 X-215.182 Y-29.394 Z31.866 A83.0811 
N309 X-215.182 Y-30.683 Z31.215 A86.7247 
N310 X-215.182 Y-31.515 Z30.383 A89.0848 
N311 X-215.182 Y-31.965 Z29.419 A90.3755 
N312 X-215.182 Y-32.152 Z28.342 A90.9171 
N313 X-215.182 Y-32.195 Z27.160 A91.0417 
N314 X-215.182 Y-32.185 Z25.877 A91.0102 
N315 X-215.182 Y-32.175 Z24.504 A90.9680 
N316 X-215.182 Y-32.181 Z23.057 
N317 X-215.182 Y-32.187 Z21.550 
N318 X-215.182 Y-32.198 Z20.011 A90.9772 
N319 X-215.182 Y-32.208 Z18.463 A90.9824 
N320 X-215.182 Y-32.214 Z16.932 A90.9748 
N321 X-215.182 Y-32.220 Z15.441 A90.9680 
N322 X-215.182 Y-32.230 Z14.010 
N323 X-215.182 Y-32.239 Z12.647 
N324 X-215.182 Y-32.327 Z11.375 A91.2215 
N325 X-215.182 Y-32.585 Z10.200 A92.0200 
N326 X-215.182 Y-33.098 Z9.113 A93.6522 
N327 X-215.182 Y-33.930 Z8.083 A96.3466 
N328 X-215.182 Y-35.064 Z7.056 A100.1037 
N329 X-215.182 Y-36.438 Z5.972 A104.7858 
N330 X-215.182 Y-37.987 Z4.765 A110.2655 
N331 X-215.182 Y-39.611 Z3.388 A116.3400 
N332 X-215.182 Y-41.198 Z1.825 A122.7649 
N333 X-215.182 Y-42.704 Z0.044 A129.5381 
N334 X-215.182 Y-44.052 Z-1.961 A136.5701 
N335 X-215.182 Y-45.163 Z-4.167 A143.7615 
N336 X-215.182 Y-45.957 Z-6.519 A150.9626 
N337 X-215.182 Y-46.372 Z-8.930 A157.9950 
N338 X-215.182 Y-46.373 Z-11.283 A164.6513 
N339 X-215.182 Y-45.955 Z-13.441 A170.6690 
N340 X-215.182 Y-45.141 Z-15.102 A175.2732 
N341 X-215.182 Y-44.022 Z-16.170 A178.2294 
N342 X-215.182 Y-42.665 Z-16.773 A179.9073 
N343 X-215.182 Y-41.089 Z-17.073 A180.7567 
N344 X-215.182 Y-39.292 Z-17.192 A181.1075 
N345 X-215.182 Y-37.271 Z-17.215 A181.1911 
N346 X-215.182 Y-35.026 Z-17.203 A181.1679 
N347 X-215.182 Y-32.568 Z-17.191 A181.1381 
N348 X-215.182 Y-29.918 Z-17.191 
N349 X-215.182 Y-27.104 Z-17.192 
N350 X-215.182 Y-24.165 Z-17.193 
N351 X-215.182 Y-21.148 Z-17.195 A181.1416 
N352 X-215.182 Y-18.103 Z-17.198 A181.1474 
N353 X-215.182 Y-15.081 Z-17.202 A181.1579 
N354 X-215.182 Y-12.130 Z-17.207 A181.1726 
N355 X-215.182 Y-9.298 Z-17.211 A181.1823 
N356 X-215.182 Y-6.623 Z-17.210 A181.1734 
N357 X-215.182 Y-4.136 Z-17.202 A181.1381 
N358 X-215.182 Y-1.861 Z-17.208 
N359 X-215.182 Y0.205 Z-17.214 
N360 X-215.182 Y2.046 Z-17.323 A181.4732 
N361 X-215.182 Y3.672 Z-17.599 A182.3629 
N362 X-215.182 Y5.110 Z-18.128 A184.1029 
N363 X-215.182 Y6.415 Z-19.016 A187.0584 
N364 X-215.182 Y7.688 Z-20.339 A191.5251 
N365 X-215.182 Y9.044 Z-22.007 A197.3293 
N366 X-215.182 Y10.539 Z-23.776 A203.8316 
N367 X-215.182 Y12.203 Z-25.509 A210.7027 
N368 X-215.182 Y14.024 Z-27.092 A217.6685 
N369 X-215.182 Y15.977 Z-28.457 A224.5783 
N370 X-215.182 Y18.017 Z-29.552 A231.2970 
N371 X-215.182 Y20.094 Z-30.353 A237.7390 
N372 X-215.182 Y22.158 Z-30.850 A243.8414 
N373 X-215.182 Y24.173 Z-31.050 A249.6023 
N374 X-215.182 Y26.071 Z-30.957 A254.9103 
N375 X-215.182 Y27.769 Z-30.586 A259.5963 
N376 X-215.182 Y29.209 Z-29.972 A263.5642 
N377 X-215.182 Y30.330 Z-29.156 A266.6618 
N378 X-215.182 Y31.113 Z-28.182 A268.8447 
N379 X-215.182 Y31.604 Z-27.084 A270.2392 
N380 X-215.182 Y31.884 Z-25.884 A271.0583 
N381 X-215.182 Y32.024 Z-24.596 A271.4984 
N382 X-215.182 Y32.079 Z-23.234 A271.7055 
N383 X-215.182 Y32.085 Z-21.812 A271.7735 
N384 X-215.182 Y32.065 Z-20.350 A271.7674 
N385 X-215.182 Y32.037 Z-18.867 A271.7295 
N386 X-215.182 Y32.014 Z-17.386 A271.6981 
N387 X-215.182 Y32.003 Z-15.927 
N388 X-215.182 Y31.994 Z-14.505 
N389 X-215.182 Y31.997 Z-13.134 A271.7379 
N390 X-215.182 Y32.087 Z-11.843 A272.0567 
N391 X-215.182 Y32.287 Z-10.636 A272.7362 
N392 X-215.182 Y32.663 Z-9.512 A273.9931 
N393 X-215.182 Y33.274 Z-8.455 A276.0373 
N394 X-215.182 Y34.163 Z-7.427 A279.0313 
N395 X-215.182 Y35.313 Z-6.377 A282.9702 
N396 X-215.182 Y36.661 Z-5.250 A287.7253 
N397 X-215.182 Y38.146 Z-3.991 A293.1808 
N398 X-215.182 Y39.668 Z-2.567 A299.1299 
N399 X-215.182 Y41.146 Z-0.959 A305.4219 
N400 X-215.182 Y42.536 Z0.865 A312.0727 
N401 X-215.182 Y43.768 Z2.911 A319.0151 
N402 X-215.182 Y44.761 Z5.162 A326.1604 
N403 X-215.182 Y45.429 Z7.550 A333.3315 
N404 X-215.182 Y45.711 Z9.986 A340.3504 
N405 X-215.182 Y45.557 Z12.284 A346.8006 
N406 X-215.182 Y44.985 Z14.265 A352.2924 
N407 X-215.182 Y44.052 Z15.740 A356.3718 
N408 X-215.182 Y42.840 Z16.687 A359.0073 
N409 X-215.182 Y41.395 Z17.226 A0.5371 
N410 X-215.182 Y39.729 Z17.491 A1.3301 
N411 X-215.182 Y37.838 Z17.585 A1.6621 
N412 X-215.182 Y35.720 Z17.586 A1.7401 
N413 X-215.182 Y33.378 Z17.550 A1.7148 
N414 X-215.182 Y30.827 Z17.514 A1.6886 
N415 X-215.182 Y28.089 Z17.488 
N416 X-215.182 Y25.197 Z17.460 
N417 X-215.182 Y22.193 Z17.431 
N418 X-215.182 Y19.128 Z17.402 A1.6910 
N419 X-215.182 Y16.053 Z17.372 A1.6920 
N420 X-215.182 Y13.020 Z17.341 A1.6935 
N421 X-215.182 Y10.081 Z17.312 A1.6975 
N422 X-215.182 Y7.279 Z17.285 A1.7044 
N423 X-215.182 Y4.655 Z17.260 A1.7131 
N424 X-215.182 Y2.238 Z17.236 A1.7176 
N425 X-215.182 Y0.046 Z17.214 A1.7177 
N426 X-215.182 Y-1.910 Z17.184 A1.6886 
N427 X-215.182 Y-3.628 Z17.169 
N428 X-215.182 Y-5.128 Z17.155 
N429 X-215.182 Y-6.421 Z17.272 A2.0852 
N430 X-215.182 Y-7.541 Z17.738 A3.5764 
N431 X-215.182 Y-8.582 Z18.883 A7.2242 
N432 X-215.182 Y-9.754 Z20.894 A13.7406 
N433 X-215.182 Y-11.279 Z23.407 A22.2873 
N434 X-215.182 Y-13.148 Z25.811 A31.2244 
N435 X-215.182 Y-15.270 Z27.871 A39.9314 
N436 X-215.182 Y-17.587 Z29.550 A48.3676 
N437 X-215.182 Y-19.967 Z30.780 A56.2541 
N438 X-215.182 Y-22.323 Z31.576 A63.5433 
N439 X-215.182 Y-24.644 Z31.992 A70.4183 
N440 X-215.182 Y-26.976 Z32.073 A77.1785 
N441 X-215.182 Y-28.880 Z31.763 A82.6125 
N442 X-215.182 Y-30.207 Z31.169 A86.3701 
N443 X-215.182 Y-31.049 Z30.396 A88.7594 
N444 X-215.182 Y-31.523 Z29.496 A90.1088 
N445 X-215.182 Y-31.736 Z28.489 A90.7195 
N446 X-215.182 Y-31.798 Z27.383 A90.8916 
N447 X-215.182 Y-31.796 Z26.183 A90.8736 
N448 X-215.182 Y-31.787 Z24.898 A90.8259 
N449 X-215.182 Y-31.794 Z23.543 A90.8218 
N450 X-215.182 Y-31.806 Z22.130 A90.8274 
N451 X-215.182 Y-31.822 Z20.686 A90.8411 
N452 X-215.182 Y-31.828 Z19.228 A90.8218 
N453 X-215.182 Y-31.842 Z17.782 
N454 X-215.182 Y-31.857 Z16.362 
N455 X-215.182 Y-31.874 Z14.976 A90.8343 
N456 X-215.182 Y-32.004 Z13.663 A91.2087 
N457 X-215.182 Y-32.271 Z12.424 A92.0349 
N458 X-215.182 Y-32.750 Z11.258 A93.5716 
N459 X-215.182 Y-33.510 Z10.142 A96.0582 
N460 X-215.182 Y-34.578 Z9.031 A99.6293 
N461 X-215.182 Y-35.864 Z7.874 A104.0698 
N462 X-215.182 Y-37.206 Z6.653 A108.9252 
N463 X-215.182 Y-38.532 Z5.355 A114.0115 
N464 X-215.182 Y-39.836 Z3.952 A119.3599 
N465 X-215.182 Y-41.078 Z2.428 A124.9148 
N466 X-215.182 Y-42.223 Z0.771 A130.6422 
N467 X-215.182 Y-43.231 Z-1.023 A136.5110 
N468 X-215.182 Y-44.060 Z-2.952 A142.4973 
N469 X-215.182 Y-44.665 Z-4.998 A148.5522 
N470 X-215.182 Y-44.994 Z-7.120 A154.5869 
N471 X-215.182 Y-45.006 Z-9.252 A160.4722 
N472 X-215.182 Y-44.683 Z-11.354 A166.1910 
N473 X-215.182 Y-43.997 Z-13.253 A171.3290 
N474 X-215.182 Y-42.966 Z-14.745 A175.3642 
N475 X-215.182 Y-41.652 Z-15.788 A178.2017 
N476 X-215.182 Y-40.101 Z-16.425 A179.9659 
N477 X-215.182 Y-38.338 Z-16.738 A180.8533 
N478 X-215.182 Y-36.368 Z-16.838 A181.1531 
N479 X-215.182 Y-34.198 Z-16.838 A181.1665 
N480 X-215.182 Y-31.836 Z-16.818 A181.1101 
N481 X-215.182 Y-29.302 Z-16.817 A181.1012 
N482 X-215.182 Y-26.621 Z-16.822 
N483 X-215.182 Y-23.828 Z-16.826 
N484 X-215.182 Y-20.967 Z-16.833 A181.1072 
N485 X-215.182 Y-18.085 Z-16.840 A181.1168 
N486 X-215.182 Y-15.227 Z-16.848 A181.1297 
N487 X-215.182 Y-12.439 Z-16.856 A181.1426 
N488 X-215.182 Y-9.762 Z-16.863 A181.1495 
N489 X-215.182 Y-7.230 Z-16.859 A181.1220 
N490 X-215.182 Y-4.875 Z-16.859 A181.1012 
N491 X-215.182 Y-2.706 Z-16.868 
N492 X-215.182 Y-0.726 Z-16.929 A181.2732 
N493 X-215.182 Y1.048 Z-17.205 A182.1426 
N494 X-215.182 Y2.645 Z-17.759 A183.9575 
N495 X-215.182 Y4.108 Z-18.641 A186.9219 
N496 X-215.182 Y5.512 Z-19.841 A191.0621 
N497 X-215.182 Y6.942 Z-21.297 A196.2558 
N498 X-215.182 Y8.445 Z-22.832 A202.0338 
N499 X-215.182 Y10.020 Z-24.295 A207.9650 
N500 X-215.182 Y11.684 Z-25.655 A213.9905 
N501 X-215.182 Y13.424 Z-26.856 A219.9749 
N502 X-215.182 Y15.221 Z-27.866 A225.8310 
N503 X-215.182 Y17.054 Z-28.664 A231.5120 
N504 X-215.182 Y18.904 Z-29.241 A236.9952 
N505 X-215.182 Y20.746 Z-29.590 A242.2620 
N506 X-215.182 Y22.554 Z-29.707 A247.2832 
N507 X-215.182 Y24.289 Z-29.591 A252.0076 
N508 X-215.182 Y25.908 Z-29.247 A256.3606 
N509 X-215.182 Y27.377 Z-28.691 A260.2977 
N510 X-215.182 Y28.632 Z-27.942 A263.6682 
N511 X-215.182 Y29.624 Z-27.029 A266.3463 
N512 X-215.182 Y30.354 Z-25.985 A268.3341 
N513 X-215.182 Y30.856 Z-24.841 A269.7266 
N514 X-215.182 Y31.174 Z-23.619 A270.6289 
N515 X-215.182 Y31.348 Z-22.336 A271.1445 
N516 X-215.182 Y31.420 Z-21.009 A271.3804 
N517 X-215.182 Y31.431 Z-19.654 A271.4419 
N518 X-215.182 Y31.417 Z-18.289 A271.4295 
N519 X-215.182 Y31.407 Z-16.931 
N520 X-215.182 Y31.428 Z-15.596 A271.5240 
N521 X-215.182 Y31.523 Z-14.301 A271.8529 
N522 X-215.182 Y31.722 Z-13.058 A272.5251 
N523 X-215.182 Y32.057 Z-11.871 A273.6560 
N524 X-215.182 Y32.552 Z-10.738 A275.3400 
N525 X-215.182 Y33.230 Z-9.644 A277.6750 
N526 X-215.182 Y34.104 Z-8.560 A280.7322 
N527 X-215.182 Y35.151 Z-7.454 A284.4710 
N528 X-215.182 Y36.305 Z-6.297 A288.7374 
N529 X-215.182 Y37.516 Z-5.063 A293.4184 
N530 X-215.182 Y38.750 Z-3.724 A298.4666 
N531 X-215.182 Y39.957 Z-2.263 A303.8004 
N532 X-215.182 Y41.103 Z-0.661 A309.3913 
N533 X-215.182 Y42.141 Z1.092 A315.2042 
N534 X-215.182 Y43.028 Z3.001 A321.2165 
N535 X-215.182 Y43.709 Z5.054 A327.3782 
N536 X-215.182 Y44.123 Z7.210 A333.5842 
N537 X-215.182 Y44.218 Z9.398 A339.6861 
N538 X-215.182 Y43.963 Z11.546 A345.5663 
N539 X-215.182 Y43.339 Z13.527 A350.9583 
N540 X-215.182 Y42.356 Z15.118 A355.2927 
N541 X-215.182 Y41.074 Z16.243 A358.3876 
N542 X-215.182 Y39.546 Z16.944 A0.3697 
N543 X-215.182 Y37.797 Z17.303 A1.4415 
N544 X-215.182 Y35.834 Z17.421 A1.8664 
N545 X-215.182 Y33.660 Z17.413 A1.9391 
N546 X-215.182 Y31.279 Z17.363 A1.8953 
N547 X-215.182 Y28.710 Z17.322 A1.8746 
N548 X-215.182 Y25.976 Z17.288 
N549 X-215.182 Y23.112 Z17.252 
N550 X-215.182 Y20.164 Z17.215 
N551 X-215.182 Y17.180 Z17.178 A1.8766 
N552 X-215.182 Y14.210 Z17.140 A1.8771 
N553 X-215.182 Y11.304 Z17.103 A1.8790 
N554 X-215.182 Y8.508 Z17.068 A1.8839 
N555 X-215.182 Y5.864 Z17.035 A1.8934 
N556 X-215.182 Y3.406 Z17.007 A1.9078 
N557 X-215.182 Y1.156 Z16.981 A1.9192 
N558 X-215.182 Y-0.868 Z16.954 A1.9208 
N559 X-215.182 Y-2.663 Z16.917 A1.8746 
N560 X-215.182 Y-4.229 Z16.899 
N561 X-215.182 Y-5.598 Z16.884 
N562 X-215.182 Y-6.771 Z17.099 A2.5804 
N563 X-215.182 Y-7.806 Z17.776 A4.7363 
N564 X-215.182 Y-8.829 Z19.229 A9.3792 
N565 X-215.182 Y-10.096 Z21.529 A16.9155 
N566 X-215.182 Y-11.813 Z24.209 A26.2565 
N567 X-215.182 Y-13.802 Z26.502 A35.1944 
N568 X-215.182 Y-16.034 Z28.434 A43.9059 
N569 X-215.182 Y-18.383 Z29.920 A52.1067 
N570 X-215.182 Y-20.745 Z30.957 A59.6970 
N571 X-215.182 Y-23.057 Z31.583 A66.7162 
N572 X-215.182 Y-25.412 Z31.879 A73.6387 
N573 X-215.182 Y-27.585 Z31.800 A79.9060 
N574 X-215.182 Y-29.226 Z31.377 A84.5856 
N575 X-215.182 Y-30.338 Z30.729 A87.7521 
N576 X-215.182 Y-31.014 Z29.935 A89.6888 
N577 X-215.182 Y-31.356 Z29.032 A90.6783 
N578 X-215.182 Y-31.482 Z28.033 A91.0475 
N579 X-215.182 Y-31.498 Z26.943 A91.0966 
N580 X-215.182 Y-31.483 Z25.767 A91.0509 
N581 X-215.182 Y-31.476 Z24.516 A91.0238 
N582 X-215.182 Y-31.482 Z23.204 A91.0316 
N583 X-215.182 Y-31.492 Z21.847 A91.0483 
N584 X-215.182 Y-31.492 Z20.464 A91.0286 
N585 X-215.182 Y-31.498 Z19.080 A91.0235 
N586 X-215.182 Y-31.507 Z17.705 
N587 X-215.182 Y-31.527 Z16.346 A91.0612 
N588 X-215.182 Y-31.687 Z15.043 A91.5433 
N589 X-215.182 Y-32.002 Z13.795 A92.5417 
N590 X-215.182 Y-32.526 Z12.604 A94.2516 
N591 X-215.182 Y-33.293 Z11.447 A96.8121 
N592 X-215.182 Y-34.316 Z10.288 A100.3068 
N593 X-215.182 Y-35.519 Z9.086 A104.5531 
N594 X-215.182 Y-36.754 Z7.833 A109.1440 
N595 X-215.182 Y-37.947 Z6.528 A113.8663 
N596 X-215.182 Y-39.104 Z5.150 A118.7705 
N597 X-215.182 Y-40.201 Z3.684 A123.8299 
N598 X-215.182 Y-41.210 Z2.122 A129.0136 
N599 X-215.182 Y-42.104 Z0.458 A134.3004 
N600 X-215.182 Y-42.855 Z-1.313 A139.6891 
N601 X-215.182 Y-43.431 Z-3.189 A145.1677 
N602 X-215.182 Y-43.792 Z-5.152 A150.6962 
N603 X-215.182 Y-43.897 Z-7.167 A156.2038 
N604 X-215.182 Y-43.712 Z-9.186 A161.6125 
N605 X-215.182 Y-43.213 Z-11.151 A166.8298 
N606 X-215.182 Y-42.381 Z-12.918 A171.5142 
N607 X-215.182 Y-41.236 Z-14.375 A175.4028 
N608 X-215.182 Y-39.817 Z-15.435 A178.2769 
N609 X-215.182 Y-38.168 Z-16.072 A180.0357 
N610 X-215.182 Y-36.319 Z-16.360 A180.8495 
N611 X-215.182 Y-34.282 Z-16.439 A181.0826 
N612 X-215.182 Y-32.067 Z-16.437 A181.0821 
N613 X-215.182 Y-29.688 Z-16.424 A181.0413 
N614 X-215.182 Y-27.169 Z-16.427 A181.0399 
N615 X-215.182 Y-24.538 Z-16.432 
N616 X-215.182 Y-21.833 Z-16.438 A181.0411 
N617 X-215.182 Y-19.097 Z-16.448 A181.0541 
N618 X-215.182 Y-16.373 Z-16.456 A181.0652 
N619 X-215.182 Y-13.701 Z-16.463 A181.0705 
N620 X-215.182 Y-11.122 Z-16.468 A181.0665 
N621 X-215.182 Y-8.669 Z-16.466 A181.0399 
N622 X-215.182 Y-6.371 Z-16.475 
N623 X-215.182 Y-4.235 Z-16.483 
N624 X-215.182 Y-2.281 Z-16.607 A181.4127 
N625 X-215.182 Y-0.508 Z-16.962 A182.5498 
N626 X-215.182 Y1.113 Z-17.647 A184.8126 
N627 X-215.182 Y2.634 Z-18.665 A188.2820 
N628 X-215.182 Y4.122 Z-19.930 A192.7543 
N629 X-215.182 Y5.636 Z-21.333 A197.9525 
N630 X-215.182 Y7.201 Z-22.744 A203.5191 
N631 X-215.182 Y8.816 Z-24.060 A209.1612 
N632 X-215.182 Y10.483 Z-25.250 A214.7965 
N633 X-215.182 Y12.185 Z-26.275 A220.3068 
N634 X-215.182 Y13.906 Z-27.114 A225.6310 
N635 X-215.182 Y15.629 Z-27.761 A230.7450 
N636 X-215.182 Y17.344 Z-28.215 A235.6456 
N637 X-215.182 Y19.039 Z-28.476 A240.3371 
N638 X-215.182 Y20.696 Z-28.544 A244.8066 
N639 X-215.182 Y22.295 Z-28.419 A249.0364 
N640 X-215.182 Y23.806 Z-28.105 A252.9773 
N641 X-215.182 Y25.202 Z-27.610 A256.5845 
N642 X-215.182 Y26.456 Z-26.948 A259.8161 
N643 X-215.182 Y27.542 Z-26.136 A262.6146 
N644 X-215.182 Y28.446 Z-25.198 A264.9552 
N645 X-215.182 Y29.171 Z-24.156 A266.8460 
N646 X-215.182 Y29.724 Z-23.035 A268.3032 
N647 X-215.182 Y30.119 Z-21.853 A269.3555 
N648 X-215.182 Y30.388 Z-20.632 A270.0808 
N649 X-215.182 Y30.573 Z-19.387 A270.5929 
N650 X-215.182 Y30.720 Z-18.134 A271.0210 
N651 X-215.182 Y30.868 Z-16.888 A271.4806 
N652 X-215.182 Y31.052 Z-15.661 A272.0825 
N653 X-215.182 Y31.309 Z-14.463 A272.9444 
N654 X-215.182 Y31.668 Z-13.299 A274.1739 
N655 X-215.182 Y32.148 Z-12.169 A275.8462 
N656 X-215.182 Y32.751 Z-11.066 A277.9829 
N657 X-215.182 Y33.472 Z-9.979 A280.5898 
N658 X-215.182 Y34.304 Z-8.889 A283.6693 
N659 X-215.182 Y35.233 Z-7.775 A287.1983 
N660 X-215.182 Y36.227 Z-6.616 A291.1143 
N661 X-215.182 Y37.261 Z-5.391 A295.3745 
N662 X-215.182 Y38.304 Z-4.083 A299.9301 
N663 X-215.182 Y39.322 Z-2.675 A304.7342 
N664 X-215.182 Y40.287 Z-1.152 A309.7707 
N665 X-215.182 Y41.167 Z0.499 A315.0254 
N666 X-215.182 Y41.924 Z2.287 A320.4906 
N667 X-215.182 Y42.514 Z4.210 A326.1413 
N668 X-215.182 Y42.884 Z6.245 A331.9082 
N669 X-215.182 Y42.980 Z8.342 A337.6856 
N670 X-215.182 Y42.762 Z10.439 A343.3555 
N671 X-215.182 Y42.205 Z12.459 A348.7866 
N672 X-215.182 Y41.291 Z14.212 A353.5054 
N673 X-215.182 Y40.057 Z15.567 A357.1964 
N674 X-215.182 Y38.557 Z16.489 A359.7697 
N675 X-215.182 Y36.831 Z17.000 A1.2687 
N676 X-215.182 Y34.897 Z17.196 A1.9182 
N677 X-215.182 Y32.762 Z17.211 A2.0718 
N678 X-215.182 Y30.432 Z17.161 A2.0427 
N679 X-215.182 Y27.921 Z17.110 A2.0116 
N680 X-215.182 Y25.255 Z17.070 
N681 X-215.182 Y22.464 Z17.029 
N682 X-215.182 Y19.593 Z16.987 
N683 X-215.182 Y16.688 Z16.944 A2.0119 
N684 X-215.182 Y13.798 Z16.900 A2.0129 
N685 X-215.182 Y10.970 Z16.858 A2.0148 
N686 X-215.182 Y8.251 Z16.818 A2.0199 
N687 X-215.182 Y5.679 Z16.782 A2.0301 
N688 X-215.182 Y3.288 Z16.750 A2.0469 
N689 X-215.182 Y1.101 Z16.721 A2.0609 
N690 X-215.182 Y-0.867 Z16.692 A2.0658 
N691 X-215.182 Y-2.613 Z16.649 A2.0116 
N692 X-215.182 Y-4.133 Z16.629 
N693 X-215.182 Y-5.461 Z16.612 
N694 X-215.182 Y-6.603 Z16.805 A2.6535 
N695 X-215.182 Y-7.610 Z17.464 A4.7540 
N696 X-215.182 Y-8.605 Z18.895 A9.3199 
N697 X-215.182 Y-9.847 Z21.198 A16.8448 
N698 X-215.182 Y-11.550 Z23.903 A26.2392 
N699 X-215.182 Y-13.512 Z26.193 A35.1310 
N700 X-215.182 Y-15.718 Z28.131 A43.8035 
N701 X-215.182 Y-18.039 Z29.628 A51.9629 
N702 X-215.182 Y-20.378 Z30.685 A59.5269 
N703 X-215.182 Y-22.675 Z31.339 A66.5401 
N704 X-215.182 Y-24.993 Z31.661 A73.3807 
N705 X-215.182 Y-27.128 Z31.618 A79.5547 
N706 X-215.182 Y-28.842 Z31.248 A84.4664 
N707 X-215.182 Y-30.069 Z30.648 A87.9900 
N708 X-215.182 Y-30.820 Z29.898 A90.1716 
N709 X-215.182 Y-31.187 Z29.042 A91.2611 
N710 X-215.182 Y-31.311 Z28.097 A91.6571 
N711 X-215.182 Y-31.319 Z27.065 A91.7182 
N712 X-215.182 Y-31.298 Z25.952 A91.6925 
N713 X-215.182 Y-31.282 Z24.764 A91.6808 
N714 X-215.182 Y-31.275 Z23.516 A91.6915 
N715 X-215.182 Y-31.264 Z22.223 A91.6928 
N716 X-215.182 Y-31.245 Z20.902 A91.6621 
N717 X-215.182 Y-31.237 Z19.573 
N718 X-215.182 Y-31.231 Z18.243 
N719 X-215.182 Y-31.277 Z16.929 A91.8293 
N720 X-215.182 Y-31.469 Z15.658 A92.4689 
N721 X-215.182 Y-31.836 Z14.431 A93.6892 
N722 X-215.182 Y-32.427 Z13.241 A95.6781 
N723 X-215.182 Y-33.271 Z12.061 A98.5675 
N724 X-215.182 Y-34.347 Z10.855 A102.3390 
N725 X-215.182 Y-35.531 Z9.599 A106.6702 
N726 X-215.182 Y-36.685 Z8.302 A111.1623 
N727 X-215.182 Y-37.786 Z6.957 A115.7553 
N728 X-215.182 Y-38.837 Z5.547 A120.4889 
N729 X-215.182 Y-39.814 Z4.066 A125.3263 
N730 X-215.182 Y-40.696 Z2.506 A130.2468 
N731 X-215.182 Y-41.461 Z0.863 A135.2420 
N732 X-215.182 Y-42.088 Z-0.869 A140.3172 
N733 X-215.182 Y-42.550 Z-2.689 A145.4707 
N734 X-215.182 Y-42.813 Z-4.586 A150.6790 
N735 X-215.182 Y-42.841 Z-6.533 A155.8890 
N736 X-215.182 Y-42.600 Z-8.486 A161.0289 
N737 X-215.182 Y-42.067 Z-10.389 A165.9993 
N738 X-215.182 Y-41.225 Z-12.151 A170.6055 
N739 X-215.182 Y-40.084 Z-13.679 A174.6482 
N740 X-215.182 Y-38.668 Z-14.833 A177.7534 
N741 X-215.182 Y-37.023 Z-15.540 A179.6834 
N742 X-215.182 Y-35.189 Z-15.873 A180.6064 
N743 X-215.182 Y-33.184 Z-15.983 A180.9154 
N744 X-215.182 Y-31.019 Z-16.003 A180.9647 
N745 X-215.182 Y-28.711 Z-15.999 A180.9440 
N746 X-215.182 Y-26.283 Z-15.999 A180.9259 
N747 X-215.182 Y-23.768 Z-16.007 
N748 X-215.182 Y-21.197 Z-16.016 A180.9290 
N749 X-215.182 Y-18.611 Z-16.031 A180.9449 
N750 X-215.182 Y-16.049 Z-16.042 A180.9520 
N751 X-215.182 Y-13.549 Z-16.050 A180.9451 
N752 X-215.182 Y-11.144 Z-16.055 A180.9259 
N753 X-215.182 Y-8.863 Z-16.068 
N754 X-215.182 Y-6.720 Z-16.079 
N755 X-215.182 Y-4.736 Z-16.177 A181.2055 
N756 X-215.182 Y-2.916 Z-16.476 A182.1475 
N757 X-215.182 Y-1.240 Z-17.103 A184.2021 
N758 X-215.182 Y0.345 Z-18.117 A187.6244 
N759 X-215.182 Y1.907 Z-19.407 A192.1644 
N760 X-215.182 Y3.492 Z-20.799 A197.3461 
N761 X-215.182 Y5.124 Z-22.179 A202.8584 
N762 X-215.182 Y6.793 Z-23.448 A208.4072 
N763 X-215.182 Y8.489 Z-24.564 A213.8565 
N764 X-215.182 Y10.190 Z-25.495 A219.0923 
N765 X-215.182 Y11.872 Z-26.230 A224.0505 
N766 X-215.182 Y13.520 Z-26.771 A228.7089 
N767 X-215.182 Y15.126 Z-27.128 A233.0849 
N768 X-215.182 Y16.685 Z-27.313 A237.2039 
N769 X-215.182 Y18.195 Z-27.336 A241.0891 
N770 X-215.182 Y19.649 Z-27.204 A244.7531 
N771 X-215.182 Y21.041 Z-26.924 A248.2043 
N772 X-215.182 Y22.360 Z-26.501 A251.4366 
N773 X-215.182 Y23.593 Z-25.945 A254.4371 
N774 X-215.182 Y24.729 Z-25.265 A257.1947 
N775 X-215.182 Y25.758 Z-24.474 A259.6923 
N776 X-215.182 Y26.672 Z-23.586 A261.9195 
N777 X-215.182 Y27.471 Z-22.618 A263.8850 
N778 X-215.182 Y28.162 Z-21.588 A265.6098 
N779 X-215.182 Y28.755 Z-20.512 A267.1246 
N780 X-215.182 Y29.270 Z-19.406 A268.4822 
N781 X-215.182 Y29.731 Z-18.285 A269.7541 
N782 X-215.182 Y30.165 Z-17.161 A271.0206 
N783 X-215.182 Y30.597 Z-16.043 A272.3562 
N784 X-215.182 Y31.049 Z-14.938 A273.8316 
N785 X-215.182 Y31.542 Z-13.850 A275.5130 
N786 X-215.182 Y32.090 Z-12.778 A277.4551 
N787 X-215.182 Y32.700 Z-11.717 A279.6882 
N788 X-215.182 Y33.374 Z-10.661 A282.2247 
N789 X-215.182 Y34.109 Z-9.598 A285.0710 
N790 X-215.182 Y34.897 Z-8.517 A288.2221 
N791 X-215.182 Y35.726 Z-7.402 A291.6572 
N792 X-215.182 Y36.581 Z-6.241 A295.3585 
N793 X-215.182 Y37.445 Z-5.018 A299.3097 
N794 X-215.182 Y38.300 Z-3.718 A303.4943 
N795 X-215.182 Y39.127 Z-2.325 A307.9112 
N796 X-215.182 Y39.902 Z-0.823 A312.5627 
N797 X-215.182 Y40.600 Z0.803 A317.4582 
N798 X-215.182 Y41.184 Z2.564 A322.5970 
N799 X-215.182 Y41.611 Z4.457 A327.9584 
N800 X-215.182 Y41.827 Z6.461 A333.4780 
N801 X-215.182 Y41.777 Z8.525 A339.0444 
N802 X-215.182 Y41.423 Z10.596 A344.5656 
N803 X-215.182 Y40.731 Z12.569 A349.8244 
N804 X-215.182 Y39.692 Z14.262 A354.3678 
N805 X-215.182 Y38.346 Z15.561 A357.9187 
N806 X-215.182 Y36.745 Z16.411 A0.3199 
N807 X-215.182 Y34.929 Z16.838 A1.6043 
N808 X-215.182 Y32.918 Z16.966 A2.0823 
N809 X-215.182 Y30.717 Z16.948 A2.1528 
N810 X-215.182 Y28.336 Z16.890 A2.1109 
N811 X-215.182 Y25.795 Z16.841 A2.0949 
N812 X-215.182 Y23.121 Z16.796 
N813 X-215.182 Y20.350 Z16.750 
N814 X-215.182 Y17.527 Z16.703 
N815 X-215.182 Y14.698 Z16.656 
N816 X-215.182 Y11.909 Z16.610 A2.0960 
N817 X-215.182 Y9.208 Z16.565 A2.0993 
N818 X-215.182 Y6.633 Z16.524 A2.1072 
N819 X-215.182 Y4.222 Z16.488 A2.1230 
N820 X-215.182 Y2.001 Z16.457 A2.1449 
N821 X-215.182 Y-0.012 Z16.428 A2.1617 
N822 X-215.182 Y-1.807 Z16.393 A2.1484 
N823 X-215.182 Y-3.384 Z16.351 A2.0949 
N824 X-215.182 Y-4.751 Z16.332 
N825 X-215.182 Y-5.945 Z16.365 A2.2483 
N826 X-215.182 Y-6.972 Z16.756 A3.5035 
N827 X-215.182 Y-7.919 Z17.775 A6.7418 
N828 X-215.182 Y-8.977 Z19.687 A12.8824 
N829 X-215.182 Y-10.444 Z22.342 A21.7578 
N830 X-215.182 Y-12.285 Z24.868 A30.9806 
N831 X-215.182 Y-14.352 Z26.971 A39.6912 
N832 X-215.182 Y-16.602 Z28.686 A48.0616 
N833 X-215.182 Y-18.913 Z29.961 A55.8618 
N834 X-215.182 Y-21.216 Z30.826 A63.1128 
N835 X-215.182 Y-23.496 Z31.327 A69.9647 
N836 X-215.182 Y-25.716 Z31.489 A76.4595 
N837 X-215.182 Y-27.713 Z31.316 A82.2267 
N838 X-215.182 Y-29.306 Z30.860 A86.8276 
N839 X-215.182 Y-30.355 Z30.209 A89.8859 
N840 X-215.182 Y-30.909 Z29.438 A91.5415 
N841 X-215.182 Y-31.136 Z28.580 A92.2656 
N842 X-215.182 Y-31.192 Z27.638 A92.5028 
N843 X-215.182 Y-31.183 Z26.615 A92.5571 
N844 X-215.182 Y-31.157 Z25.516 A92.5660 
N845 X-215.182 Y-31.128 Z24.349 A92.5666 
N846 X-215.182 Y-31.093 Z23.129 A92.5538 
N847 X-215.182 Y-31.051 Z21.869 A92.5171 
N848 X-215.182 Y-31.023 Z20.590 
N849 X-215.182 Y-30.995 Z19.298 
N850 X-215.182 Y-31.002 Z18.009 A92.6270 
N851 X-215.182 Y-31.127 Z16.749 A93.1153 
N852 X-215.182 Y-31.404 Z15.520 A94.1011 
N853 X-215.182 Y-31.897 Z14.321 A95.8180 
N854 X-215.182 Y-32.655 Z13.129 A98.4552 
N855 X-215.182 Y-33.667 Z11.908 A102.0329 
N856 X-215.182 Y-34.806 Z10.636 A106.2269 
N857 X-215.182 Y-35.925 Z9.323 A110.6073 
N858 X-215.182 Y-36.985 Z7.971 A115.0681 
N859 X-215.182 Y-37.994 Z6.563 A119.6529 
N860 X-215.182 Y-38.931 Z5.093 A124.3328 
N861 X-215.182 Y-39.777 Z3.556 A129.0855 
N862 X-215.182 Y-40.513 Z1.949 A133.8960 
N863 X-215.182 Y-41.121 Z0.265 A138.7712 
N864 X-215.182 Y-41.578 Z-1.496 A143.7128 
N865 X-215.182 Y-41.857 Z-3.330 A148.7086 
N866 X-215.182 Y-41.926 Z-5.218 A153.7309 
N867 X-215.182 Y-41.753 Z-7.126 A158.7122 
N868 X-215.182 Y-41.311 Z-9.009 A163.5794 
N869 X-215.182 Y-40.583 Z-10.805 A168.2150 
N870 X-215.182 Y-39.568 Z-12.451 A172.5113 
N871 X-215.182 Y-38.274 Z-13.806 A176.1070 
N872 X-215.182 Y-36.739 Z-14.734 A178.6027 
N873 X-215.182 Y-35.010 Z-15.245 A179.9880 
N874 X-215.182 Y-33.117 Z-15.471 A180.5987 
N875 X-215.182 Y-31.077 Z-15.549 A180.8005 
N876 X-215.182 Y-28.905 Z-15.567 A180.8322 
N877 X-215.182 Y-26.622 Z-15.569 A180.8104 
N878 X-215.182 Y-24.257 Z-15.574 A180.7906 
N879 X-215.182 Y-21.840 Z-15.588 A180.7921 
N880 X-215.182 Y-19.406 Z-15.607 A180.8080 
N881 X-215.182 Y-16.992 Z-15.626 A180.8182 
N882 X-215.182 Y-14.630 Z-15.636 A180.8006 
N883 X-215.182 Y-12.354 Z-15.650 A180.7905 
N884 X-215.182 Y-10.184 Z-15.669 
N885 X-215.182 Y-8.133 Z-15.698 A180.8311 
N886 X-215.182 Y-6.229 Z-15.857 A181.2942 
N887 X-215.182 Y-4.467 Z-16.231 A182.4792 
N888 X-215.182 Y-2.822 Z-16.965 A184.8941 
N889 X-215.182 Y-1.226 Z-18.118 A188.8091 
N890 X-215.182 Y0.396 Z-19.542 A193.8790 
N891 X-215.182 Y2.074 Z-21.002 A199.4517 
N892 X-215.182 Y3.812 Z-22.380 A205.1956 
N893 X-215.182 Y5.585 Z-23.587 A210.8399 
N894 X-215.182 Y7.362 Z-24.583 A216.2264 
N895 X-215.182 Y9.103 Z-25.345 A221.2326 
N896 X-215.182 Y10.779 Z-25.877 A225.8064 
N897 X-215.182 Y12.369 Z-26.195 A229.9445 
N898 X-215.182 Y13.871 Z-26.326 A233.6845 
N899 X-215.182 Y15.286 Z-26.293 A237.0803 
N900 X-215.182 Y16.624 Z-26.119 A240.1912 
N901 X-215.182 Y17.893 Z-25.822 A243.0731 
N902 X-215.182 Y19.102 Z-25.417 A245.7757 
N903 X-215.182 Y20.260 Z-24.915 A248.3392 
N904 X-215.182 Y21.368 Z-24.326 A250.7886 
N905 X-215.182 Y22.427 Z-23.658 A253.1381 
N906 X-215.182 Y23.436 Z-22.918 A255.3988 
N907 X-215.182 Y24.394 Z-22.118 A257.5800 
N908 X-215.182 Y25.302 Z-21.265 A259.6922 
N909 X-215.182 Y26.162 Z-20.370 A261.7530 
N910 X-215.182 Y26.981 Z-19.443 A263.7855 
N911 X-215.182 Y27.765 Z-18.493 A265.8165 
N912 X-215.182 Y28.524 Z-17.529 A267.8749 
N913 X-215.182 Y29.265 Z-16.555 A269.9901 
N914 X-215.182 Y29.996 Z-15.576 A272.1893 
N915 X-215.182 Y30.726 Z-14.595 A274.4952 
N916 X-215.182 Y31.458 Z-13.610 A276.9246 
N917 X-215.182 Y32.195 Z-12.622 A279.4905 
N918 X-215.182 Y32.939 Z-11.625 A282.2006 
N919 X-215.182 Y33.690 Z-10.616 A285.0577 
N920 X-215.182 Y34.444 Z-9.589 A288.0630 
N921 X-215.182 Y35.199 Z-8.537 A291.2163 
N922 X-215.182 Y35.949 Z-7.452 A294.5164 
N923 X-215.182 Y36.689 Z-6.324 A297.9656 
N924 X-215.182 Y37.412 Z-5.144 A301.5692 
N925 X-215.182 Y38.110 Z-3.900 A305.3384 
N926 X-215.182 Y38.773 Z-2.578 A309.2913 
N927 X-215.182 Y39.388 Z-1.161 A313.4508 
N928 X-215.182 Y39.938 Z0.367 A317.8435 
N929 X-215.182 Y40.394 Z2.018 A322.4894 
N930 X-215.182 Y40.723 Z3.801 A327.3937 
N931 X-215.182 Y40.875 Z5.704 A332.5222 
N932 X-215.182 Y40.799 Z7.694 A337.7984 
N933 X-215.182 Y40.446 Z9.721 A343.1240 
N934 X-215.182 Y39.779 Z11.706 A348.3479 
N935 X-215.182 Y38.774 Z13.492 A353.0908 
N936 X-215.182 Y37.452 Z14.945 A357.0255 
N937 X-215.182 Y35.859 Z15.951 A359.8366 
N938 X-215.182 Y34.047 Z16.488 A1.4210 
N939 X-215.182 Y32.046 Z16.674 A2.0626 
N940 X-215.182 Y29.865 Z16.678 A2.2019 
N941 X-215.182 Y27.514 Z16.625 A2.1822 
N942 X-215.182 Y25.012 Z16.569 A2.1578 
N943 X-215.182 Y22.386 Z16.521 
N944 X-215.182 Y19.672 Z16.473 
N945 X-215.182 Y16.912 Z16.423 
N946 X-215.182 Y14.150 Z16.374 
N947 X-215.182 Y11.433 Z16.325 A2.1586 
N948 X-215.182 Y8.804 Z16.278 A2.1623 
N949 X-215.182 Y6.303 Z16.235 A2.1706 
N950 X-215.182 Y3.964 Z16.198 A2.1875 
N951 X-215.182 Y1.813 Z16.165 A2.2109 
N952 X-215.182 Y-0.134 Z16.135 A2.2284 
N953 X-215.182 Y-1.867 Z16.099 A2.2125 
N954 X-215.182 Y-3.387 Z16.055 A2.1578 
N955 X-215.182 Y-4.704 Z16.036 
N956 X-215.182 Y-5.853 Z16.074 A2.3274 
N957 X-215.182 Y-6.841 Z16.473 A3.6115 
N958 X-215.182 Y-7.755 Z17.498 A6.8628 
N959 X-215.182 Y-8.788 Z19.419 A13.0238 
N960 X-215.182 Y-10.252 Z22.120 A22.0388 
N961 X-215.182 Y-12.084 Z24.652 A31.2735 
N962 X-215.182 Y-14.144 Z26.762 A39.9993 
N963 X-215.182 Y-16.374 Z28.469 A48.3177 
N964 X-215.182 Y-18.653 Z29.737 A56.0333 
N965 X-215.182 Y-20.919 Z30.603 A63.1965 
N966 X-215.182 Y-23.146 Z31.111 A69.9117 
N967 X-215.182 Y-25.312 Z31.292 A76.2677 
N968 X-215.182 Y-27.395 Z31.170 A82.3151 
N969 X-215.182 Y-29.094 Z30.754 A87.2533 
N970 X-215.182 Y-30.200 Z30.135 A90.5071 
N971 X-215.182 Y-30.795 Z29.400 A92.3126 
N972 X-215.182 Y-31.065 Z28.582 A93.1985 
N973 X-215.182 Y-31.157 Z27.685 A93.5866 
N974 X-215.182 Y-31.161 Z26.711 A93.7341 
N975 X-215.182 Y-31.123 Z25.663 A93.7683 
N976 X-215.182 Y-31.066 Z24.548 A93.7540 
N977 X-215.182 Y-31.001 Z23.378 A93.7202 
N978 X-215.182 Y-30.942 Z22.167 A93.7003 
N979 X-215.182 Y-30.889 Z20.929 
N980 X-215.182 Y-30.835 Z19.674 
N981 X-215.182 Y-30.807 Z18.420 A93.7823 
N982 X-215.182 Y-30.880 Z17.186 A94.1810 
N983 X-215.182 Y-31.110 Z15.976 A95.0910 
N984 X-215.182 Y-31.588 Z14.783 A96.8195 
N985 X-215.182 Y-32.363 Z13.581 A99.5712 
N986 X-215.182 Y-33.381 Z12.336 A103.2458 
N987 X-215.182 Y-34.491 Z11.040 A107.4338 
N988 X-215.182 Y-35.569 Z9.703 A111.7773 
N989 X-215.182 Y-36.598 Z8.320 A116.2388 
N990 X-215.182 Y-37.565 Z6.883 A120.8021 
N991 X-215.182 Y-38.452 Z5.389 A125.4391 
N992 X-215.182 Y-39.243 Z3.834 A130.1318 
N993 X-215.182 Y-39.918 Z2.214 A134.8696 
N994 X-215.182 Y-40.462 Z0.527 A139.6553 
N995 X-215.182 Y-40.853 Z-1.228 A144.4899 
N996 X-215.182 Y-41.065 Z-3.044 A149.3611 
N997 X-215.182 Y-41.072 Z-4.903 A154.2401 
N998 X-215.182 Y-40.842 Z-6.771 A159.0658 
N999 X-215.182 Y-40.355 Z-8.605 A163.7630 
N1000 X-215.182 Y-39.598 Z-10.357 A168.2572 
N1001 X-215.182 Y-38.570 Z-11.974 A172.4581 
N1002 X-215.182 Y-37.277 Z-13.299 A175.9542 
N1003 X-215.182 Y-35.756 Z-14.203 A178.3648 
N1004 X-215.182 Y-34.056 Z-14.714 A179.7300 
N1005 X-215.182 Y-32.207 Z-14.957 A180.3723 
N1006 X-215.182 Y-30.228 Z-15.055 A180.6127 
N1007 X-215.182 Y-28.136 Z-15.085 A180.6604 
N1008 X-215.182 Y-25.952 Z-15.093 A180.6374 
N1009 X-215.182 Y-23.705 Z-15.105 A180.6160 
N1010 X-215.182 Y-21.423 Z-15.127 A180.6206 
N1011 X-215.182 Y-19.138 Z-15.156 A180.6395 
N1012 X-215.182 Y-16.884 Z-15.179 A180.6380 
N1013 X-215.182 Y-14.689 Z-15.194 A180.6092 
N1014 X-215.182 Y-12.580 Z-15.222 
N1015 X-215.182 Y-10.561 Z-15.248 
N1016 X-215.182 Y-8.666 Z-15.396 A181.0089 
N1017 X-215.182 Y-6.897 Z-15.737 A182.0591 
N1018 X-215.182 Y-5.240 Z-16.373 A184.1277 
N1019 X-215.182 Y-3.641 Z-17.399 A187.5867 
N1020 X-215.182 Y-2.020 Z-18.774 A192.4088 
N1021 X-215.182 Y-0.331 Z-20.250 A197.9420 
N1022 X-215.182 Y1.425 Z-21.648 A203.6695 
N1023 X-215.182 Y3.238 Z-22.899 A209.4012 
N1024 X-215.182 Y5.071 Z-23.938 A214.9154 
N1025 X-215.182 Y6.878 Z-24.731 A220.0520 
N1026 X-215.182 Y8.614 Z-25.269 A224.7073 
N1027 X-215.182 Y10.248 Z-25.567 A228.8463 
N1028 X-215.182 Y11.764 Z-25.650 A232.4778 
N1029 X-215.182 Y13.160 Z-25.551 A235.6475 
N1030 X-215.182 Y14.445 Z-25.299 A238.4252 
N1031 X-215.182 Y15.635 Z-24.923 A240.8874 
N1032 X-215.182 Y16.748 Z-24.448 A243.1160 
N1033 X-215.182 Y17.804 Z-23.893 A245.1935 
N1034 X-215.182 Y18.823 Z-23.277 A247.1921 
N1035 X-215.182 Y19.817 Z-22.612 A249.1670 
N1036 X-215.182 Y20.795 Z-21.908 A251.1587 
N1037 X-215.182 Y21.765 Z-21.172 A253.1981 
N1038 X-215.182 Y22.728 Z-20.410 A255.3067 
N1039 X-215.182 Y23.687 Z-19.626 A257.4968 
N1040 X-215.182 Y24.641 Z-18.826 A259.7780 
N1041 X-215.182 Y25.591 Z-18.010 A262.1559 
N1042 X-215.182 Y26.535 Z-17.181 A264.6326 
N1043 X-215.182 Y27.472 Z-16.339 A267.2090 
N1044 X-215.182 Y28.402 Z-15.485 A269.8849 
N1045 X-215.182 Y29.322 Z-14.618 A272.6577 
N1046 X-215.182 Y30.232 Z-13.736 A275.5242 
N1047 X-215.182 Y31.128 Z-12.837 A278.4804 
N1048 X-215.182 Y32.009 Z-11.917 A281.5211 
N1049 X-215.182 Y32.871 Z-10.974 A284.6418 
N1050 X-215.182 Y33.711 Z-10.003 A287.8379 
N1051 X-215.182 Y34.526 Z-9.002 A291.1069 
N1052 X-215.182 Y35.311 Z-7.965 A294.4484 
N1053 X-215.182 Y36.064 Z-6.888 A297.8654 
N1054 X-215.182 Y36.779 Z-5.763 A301.3655 
N1055 X-215.182 Y37.454 Z-4.584 A304.9617 
N1056 X-215.182 Y38.081 Z-3.339 A308.6730 
N1057 X-215.182 Y38.654 Z-2.017 A312.5240 
N1058 X-215.182 Y39.161 Z-0.606 A316.5436 
N1059 X-215.182 Y39.586 Z0.909 A320.7606 
N1060 X-215.182 Y39.904 Z2.538 A325.1987 
N1061 X-215.182 Y40.081 Z4.283 A329.8608 
N1062 X-215.182 Y40.077 Z6.133 A334.7239 
N1063 X-215.182 Y39.842 Z8.053 A339.7151 
N1064 X-215.182 Y39.339 Z10.002 A344.7666 
N1065 X-215.182 Y38.528 Z11.889 A349.6926 
N1066 X-215.182 Y37.396 Z13.577 A354.1636 
N1067 X-215.182 Y35.962 Z14.928 A357.8377 
N1068 X-215.182 Y34.275 Z15.821 A0.3573 
N1069 X-215.182 Y32.383 Z16.257 A1.6752 
N1070 X-215.182 Y30.312 Z16.381 A2.1516 
N1071 X-215.182 Y28.073 Z16.362 A2.2310 
N1072 X-215.182 Y25.680 Z16.305 A2.2049 
N1073 X-215.182 Y23.155 Z16.250 A2.1874 
N1074 X-215.182 Y20.529 Z16.200 
N1075 X-215.182 Y17.840 Z16.150 
N1076 X-215.182 Y15.130 Z16.100 
N1077 X-215.182 Y12.444 Z16.050 
N1078 X-215.182 Y9.827 Z16.002 A2.1899 
N1079 X-215.182 Y7.318 Z15.957 A2.1954 
N1080 X-215.182 Y4.954 Z15.916 A2.2060 
N1081 X-215.182 Y2.763 Z15.881 A2.2246 
N1082 X-215.182 Y0.766 Z15.848 A2.2407 
N1083 X-215.182 Y-1.024 Z15.817 A2.2479 
N1084 X-215.182 Y-2.606 Z15.771 A2.1927 
N1085 X-215.182 Y-3.978 Z15.747 A2.1874 
N1086 X-215.182 Y-5.173 Z15.728 
N1087 X-215.182 Y-6.200 Z15.916 A2.8154 
N1088 X-215.182 Y-7.106 Z16.582 A4.9328 
N1089 X-215.182 Y-8.018 Z18.038 A9.5541 
N1090 X-215.182 Y-9.206 Z20.409 A17.2573 
N1091 X-215.182 Y-10.872 Z23.153 A26.7379 
N1092 X-215.182 Y-12.760 Z25.416 A35.4594 
N1093 X-215.182 Y-14.877 Z27.336 A43.9302 
N1094 X-215.182 Y-17.095 Z28.832 A51.8598 
N1095 X-215.182 Y-19.344 Z29.926 A59.2634 
N1096 X-215.182 Y-21.581 Z30.651 A66.2109 
N1097 X-215.182 Y-23.777 Z31.040 A72.7724 
N1098 X-215.182 Y-25.973 Z31.130 A79.2071 
N1099 X-215.182 Y-28.003 Z30.907 A85.1291 
N1100 X-215.182 Y-29.494 Z30.416 A89.5028 
N1101 X-215.182 Y-30.402 Z29.769 A92.2271 
N1102 X-215.182 Y-30.888 Z29.031 A93.7662 
N1103 X-215.182 Y-31.110 Z28.218 A94.5663 
N1104 X-215.182 Y-31.173 Z27.333 A94.9292 
N1105 X-215.182 Y-31.146 Z26.376 A95.0449 
N1106 X-215.182 Y-31.073 Z25.348 A95.0418 
N1107 X-215.182 Y-30.986 Z24.257 A95.0041 
N1108 X-215.182 Y-30.903 Z23.113 A94.9832 
N1109 X-215.182 Y-30.825 Z21.930 
N1110 X-215.182 Y-30.747 Z20.721 
N1111 X-215.182 Y-30.668 Z19.499 
N1112 X-215.182 Y-30.623 Z18.280 A95.0939 
N1113 X-215.182 Y-30.708 Z17.076 A95.6090 
N1114 X-215.182 Y-31.005 Z15.884 A96.8134 
N1115 X-215.182 Y-31.595 Z14.687 A98.9918 
N1116 X-215.182 Y-32.463 Z13.457 A102.1670 
N1117 X-215.182 Y-33.492 Z12.176 A106.0442 
N1118 X-215.182 Y-34.553 Z10.844 A110.2609 
N1119 X-215.182 Y-35.589 Z9.461 A114.6695 
N1120 X-215.182 Y-36.567 Z8.027 A119.1889 
N1121 X-215.182 Y-37.466 Z6.541 A123.7727 
N1122 X-215.182 Y-38.274 Z4.998 A128.4202 
N1123 X-215.182 Y-38.974 Z3.394 A133.1099 
N1124 X-215.182 Y-39.548 Z1.729 A137.8409 
N1125 X-215.182 Y-39.979 Z0.001 A142.6101 
N1126 X-215.182 Y-40.243 Z-1.784 A147.4102 
N1127 X-215.182 Y-40.316 Z-3.615 A152.2246 
N1128 X-215.182 Y-40.170 Z-5.464 A157.0025 
N1129 X-215.182 Y-39.783 Z-7.295 A161.6811 
N1130 X-215.182 Y-39.139 Z-9.063 A166.1883 
N1131 X-215.182 Y-38.239 Z-10.735 A170.4956 
N1132 X-215.182 Y-37.078 Z-12.197 A174.3170 
N1133 X-215.182 Y-35.681 Z-13.282 A177.1861 
N1134 X-215.182 Y-34.097 Z-13.953 A178.9596 
N1135 X-215.182 Y-32.365 Z-14.307 A179.8824 
N1136 X-215.182 Y-30.509 Z-14.469 A180.2815 
N1137 X-215.182 Y-28.547 Z-14.533 A180.4042 
N1138 X-215.182 Y-26.499 Z-14.556 A180.4026 
N1139 X-215.182 Y-24.390 Z-14.573 A180.3752 
N1140 X-215.182 Y-22.246 Z-14.600 A180.3698 
N1141 X-215.182 Y-20.095 Z-14.635 A180.3860 
N1142 X-215.182 Y-17.969 Z-14.668 A180.3889 
N1143 X-215.182 Y-15.893 Z-14.691 A180.3576 
N1144 X-215.182 Y-13.893 Z-14.727 
N1145 X-215.182 Y-11.967 Z-14.761 
N1146 X-215.182 Y-10.156 Z-14.964 A180.9042 
N1147 X-215.182 Y-8.452 Z-15.396 A182.2280 
N1148 X-215.182 Y-6.840 Z-16.134 A184.6269 
N1149 X-215.182 Y-5.263 Z-17.222 A188.3127 
N1150 X-215.182 Y-3.645 Z-18.610 A193.2304 
N1151 X-215.182 Y-1.948 Z-20.073 A198.7852 
N1152 X-215.182 Y-0.183 Z-21.430 A204.4607 
N1153 X-215.182 Y1.639 Z-22.633 A210.1156 
N1154 X-215.182 Y3.479 Z-23.617 A215.5353 
N1155 X-215.182 Y5.287 Z-24.348 A220.5574 
N1156 X-215.182 Y7.017 Z-24.821 A225.0774 
N1157 X-215.182 Y8.637 Z-25.052 A229.0605 
N1158 X-215.182 Y10.131 Z-25.066 A232.5134 
N1159 X-215.182 Y11.495 Z-24.897 A235.4778 
N1160 X-215.182 Y12.742 Z-24.578 A238.0313 
N1161 X-215.182 Y13.889 Z-24.141 A240.2627 
N1162 X-215.182 Y14.959 Z-23.611 A242.2641 
N1163 X-215.182 Y15.977 Z-23.014 A244.1287 
N1164 X-215.182 Y16.964 Z-22.368 A245.9422 
N1165 X-215.182 Y17.936 Z-21.688 A247.7689 
N1166 X-215.182 Y18.904 Z-20.982 A249.6517 
N1167 X-215.182 Y19.872 Z-20.260 A251.6198 
N1168 X-215.182 Y20.845 Z-19.525 A253.6948 
N1169 X-215.182 Y21.822 Z-18.780 A255.8873 
N1170 X-215.182 Y22.805 Z-18.029 A258.2028 
N1171 X-215.182 Y23.791 Z-17.272 A260.6454 
N1172 X-215.182 Y24.781 Z-16.509 A263.2153 
N1173 X-215.182 Y25.772 Z-15.738 A265.9092 
N1174 X-215.182 Y26.763 Z-14.956 A268.7233 
N1175 X-215.182 Y27.750 Z-14.161 A271.6505 
N1176 X-215.182 Y28.731 Z-13.349 A274.6820 
N1177 X-215.182 Y29.702 Z-12.515 A277.8096 
N1178 X-215.182 Y30.657 Z-11.656 A281.0231 
N1179 X-215.182 Y31.594 Z-10.767 A284.3137 
N1180 X-215.182 Y32.507 Z-9.844 A287.6735 
N1181 X-215.182 Y33.390 Z-8.883 A291.0964 
N1182 X-215.182 Y34.239 Z-7.880 A294.5794 
N1183 X-215.182 Y35.049 Z-6.830 A298.1236 
N1184 X-215.182 Y35.815 Z-5.728 A301.7348 
N1185 X-215.182 Y36.533 Z-4.567 A305.4248 
N1186 X-215.182 Y37.195 Z-3.337 A309.2108 
N1187 X-215.182 Y37.795 Z-2.030 A313.1154 
N1188 X-215.182 Y38.321 Z-0.634 A317.1644 
N1189 X-215.182 Y38.755 Z0.862 A321.3821 
N1190 X-215.182 Y39.075 Z2.466 A325.7867 
N1191 X-215.182 Y39.249 Z4.176 A330.3783 
N1192 X-215.182 Y39.238 Z5.980 A335.1342 
N1193 X-215.182 Y39.001 Z7.846 A339.9894 
N1194 X-215.182 Y38.500 Z9.735 A344.8854 
N1195 X-215.182 Y37.705 Z11.571 A349.6747 
N1196 X-215.182 Y36.598 Z13.224 A354.0500 
N1197 X-215.182 Y35.197 Z14.568 A357.6994 
N1198 X-215.182 Y33.544 Z15.480 A0.2702 
N1199 X-215.182 Y31.687 Z15.941 A1.6596 
N1200 X-215.182 Y29.655 Z16.080 A2.1775 
N1201 X-215.182 Y27.458 Z16.063 A2.2648 
N1202 X-215.182 Y25.110 Z16.004 A2.2344 
N1203 X-215.182 Y22.634 Z15.949 A2.2166 
N1204 X-215.182 Y20.060 Z15.900 
N1205 X-215.182 Y17.425 Z15.850 
N1206 X-215.182 Y14.772 Z15.800 
N1207 X-215.182 Y12.144 Z15.750 
N1208 X-215.182 Y9.585 Z15.703 A2.2192 
N1209 X-215.182 Y7.134 Z15.658 A2.2245 
N1210 X-215.182 Y4.825 Z15.617 A2.2341 
N1211 X-215.182 Y2.688 Z15.581 A2.2508 
N1212 X-215.182 Y0.742 Z15.548 A2.2651 
N1213 X-215.182 Y-1.002 Z15.517 A2.2717 
N1214 X-215.182 Y-2.541 Z15.471 A2.2192 
N1215 X-215.182 Y-3.875 Z15.448 A2.2166 
N1216 X-215.182 Y-5.035 Z15.429 
N1217 X-215.182 Y-6.030 Z15.618 A2.8456 
N1218 X-215.182 Y-6.908 Z16.288 A4.9710 
N1219 X-215.182 Y-7.799 Z17.760 A9.6385 
N1220 X-215.182 Y-8.969 Z20.136 A17.3482 
N1221 X-215.182 Y-10.597 Z22.844 A26.6893 
N1222 X-215.182 Y-12.438 Z25.080 A35.2650 
N1223 X-215.182 Y-14.501 Z26.989 A43.6028 
N1224 X-215.182 Y-16.666 Z28.492 A51.4231 
N1225 X-215.182 Y-18.871 Z29.610 A58.7527 
N1226 X-215.182 Y-21.076 Z30.375 A65.6582 
N1227 X-215.182 Y-23.243 Z30.809 A72.1766 
N1228 X-215.182 Y-25.444 Z30.959 A78.6609 
N1229 X-215.182 Y-27.516 Z30.799 A84.7217 
N1230 X-215.182 Y-29.109 Z30.364 A89.4069 
N1231 X-215.182 Y-30.185 Z29.760 A92.6380 
N1232 X-215.182 Y-30.842 Z29.057 A94.7096 
N1233 X-215.182 Y-31.181 Z28.284 A95.9001 
N1234 X-215.182 Y-31.291 Z27.448 A96.4548 
N1235 X-215.182 Y-31.258 Z26.547 A96.6158 
N1236 X-215.182 Y-31.159 Z25.579 A96.5983 
N1237 X-215.182 Y-31.044 Z24.545 A96.5501 
N1238 X-215.182 Y-30.940 Z23.454 A96.5431 
N1239 X-215.182 Y-30.835 Z22.318 
N1240 X-215.182 Y-30.728 Z21.153 
N1241 X-215.182 Y-30.620 Z19.974 
N1242 X-215.182 Y-30.512 Z18.786 
N1243 X-215.182 Y-30.514 Z17.600 A96.8841 
N1244 X-215.182 Y-30.732 Z16.417 A97.9154 
N1245 X-215.182 Y-31.224 Z15.224 A99.8591 
N1246 X-215.182 Y-31.981 Z14.000 A102.7413 
N1247 X-215.182 Y-32.920 Z12.725 A106.3702 
N1248 X-215.182 Y-33.948 Z11.386 A110.5160 
N1249 X-215.182 Y-34.988 Z9.981 A114.9720 
N1250 X-215.182 Y-35.957 Z8.528 A119.5086 
N1251 X-215.182 Y-36.838 Z7.026 A124.0830 
N1252 X-215.182 Y-37.628 Z5.467 A128.7246 
N1253 X-215.182 Y-38.309 Z3.850 A133.4109 
N1254 X-215.182 Y-38.863 Z2.174 A138.1336 
N1255 X-215.182 Y-39.272 Z0.441 A142.8864 
N1256 X-215.182 Y-39.514 Z-1.344 A147.6586 
N1257 X-215.182 Y-39.566 Z-3.168 A152.4313 
N1258 X-215.182 Y-39.402 Z-5.002 A157.1546 
N1259 X-215.182 Y-39.003 Z-6.812 A161.7670 
N1260 X-215.182 Y-38.357 Z-8.557 A166.2094 
N1261 X-215.182 Y-37.464 Z-10.206 A170.4515 
N1262 X-215.182 Y-36.322 Z-11.632 A174.1699 
N1263 X-215.182 Y-34.957 Z-12.687 A176.9391 
N1264 X-215.182 Y-33.418 Z-13.351 A178.6783 
N1265 X-215.182 Y-31.744 Z-13.719 A179.6229 
N1266 X-215.182 Y-29.960 Z-13.898 A180.0545 
N1267 X-215.182 Y-28.083 Z-13.973 A180.1903 
N1268 X-215.182 Y-26.134 Z-14.001 A180.1841 
N1269 X-215.182 Y-24.137 Z-14.023 A180.1492 
N1270 X-215.182 Y-22.117 Z-14.055 A180.1361 
N1271 X-215.182 Y-20.100 Z-14.097 A180.1473 
N1272 X-215.182 Y-18.112 Z-14.131 A180.1306 
N1273 X-215.182 Y-16.181 Z-14.172 
N1274 X-215.182 Y-14.315 Z-14.214 
N1275 X-215.182 Y-12.525 Z-14.320 A180.3427 
N1276 X-215.182 Y-10.842 Z-14.663 A181.3339 
N1277 X-215.182 Y-9.246 Z-15.298 A183.3282 
N1278 X-215.182 Y-7.703 Z-16.261 A186.5142 
N1279 X-215.182 Y-6.146 Z-17.526 A190.8879 
N1280 X-215.182 Y-4.514 Z-18.970 A196.1748 
N1281 X-215.182 Y-2.801 Z-20.377 A201.7754 
N1282 X-215.182 Y-1.020 Z-21.649 A207.4108 
N1283 X-215.182 Y0.804 Z-22.732 A212.9133 
N1284 X-215.182 Y2.621 Z-23.574 A218.0837 
N1285 X-215.182 Y4.381 Z-24.155 A222.7877 
N1286 X-215.182 Y6.043 Z-24.482 A226.9538 
N1287 X-215.182 Y7.583 Z-24.579 A230.5719 
N1288 X-215.182 Y8.991 Z-24.475 A233.6640 
N1289 X-215.182 Y10.270 Z-24.203 A236.2900 
N1290 X-215.182 Y11.441 Z-23.801 A238.5501 
N1291 X-215.182 Y12.530 Z-23.299 A240.5534 
N1292 X-215.182 Y13.563 Z-22.726 A242.4044 
N1293 X-215.182 Y14.567 Z-22.102 A244.2015 
N1294 X-215.182 Y15.562 Z-21.445 A246.0262 
N1295 X-215.182 Y16.560 Z-20.765 A247.9273 
N1296 X-215.182 Y17.561 Z-20.067 A249.9229 
N1297 X-215.182 Y18.564 Z-19.354 A252.0175 
N1298 X-215.182 Y19.565 Z-18.631 A254.2090 
N1299 X-215.182 Y20.560 Z-17.897 A256.4880 
N1300 X-215.182 Y21.544 Z-17.157 A258.8485 
N1301 X-215.182 Y22.519 Z-16.413 A261.2937 
N1302 X-215.182 Y23.485 Z-15.665 A263.8315 
N1303 X-215.182 Y24.447 Z-14.914 A266.4716 
N1304 X-215.182 Y25.408 Z-14.159 A269.2258 
N1305 X-215.182 Y26.372 Z-13.395 A272.1018 
N1306 X-215.182 Y27.338 Z-12.617 A275.1013 
N1307 X-215.182 Y28.304 Z-11.821 A278.2207 
N1308 X-215.182 Y29.267 Z-10.998 A281.4538 
N1309 X-215.182 Y30.222 Z-10.144 A284.7930 
N1310 X-215.182 Y31.164 Z-9.252 A288.2296 
N1311 X-215.182 Y32.085 Z-8.316 A291.7569 
N1312 X-215.182 Y32.980 Z-7.329 A295.3703 
N1313 X-215.182 Y33.841 Z-6.287 A299.0696 
N1314 X-215.182 Y34.662 Z-5.180 A302.8599 
N1315 X-215.182 Y35.434 Z-4.003 A306.7517 
N1316 X-215.182 Y36.150 Z-2.744 A310.7624 
N1317 X-215.182 Y36.798 Z-1.393 A314.9135 
N1318 X-215.182 Y37.362 Z0.060 A319.2275 
N1319 X-215.182 Y37.819 Z1.623 A323.7176 
N1320 X-215.182 Y38.139 Z3.299 A328.3896 
N1321 X-215.182 Y38.285 Z5.077 A333.2211 
N1322 X-215.182 Y38.216 Z6.929 A338.1595 
N1323 X-215.182 Y37.892 Z8.813 A343.1237 
N1324 X-215.182 Y37.286 Z10.682 A348.0497 
N1325 X-215.182 Y36.370 Z12.409 A352.6381 
N1326 X-215.182 Y35.152 Z13.856 A356.5529 
N1327 X-215.182 Y33.670 Z14.914 A359.5020 
N1328 X-215.182 Y31.971 Z15.531 A1.3079 
N1329 X-215.182 Y30.090 Z15.774 A2.1120 
N1330 X-215.182 Y28.040 Z15.798 A2.3133 
N1331 X-215.182 Y25.832 Z15.744 A2.2935 
N1332 X-215.182 Y23.483 Z15.684 A2.2593 
N1333 X-215.182 Y21.019 Z15.636 
N1334 X-215.182 Y18.472 Z15.587 
N1335 X-215.182 Y15.884 Z15.538 
N1336 X-215.182 Y13.296 Z15.488 
N1337 X-215.182 Y10.752 Z15.439 A2.2602 
N1338 X-215.182 Y8.294 Z15.393 A2.2632 
N1339 X-215.182 Y5.958 Z15.349 A2.2697 
N1340 X-215.182 Y3.776 Z15.311 A2.2831 
N1341 X-215.182 Y1.772 Z15.278 A2.3022 
N1342 X-215.182 Y-0.038 Z15.248 A2.3176 
N1343 X-215.182 Y-1.648 Z15.214 A2.3082 
N1344 X-215.182 Y-3.057 Z15.172 A2.2593 
N1345 X-215.182 Y-4.272 Z15.152 
N1346 X-215.182 Y-5.331 Z15.172 A2.3755 
N1347 X-215.182 Y-6.236 Z15.528 A3.5195 
N1348 X-215.182 Y-7.068 Z16.493 A6.5675 
N1349 X-215.182 Y-8.013 Z18.371 A12.5459 
N1350 X-215.182 Y-9.382 Z21.067 A21.4497 
N1351 X-215.182 Y-11.100 Z23.585 A30.4827 
N1352 X-215.182 Y-13.003 Z25.663 A38.8391 
N1353 X-215.182 Y-15.066 Z27.379 A46.8086 
N1354 X-215.182 Y-17.197 Z28.711 A54.2701 
N1355 X-215.182 Y-19.362 Z29.694 A61.3242 
N1356 X-215.182 Y-21.532 Z30.353 A68.0382 
N1357 X-215.182 Y-23.700 Z30.710 A74.5270 
N1358 X-215.182 Y-25.903 Z30.784 A81.0132 
N1359 X-215.182 Y-27.848 Z30.547 A86.7218 
N1360 X-215.182 Y-29.362 Z30.072 A91.2126 
N1361 X-215.182 Y-30.425 Z29.448 A94.4657 
N1362 X-215.182 Y-31.069 Z28.740 A96.5627 
N1363 X-215.182 Y-31.360 Z27.976 A97.6762 
N1364 X-215.182 Y-31.408 Z27.161 A98.1123 
N1365 X-215.182 Y-31.324 Z26.286 A98.1864 
N1366 X-215.182 Y-31.195 Z25.344 A98.1525 
N1367 X-215.182 Y-31.065 Z24.337 A98.1331 
N1368 X-215.182 Y-30.939 Z23.274 A98.1456 
N1369 X-215.182 Y-30.807 Z22.171 A98.1499 
N1370 X-215.182 Y-30.661 Z21.041 A98.1187 
N1371 X-215.182 Y-30.527 Z19.897 
N1372 X-215.182 Y-30.390 Z18.737 
N1373 X-215.182 Y-30.401 Z17.573 A98.5801 
N1374 X-215.182 Y-30.629 Z16.402 A99.7411 
N1375 X-215.182 Y-31.112 Z15.212 A101.7598 
N1376 X-215.182 Y-31.836 Z13.983 A104.6566 
N1377 X-215.182 Y-32.761 Z12.686 A108.3663 
N1378 X-215.182 Y-33.802 Z11.303 A112.6908 
N1379 X-215.182 Y-34.821 Z9.853 A117.2526 
N1380 X-215.182 Y-35.742 Z8.363 A121.8146 
N1381 X-215.182 Y-36.574 Z6.818 A126.4372 
N1382 X-215.182 Y-37.307 Z5.214 A131.1239 
N1383 X-215.182 Y-37.922 Z3.553 A135.8510 
N1384 X-215.182 Y-38.398 Z1.836 A140.6009 
N1385 X-215.182 Y-38.716 Z0.070 A145.3646 
N1386 X-215.182 Y-38.856 Z-1.735 A150.1248 
N1387 X-215.182 Y-38.794 Z-3.559 A154.8460 
N1388 X-215.182 Y-38.510 Z-5.371 A159.4757 
N1389 X-215.182 Y-37.990 Z-7.131 A163.9491 
N1390 X-215.182 Y-37.234 Z-8.815 A168.2480 
N1391 X-215.182 Y-36.239 Z-10.351 A172.2240 
N1392 X-215.182 Y-35.015 Z-11.584 A175.4434 
N1393 X-215.182 Y-33.603 Z-12.428 A177.6460 
N1394 X-215.182 Y-32.051 Z-12.935 A178.9498 
N1395 X-215.182 Y-30.389 Z-13.206 A179.6168 
N1396 X-215.182 Y-28.638 Z-13.334 A179.8841 
N1397 X-215.182 Y-26.817 Z-13.385 A179.9290 
N1398 X-215.182 Y-24.948 Z-13.411 A179.8899 
N1399 X-215.182 Y-23.054 Z-13.442 A179.8529 
N1400 X-215.182 Y-21.158 Z-13.485 A179.8464 
N1401 X-215.182 Y-19.284 Z-13.531 
N1402 X-215.182 Y-17.456 Z-13.579 
N1403 X-215.182 Y-15.683 Z-13.626 
N1404 X-215.182 Y-13.980 Z-13.744 A180.0795 
N1405 X-215.182 Y-12.372 Z-14.101 A181.0923 
N1406 X-215.182 Y-10.839 Z-14.774 A183.1831 
N1407 X-215.182 Y-9.346 Z-15.784 A186.4925 
N1408 X-215.182 Y-7.830 Z-17.059 A190.8853 
N1409 X-215.182 Y-6.237 Z-18.489 A196.1022 
N1410 X-215.182 Y-4.553 Z-19.899 A201.6771 
N1411 X-215.182 Y-2.795 Z-21.174 A207.2876 
N1412 X-215.182 Y-0.991 Z-22.259 A212.7614 
N1413 X-215.182 Y0.809 Z-23.102 A217.8967 
N1414 X-215.182 Y2.554 Z-23.683 A222.5605 
N1415 X-215.182 Y4.201 Z-24.008 A226.6766 
N1416 X-215.182 Y5.725 Z-24.100 A230.2342 
N1417 X-215.182 Y7.115 Z-23.990 A233.2557 
N1418 X-215.182 Y8.372 Z-23.710 A235.7916 
N1419 X-215.182 Y9.518 Z-23.299 A237.9464 
N1420 X-215.182 Y10.585 Z-22.791 A239.8489 
N1421 X-215.182 Y11.605 Z-22.217 A241.6231 
N1422 X-215.182 Y12.607 Z-21.601 A243.3835 
N1423 X-215.182 Y13.618 Z-20.961 A245.2293 
N1424 X-215.182 Y14.650 Z-20.305 A247.2147 
N1425 X-215.182 Y15.700 Z-19.635 A249.3425 
N1426 X-215.182 Y16.755 Z-18.949 A251.5846 
N1427 X-215.182 Y17.803 Z-18.247 A253.9081 
N1428 X-215.182 Y18.828 Z-17.528 A256.2755 
N1429 X-215.182 Y19.822 Z-16.796 A258.6598 
N1430 X-215.182 Y20.783 Z-16.057 A261.0585 
N1431 X-215.182 Y21.717 Z-15.315 A263.4904 
N1432 X-215.182 Y22.634 Z-14.573 A265.9815 
N1433 X-215.182 Y23.545 Z-13.833 A268.5633 
N1434 X-215.182 Y24.460 Z-13.092 A271.2647 
N1435 X-215.182 Y25.385 Z-12.346 A274.1030 
N1436 X-215.182 Y26.321 Z-11.587 A277.0839 
N1437 X-215.182 Y27.268 Z-10.808 A280.2084 
N1438 X-215.182 Y28.222 Z-10.001 A283.4733 
N1439 X-215.182 Y29.177 Z-9.158 A286.8713 
N1440 X-215.182 Y30.128 Z-8.270 A290.3961 
N1441 X-215.182 Y31.067 Z-7.329 A294.0420 
N1442 X-215.182 Y31.985 Z-6.327 A297.8066 
N1443 X-215.182 Y32.875 Z-5.254 A301.6940 
N1444 X-215.182 Y33.727 Z-4.102 A305.7139 
N1445 X-215.182 Y34.532 Z-2.858 A309.8841 
N1446 X-215.182 Y35.277 Z-1.508 A314.2268 
N1447 X-215.182 Y35.941 Z-0.041 A318.7642 
N1448 X-215.182 Y36.500 Z1.551 A323.5048 
N1449 X-215.182 Y36.919 Z3.269 A328.4493 
N1450 X-215.182 Y37.156 Z5.101 A333.5673 
N1451 X-215.182 Y37.164 Z7.010 A338.7790 
N1452 X-215.182 Y36.903 Z8.943 A343.9787 
N1453 X-215.182 Y36.346 Z10.847 A349.0997 
N1454 X-215.182 Y35.468 Z12.558 A353.7289 
N1455 X-215.182 Y34.292 Z13.913 A357.4506 
N1456 X-215.182 Y32.868 Z14.845 A0.0876 
N1457 X-215.182 Y31.242 Z15.361 A1.6307 
N1458 X-215.182 Y29.438 Z15.548 A2.2830 
N1459 X-215.182 Y27.466 Z15.547 A2.4177 
N1460 X-215.182 Y25.335 Z15.483 A2.3730 
N1461 X-215.182 Y23.061 Z15.426 A2.3456 
N1462 X-215.182 Y20.669 Z15.377 
N1463 X-215.182 Y18.191 Z15.327 
N1464 X-215.182 Y15.667 Z15.276 
N1465 X-215.182 Y13.142 Z15.225 A2.3473 
N1466 X-215.182 Y10.655 Z15.174 A2.3474 
N1467 X-215.182 Y8.250 Z15.125 A2.3491 
N1468 X-215.182 Y5.962 Z15.079 A2.3546 
N1469 X-215.182 Y3.823 Z15.039 A2.3673 
N1470 X-215.182 Y1.858 Z15.004 A2.3873 
N1471 X-215.182 Y0.081 Z14.972 A2.4040 
N1472 X-215.182 Y-1.498 Z14.939 A2.4008 
N1473 X-215.182 Y-2.881 Z14.893 A2.3456 
N1474 X-215.182 Y-4.072 Z14.872 
N1475 X-215.182 Y-5.109 Z14.868 A2.3923 
N1476 X-215.182 Y-5.991 Z15.167 A3.3618 
N1477 X-215.182 Y-6.791 Z16.024 A6.0673 
N1478 X-215.182 Y-7.674 Z17.771 A11.6088 
N1479 X-215.182 Y-8.965 Z20.447 A20.3587 
N1480 X-215.182 Y-10.654 Z23.065 A29.6040 
N1481 X-215.182 Y-12.524 Z25.197 A38.0210 
N1482 X-215.182 Y-14.564 Z26.971 A46.0588 
N1483 X-215.182 Y-16.674 Z28.354 A53.5601 
N1484 X-215.182 Y-18.819 Z29.387 A60.6334 
N1485 X-215.182 Y-20.974 Z30.098 A67.3657 
N1486 X-215.182 Y-23.133 Z30.511 A73.8702 
N1487 X-215.182 Y-25.302 Z30.639 A80.2843 
N1488 X-215.182 Y-27.319 Z30.471 A86.2139 
N1489 X-215.182 Y-29.051 Z30.048 A91.3631 
N1490 X-215.182 Y-30.328 Z29.450 A95.2664 
N1491 X-215.182 Y-31.088 Z28.766 A97.7366 
N1492 X-215.182 Y-31.420 Z28.041 A99.0070 
N1493 X-215.182 Y-31.480 Z27.273 A99.5188 
N1494 X-215.182 Y-31.404 Z26.449 A99.6628 
N1495 X-215.182 Y-31.278 Z25.558 A99.6886 
N1496 X-215.182 Y-31.134 Z24.602 A99.6932 
N1497 X-215.182 Y-30.981 Z23.588 A99.6936 
N1498 X-215.182 Y-30.813 Z22.529 A99.6680 
N1499 X-215.182 Y-30.642 Z21.437 A99.6413 
N1500 X-215.182 Y-30.479 Z20.323 
N1501 X-215.182 Y-30.312 Z19.186 A99.6431 
N1502 X-215.182 Y-30.268 Z18.046 A100.0279 
N1503 X-215.182 Y-30.371 Z16.898 A100.8884 
N1504 X-215.182 Y-30.693 Z15.733 A102.4766 
N1505 X-215.182 Y-31.290 Z14.523 A105.0178 
N1506 X-215.182 Y-32.174 Z13.223 A108.6251 
N1507 X-215.182 Y-33.221 Z11.819 A113.0071 
N1508 X-215.182 Y-34.239 Z10.345 A117.6106 
N1509 X-215.182 Y-35.155 Z8.830 A122.2117 
N1510 X-215.182 Y-35.981 Z7.257 A126.8841 
N1511 X-215.182 Y-36.704 Z5.627 A131.6153 
N1512 X-215.182 Y-37.303 Z3.941 A136.3782 
N1513 X-215.182 Y-37.758 Z2.207 A141.1492 
N1514 X-215.182 Y-38.052 Z0.431 A145.9149 
N1515 X-215.182 Y-38.164 Z-1.375 A150.6567 
N1516 X-215.182 Y-38.075 Z-3.188 A155.3362 
N1517 X-215.182 Y-37.769 Z-4.978 A159.9027 
N1518 X-215.182 Y-37.235 Z-6.709 A164.3009 
N1519 X-215.182 Y-36.475 Z-8.362 A168.5274 
N1520 X-215.182 Y-35.487 Z-9.848 A172.3738 
N1521 X-215.182 Y-34.285 Z-11.021 A175.4275 
N1522 X-215.182 Y-32.914 Z-11.825 A177.5128 
N1523 X-215.182 Y-31.416 Z-12.318 A178.7689 
N1524 X-215.182 Y-29.822 Z-12.588 A179.4203 
N1525 X-215.182 Y-28.153 Z-12.715 A179.6725 
N1526 X-215.182 Y-26.427 Z-12.766 A179.7004 
N1527 X-215.182 Y-24.666 Z-12.794 A179.6495 
N1528 X-215.182 Y-22.890 Z-12.828 A179.6062 
N1529 X-215.182 Y-21.122 Z-12.880 
N1530 X-215.182 Y-19.380 Z-12.933 
N1531 X-215.182 Y-17.680 Z-12.985 
N1532 X-215.182 Y-16.031 Z-13.060 A179.6880 
N1533 X-215.182 Y-14.467 Z-13.322 A180.3722 
N1534 X-215.182 Y-12.975 Z-13.869 A182.0083 
N1535 X-215.182 Y-11.531 Z-14.778 A184.9050 
N1536 X-215.182 Y-10.077 Z-15.986 A188.9511 
N1537 X-215.182 Y-8.561 Z-17.369 A193.8461 
N1538 X-215.182 Y-6.949 Z-18.801 A199.2783 
N1539 X-215.182 Y-5.248 Z-20.142 A204.8679 
N1540 X-215.182 Y-3.481 Z-21.318 A210.3981 
N1541 X-215.182 Y-1.692 Z-22.268 A215.6631 
N1542 X-215.182 Y0.065 Z-22.961 A220.5010 
N1543 X-215.182 Y1.741 Z-23.392 A224.8138 
N1544 X-215.182 Y3.304 Z-23.580 A228.5637 
N1545 X-215.182 Y4.737 Z-23.552 A231.7638 
N1546 X-215.182 Y6.034 Z-23.339 A234.4444 
N1547 X-215.182 Y7.205 Z-22.976 A236.6747 
N1548 X-215.182 Y8.277 Z-22.500 A238.5763 
N1549 X-215.182 Y9.286 Z-21.946 A240.2862 
N1550 X-215.182 Y10.267 Z-21.345 A241.9387 
N1551 X-215.182 Y11.256 Z-20.720 A243.6668 
N1552 X-215.182 Y12.280 Z-20.088 A245.5764 
N1553 X-215.182 Y13.348 Z-19.452 A247.7052 
N1554 X-215.182 Y14.444 Z-18.807 A250.0223 
N1555 X-215.182 Y15.548 Z-18.146 A252.4688 
N1556 X-215.182 Y16.637 Z-17.464 A254.9791 
N1557 X-215.182 Y17.688 Z-16.761 A257.4888 
N1558 X-215.182 Y18.687 Z-16.041 A259.9598 
N1559 X-215.182 Y19.637 Z-15.312 A262.3932 
N1560 X-215.182 Y20.546 Z-14.580 A264.8140 
N1561 X-215.182 Y21.428 Z-13.851 A267.2594 
N1562 X-215.182 Y22.299 Z-13.126 A269.7752 
N1563 X-215.182 Y23.173 Z-12.403 A272.4002 
N1564 X-215.182 Y24.059 Z-11.677 A275.1592 
N1565 X-215.182 Y24.961 Z-10.941 A278.0683 
N1566 X-215.182 Y25.882 Z-10.186 A281.1362 
N1567 X-215.182 Y26.818 Z-9.402 A284.3636 
N1568 X-215.182 Y27.766 Z-8.581 A287.7488 
N1569 X-215.182 Y28.720 Z-7.711 A291.2907 
N1570 X-215.182 Y29.673 Z-6.782 A294.9876 
N1571 X-215.182 Y30.616 Z-5.783 A298.8434 
N1572 X-215.182 Y31.542 Z-4.701 A302.8685 
N1573 X-215.182 Y32.440 Z-3.521 A307.0814 
N1574 X-215.182 Y33.297 Z-2.227 A311.5050 
N1575 X-215.182 Y34.093 Z-0.805 A316.1581 
N1576 X-215.182 Y34.804 Z0.762 A321.0651 
N1577 X-215.182 Y35.394 Z2.482 A326.2446 
N1578 X-215.182 Y35.817 Z4.347 A331.6608 
N1579 X-215.182 Y36.013 Z6.316 A337.2105 
N1580 X-215.182 Y35.932 Z8.323 A342.7486 
N1581 X-215.182 Y35.550 Z10.327 A348.2395 
N1582 X-215.182 Y34.836 Z12.166 A353.2965 
N1583 X-215.182 Y33.805 Z13.600 A357.2773 
N1584 X-215.182 Y32.524 Z14.559 A0.0015 
N1585 X-215.182 Y31.042 Z15.098 A1.6090 
N1586 X-215.182 Y29.384 Z15.313 A2.3414 
N1587 X-215.182 Y27.557 Z15.332 A2.5332 
N1588 X-215.182 Y25.566 Z15.271 A2.4998 
N1589 X-215.182 Y23.425 Z15.207 A2.4570 
N1590 X-215.182 Y21.153 Z15.157 
N1591 X-215.182 Y18.778 Z15.105 
N1592 X-215.182 Y16.339 Z15.052 
N1593 X-215.182 Y13.878 Z14.999 A2.4608 
N1594 X-215.182 Y11.437 Z14.945 A2.4601 
N1595 X-215.182 Y9.056 Z14.892 A2.4596 
N1596 X-215.182 Y6.774 Z14.842 A2.4621 
N1597 X-215.182 Y4.624 Z14.797 A2.4711 
N1598 X-215.182 Y2.634 Z14.758 A2.4903 
N1599 X-215.182 Y0.824 Z14.724 A2.5126 
N1600 X-215.182 Y-0.796 Z14.692 A2.5269 
N1601 X-215.182 Y-2.222 Z14.649 A2.4910 
N1602 X-215.182 Y-3.456 Z14.613 A2.4570 
N1603 X-215.182 Y-4.519 Z14.592 
N1604 X-215.182 Y-5.438 Z14.694 A2.8234 
N1605 X-215.182 Y-6.233 Z15.223 A4.5052 
N1606 X-215.182 Y-7.013 Z16.479 A8.4622 
N1607 X-215.182 Y-8.038 Z18.761 A15.7626 
N1608 X-215.182 Y-9.587 Z21.637 A25.4549 
N1609 X-215.182 Y-11.329 Z23.938 A34.0242 
N1610 X-215.182 Y-13.282 Z25.903 A42.2664 
N1611 X-215.182 Y-15.331 Z27.469 A49.9420 
N1612 X-215.182 Y-17.430 Z28.674 A57.1429 
N1613 X-215.182 Y-19.553 Z29.555 A63.9764 
N1614 X-215.182 Y-21.687 Z30.136 A70.5419 
N1615 X-215.182 Y-23.835 Z30.435 A76.9647 
N1616 X-215.182 Y-25.953 Z30.450 A83.2166 
N1617 X-215.182 Y-27.990 Z30.187 A89.2424 
N1618 X-215.182 Y-29.657 Z29.684 A94.2691 
N1619 X-215.182 Y-30.753 Z29.050 A97.7143 
N1620 X-215.182 Y-31.330 Z28.367 A99.7088 
N1621 X-215.182 Y-31.558 Z27.653 A100.7277 
N1622 X-215.182 Y-31.581 Z26.896 A101.1905 
N1623 X-215.182 Y-31.495 Z26.082 A101.3724 
N1624 X-215.182 Y-31.351 Z25.206 A101.4186 
N1625 X-215.182 Y-31.176 Z24.269 A101.4077 
N1626 X-215.182 Y-30.986 Z23.278 A101.3786 
N1627 X-215.182 Y-30.794 Z22.241 A101.3624 
N1628 X-215.182 Y-30.602 Z21.172 
N1629 X-215.182 Y-30.407 Z20.080 
N1630 X-215.182 Y-30.222 Z18.975 A101.4016 
N1631 X-215.182 Y-30.133 Z17.865 A101.7423 
N1632 X-215.182 Y-30.216 Z16.738 A102.6337 
N1633 X-215.182 Y-30.584 Z15.570 A104.4636 
N1634 X-215.182 Y-31.291 Z14.317 A107.4765 
N1635 X-215.182 Y-32.248 Z12.952 A111.4926 
N1636 X-215.182 Y-33.261 Z11.497 A115.9829 
N1637 X-215.182 Y-34.208 Z9.982 A120.5897 
N1638 X-215.182 Y-35.071 Z8.410 A125.2815 
N1639 X-215.182 Y-35.830 Z6.782 A130.0219 
N1640 X-215.182 Y-36.469 Z5.101 A134.7980 
N1641 X-215.182 Y-36.970 Z3.372 A139.5802 
N1642 X-215.182 Y-37.313 Z1.604 A144.3519 
N1643 X-215.182 Y-37.483 Z-0.192 A149.0918 
N1644 X-215.182 Y-37.461 Z-1.997 A153.7710 
N1645 X-215.182 Y-37.232 Z-3.785 A158.3457 
N1646 X-215.182 Y-36.785 Z-5.521 A162.7598 
N1647 X-215.182 Y-36.121 Z-7.181 A166.9949 
N1648 X-215.182 Y-35.240 Z-8.710 A170.9341 
N1649 X-215.182 Y-34.149 Z-9.975 A174.2128 
N1650 X-215.182 Y-32.886 Z-10.895 A176.5958 
N1651 X-215.182 Y-31.494 Z-11.497 A178.1398 
N1652 X-215.182 Y-30.008 Z-11.853 A179.0180 
N1653 X-215.182 Y-28.450 Z-12.034 A179.4141 
N1654 X-215.182 Y-26.841 Z-12.110 A179.5060 
N1655 X-215.182 Y-25.199 Z-12.143 A179.4627 
N1656 X-215.182 Y-23.542 Z-12.171 A179.3916 
N1657 X-215.182 Y-21.895 Z-12.225 A179.3907 
N1658 X-215.182 Y-20.265 Z-12.282 
N1659 X-215.182 Y-18.664 Z-12.337 
N1660 X-215.182 Y-17.121 Z-12.469 A179.6444 
N1661 X-215.182 Y-15.647 Z-12.783 A180.4960 
N1662 X-215.182 Y-14.235 Z-13.393 A182.3422 
N1663 X-215.182 Y-12.851 Z-14.370 A185.4657 
N1664 X-215.182 Y-11.437 Z-15.631 A189.7032 
N1665 X-215.182 Y-9.951 Z-17.023 A194.6587 
N1666 X-215.182 Y-8.365 Z-18.430 A200.0472 
N1667 X-215.182 Y-6.689 Z-19.740 A205.5642 
N1668 X-215.182 Y-4.950 Z-20.877 A210.9869 
N1669 X-215.182 Y-3.195 Z-21.785 A216.1182 
N1670 X-215.182 Y-1.476 Z-22.439 A220.8151 
N1671 X-215.182 Y0.164 Z-22.840 A224.9980 
N1672 X-215.182 Y1.694 Z-23.005 A228.6380 
N1673 X-215.182 Y3.100 Z-22.964 A231.7503 
N1674 X-215.182 Y4.374 Z-22.743 A234.3610 
N1675 X-215.182 Y5.523 Z-22.375 A236.5243 
N1676 X-215.182 Y6.571 Z-21.895 A238.3500 
N1677 X-215.182 Y7.553 Z-21.338 A239.9711 
N1678 X-215.182 Y8.505 Z-20.736 A241.5287 
N1679 X-215.182 Y9.470 Z-20.116 A243.1749 
N1680 X-215.182 Y10.483 Z-19.500 A245.0471 
N1681 X-215.182 Y11.559 Z-18.892 A247.2072 
N1682 X-215.182 Y12.686 Z-18.283 A249.6266 
N1683 X-215.182 Y13.837 Z-17.661 A252.2282 
N1684 X-215.182 Y14.979 Z-17.017 A254.9187 
N1685 X-215.182 Y16.080 Z-16.346 A257.6003 
N1686 X-215.182 Y17.117 Z-15.651 A260.2044 
N1687 X-215.182 Y18.084 Z-14.941 A262.7134 
N1688 X-215.182 Y18.990 Z-14.225 A265.1457 
N1689 X-215.182 Y19.850 Z-13.510 A267.5417 
N1690 X-215.182 Y20.684 Z-12.801 A269.9580 
N1691 X-215.182 Y21.512 Z-12.097 A272.4483 
N1692 X-215.182 Y22.348 Z-11.395 A275.0550 
N1693 X-215.182 Y23.205 Z-10.688 A277.8116 
N1694 X-215.182 Y24.086 Z-9.967 A280.7399 
N1695 X-215.182 Y24.995 Z-9.221 A283.8488 
N1696 X-215.182 Y25.927 Z-8.440 A287.1436 
N1697 X-215.182 Y26.880 Z-7.610 A290.6286 
N1698 X-215.182 Y27.847 Z-6.719 A294.3066 
N1699 X-215.182 Y28.822 Z-5.751 A298.1871 
N1700 X-215.182 Y29.794 Z-4.692 A302.2829 
N1701 X-215.182 Y30.750 Z-3.524 A306.6093 
N1702 X-215.182 Y31.678 Z-2.227 A311.1940 
N1703 X-215.182 Y32.557 Z-0.779 A316.0798 
N1704 X-215.182 Y33.360 Z0.844 A321.3027 
N1705 X-215.182 Y34.040 Z2.648 A326.8554 
N1706 X-215.182 Y34.533 Z4.612 A332.6614 
N1707 X-215.182 Y34.773 Z6.681 A338.5830 
N1708 X-215.182 Y34.711 Z8.779 A344.4600 
N1709 X-215.182 Y34.324 Z10.854 A350.2402 
N1710 X-215.182 Y33.586 Z12.654 A355.2762 
N1711 X-215.182 Y32.547 Z13.915 A358.8467 
N1712 X-215.182 Y31.288 Z14.651 A0.9880 
N1713 X-215.182 Y29.850 Z15.004 A2.0947 
N1714 X-215.182 Y28.243 Z15.114 A2.5347 
N1715 X-215.182 Y26.469 Z15.094 A2.6171 
N1716 X-215.182 Y24.534 Z15.027 A2.5703 
N1717 X-215.182 Y22.451 Z14.967 A2.5452 
N1718 X-215.182 Y20.240 Z14.914 
N1719 X-215.182 Y17.932 Z14.859 
N1720 X-215.182 Y15.565 Z14.803 A2.5466 
N1721 X-215.182 Y13.179 Z14.747 A2.5498 
N1722 X-215.182 Y10.816 Z14.689 A2.5485 
N1723 X-215.182 Y8.515 Z14.632 A2.5474 
N1724 X-215.182 Y6.314 Z14.579 A2.5499 
N1725 X-215.182 Y4.245 Z14.532 A2.5602 
N1726 X-215.182 Y2.335 Z14.492 A2.5822 
N1727 X-215.182 Y0.600 Z14.457 A2.6082 
N1728 X-215.182 Y-0.948 Z14.424 A2.6244 
N1729 X-215.182 Y-2.307 Z14.378 A2.5858 
N1730 X-215.182 Y-3.479 Z14.338 A2.5452 
N1731 X-215.182 Y-4.486 Z14.317 
N1732 X-215.182 Y-5.356 Z14.425 A2.9332 
N1733 X-215.182 Y-6.110 Z14.975 A4.6777 
N1734 X-215.182 Y-6.863 Z16.278 A8.7767 
N1735 X-215.182 Y-7.899 Z18.667 A16.4115 
N1736 X-215.182 Y-9.470 Z21.570 A26.2226 
N1737 X-215.182 Y-11.211 Z23.847 A34.7423 
N1738 X-215.182 Y-13.158 Z25.788 A42.9294 
N1739 X-215.182 Y-15.188 Z27.328 A50.5212 
N1740 X-215.182 Y-17.262 Z28.515 A57.6374 
N1741 X-215.182 Y-19.361 Z29.386 A64.4007 
N1742 X-215.182 Y-21.478 Z29.969 A70.9276 
N1743 X-215.182 Y-23.601 Z30.274 A77.2931 
N1744 X-215.182 Y-25.738 Z30.307 A83.6166 
N1745 X-215.182 Y-27.847 Z30.062 A89.8745 
N1746 X-215.182 Y-29.566 Z29.569 A95.0741 
N1747 X-215.182 Y-30.713 Z28.948 A98.6900 
N1748 X-215.182 Y-31.364 Z28.281 A100.9312 
N1749 X-215.182 Y-31.668 Z27.587 A102.2125 
N1750 X-215.182 Y-31.741 Z26.859 A102.8637 
N1751 X-215.182 Y-31.665 Z26.087 A103.1231 
N1752 X-215.182 Y-31.504 Z25.261 A103.1682 
N1753 X-215.182 Y-31.303 Z24.375 A103.1342 
N1754 X-215.182 Y-31.091 Z23.431 A103.1028 
N1755 X-215.182 Y-30.881 Z22.438 
N1756 X-215.182 Y-30.664 Z21.408 
N1757 X-215.182 Y-30.444 Z20.358 
N1758 X-215.182 Y-30.221 Z19.294 
N1759 X-215.182 Y-30.034 Z18.215 A103.2217 
N1760 X-215.182 Y-30.046 Z17.111 A103.9674 
N1761 X-215.182 Y-30.341 Z15.954 A105.6435 
N1762 X-215.182 Y-30.965 Z14.709 A108.4664 
N1763 X-215.182 Y-31.825 Z13.358 A112.2389 
N1764 X-215.182 Y-32.781 Z11.906 A116.5983 
N1765 X-215.182 Y-33.727 Z10.367 A121.2671 
N1766 X-215.182 Y-34.586 Z8.766 A126.0292 
N1767 X-215.182 Y-35.326 Z7.116 A130.7986 
N1768 X-215.182 Y-35.943 Z5.414 A135.6025 
N1769 X-215.182 Y-36.418 Z3.667 A140.4078 
N1770 X-215.182 Y-36.733 Z1.888 A145.1876 
N1771 X-215.182 Y-36.871 Z0.090 A149.9171 
N1772 X-215.182 Y-36.817 Z-1.705 A154.5610 
N1773 X-215.182 Y-36.558 Z-3.471 A159.0772 
N1774 X-215.182 Y-36.089 Z-5.173 A163.4107 
N1775 X-215.182 Y-35.412 Z-6.787 A167.5358 
N1776 X-215.182 Y-34.530 Z-8.242 A171.2813 
N1777 X-215.182 Y-33.457 Z-9.425 A174.3429 
N1778 X-215.182 Y-32.233 Z-10.294 A176.5865 
N1779 X-215.182 Y-30.898 Z-10.874 A178.0719 
N1780 X-215.182 Y-29.482 Z-11.218 A178.9176 
N1781 X-215.182 Y-28.008 Z-11.388 A179.2778 
N1782 X-215.182 Y-26.495 Z-11.454 A179.3360 
N1783 X-215.182 Y-24.961 Z-11.479 A179.2616 
N1784 X-215.182 Y-23.424 Z-11.513 A179.1977 
N1785 X-215.182 Y-21.898 Z-11.570 
N1786 X-215.182 Y-20.383 Z-11.627 
N1787 X-215.182 Y-18.912 Z-11.773 A179.4866 
N1788 X-215.182 Y-17.498 Z-12.072 A180.2841 
N1789 X-215.182 Y-16.138 Z-12.610 A181.8906 
N1790 X-215.182 Y-14.808 Z-13.472 A184.6209 
N1791 X-215.182 Y-13.457 Z-14.643 A188.5005 
N1792 X-215.182 Y-12.039 Z-15.980 A193.1771 
N1793 X-215.182 Y-10.531 Z-17.348 A198.2949 
N1794 X-215.182 Y-8.929 Z-18.657 A203.6238 
N1795 X-215.182 Y-7.257 Z-19.820 A208.9210 
N1796 X-215.182 Y-5.552 Z-20.781 A214.0033 
N1797 X-215.182 Y-3.861 Z-21.508 A218.7188 
N1798 X-215.182 Y-2.226 Z-21.995 A222.9850 
N1799 X-215.182 Y-0.678 Z-22.252 A226.7617 
N1800 X-215.182 Y0.762 Z-22.304 A230.0493 
N1801 X-215.182 Y2.087 Z-22.174 A232.8667 
N1802 X-215.182 Y3.289 Z-21.888 A235.2352 
N1803 X-215.182 Y4.380 Z-21.474 A237.2158 
N1804 X-215.182 Y5.382 Z-20.966 A238.9124 
N1805 X-215.182 Y6.329 Z-20.395 A240.4487 
N1806 X-215.182 Y7.259 Z-19.793 A241.9724 
N1807 X-215.182 Y8.221 Z-19.188 A243.6566 
N1808 X-215.182 Y9.250 Z-18.600 A245.6393 
N1809 X-215.182 Y10.357 Z-18.027 A247.9630 
N1810 X-215.182 Y11.522 Z-17.456 A250.5744 
N1811 X-215.182 Y12.713 Z-16.870 A253.3776 
N1812 X-215.182 Y13.889 Z-16.257 A256.2500 
N1813 X-215.182 Y15.009 Z-15.611 A259.0723 
N1814 X-215.182 Y16.049 Z-14.939 A261.7710 
N1815 X-215.182 Y17.007 Z-14.249 A264.3297 
N1816 X-215.182 Y17.890 Z-13.554 A266.7676 
N1817 X-215.182 Y18.716 Z-12.861 A269.1330 
N1818 X-215.182 Y19.510 Z-12.175 A271.4887 
N1819 X-215.182 Y20.294 Z-11.496 A273.8983 
N1820 X-215.182 Y21.088 Z-10.819 A276.4205 
N1821 X-215.182 Y21.908 Z-10.137 A279.1036 
N1822 X-215.182 Y22.762 Z-9.440 A281.9771 
N1823 X-215.182 Y23.655 Z-8.715 A285.0606 
N1824 X-215.182 Y24.585 Z-7.948 A288.3695 
N1825 X-215.182 Y25.549 Z-7.125 A291.9121 
N1826 X-215.182 Y26.540 Z-6.228 A295.6941 
N1827 X-215.182 Y27.548 Z-5.240 A299.7267 
N1828 X-215.182 Y28.562 Z-4.141 A304.0278 
N1829 X-215.182 Y29.570 Z-2.907 A308.6353 
N1830 X-215.182 Y30.554 Z-1.509 A313.5984 
N1831 X-215.182 Y31.487 Z0.083 A318.9608 
N1832 X-215.182 Y32.314 Z1.878 A324.7038 
N1833 X-215.182 Y32.968 Z3.859 A330.7542 
N1834 X-215.182 Y33.376 Z5.981 A336.9795 
N1835 X-215.182 Y33.476 Z8.157 A343.1909 
N1836 X-215.182 Y33.235 Z10.307 A349.2466 
N1837 X-215.182 Y32.637 Z12.231 A354.6736 
N1838 X-215.182 Y31.720 Z13.613 A358.6099 
N1839 X-215.182 Y30.578 Z14.411 A0.9367 
N1840 X-215.182 Y29.262 Z14.790 A2.1164 
N1841 X-215.182 Y27.781 Z14.918 A2.6069 
N1842 X-215.182 Y26.137 Z14.913 A2.7322 
N1843 X-215.182 Y24.331 Z14.853 A2.7077 
N1844 X-215.182 Y22.374 Z14.787 A2.6735 
N1845 X-215.182 Y20.284 Z14.732 
N1846 X-215.182 Y18.088 Z14.674 
N1847 X-215.182 Y15.818 Z14.614 
N1848 X-215.182 Y13.517 Z14.554 A2.6778 
N1849 X-215.182 Y11.221 Z14.492 A2.6774 
N1850 X-215.182 Y8.973 Z14.431 A2.6760 
N1851 X-215.182 Y6.808 Z14.373 A2.6766 
N1852 X-215.182 Y4.761 Z14.319 A2.6835 
N1853 X-215.182 Y2.860 Z14.273 A2.7006 
N1854 X-215.182 Y1.123 Z14.233 A2.7266 
N1855 X-215.182 Y-0.435 Z14.197 A2.7470 
N1856 X-215.182 Y-1.809 Z14.156 A2.7365 
N1857 X-215.182 Y-3.003 Z14.104 A2.6735 
N1858 X-215.182 Y-4.023 Z14.079 
N1859 X-215.182 Y-4.908 Z14.096 A2.7909 
N1860 X-215.182 Y-5.661 Z14.451 A3.9361 
N1861 X-215.182 Y-6.364 Z15.408 A6.9477 
N1862 X-215.182 Y-7.218 Z17.360 A13.1218 
N1863 X-215.182 Y-8.599 Z20.287 A22.7294 
N1864 X-215.182 Y-10.263 Z22.771 A31.6268 
N1865 X-215.182 Y-12.124 Z24.848 A39.9345 
N1866 X-215.182 Y-14.097 Z26.531 A47.6638 
N1867 X-215.182 Y-16.119 Z27.846 A54.8567 
N1868 X-215.182 Y-18.168 Z28.841 A61.6425 
N1869 X-215.182 Y-20.241 Z29.551 A68.1690 
N1870 X-215.182 Y-22.336 Z29.993 A74.5363 
N1871 X-215.182 Y-24.444 Z30.170 A80.8134 
N1872 X-215.182 Y-26.624 Z30.082 A87.2770 
N1873 X-215.182 Y-28.602 Z29.717 A93.2027 
N1874 X-215.182 Y-30.096 Z29.160 A97.8048 
N1875 X-215.182 Y-31.088 Z28.517 A101.0355 
N1876 X-215.182 Y-31.666 Z27.843 A103.1269 
N1877 X-215.182 Y-31.916 Z27.154 A104.3150 
N1878 X-215.182 Y-31.927 Z26.446 A104.8468 
N1879 X-215.182 Y-31.790 Z25.702 A104.9841 
N1880 X-215.182 Y-31.583 Z24.905 A104.9569 
N1881 X-215.182 Y-31.361 Z24.046 A104.9236 
N1882 X-215.182 Y-31.138 Z23.130 A104.9283 
N1883 X-215.182 Y-30.912 Z22.168 A104.9546 
N1884 X-215.182 Y-30.663 Z21.178 A104.9295 
N1885 X-215.182 Y-30.416 Z20.170 A104.9193 
N1886 X-215.182 Y-30.170 Z19.145 
N1887 X-215.182 Y-29.996 Z18.089 A105.1616 
N1888 X-215.182 Y-30.071 Z16.988 A106.2008 
N1889 X-215.182 Y-30.433 Z15.813 A108.2150 
N1890 X-215.182 Y-31.086 Z14.536 A111.2946 
N1891 X-215.182 Y-31.961 Z13.130 A115.3168 
N1892 X-215.182 Y-32.942 Z11.588 A120.0211 
N1893 X-215.182 Y-33.864 Z9.959 A124.9321 
N1894 X-215.182 Y-34.637 Z8.296 A129.7567 
N1895 X-215.182 Y-35.273 Z6.591 A134.5603 
N1896 X-215.182 Y-35.761 Z4.854 A139.3247 
N1897 X-215.182 Y-36.085 Z3.099 A144.0143 
N1898 X-215.182 Y-36.235 Z1.342 A148.6051 
N1899 X-215.182 Y-36.203 Z-0.402 A153.0816 
N1900 X-215.182 Y-35.983 Z-2.114 A157.4218 
N1901 X-215.182 Y-35.570 Z-3.769 A161.5905 
N1902 X-215.182 Y-34.968 Z-5.341 A165.5507 
N1903 X-215.182 Y-34.180 Z-6.791 A169.2262 
N1904 X-215.182 Y-33.216 Z-8.042 A172.4129 
N1905 X-215.182 Y-32.103 Z-9.040 A174.9610 
N1906 X-215.182 Y-30.875 Z-9.775 A176.8349 
N1907 X-215.182 Y-29.563 Z-10.263 A178.0531 
N1908 X-215.182 Y-28.193 Z-10.539 A178.6951 
N1909 X-215.182 Y-26.787 Z-10.670 A178.9247 
N1910 X-215.182 Y-25.359 Z-10.721 A178.9195 
N1911 X-215.182 Y-23.931 Z-10.763 A178.8825 
N1912 X-215.182 Y-22.508 Z-10.818 
N1913 X-215.182 Y-21.110 Z-10.951 A179.1277 
N1914 X-215.182 Y-19.751 Z-11.224 A179.8321 
N1915 X-215.182 Y-18.433 Z-11.685 A181.1735 
N1916 X-215.182 Y-17.145 Z-12.384 A183.3482 
N1917 X-215.182 Y-15.856 Z-13.354 A186.5080 
N1918 X-215.182 Y-14.521 Z-14.548 A190.5803 
N1919 X-215.182 Y-13.111 Z-15.836 A195.2313 
N1920 X-215.182 Y-11.614 Z-17.114 A200.1931 
N1921 X-215.182 Y-10.037 Z-18.306 A205.2665 
N1922 X-215.182 Y-8.405 Z-19.345 A210.2550 
N1923 X-215.182 Y-6.756 Z-20.189 A215.0088 
N1924 X-215.182 Y-5.127 Z-20.818 A219.4176 
N1925 X-215.182 Y-3.552 Z-21.231 A223.4258 
N1926 X-215.182 Y-2.056 Z-21.439 A227.0076 
N1927 X-215.182 Y-0.652 Z-21.463 A230.1659 
N1928 X-215.182 Y0.647 Z-21.324 A232.9118 
N1929 X-215.182 Y1.836 Z-21.041 A235.2554 
N1930 X-215.182 Y2.920 Z-20.640 A237.2422 
N1931 X-215.182 Y3.917 Z-20.149 A238.9530 
N1932 X-215.182 Y4.853 Z-19.596 A240.4935 
N1933 X-215.182 Y5.769 Z-19.014 A242.0111 
N1934 X-215.182 Y6.716 Z-18.435 A243.6953 
N1935 X-215.182 Y7.737 Z-17.879 A245.7012 
N1936 X-215.182 Y8.847 Z-17.345 A248.0842 
N1937 X-215.182 Y10.029 Z-16.819 A250.8003 
N1938 X-215.182 Y11.250 Z-16.280 A253.7496 
N1939 X-215.182 Y12.462 Z-15.712 A256.7865 
N1940 X-215.182 Y13.616 Z-15.107 A259.7643 
N1941 X-215.182 Y14.682 Z-14.469 A262.5885 
N1942 X-215.182 Y15.650 Z-13.811 A265.2271 
N1943 X-215.182 Y16.527 Z-13.143 A267.6916 
N1944 X-215.182 Y17.333 Z-12.478 A270.0313 
N1945 X-215.182 Y18.092 Z-11.819 A272.3160 
N1946 X-215.182 Y18.835 Z-11.169 A274.6250 
N1947 X-215.182 Y19.587 Z-10.522 A277.0365 
N1948 X-215.182 Y20.370 Z-9.872 A279.6144 
N1949 X-215.182 Y21.197 Z-9.205 A282.4026 
N1950 X-215.182 Y22.074 Z-8.509 A285.4342 
N1951 X-215.182 Y23.004 Z-7.767 A288.7300 
N1952 X-215.182 Y23.981 Z-6.961 A292.2984 
N1953 X-215.182 Y24.996 Z-6.073 A296.1473 
N1954 X-215.182 Y26.040 Z-5.082 A300.2927 
N1955 X-215.182 Y27.104 Z-3.961 A304.7704 
N1956 X-215.182 Y28.177 Z-2.677 A309.6426 
N1957 X-215.182 Y29.229 Z-1.199 A314.9406 
N1958 X-215.182 Y30.212 Z0.491 A320.6563 
N1959 X-215.182 Y31.062 Z2.395 A326.7485 
N1960 X-215.182 Y31.705 Z4.486 A333.1203 
N1961 X-215.182 Y32.066 Z6.699 A339.6121 
N1962 X-215.182 Y32.086 Z8.924 A345.9760 
N1963 X-215.182 Y31.745 Z11.040 A351.9764 
N1964 X-215.182 Y31.051 Z12.760 A356.8755 
N1965 X-215.182 Y30.087 Z13.862 A0.0581 
N1966 X-215.182 Y28.937 Z14.427 A1.7541 
N1967 X-215.182 Y27.628 Z14.655 A2.5200 
N1968 X-215.182 Y26.160 Z14.702 A2.7881 
N1969 X-215.182 Y24.532 Z14.664 A2.8252 
N1970 X-215.182 Y22.749 Z14.597 A2.7869 
N1971 X-215.182 Y20.826 Z14.535 A2.7703 
N1972 X-215.182 Y18.780 Z14.476 
N1973 X-215.182 Y16.641 Z14.416 
N1974 X-215.182 Y14.444 Z14.353 A2.7718 
N1975 X-215.182 Y12.227 Z14.290 A2.7742 
N1976 X-215.182 Y10.029 Z14.226 A2.7730 
N1977 X-215.182 Y7.889 Z14.164 A2.7719 
N1978 X-215.182 Y5.840 Z14.105 A2.7740 
N1979 X-215.182 Y3.915 Z14.052 A2.7832 
N1980 X-215.182 Y2.137 Z14.007 A2.8031 
N1981 X-215.182 Y0.523 Z13.967 A2.8271 
N1982 X-215.182 Y-0.916 Z13.930 A2.8425 
N1983 X-215.182 Y-2.178 Z13.883 A2.8085 
N1984 X-215.182 Y-3.265 Z13.840 A2.7703 
N1985 X-215.182 Y-4.197 Z13.816 
N1986 X-215.182 Y-4.999 Z13.909 A3.1184 
N1987 X-215.182 Y-5.693 Z14.404 A4.6939 
N1988 X-215.182 Y-6.381 Z15.611 A8.4860 
N1989 X-215.182 Y-7.343 Z17.947 A15.9134 
N1990 X-215.182 Y-8.873 Z20.921 A25.8708 
N1991 X-215.182 Y-10.558 Z23.214 A34.3458 
N1992 X-215.182 Y-12.435 Z25.161 A42.4095 
N1993 X-215.182 Y-14.379 Z26.708 A49.8191 
N1994 X-215.182 Y-16.351 Z27.911 A56.7104 
N1995 X-215.182 Y-18.341 Z28.820 A63.2347 
N1996 X-215.182 Y-20.357 Z29.468 A69.5468 
N1997 X-215.182 Y-22.401 Z29.868 A75.7465 
N1998 X-215.182 Y-24.483 Z30.021 A81.9507 
N1999 X-215.182 Y-26.592 Z29.917 A88.2146 
N2000 X-215.182 Y-28.515 Z29.554 A93.9895 
N2001 X-215.182 Y-30.114 Z28.996 A98.9277 
N2002 X-215.182 Y-31.281 Z28.334 A102.7218 
N2003 X-215.182 Y-31.976 Z27.654 A105.2121 
N2004 X-215.182 Y-32.252 Z26.994 A106.5240 
N2005 X-215.182 Y-32.244 Z26.342 A107.0346 
N2006 X-215.182 Y-32.084 Z25.664 A107.1363 
N2007 X-215.182 Y-31.869 Z24.933 A107.1222 
N2008 X-215.182 Y-31.639 Z24.143 A107.1164 
N2009 X-215.182 Y-31.402 Z23.298 A107.1328 
N2010 X-215.182 Y-31.147 Z22.410 A107.1293 
N2011 X-215.182 Y-30.875 Z21.491 A107.0999 
N2012 X-215.182 Y-30.606 Z20.544 
N2013 X-215.182 Y-30.338 Z19.565 A107.1306 
N2014 X-215.182 Y-30.219 Z18.544 A107.6420 
N2015 X-215.182 Y-30.296 Z17.460 A108.8183 
N2016 X-215.182 Y-30.669 Z16.273 A111.0221 
N2017 X-215.182 Y-31.399 Z14.913 A114.5627 
N2018 X-215.182 Y-32.422 Z13.328 A119.4009 
N2019 X-215.182 Y-33.452 Z11.588 A124.7401 
N2020 X-215.182 Y-34.260 Z9.828 A129.8220 
N2021 X-215.182 Y-34.853 Z8.077 A134.6227 
N2022 X-215.182 Y-35.241 Z6.357 A139.1381 
N2023 X-215.182 Y-35.430 Z4.693 A143.3398 
N2024 X-215.182 Y-35.436 Z3.095 A147.2449 
N2025 X-215.182 Y-35.281 Z1.555 A150.9208 
N2026 X-215.182 Y-34.981 Z0.060 A154.4431 
N2027 X-215.182 Y-34.549 Z-1.402 A157.8804 
N2028 X-215.182 Y-33.987 Z-2.833 A161.2612 
N2029 X-215.182 Y-33.295 Z-4.220 A164.5745 
N2030 X-215.182 Y-32.470 Z-5.530 A167.7418 
N2031 X-215.182 Y-31.516 Z-6.711 A170.6238 
N2032 X-215.182 Y-30.449 Z-7.717 A173.0990 
N2033 X-215.182 Y-29.291 Z-8.520 A175.0745 
N2034 X-215.182 Y-28.069 Z-9.107 A176.4978 
N2035 X-215.182 Y-26.808 Z-9.508 A177.4332 
N2036 X-215.182 Y-25.529 Z-9.784 A178.0437 
N2037 X-215.182 Y-24.249 Z-10.006 A178.5276 
N2038 X-215.182 Y-22.980 Z-10.240 A179.0802 
N2039 X-215.182 Y-21.732 Z-10.553 A179.9202 
N2040 X-215.182 Y-20.508 Z-11.009 A181.2568 
N2041 X-215.182 Y-19.300 Z-11.640 A183.2241 
N2042 X-215.182 Y-18.092 Z-12.444 A185.8523 
N2043 X-215.182 Y-16.860 Z-13.405 A189.1293 
N2044 X-215.182 Y-15.576 Z-14.480 A192.9745 
N2045 X-215.182 Y-14.225 Z-15.600 A197.2201 
N2046 X-215.182 Y-12.800 Z-16.700 A201.7038 
N2047 X-215.182 Y-11.311 Z-17.719 A206.2607 
N2048 X-215.182 Y-9.778 Z-18.609 A210.7533 
N2049 X-215.182 Y-8.227 Z-19.340 A215.0763 
N2050 X-215.182 Y-6.685 Z-19.896 A219.1512 
N2051 X-215.182 Y-5.177 Z-20.274 A222.9324 
N2052 X-215.182 Y-3.722 Z-20.480 A226.3916 
N2053 X-215.182 Y-2.339 Z-20.524 A229.5177 
N2054 X-215.182 Y-1.038 Z-20.421 A232.3051 
N2055 X-215.182 Y0.167 Z-20.184 A234.7437 
N2056 X-215.182 Y1.274 Z-19.832 A236.8475 
N2057 X-215.182 Y2.290 Z-19.387 A238.6663 
N2058 X-215.182 Y3.234 Z-18.875 A240.2762 
N2059 X-215.182 Y4.139 Z-18.326 A241.8088 
N2060 X-215.182 Y5.062 Z-17.777 A243.4586 
N2061 X-215.182 Y6.053 Z-17.251 A245.4125 
N2062 X-215.182 Y7.141 Z-16.756 A247.7678 
N2063 X-215.182 Y8.321 Z-16.278 A250.5169 
N2064 X-215.182 Y9.565 Z-15.795 A253.5747 
N2065 X-215.182 Y10.821 Z-15.283 A256.7819 
N2066 X-215.182 Y12.029 Z-14.729 A259.9551 
N2067 X-215.182 Y13.144 Z-14.135 A262.9586 
N2068 X-215.182 Y14.146 Z-13.512 A265.7277 
N2069 X-215.182 Y15.035 Z-12.875 A268.2540 
N2070 X-215.182 Y15.828 Z-12.236 A270.5791 
N2071 X-215.182 Y16.554 Z-11.606 A272.7789 
N2072 X-215.182 Y17.248 Z-10.985 A274.9508 
N2073 X-215.182 Y17.945 Z-10.371 A277.1961 
N2074 X-215.182 Y18.675 Z-9.757 A279.6025 
N2075 X-215.182 Y19.457 Z-9.128 A282.2378 
N2076 X-215.182 Y20.305 Z-8.470 A285.1536 
N2077 X-215.182 Y21.222 Z-7.765 A288.3735 
N2078 X-215.182 Y22.200 Z-6.993 A291.9043 
N2079 X-215.182 Y23.238 Z-6.132 A295.7765 
N2080 X-215.182 Y24.336 Z-5.148 A300.0474 
N2081 X-215.182 Y25.478 Z-4.010 A304.7505 
N2082 X-215.182 Y26.632 Z-2.688 A309.8910 
N2083 X-215.182 Y27.758 Z-1.157 A315.4677 
N2084 X-215.182 Y28.804 Z0.603 A321.4827 
N2085 X-215.182 Y29.700 Z2.592 A327.8845 
N2086 X-215.182 Y30.360 Z4.765 A334.5291 
N2087 X-215.182 Y30.709 Z7.040 A341.2216 
N2088 X-215.182 Y30.695 Z9.285 A347.6716 
N2089 X-215.182 Y30.311 Z11.350 A353.5646 
N2090 X-215.182 Y29.592 Z12.927 A358.0907 
N2091 X-215.182 Y28.637 Z13.864 A0.8342 
N2092 X-215.182 Y27.516 Z14.306 A2.1938 
N2093 X-215.182 Y26.243 Z14.459 A2.7529 
N2094 X-215.182 Y24.817 Z14.469 A2.9189 
N2095 X-215.182 Y23.237 Z14.418 A2.9220 
N2096 X-215.182 Y21.506 Z14.350 A2.8839 
N2097 X-215.182 Y19.643 Z14.291 A2.8806 
N2098 X-215.182 Y17.663 Z14.231 
N2099 X-215.182 Y15.599 Z14.168 
N2100 X-215.182 Y13.483 Z14.104 A2.8836 
N2101 X-215.182 Y11.355 Z14.039 A2.8847 
N2102 X-215.182 Y9.250 Z13.973 A2.8832 
N2103 X-215.182 Y7.205 Z13.909 A2.8821 
N2104 X-215.182 Y5.255 Z13.849 A2.8849 
N2105 X-215.182 Y3.427 Z13.796 A2.8952 
N2106 X-215.182 Y1.744 Z13.750 A2.9161 
N2107 X-215.182 Y0.222 Z13.708 A2.9369 
N2108 X-215.182 Y-1.130 Z13.669 A2.9463 
N2109 X-215.182 Y-2.313 Z13.617 A2.8991 
N2110 X-215.182 Y-3.327 Z13.581 A2.8806 
N2111 X-215.182 Y-4.199 Z13.557 
N2112 X-215.182 Y-4.943 Z13.681 A3.3260 
N2113 X-215.182 Y-5.591 Z14.195 A4.9621 
N2114 X-215.182 Y-6.250 Z15.463 A8.9385 
N2115 X-215.182 Y-7.258 Z18.012 A17.0379 
N2116 X-215.182 Y-8.830 Z20.995 A27.0951 
N2117 X-215.182 Y-10.523 Z23.243 A35.4834 
N2118 X-215.182 Y-12.373 Z25.120 A43.3469 
N2119 X-215.182 Y-14.249 Z26.591 A50.4645 
N2120 X-215.182 Y-16.121 Z27.728 A57.0011 
N2121 X-215.182 Y-17.988 Z28.592 A63.1403 
N2122 X-215.182 Y-19.872 Z29.224 A69.0680 
N2123 X-215.182 Y-21.792 Z29.643 A74.9252 
N2124 X-215.182 Y-23.751 Z29.847 A80.7902 
N2125 X-215.182 Y-25.727 Z29.823 A86.6617 
N2126 X-215.182 Y-27.715 Z29.563 A92.6076 
N2127 X-215.182 Y-29.618 Z29.064 A98.4198 
N2128 X-215.182 Y-31.122 Z28.408 A103.2048 
N2129 X-215.182 Y-32.085 Z27.722 A106.5066 
N2130 X-215.182 Y-32.587 Z27.066 A108.5142 
N2131 X-215.182 Y-32.772 Z26.434 A109.6311 
N2132 X-215.182 Y-32.753 Z25.801 A110.1916 
N2133 X-215.182 Y-32.605 Z25.146 A110.4228 
N2134 X-215.182 Y-32.379 Z24.453 A110.4760 
N2135 X-215.182 Y-32.112 Z23.714 A110.4577 
N2136 X-215.182 Y-31.827 Z22.926 A110.4342 
N2137 X-215.182 Y-31.535 Z22.093 
N2138 X-215.182 Y-31.229 Z21.222 
N2139 X-215.182 Y-30.921 Z20.317 A110.4589 
N2140 X-215.182 Y-30.687 Z19.366 A110.7516 
N2141 X-215.182 Y-30.650 Z18.324 A111.7221 
N2142 X-215.182 Y-30.991 Z17.107 A114.0237 
N2143 X-215.182 Y-31.785 Z15.619 A118.0625 
N2144 X-215.182 Y-32.812 Z13.864 A123.3457 
N2145 X-215.182 Y-33.733 Z11.977 A128.8624 
N2146 X-215.182 Y-34.399 Z10.084 A134.0696 
N2147 X-215.182 Y-34.768 Z8.278 A138.7083 
N2148 X-215.182 Y-34.865 Z6.611 A142.7146 
N2149 X-215.182 Y-34.731 Z5.100 A146.1167 
N2150 X-215.182 Y-34.419 Z3.729 A149.0359 
N2151 X-215.182 Y-33.979 Z2.453 A151.6577 
N2152 X-215.182 Y-33.448 Z1.227 A154.1512 
N2153 X-215.182 Y-32.847 Z0.017 A156.6472 
N2154 X-215.182 Y-32.183 Z-1.196 A159.2136 
N2155 X-215.182 Y-31.455 Z-2.407 A161.8523 
N2156 X-215.182 Y-30.656 Z-3.595 A164.5116 
N2157 X-215.182 Y-29.784 Z-4.726 A167.1023 
N2158 X-215.182 Y-28.842 Z-5.769 A169.5351 
N2159 X-215.182 Y-27.841 Z-6.705 A171.7594 
N2160 X-215.182 Y-26.798 Z-7.533 A173.7697 
N2161 X-215.182 Y-25.728 Z-8.271 A175.6160 
N2162 X-215.182 Y-24.644 Z-8.951 A177.3966 
N2163 X-215.182 Y-23.556 Z-9.611 A179.2214 
N2164 X-215.182 Y-22.467 Z-10.284 A181.1928 
N2165 X-215.182 Y-21.375 Z-10.996 A183.3996 
N2166 X-215.182 Y-20.272 Z-11.761 A185.8999 
N2167 X-215.182 Y-19.149 Z-12.581 A188.7108 
N2168 X-215.182 Y-17.994 Z-13.444 A191.8249 
N2169 X-215.182 Y-16.797 Z-14.334 A195.2062 
N2170 X-215.182 Y-15.550 Z-15.221 A198.7966 
N2171 X-215.182 Y-14.251 Z-16.080 A202.5325 
N2172 X-215.182 Y-12.902 Z-16.880 A206.3442 
N2173 X-215.182 Y-11.513 Z-17.599 A210.1689 
N2174 X-215.182 Y-10.094 Z-18.215 A213.9507 
N2175 X-215.182 Y-8.659 Z-18.716 A217.6414 
N2176 X-215.182 Y-7.223 Z-19.092 A221.2026 
N2177 X-215.182 Y-5.803 Z-19.339 A224.5991 
N2178 X-215.182 Y-4.417 Z-19.455 A227.7948 
N2179 X-215.182 Y-3.083 Z-19.441 A230.7560 
N2180 X-215.182 Y-1.821 Z-19.302 A233.4390 
N2181 X-215.182 Y-0.649 Z-19.044 A235.8123 
N2182 X-215.182 Y0.427 Z-18.684 A237.8782 
N2183 X-215.182 Y1.410 Z-18.240 A239.6641 
N2184 X-215.182 Y2.324 Z-17.741 A241.2657 
N2185 X-215.182 Y3.220 Z-17.225 A242.8694 
N2186 X-215.182 Y4.162 Z-16.726 A244.6945 
N2187 X-215.182 Y5.194 Z-16.261 A246.9003 
N2188 X-215.182 Y6.338 Z-15.826 A249.5587 
N2189 X-215.182 Y7.586 Z-15.402 A252.6434 
N2190 X-215.182 Y8.889 Z-14.959 A256.0050 
N2191 X-215.182 Y10.173 Z-14.471 A259.4179 
N2192 X-215.182 Y11.371 Z-13.932 A262.6782 
N2193 X-215.182 Y12.439 Z-13.351 A265.6540 
N2194 X-215.182 Y13.362 Z-12.746 A268.2885 
N2195 X-215.182 Y14.149 Z-12.135 A270.6000 
N2196 X-215.182 Y14.834 Z-11.533 A272.6723 
N2197 X-215.182 Y15.462 Z-10.944 A274.6379 
N2198 X-215.182 Y16.085 Z-10.367 A276.6389 
N2199 X-215.182 Y16.741 Z-9.794 A278.7919 
N2200 X-215.182 Y17.457 Z-9.214 A281.1851 
N2201 X-215.182 Y18.255 Z-8.609 A283.8940 
N2202 X-215.182 Y19.148 Z-7.959 A286.9736 
N2203 X-215.182 Y20.137 Z-7.237 A290.4566 
N2204 X-215.182 Y21.217 Z-6.417 A294.3717 
N2205 X-215.182 Y22.377 Z-5.466 A298.7405 
N2206 X-215.182 Y23.591 Z-4.353 A303.5660 
N2207 X-215.182 Y24.827 Z-3.045 A308.8590 
N2208 X-215.182 Y26.045 Z-1.512 A314.6291 
N2209 X-215.182 Y27.189 Z0.273 A320.8834 
N2210 X-215.182 Y28.179 Z2.305 A327.5500 
N2211 X-215.182 Y28.922 Z4.534 A334.4592 
N2212 X-215.182 Y29.338 Z6.868 A341.3953 
N2213 X-215.182 Y29.378 Z9.171 A348.0664 
N2214 X-215.182 Y29.035 Z11.259 A354.0682 
N2215 X-215.182 Y28.359 Z12.787 A358.4771 
N2216 X-215.182 Y27.462 Z13.667 A1.0660 
N2217 X-215.182 Y26.409 Z14.081 A2.3528 
N2218 X-215.182 Y25.212 Z14.225 A2.8877 
N2219 X-215.182 Y23.868 Z14.229 A3.0369 
N2220 X-215.182 Y22.373 Z14.174 A3.0249 
N2221 X-215.182 Y20.733 Z14.106 A2.9859 
N2222 X-215.182 Y18.961 Z14.049 
N2223 X-215.182 Y17.074 Z13.989 
N2224 X-215.182 Y15.101 Z13.926 
N2225 X-215.182 Y13.077 Z13.862 A2.9899 
N2226 X-215.182 Y11.035 Z13.796 A2.9899 
N2227 X-215.182 Y9.013 Z13.731 A2.9881 
N2228 X-215.182 Y7.046 Z13.667 A2.9870 
N2229 X-215.182 Y5.166 Z13.607 A2.9896 
N2230 X-215.182 Y3.402 Z13.552 A2.9984 
N2231 X-215.182 Y1.775 Z13.504 A3.0137 
N2232 X-215.182 Y0.302 Z13.460 A3.0258 
N2233 X-215.182 Y-1.009 Z13.418 A3.0263 
N2234 X-215.182 Y-2.157 Z13.368 A2.9885 
N2235 X-215.182 Y-3.143 Z13.337 A2.9859 
N2236 X-215.182 Y-3.989 Z13.311 
N2237 X-215.182 Y-4.708 Z13.386 A3.2808 
N2238 X-215.182 Y-5.326 Z13.778 A4.5407 
N2239 X-215.182 Y-5.946 Z14.955 A8.2200 
N2240 X-215.182 Y-6.911 Z17.533 A16.3643 
N2241 X-215.182 Y-8.406 Z20.480 A26.2205 
N2242 X-215.182 Y-10.048 Z22.754 A34.5859 
N2243 X-215.182 Y-11.818 Z24.628 A42.2809 
N2244 X-215.182 Y-13.605 Z26.102 A49.1984 
N2245 X-215.182 Y-15.379 Z27.255 A55.5176 
N2246 X-215.182 Y-17.122 Z28.140 A61.3560 
N2247 X-215.182 Y-18.859 Z28.810 A66.9145 
N2248 X-215.182 Y-20.618 Z29.293 A72.3581 
N2249 X-215.182 Y-22.422 Z29.598 A77.8126 
N2250 X-215.182 Y-24.271 Z29.716 A83.3349 
N2251 X-215.182 Y-26.145 Z29.632 A88.9172 
N2252 X-215.182 Y-28.002 Z29.336 A94.5006 
N2253 X-215.182 Y-29.814 Z28.826 A100.0746 
N2254 X-215.182 Y-31.406 Z28.142 A105.1699 
N2255 X-215.182 Y-32.578 Z27.394 A109.1726 
N2256 X-215.182 Y-33.285 Z26.678 A111.8924 
N2257 X-215.182 Y-33.618 Z26.018 A113.5548 
N2258 X-215.182 Y-33.690 Z25.394 A114.4877 
N2259 X-215.182 Y-33.592 Z24.775 A114.9642 
N2260 X-215.182 Y-33.382 Z24.141 A115.1638 
N2261 X-215.182 Y-33.098 Z23.476 A115.2009 
N2262 X-215.182 Y-32.765 Z22.772 A115.1472 
N2263 X-215.182 Y-32.408 Z22.024 A115.0747 
N2264 X-215.182 Y-32.057 Z21.222 
N2265 X-215.182 Y-31.680 Z20.363 
N2266 X-215.182 Y-31.429 Z19.412 A115.5496 
N2267 X-215.182 Y-31.386 Z18.326 A116.8027 
N2268 X-215.182 Y-31.669 Z17.029 A119.3172 
N2269 X-215.182 Y-32.338 Z15.420 A123.4803 
N2270 X-215.182 Y-33.213 Z13.496 A128.9505 
N2271 X-215.182 Y-33.921 Z11.466 A134.5360 
N2272 X-215.182 Y-34.268 Z9.553 A139.3898 
N2273 X-215.182 Y-34.280 Z7.844 A143.3665 
N2274 X-215.182 Y-34.015 Z6.368 A146.4818 
N2275 X-215.182 Y-33.553 Z5.096 A148.9111 
N2276 X-215.182 Y-32.966 Z3.960 A150.9234 
N2277 X-215.182 Y-32.310 Z2.894 A152.7550 
N2278 X-215.182 Y-31.615 Z1.853 A154.5737 
N2279 X-215.182 Y-30.900 Z0.804 A156.4904 
N2280 X-215.182 Y-30.169 Z-0.266 A158.5613 
N2281 X-215.182 Y-29.422 Z-1.357 A160.7939 
N2282 X-215.182 Y-28.654 Z-2.463 A163.1783 
N2283 X-215.182 Y-27.863 Z-3.575 A165.6977 
N2284 X-215.182 Y-27.045 Z-4.683 A168.3294 
N2285 X-215.182 Y-26.197 Z-5.779 A171.0548 
N2286 X-215.182 Y-25.320 Z-6.857 A173.8612 
N2287 X-215.182 Y-24.413 Z-7.911 A176.7370 
N2288 X-215.182 Y-23.476 Z-8.937 A179.6746 
N2289 X-215.182 Y-22.507 Z-9.932 A182.6678 
N2290 X-215.182 Y-21.507 Z-10.893 A185.7102 
N2291 X-215.182 Y-20.474 Z-11.815 A188.7968 
N2292 X-215.182 Y-19.407 Z-12.695 A191.9232 
N2293 X-215.182 Y-18.305 Z-13.531 A195.0855 
N2294 X-215.182 Y-17.168 Z-14.318 A198.2807 
N2295 X-215.182 Y-15.995 Z-15.053 A201.5058 
N2296 X-215.182 Y-14.785 Z-15.731 A204.7576 
N2297 X-215.182 Y-13.539 Z-16.347 A208.0314 
N2298 X-215.182 Y-12.258 Z-16.897 A211.3215 
N2299 X-215.182 Y-10.947 Z-17.374 A214.6188 
N2300 X-215.182 Y-9.609 Z-17.772 A217.9119 
N2301 X-215.182 Y-8.251 Z-18.086 A221.1854 
N2302 X-215.182 Y-6.886 Z-18.307 A224.4086 
N2303 X-215.182 Y-5.530 Z-18.428 A227.5426 
N2304 X-215.182 Y-4.203 Z-18.441 A230.5274 
N2305 X-215.182 Y-2.936 Z-18.338 A233.2846 
N2306 X-215.182 Y-1.753 Z-18.121 A235.7530 
N2307 X-215.182 Y-0.669 Z-17.800 A237.9034 
N2308 X-215.182 Y0.312 Z-17.393 A239.7433 
N2309 X-215.182 Y1.216 Z-16.928 A241.3765 
N2310 X-215.182 Y2.104 Z-16.450 A243.0168 
N2311 X-215.182 Y3.044 Z-15.993 A244.9059 
N2312 X-215.182 Y4.090 Z-15.577 A247.2216 
N2313 X-215.182 Y5.267 Z-15.197 A250.0507 
N2314 X-215.182 Y6.564 Z-14.826 A253.3532 
N2315 X-215.182 Y7.917 Z-14.427 A256.9303 
N2316 X-215.182 Y9.232 Z-13.971 A260.4951 
N2317 X-215.182 Y10.424 Z-13.456 A263.7905 
N2318 X-215.182 Y11.440 Z-12.897 A266.6547 
N2319 X-215.182 Y12.273 Z-12.319 A269.0566 
N2320 X-215.182 Y12.958 Z-11.744 A271.0832 
N2321 X-215.182 Y13.548 Z-11.183 A272.8810 
N2322 X-215.182 Y14.101 Z-10.639 A274.6159 
N2323 X-215.182 Y14.678 Z-10.109 A276.4656 
N2324 X-215.182 Y15.327 Z-9.580 A278.5796 
N2325 X-215.182 Y16.076 Z-9.036 A281.0510 
N2326 X-215.182 Y16.935 Z-8.457 A283.9178 
N2327 X-215.182 Y17.901 Z-7.823 A287.2029 
N2328 X-215.182 Y18.967 Z-7.108 A290.9061 
N2329 X-215.182 Y20.107 Z-6.290 A294.9956 
N2330 X-215.182 Y21.295 Z-5.351 A299.4351 
N2331 X-215.182 Y22.501 Z-4.271 A304.2049 
N2332 X-215.182 Y23.694 Z-3.035 A309.2759 
N2333 X-215.182 Y24.841 Z-1.629 A314.6400 
N2334 X-215.182 Y25.905 Z-0.044 A320.2858 
N2335 X-215.182 Y26.839 Z1.719 A326.1836 
N2336 X-215.182 Y27.589 Z3.634 A332.2567 
N2337 X-215.182 Y28.105 Z5.656 A338.3951 
N2338 X-215.182 Y28.340 Z7.697 A344.4045 
N2339 X-215.182 Y28.277 Z9.643 A350.0354 
N2340 X-215.182 Y27.926 Z11.370 A355.0084 
N2341 X-215.182 Y27.334 Z12.765 A359.0638 
N2342 X-215.182 Y26.557 Z13.794 A2.1375 
N2343 X-215.182 Y25.639 Z14.467 A4.2598 
N2344 X-215.182 Y24.608 Z14.822 A5.5250 
N2345 X-215.182 Y23.473 Z14.930 A6.1125 
N2346 X-215.182 Y22.234 Z14.863 A6.2022 
N2347 X-215.182 Y20.889 Z14.702 A5.9988 
N2348 X-215.182 Y19.434 Z14.512 A5.6731 
N2349 X-215.182 Y17.878 Z14.413 A5.5668 
N2350 X-215.182 Y16.215 Z14.365 
N2351 X-215.182 Y14.461 Z14.326 
N2352 X-215.182 Y12.652 Z14.291 
N2353 X-215.182 Y10.820 Z14.255 
N2354 X-215.182 Y8.991 Z14.214 
N2355 X-215.182 Y7.180 Z14.160 
N2356 X-215.182 Y5.448 Z14.246 A6.0400 
N2357 X-215.182 Y3.827 Z14.396 A6.7662 
N2358 X-215.182 Y2.357 Z14.525 A7.4618 
N2359 X-215.182 Y1.075 Z14.565 A7.8644 
N2360 X-215.182 Y0.001 Z14.439 A7.6909 
N2361 X-215.182 Y-0.862 Z14.156 A6.9375 
N2362 X-215.182 Y-1.566 Z13.737 A5.6784 
N2363 X-215.182 Y-2.110 Z13.736 A5.5668 
N2364 X-215.182 Y-2.673 Z13.793 
N2365 X-215.182 Y-3.313 Z13.862 
N2366 X-215.182 Y-4.044 Z13.921 
N2367 X-215.182 Y-4.756 Z14.511 A7.2377 
N2368 X-215.182 Y-5.463 Z15.578 A10.4836 
N2369 X-215.182 Y-6.219 Z16.933 A14.7856 
N2370 X-215.182 Y-7.052 Z18.458 A19.8069 
N2371 X-215.182 Y-7.969 Z19.991 A25.0604 
N2372 X-215.182 Y-8.960 Z21.446 A30.2825 
N2373 X-215.182 Y-10.011 Z22.779 A35.3422 
N2374 X-215.182 Y-11.103 Z23.967 A40.1576 
N2375 X-215.182 Y-12.218 Z25.008 A44.7126 
N2376 X-215.182 Y-13.354 Z25.917 A49.0593 
N2377 X-215.182 Y-14.520 Z26.716 A53.2793 
N2378 X-215.182 Y-15.727 Z27.418 A57.4501 
N2379 X-215.182 Y-16.990 Z28.033 A61.6440 
N2380 X-215.182 Y-18.323 Z28.562 A65.9271 
N2381 X-215.182 Y-19.740 Z29.000 A70.3552 
N2382 X-215.182 Y-21.253 Z29.334 A74.9803 
N2383 X-215.182 Y-22.865 Z29.544 A79.8308 
N2384 X-215.182 Y-24.568 Z29.605 A84.9094 
N2385 X-215.182 Y-26.341 Z29.492 A90.1988 
N2386 X-215.182 Y-28.130 Z29.184 A95.5960 
N2387 X-215.182 Y-29.899 Z28.671 A101.0594 
N2388 X-215.182 Y-31.541 Z27.972 A106.3265 
N2389 X-215.182 Y-32.845 Z27.179 A110.7759 
N2390 X-215.182 Y-33.699 Z26.409 A114.0082 
