; PROGRAM NAME: C99999960
; ORDER       : C999999
; OPER. NAME  : Contact Milling:144
; OPER. DESCR.: Contact Milling/podciecie pod ceche
; OPER. TYPE  : contactMill
; GEO. OPTION : 1
; MACHINE     : HSTM_500M_SIM840D_Py
;             : HSTM500 Morelia- HAMUEL: 5-axis milling machine-SIM840D Traori PP_Script
; CONTROL     : SINUMERIK 840D
; created:   2022-11-16 12:03:00.676903
;----------------------------------------
;-------DODATKOWE DANE-------------------
; PROGRAMISTA : Mariusz Malec
; PARTID      : 301T002159P1002_-
;  ap         : 1.0
;  ae         : 5.0
;  lean_angle : 0.01
;  tilt_angle : 0.0
;  fin_offset : -0.15
;----------------------------------------
;RAPORT("TC999999","Contact Milling:144")
N10 TRAFOOF
N11 D0
N12 G90 G94
N13 G0 G53 D0 Z550
N14 STOPRE
M9 ; chlodziwo wyl
; --- Contact Milling:144 - Contact Milling/podciecie pod ceche ---
N16 ;ToolChange : concat=None ,current_tdmid=None, PP.tdmId=957453
N17 TRAFOOF
N18 G0 G53 D0 X-200 Y150 Z550 B0
N19 T="7757453"
;RAPORT("TC999999","ToolChangeStart 7757453")
N20 M6
;RAPORT("TC999999","ToolChangeEnd")
N21 STOPRE
N22 MSG(" TLID=957453 D=5.0 R=0.0 Ang=0.0 Len=109.0 ")
N23 S12095 M03
N24 STOPRE
N25 TOL(0.01,1,1)
N26 G0 G53 A0.0000 B-0.0100
N27 TRAORI
N28 G54 D1
N29 D3 
N30 X-138.209 Y11.115 Z52.151 A0.0001 B-0.0100 
N31 M342 ; chlodziwo woda
N32 X-138.203 Y11.115 Z22.151 
N33 G01 X-138.202 Y11.115 Z16.151 F544 
N34 X-138.251 Y11.115 Z15.842 
N35 X-138.393 Y11.115 Z15.563 
N36 X-138.615 Y11.115 Z15.342 
N37 X-138.893 Y11.115 Z15.200 
N38 X-139.202 Y11.115 Z15.151 
N39 X-139.341 Y11.115 Z15.151 
N40 X-139.480 Y11.115 Z15.151 F543 
N41 X-139.619 Y11.115 Z15.151 F544 
N42 X-139.758 Y11.115 Z15.151 
N43 X-139.897 Y11.115 Z15.151 
N44 X-140.036 Y11.115 Z15.151 
N45 X-140.174 Y11.115 Z15.151 
N46 X-140.313 Y11.115 Z15.151 
N47 X-140.452 Y11.115 Z15.151 
N48 X-140.591 Y11.115 Z15.151 
N49 X-140.730 Y11.115 Z15.151 
N50 X-140.869 Y11.115 Z15.151 
N51 X-141.008 Y11.115 Z15.151 
N52 X-141.147 Y11.115 Z15.151 
N53 X-141.286 Y11.115 Z15.151 
N54 X-141.424 Y11.115 Z15.151 
N55 X-141.563 Y11.115 Z15.151 
N56 X-141.702 Y11.115 Z15.151 
N57 X-141.841 Y11.115 Z15.151 
N58 X-141.980 Y11.115 Z15.151 
N59 X-142.119 Y11.115 Z15.151 
N60 X-142.258 Y11.115 Z15.151 
N61 X-142.397 Y11.115 Z15.151 
N62 X-142.536 Y11.115 Z15.151 
N63 X-142.674 Y11.115 Z15.151 
N64 X-142.813 Y11.115 Z15.151 
N65 X-142.952 Y11.115 Z15.151 
N66 X-143.091 Y11.115 Z15.151 
N67 X-143.230 Y11.115 Z15.151 
N68 X-143.369 Y11.115 Z15.151 
N69 X-143.508 Y11.115 Z15.151 
N70 X-143.647 Y11.115 Z15.151 
N71 X-143.786 Y11.115 Z15.151 
N72 X-143.924 Y11.115 Z15.151 
N73 X-144.063 Y11.115 Z15.151 
N74 X-144.202 Y11.115 Z15.151 
N75 X-144.341 Y11.115 Z15.151 F543 
N76 X-144.480 Y11.115 Z15.151 F544 
N77 X-144.619 Y11.115 Z15.151 
N78 X-144.758 Y11.115 Z15.151 
N79 X-144.897 Y11.115 Z15.151 
N80 X-145.036 Y11.115 Z15.151 
N81 X-145.174 Y11.115 Z15.151 
N82 X-145.313 Y11.115 Z15.151 
N83 X-145.452 Y11.115 Z15.151 
N84 X-145.591 Y11.115 Z15.151 
N85 X-145.730 Y11.115 Z15.151 
N86 X-145.869 Y11.115 Z15.151 
N87 X-146.008 Y11.115 Z15.151 
N88 X-146.147 Y11.115 Z15.151 
N89 X-146.286 Y11.115 Z15.151 
N90 X-146.424 Y11.115 Z15.151 
N91 X-146.563 Y11.115 Z15.151 
N92 X-146.702 Y11.115 Z15.151 
N93 X-146.839 Y11.115 Z15.151 
N94 X-146.975 Y11.115 Z15.151 
N95 X-147.111 Y11.115 Z15.151 
N96 X-147.248 Y11.115 Z15.151 
N97 X-147.384 Y11.115 Z15.151 
N98 X-147.520 Y11.115 Z15.151 
N99 X-147.657 Y11.115 Z15.151 
N100 X-147.793 Y11.115 Z15.151 
N101 X-147.930 Y11.115 Z15.151 
N102 X-148.066 Y11.115 Z15.151 
N103 X-148.202 Y11.115 Z15.151 
N104 X-148.339 Y11.115 Z15.151 
N105 X-148.475 Y11.115 Z15.151 
N106 X-148.611 Y11.115 Z15.151 
N107 X-148.748 Y11.115 Z15.151 
N108 X-148.884 Y11.115 Z15.151 
N109 X-149.020 Y11.115 Z15.151 
N110 X-149.157 Y11.115 Z15.151 
N111 X-149.293 Y11.115 Z15.151 
N112 X-149.430 Y11.115 Z15.151 
N113 X-149.566 Y11.115 Z15.151 
N114 X-149.702 Y11.115 Z15.151 
N115 X-149.839 Y11.115 Z15.151 
N116 X-149.975 Y11.115 Z15.151 
N117 X-150.111 Y11.115 Z15.151 
N118 X-150.248 Y11.115 Z15.151 
N119 X-150.384 Y11.115 Z15.151 
N120 X-150.520 Y11.115 Z15.151 
N121 X-150.657 Y11.115 Z15.151 
N122 X-150.793 Y11.115 Z15.151 
N123 X-150.930 Y11.115 Z15.151 
N124 X-151.066 Y11.115 Z15.151 
N125 X-151.202 Y11.115 Z15.151 
N126 X-151.339 Y11.115 Z15.151 
N127 X-151.475 Y11.115 Z15.151 
N128 X-151.611 Y11.115 Z15.151 
N129 X-151.748 Y11.115 Z15.151 
N130 X-151.884 Y11.115 Z15.151 
N131 X-152.020 Y11.115 Z15.151 
N132 X-152.157 Y11.115 Z15.151 
N133 X-152.293 Y11.115 Z15.151 
N134 X-152.430 Y11.115 Z15.151 
N135 X-152.566 Y11.115 Z15.151 
N136 X-152.702 Y11.115 Z15.151 
N137 X-152.839 Y11.115 Z15.151 
N138 X-152.975 Y11.115 Z15.151 
N139 X-153.111 Y11.115 Z15.151 
N140 X-153.248 Y11.115 Z15.151 
N141 X-153.384 Y11.115 Z15.151 
N142 X-153.520 Y11.115 Z15.151 
N143 X-153.657 Y11.115 Z15.151 
N144 X-153.793 Y11.115 Z15.151 
N145 X-153.930 Y11.115 Z15.151 
N146 X-154.066 Y11.115 Z15.151 
N147 X-154.202 Y11.115 Z15.151 
N148 X-154.339 Y11.115 Z15.151 
N149 X-154.475 Y11.115 Z15.151 
N150 X-154.611 Y11.115 Z15.151 
N151 X-154.748 Y11.115 Z15.151 
N152 X-154.884 Y11.115 Z15.151 
N153 X-155.020 Y11.115 Z15.151 
N154 X-155.157 Y11.115 Z15.151 
N155 X-155.293 Y11.115 Z15.151 
N156 X-155.430 Y11.115 Z15.151 
N157 X-155.566 Y11.115 Z15.151 
N158 X-155.702 Y11.115 Z15.151 
N159 X-155.839 Y11.115 Z15.151 
N160 X-155.975 Y11.115 Z15.151 
N161 X-156.111 Y11.115 Z15.151 
N162 X-156.248 Y11.115 Z15.151 
N163 X-156.384 Y11.115 Z15.151 
N164 X-156.520 Y11.115 Z15.151 
N165 X-156.657 Y11.115 Z15.151 
N166 X-156.793 Y11.115 Z15.151 
N167 X-156.930 Y11.115 Z15.151 
N168 X-157.066 Y11.115 Z15.151 
N169 X-157.202 Y11.115 Z15.151 
N170 X-157.339 Y11.115 Z15.151 
N171 X-157.475 Y11.115 Z15.151 
N172 X-157.611 Y11.115 Z15.151 
N173 X-157.748 Y11.115 Z15.151 
N174 X-157.884 Y11.115 Z15.151 
N175 X-158.020 Y11.115 Z15.151 
N176 X-158.157 Y11.115 Z15.151 
N177 X-158.293 Y11.115 Z15.151 
N178 X-158.430 Y11.115 Z15.151 
N179 X-158.566 Y11.115 Z15.151 
N180 X-158.702 Y11.115 Z15.151 
N181 X-158.841 Y11.115 Z15.151 F543 
N182 X-158.980 Y11.115 Z15.151 F544 
N183 X-159.119 Y11.115 Z15.151 
N184 X-159.258 Y11.115 Z15.151 
N185 X-159.397 Y11.115 Z15.151 
N186 X-159.536 Y11.115 Z15.151 
N187 X-159.674 Y11.115 Z15.151 
N188 X-159.813 Y11.115 Z15.151 
N189 X-159.952 Y11.115 Z15.151 
N190 X-160.091 Y11.115 Z15.151 
N191 X-160.230 Y11.115 Z15.151 
N192 X-160.369 Y11.115 Z15.151 
N193 X-160.508 Y11.115 Z15.151 
N194 X-160.647 Y11.115 Z15.151 
N195 X-160.786 Y11.115 Z15.151 
N196 X-160.924 Y11.115 Z15.151 
N197 X-161.063 Y11.115 Z15.151 
N198 X-161.202 Y11.115 Z15.151 
N199 X-161.511 Y11.115 Z15.200 
N200 X-161.790 Y11.115 Z15.342 
N201 X-162.011 Y11.115 Z15.563 
N202 X-162.153 Y11.115 Z15.842 
N203 X-162.202 Y11.115 Z16.151 
N204 G00 X-162.211 Y11.115 Z66.151 
;RAPORT("TC999999","Contact Milling:144 End")
;trailer : concat=None
; points cnt = 171
N206 M9 ; chlodziwo wyl.
N207 MSG (" --- KONIEC PODPROGRAMU --- ")
N208 FGROUP()
N209 TRAFOOF
N210 STOPRE
N211 G0 G53 D0 Z550.0 M9 M5
N212 G0 G53 Y150 A0 B0
N213 M17
