; PROGRAM NAME: C99999920
; ORDER       : C999999
; OPER. NAME  : Spiral Rough Airfoil:108
; OPER. DESCR.: spiral roughing airfoil/platformy i pioro pwk
; OPER. TYPE  : rouAirfoil
; GEO. OPTION : 3
; MACHINE     : HSTM_500M_SIM840D_Py
;             : HSTM500 Morelia- HAMUEL: 5-axis milling machine-SIM840D Traori PP_Script
; CONTROL     : SINUMERIK 840D
; created:   2022-11-16 11:59:53.056380
;----------------------------------------
;-------DODATKOWE DANE-------------------
; PROGRAMISTA : Mariusz Malec
; PARTID      : 301T002159P1002_-
;  ap         : 3.0
;  ae         : 13.0
;  lean_angle : 1.0
;  airf_offset: 1.0
;----------------------------------------
;RAPORT("TC999999","Spiral Rough Airfoil:108")
N10 TRAFOOF
N11 D0
N12 G90 G94
N13 G0 G53 D0 Z550
N14 STOPRE
M9 ; chlodziwo wyl
; --- Spiral Rough Airfoil:108 - spiral roughing airfoil/platformy i pioro pwk ---
N16 ;ToolChange : concat=None ,current_tdmid=None, PP.tdmId=940969
N17 TRAFOOF
N18 G0 G53 D0 X-200 Y150 Z550 B0
N19 T="7740969"
;RAPORT("TC999999","ToolChangeStart 7740969")
N20 M6
;RAPORT("TC999999","ToolChangeEnd")
N21 STOPRE
N22 MSG(" TLID=940969 D=25.0 R=5.0 Ang=0.0 Len=95.0 ")
N23 S2546 M03
N24 STOPRE
N25 TOL(0.1,1,1)
N26 G0 G53 A234.2846 B0.0000
N27 TRAORI
N28 G54 D1
N29 D1 
N30 TRANS  X=R4
;shiftX 0.0
;pointsCnt 2222
N31 ;SPIRALA WYK BANDAZA
N32 ; DELTA A > 40.1
N33 TRAFOOF
N34 D1
N35 STOPRE
N36 G00 G54 Z291.000
N37 G01 A234.2846 F10000
N38 TRAORI
N39 G54 D1
N40 STOPRE
N41 TRANS  X=R4
N42 G00 X-310.820 Y52.744 Z-59.937 A234.2846 
N43 M346 ; chlodziwo mgla
N44 X-310.820 Y12.148 Z-30.749 
N45 G01 X-310.820 Y9.964 Z-28.509 F1909 
N46 X-310.820 Y8.578 Z-25.704 
N47 X-310.820 Y8.127 Z-22.608 
N48 X-310.820 Y8.655 Z-19.524 
N49 X-310.820 Y10.110 Z-16.755 
N50 X-310.820 Y10.159 Z-16.689 A234.2851 
N51 X-310.820 Y10.212 Z-16.618 A234.2858 
N52 X-310.819 Y10.271 Z-16.539 A234.2865 
N53 X-310.819 Y10.344 Z-16.441 A234.2872 
N54 X-310.818 Y10.434 Z-16.321 A234.2879 
N55 X-310.817 Y10.547 Z-16.170 A234.2886 
N56 X-310.816 Y10.684 Z-15.986 A234.2894 
N57 X-310.815 Y10.855 Z-15.757 A234.2904 
N58 X-310.814 Y11.067 Z-15.474 A234.2915 
N59 X-310.812 Y11.325 Z-15.129 A234.2929 
N60 X-310.809 Y11.638 Z-14.709 A234.2947 
N61 X-310.807 Y12.013 Z-14.208 A234.2970 
N62 X-310.804 Y12.454 Z-13.618 A234.3001 
N63 X-310.800 Y12.966 Z-12.933 A234.3041 
N64 X-310.796 Y13.551 Z-12.151 A234.3086 
N65 X-310.791 Y14.208 Z-11.273 A234.3116 
N66 X-310.786 Y14.934 Z-10.300 A234.3086 
N67 X-310.780 Y15.724 Z-9.243 A234.2975 
N68 X-310.774 Y16.569 Z-8.112 A234.2858 
N69 X-310.768 Y17.459 Z-6.925 A234.2846 
N70 X-310.762 Y18.380 Z-5.700 A234.2899 
N71 X-310.755 Y19.316 Z-4.456 A234.3047 
N72 X-310.749 Y20.251 Z-3.214 A234.3234 
N73 X-310.743 Y21.168 Z-1.996 A234.3397 
N74 X-310.737 Y22.051 Z-0.821 A234.3408 
N75 X-310.731 Y22.887 Z0.296 A234.3192 
N76 X-310.726 Y23.667 Z1.338 A234.2846 
N77 X-310.721 Y24.386 Z2.290 
N78 X-310.717 Y25.041 Z3.158 
N79 X-310.716 Y25.644 Z3.914 A234.5000 
N80 X-310.719 Y26.199 Z4.559 A234.9721 
N81 X-310.725 Y26.715 Z5.093 A235.7730 
N82 X-310.737 Y27.200 Z5.520 A236.9345 
N83 X-310.753 Y27.664 Z5.851 A238.4851 
N84 X-310.773 Y28.118 Z6.096 A240.4310 
N85 X-310.798 Y28.565 Z6.269 A242.7251 
N86 X-310.826 Y29.001 Z6.387 A245.2510 
N87 X-310.856 Y29.429 Z6.470 A247.9333 
N88 X-310.885 Y29.847 Z6.533 A250.6867 
N89 X-310.913 Y30.227 Z6.582 A253.2780 
N90 X-310.940 Y30.594 Z6.625 A255.8447 
N91 X-310.966 Y30.943 Z6.665 A258.3322 
N92 X-310.991 Y31.277 Z6.706 A260.7467 
N93 X-311.015 Y31.605 Z6.750 A263.1374 
N94 X-311.035 Y31.894 Z6.794 A265.2680 
N95 X-311.056 Y32.189 Z6.844 A267.4524 
N96 X-311.075 Y32.460 Z6.897 A269.4825 
N97 X-311.093 Y32.738 Z6.958 A271.5801 
N98 X-311.110 Y32.991 Z7.020 A273.4985 
N99 X-311.127 Y33.253 Z7.091 A275.5086 
N100 X-311.142 Y33.500 Z7.166 A277.4230 
N101 X-311.156 Y33.744 Z7.246 A279.3233 
N102 X-311.171 Y33.993 Z7.336 A281.2927 
N103 X-311.184 Y34.227 Z7.429 A283.1639 
N104 X-311.196 Y34.461 Z7.528 A285.0506 
N105 X-311.208 Y34.696 Z7.637 A286.9813 
N106 X-311.219 Y34.923 Z7.751 A288.8702 
N107 X-311.229 Y35.145 Z7.870 A290.7485 
N108 X-311.239 Y35.366 Z7.998 A292.6520 
N109 X-311.248 Y35.583 Z8.134 A294.5608 
N110 X-311.255 Y35.794 Z8.275 A296.4482 
N111 X-311.262 Y36.000 Z8.422 A298.3397 
N112 X-311.269 Y36.201 Z8.577 A300.2289 
N113 X-311.274 Y36.399 Z8.740 A302.1390 
N114 X-311.278 Y36.590 Z8.909 A304.0385 
N115 X-311.282 Y36.773 Z9.082 A305.9158 
N116 X-311.284 Y36.952 Z9.264 A307.8162 
N117 X-311.286 Y37.127 Z9.455 A309.7465 
N118 X-311.286 Y37.291 Z9.648 A311.6357 
N119 X-311.286 Y37.449 Z9.848 A313.5239 
N120 X-311.285 Y37.605 Z10.063 A315.4973 
N121 X-311.282 Y37.748 Z10.276 A317.4065 
N122 X-311.278 Y37.885 Z10.499 A319.3413 
N123 X-311.273 Y38.017 Z10.737 A321.3586 
N124 X-311.268 Y38.134 Z10.969 A323.2786 
N125 X-311.260 Y38.250 Z11.229 A325.3756 
N126 X-311.251 Y38.350 Z11.487 A327.4118 
N127 X-311.240 Y38.445 Z11.771 A329.6034 
N128 X-311.227 Y38.523 Z12.055 A331.7554 
N129 X-311.211 Y38.590 Z12.378 A334.1454 
N130 X-311.193 Y38.636 Z12.709 A336.5511 
N131 X-311.171 Y38.657 Z13.060 A339.0470 
N132 X-311.146 Y38.647 Z13.437 A341.6865 
N133 X-311.115 Y38.596 Z13.834 A344.4239 
N134 X-311.080 Y38.497 Z14.235 A347.1533 
N135 X-311.040 Y38.331 Z14.644 A349.8980 
N136 X-310.994 Y38.089 Z15.037 A352.5163 
N137 X-310.943 Y37.764 Z15.395 A354.8884 
N138 X-310.888 Y37.342 Z15.710 A356.9818 
N139 X-310.828 Y36.815 Z15.968 A358.7126 
N140 X-310.763 Y36.175 Z16.162 A0.0391 
N141 X-310.692 Y35.412 Z16.287 A0.9397 
N142 X-310.615 Y34.517 Z16.353 A1.4557 
N143 X-310.529 Y33.484 Z16.373 A1.6831 
N144 X-310.433 Y32.306 Z16.366 A1.7352 
N145 X-310.326 Y30.981 Z16.348 A1.7169 
N146 X-310.208 Y29.514 Z16.328 A1.6885 
N147 X-310.078 Y27.914 Z16.311 A1.6786 
N148 X-309.939 Y26.193 Z16.294 
N149 X-309.791 Y24.373 Z16.277 A1.6850 
N150 X-309.638 Y22.479 Z16.261 A1.6974 
N151 X-309.480 Y20.536 Z16.244 A1.7086 
N152 X-309.321 Y18.576 Z16.226 A1.7155 
N153 X-309.163 Y16.628 Z16.208 A1.7134 
N154 X-309.009 Y14.722 Z16.189 A1.7045 
N155 X-308.860 Y12.882 Z16.171 A1.6827 
N156 X-308.718 Y11.133 Z16.157 A1.6786 
N157 X-308.584 Y9.488 Z16.145 
N158 X-308.460 Y7.958 Z16.142 A1.7510 
N159 X-308.343 Y6.557 Z16.171 A2.1058 
N160 X-308.235 Y5.282 Z16.244 A2.8731 
N161 X-308.132 Y4.130 Z16.368 A4.1722 
N162 X-308.036 Y3.089 Z16.540 A6.0057 
N163 X-307.946 Y2.147 Z16.739 A8.2507 
N164 X-307.862 Y1.293 Z16.946 A10.7351 
N165 X-307.785 Y0.514 Z17.141 A13.3047 
N166 X-307.716 Y-0.200 Z17.317 A15.8585 
N167 X-307.651 Y-0.860 Z17.471 A18.3588 
N168 X-307.592 Y-1.477 Z17.603 A20.7826 
N169 X-307.537 Y-2.061 Z17.711 A23.1267 
N170 X-307.486 Y-2.622 Z17.798 A25.4033 
N171 X-307.437 Y-3.171 Z17.864 A27.6397 
N172 X-307.389 Y-3.720 Z17.909 A29.8734 
N173 X-307.342 Y-4.278 Z17.934 A32.1432 
N174 X-307.294 Y-4.857 Z17.935 A34.4870 
N175 X-307.246 Y-5.465 Z17.907 A36.9267 
N176 X-307.198 Y-6.108 Z17.838 A39.4474 
N177 X-307.151 Y-6.786 Z17.713 A41.9988 
N178 X-307.106 Y-7.497 Z17.516 A44.5089 
N179 X-307.065 Y-8.234 Z17.230 A46.8948 
N180 X-307.029 Y-8.989 Z16.841 A49.0622 
N181 X-307.001 Y-9.752 Z16.338 A50.9164 
N182 X-306.980 Y-10.513 Z15.714 A52.3730 
N183 X-306.968 Y-11.266 Z14.969 A53.3814 
N184 X-306.963 Y-12.017 Z14.114 A53.9702 
N185 X-306.965 Y-12.773 Z13.165 A54.2293 
N186 X-306.969 Y-13.547 Z12.142 A54.2825 
N187 X-306.975 Y-14.346 Z11.068 A54.2512 
N188 X-306.982 Y-15.169 Z9.963 A54.2082 
N189 X-306.987 Y-16.008 Z8.844 A54.1881 
N190 X-306.993 Y-16.851 Z7.727 
N191 X-306.998 Y-17.681 Z6.627 
N192 X-307.003 Y-18.486 Z5.561 A54.1904 
N193 X-307.008 Y-19.255 Z4.543 A54.1891 
N194 X-307.012 Y-19.977 Z3.588 A54.1881 
N195 X-307.016 Y-20.646 Z2.704 
N196 X-307.020 Y-21.257 Z1.897 
N197 X-307.023 Y-21.811 Z1.172 A54.2294 
N198 X-307.023 Y-22.320 Z0.548 A54.4711 
N199 X-307.019 Y-22.794 Z0.024 A55.0027 
N200 X-307.010 Y-23.249 Z-0.395 A55.9401 
N201 X-306.995 Y-23.694 Z-0.715 A57.3426 
N202 X-306.974 Y-24.135 Z-0.947 A59.1862 
N203 X-306.949 Y-24.573 Z-1.110 A61.3986 
N204 X-306.922 Y-24.999 Z-1.219 A63.8332 
N205 X-306.892 Y-25.417 Z-1.292 A66.4316 
N206 X-306.862 Y-25.832 Z-1.342 A69.1628 
N207 X-306.832 Y-26.220 Z-1.374 A71.8220 
N208 X-306.803 Y-26.599 Z-1.400 A74.4854 
N209 X-306.775 Y-26.964 Z-1.425 A77.0954 
N210 X-306.748 Y-27.316 Z-1.452 A79.6437 
N211 X-306.724 Y-27.632 Z-1.481 A81.9540 
N212 X-306.701 Y-27.937 Z-1.514 A84.2012 
N213 X-306.679 Y-28.235 Z-1.554 A86.4162 
N214 X-306.659 Y-28.519 Z-1.597 A88.5330 
N215 X-306.640 Y-28.791 Z-1.646 A90.5792 
N216 X-306.621 Y-29.072 Z-1.704 A92.7067 
N217 X-306.605 Y-29.318 Z-1.761 A94.5777 
N218 X-306.589 Y-29.572 Z-1.828 A96.5345 
N219 X-306.572 Y-29.833 Z-1.904 A98.5586 
N220 X-306.558 Y-30.068 Z-1.980 A100.3945 
N221 X-306.544 Y-30.307 Z-2.065 A102.2878 
N222 X-306.531 Y-30.550 Z-2.159 A104.2355 
N223 X-306.518 Y-30.784 Z-2.258 A106.1286 
N224 X-306.507 Y-31.010 Z-2.362 A107.9887 
N225 X-306.495 Y-31.238 Z-2.475 A109.8858 
N226 X-306.485 Y-31.465 Z-2.596 A111.8131 
N227 X-306.475 Y-31.684 Z-2.722 A113.6991 
N228 X-306.467 Y-31.897 Z-2.855 A115.5785 
N229 X-306.459 Y-32.108 Z-2.995 A117.4675 
N230 X-306.452 Y-32.314 Z-3.142 A119.3595 
N231 X-306.446 Y-32.515 Z-3.296 A121.2602 
N232 X-306.440 Y-32.712 Z-3.457 A123.1570 
N233 X-306.436 Y-32.901 Z-3.623 A125.0404 
N234 X-306.432 Y-33.083 Z-3.794 A126.9045 
N235 X-306.430 Y-33.264 Z-3.977 A128.8282 
N236 X-306.428 Y-33.438 Z-4.166 A130.7480 
N237 X-306.427 Y-33.602 Z-4.357 A132.6288 
N238 X-306.428 Y-33.756 Z-4.549 A134.4669 
N239 X-306.429 Y-33.916 Z-4.766 A136.4745 
N240 X-306.431 Y-34.062 Z-4.981 A138.4161 
N241 X-306.435 Y-34.196 Z-5.194 A140.2885 
N242 X-306.439 Y-34.331 Z-5.432 A142.3223 
N243 X-306.445 Y-34.459 Z-5.679 A144.3903 
N244 X-306.452 Y-34.571 Z-5.921 A146.3664 
N245 X-306.462 Y-34.688 Z-6.208 A148.6626 
N246 X-306.472 Y-34.786 Z-6.489 A150.8646 
N247 X-306.486 Y-34.877 Z-6.808 A153.3066 
N248 X-306.502 Y-34.950 Z-7.132 A155.7386 
N249 X-306.522 Y-35.009 Z-7.518 A158.5908 
N250 X-306.547 Y-35.037 Z-7.926 A161.5438 
N251 X-306.577 Y-35.025 Z-8.355 A164.6027 
N252 X-306.611 Y-34.962 Z-8.787 A167.6333 
N253 X-306.651 Y-34.830 Z-9.230 A170.7080 
N254 X-306.695 Y-34.624 Z-9.640 A173.5302 
N255 X-306.743 Y-34.333 Z-10.005 A176.0349 
N256 X-306.795 Y-33.947 Z-10.309 A178.1286 
N257 X-306.849 Y-33.459 Z-10.535 A179.7036 
N258 X-306.908 Y-32.860 Z-10.679 A180.7340 
N259 X-306.971 Y-32.142 Z-10.753 A181.2944 
N260 X-307.043 Y-31.291 Z-10.778 A181.5222 
N261 X-307.123 Y-30.299 Z-10.774 A181.5638 
N262 X-307.216 Y-29.156 Z-10.762 A181.5394 
N263 X-307.321 Y-27.859 Z-10.748 A181.5098 
N264 X-307.438 Y-26.412 Z-10.737 A181.5013 
N265 X-307.568 Y-24.819 Z-10.726 
N266 X-307.708 Y-23.095 Z-10.716 
N267 X-307.857 Y-21.260 Z-10.705 A181.5063 
N268 X-308.013 Y-19.337 Z-10.694 A181.5147 
N269 X-308.174 Y-17.354 Z-10.683 A181.5259 
N270 X-308.338 Y-15.343 Z-10.672 A181.5382 
N271 X-308.501 Y-13.333 Z-10.660 A181.5481 
N272 X-308.662 Y-11.357 Z-10.648 A181.5474 
N273 X-308.817 Y-9.443 Z-10.635 A181.5334 
N274 X-308.966 Y-7.616 Z-10.621 A181.5013 
N275 X-309.105 Y-5.897 Z-10.613 
N276 X-309.236 Y-4.294 Z-10.606 
N277 X-309.357 Y-2.823 Z-10.616 A181.6493 
N278 X-309.469 Y-1.486 Z-10.657 A182.0753 
N279 X-309.573 Y-0.281 Z-10.743 A182.9345 
N280 X-309.671 Y0.800 Z-10.888 A184.3829 
N281 X-309.764 Y1.773 Z-11.092 A186.4647 
N282 X-309.851 Y2.653 Z-11.329 A189.0094 
N283 X-309.932 Y3.451 Z-11.562 A191.7246 
N284 X-310.005 Y4.176 Z-11.769 A194.3909 
N285 X-310.071 Y4.839 Z-11.945 A196.9465 
N286 X-310.131 Y5.451 Z-12.097 A199.4059 
N287 X-310.186 Y6.025 Z-12.226 A201.7796 
N288 X-310.238 Y6.571 Z-12.337 A204.0921 
N289 X-310.287 Y7.101 Z-12.429 A206.3721 
N290 X-310.335 Y7.626 Z-12.505 A208.6525 
N291 X-310.382 Y8.156 Z-12.562 A210.9633 
N292 X-310.429 Y8.699 Z-12.598 A213.3173 
N293 X-310.476 Y9.265 Z-12.606 A215.7260 
N294 X-310.523 Y9.861 Z-12.578 A218.1996 
N295 X-310.570 Y10.492 Z-12.507 A220.7458 
N296 X-310.616 Y11.164 Z-12.382 A223.3704 
N297 X-310.661 Y11.876 Z-12.188 A226.0273 
N298 X-310.703 Y12.617 Z-11.904 A228.5941 
N299 X-310.738 Y13.366 Z-11.506 A230.8655 
N300 X-310.762 Y14.098 Z-10.976 A232.6186 
N301 X-310.775 Y14.800 Z-10.311 A233.7294 
N302 X-310.779 Y15.482 Z-9.523 A234.2616 
N303 X-310.776 Y16.169 Z-8.637 A234.4192 
N304 X-310.771 Y16.882 Z-7.678 A234.4157 
N305 X-310.765 Y17.630 Z-6.667 A234.3809 
N306 X-310.759 Y18.411 Z-5.617 A234.3588 
N307 X-310.753 Y19.213 Z-4.544 A234.3507 
N308 X-310.747 Y20.024 Z-3.460 A234.3453 
N309 X-310.742 Y20.833 Z-2.383 A234.3450 
N310 X-310.736 Y21.625 Z-1.328 
N311 X-310.731 Y22.392 Z-0.310 
N312 X-310.726 Y23.121 Z0.661 
N313 X-310.722 Y23.808 Z1.568 A234.3794 
N314 X-310.719 Y24.450 Z2.397 A234.5222 
N315 X-310.719 Y25.046 Z3.140 A234.8038 
N316 X-310.721 Y25.599 Z3.791 A235.2785 
N317 X-310.726 Y26.113 Z4.350 A235.9921 
N318 X-310.734 Y26.595 Z4.815 A236.9879 
N319 X-310.746 Y27.052 Z5.192 A238.2998 
N320 X-310.763 Y27.493 Z5.486 A239.9503 
N321 X-310.783 Y27.927 Z5.709 A241.9427 
N322 X-310.807 Y28.354 Z5.872 A244.2120 
N323 X-310.834 Y28.775 Z5.991 A246.6923 
N324 X-310.861 Y29.182 Z6.081 A249.2547 
N325 X-310.889 Y29.577 Z6.153 A251.8556 
N326 X-310.915 Y29.942 Z6.213 A254.3411 
N327 X-310.940 Y30.295 Z6.266 A256.8032 
N328 X-310.964 Y30.631 Z6.317 A259.1903 
N329 X-310.987 Y30.953 Z6.367 A261.5117 
N330 X-311.009 Y31.266 Z6.420 A263.7906 
N331 X-311.029 Y31.557 Z6.474 A265.9342 
N332 X-311.048 Y31.837 Z6.531 A268.0106 
N333 X-311.067 Y32.116 Z6.594 A270.1011 
N334 X-311.084 Y32.377 Z6.658 A272.0706 
N335 X-311.100 Y32.640 Z6.731 A274.0774 
N336 X-311.116 Y32.893 Z6.807 A276.0255 
N337 X-311.131 Y33.141 Z6.889 A277.9505 
N338 X-311.145 Y33.392 Z6.979 A279.9212 
N339 X-311.158 Y33.626 Z7.070 A281.7812 
N340 X-311.171 Y33.864 Z7.171 A283.6977 
N341 X-311.183 Y34.098 Z7.279 A285.6117 
N342 X-311.194 Y34.324 Z7.390 A287.4814 
N343 X-311.205 Y34.551 Z7.511 A289.3844 
N344 X-311.214 Y34.773 Z7.638 A291.2829 
N345 X-311.223 Y34.988 Z7.770 A293.1592 
N346 X-311.231 Y35.200 Z7.910 A295.0500 
N347 X-311.238 Y35.408 Z8.057 A296.9444 
N348 X-311.245 Y35.611 Z8.210 A298.8327 
N349 X-311.250 Y35.808 Z8.370 A300.7177 
N350 X-311.255 Y36.000 Z8.536 A302.6062 
N351 X-311.259 Y36.188 Z8.711 A304.5158 
N352 X-311.261 Y36.368 Z8.890 A306.4022 
N353 X-311.263 Y36.542 Z9.076 A308.2886 
N354 X-311.264 Y36.713 Z9.273 A310.2259 
N355 X-311.264 Y36.873 Z9.472 A312.1187 
N356 X-311.263 Y37.027 Z9.679 A314.0316 
N357 X-311.261 Y37.176 Z9.897 A315.9860 
N358 X-311.257 Y37.312 Z10.114 A317.8759 
N359 X-311.253 Y37.447 Z10.350 A319.8833 
N360 X-311.247 Y37.569 Z10.587 A321.8433 
N361 X-311.240 Y37.684 Z10.835 A323.8564 
N362 X-311.231 Y37.788 Z11.093 A325.8918 
N363 X-311.221 Y37.882 Z11.364 A327.9865 
N364 X-311.209 Y37.962 Z11.643 A330.0944 
N365 X-311.194 Y38.031 Z11.948 A332.3488 
N366 X-311.177 Y38.080 Z12.260 A334.6152 
N367 X-311.158 Y38.109 Z12.588 A336.9469 
N368 X-311.135 Y38.111 Z12.939 A339.3995 
N369 X-311.107 Y38.079 Z13.314 A341.9709 
N370 X-311.076 Y38.005 Z13.697 A344.5602 
N371 X-311.039 Y37.878 Z14.094 A347.1999 
N372 X-310.998 Y37.688 Z14.481 A349.7460 
N373 X-310.952 Y37.424 Z14.846 A352.1160 
N374 X-310.901 Y37.074 Z15.181 A354.2665 
N375 X-310.846 Y36.630 Z15.474 A356.1302 
N376 X-310.785 Y36.084 Z15.720 A357.6915 
N377 X-310.718 Y35.427 Z15.918 A358.9583 
N378 X-310.644 Y34.649 Z16.070 A359.9530 
N379 X-310.563 Y33.742 Z16.180 A0.7079 
N380 X-310.473 Y32.701 Z16.253 A1.2597 
N381 X-310.374 Y31.521 Z16.294 A1.6425 
N382 X-310.265 Y30.202 Z16.309 A1.8884 
N383 X-310.147 Y28.750 Z16.303 A2.0307 
N384 X-310.020 Y27.174 Z16.283 A2.1025 
N385 X-309.884 Y25.489 Z16.255 A2.1359 
N386 X-309.741 Y23.714 Z16.222 A2.1546 
N387 X-309.593 Y21.871 Z16.186 A2.1706 
N388 X-309.442 Y19.989 Z16.150 A2.1857 
N389 X-309.289 Y18.093 Z16.112 A2.1964 
N390 X-309.139 Y16.213 Z16.073 A2.1999 
N391 X-308.991 Y14.376 Z16.034 A2.1986 
N392 X-308.849 Y12.605 Z15.997 
N393 X-308.714 Y10.921 Z15.965 A2.2221 
N394 X-308.586 Y9.340 Z15.943 A2.3184 
N395 X-308.466 Y7.872 Z15.941 A2.5798 
N396 X-308.354 Y6.523 Z15.973 A3.1477 
N397 X-308.248 Y5.292 Z16.051 A4.1604 
N398 X-308.148 Y4.171 Z16.179 A5.6954 
N399 X-308.054 Y3.151 Z16.347 A7.7185 
N400 X-307.965 Y2.221 Z16.535 A10.0808 
N401 X-307.883 Y1.370 Z16.721 A12.6128 
N402 X-307.808 Y0.587 Z16.890 A15.1748 
N403 X-307.739 Y-0.136 Z17.036 A17.6925 
N404 X-307.676 Y-0.810 Z17.159 A20.1415 
N405 X-307.618 Y-1.447 Z17.258 A22.5126 
N406 X-307.563 Y-2.056 Z17.333 A24.8102 
N407 X-307.511 Y-2.648 Z17.386 A27.0552 
N408 X-307.461 Y-3.235 Z17.415 A29.2761 
N409 X-307.413 Y-3.826 Z17.421 A31.5063 
N410 X-307.364 Y-4.433 Z17.400 A33.7786 
N411 X-307.316 Y-5.064 Z17.349 A36.1192 
N412 X-307.268 Y-5.727 Z17.258 A38.5339 
N413 X-307.221 Y-6.423 Z17.115 A40.9847 
N414 X-307.175 Y-7.152 Z16.903 A43.4062 
N415 X-307.133 Y-7.906 Z16.607 A45.7174 
N416 X-307.096 Y-8.680 Z16.214 A47.8353 
N417 X-307.066 Y-9.464 Z15.713 A49.6819 
N418 X-307.042 Y-10.252 Z15.100 A51.1907 
N419 X-307.026 Y-11.036 Z14.374 A52.3097 
N420 X-307.018 Y-11.816 Z13.542 A53.0340 
N421 X-307.015 Y-12.597 Z12.619 A53.4190 
N422 X-307.017 Y-13.386 Z11.624 A53.5583 
N423 X-307.021 Y-14.191 Z10.579 A53.5641 
N424 X-307.025 Y-15.012 Z9.504 A53.5245 
N425 X-307.029 Y-15.843 Z8.420 A53.4871 
N426 X-307.033 Y-16.675 Z7.342 A53.4681 
N427 X-307.036 Y-17.494 Z6.286 A53.4615 
N428 X-307.039 Y-18.286 Z5.267 A53.4578 
N429 X-307.042 Y-19.041 Z4.299 A53.4552 
N430 X-307.044 Y-19.749 Z3.392 
N431 X-307.046 Y-20.404 Z2.555 
N432 X-307.048 Y-21.001 Z1.792 
N433 X-307.050 Y-21.540 Z1.103 
N434 X-307.049 Y-22.035 Z0.511 A53.6585 
N435 X-307.044 Y-22.493 Z0.015 A54.1327 
N436 X-307.034 Y-22.933 Z-0.379 A55.0162 
N437 X-307.018 Y-23.369 Z-0.674 A56.3992 
N438 X-306.996 Y-23.811 Z-0.878 A58.3065 
N439 X-306.968 Y-24.258 Z-1.011 A60.6556 
N440 X-306.937 Y-24.706 Z-1.092 A63.3065 
N441 X-306.905 Y-25.143 Z-1.142 A66.0986 
N442 X-306.873 Y-25.554 Z-1.175 A68.8416 
N443 X-306.842 Y-25.957 Z-1.199 A71.6267 
N444 X-306.812 Y-26.340 Z-1.219 A74.3286 
N445 X-306.784 Y-26.697 Z-1.240 A76.8867 
N446 X-306.758 Y-27.036 Z-1.264 A79.3422 
N447 X-306.733 Y-27.366 Z-1.293 A81.7487 
N448 X-306.711 Y-27.661 Z-1.326 A83.9236 
N449 X-306.690 Y-27.953 Z-1.365 A86.0826 
N450 X-306.671 Y-28.226 Z-1.409 A88.1213 
N451 X-306.651 Y-28.505 Z-1.460 A90.2138 
N452 X-306.634 Y-28.756 Z-1.512 A92.1102 
N453 X-306.617 Y-29.016 Z-1.574 A94.0866 
N454 X-306.601 Y-29.265 Z-1.641 A96.0003 
N455 X-306.586 Y-29.506 Z-1.712 A97.8638 
N456 X-306.571 Y-29.753 Z-1.792 A99.7931 
N457 X-306.558 Y-29.992 Z-1.878 A101.6860 
N458 X-306.545 Y-30.223 Z-1.968 A103.5350 
N459 X-306.532 Y-30.457 Z-2.068 A105.4259 
N460 X-306.520 Y-30.690 Z-2.175 A107.3353 
N461 X-306.510 Y-30.911 Z-2.285 A109.1779 
N462 X-306.499 Y-31.132 Z-2.404 A111.0460 
N463 X-306.490 Y-31.351 Z-2.530 A112.9340 
N464 X-306.481 Y-31.564 Z-2.663 A114.8094 
N465 X-306.473 Y-31.773 Z-2.801 A116.6764 
N466 X-306.466 Y-31.977 Z-2.947 A118.5470 
N467 X-306.460 Y-32.176 Z-3.099 A120.4154 
N468 X-306.455 Y-32.371 Z-3.259 A122.3026 
N469 X-306.451 Y-32.560 Z-3.425 A124.1780 
N470 X-306.447 Y-32.742 Z-3.596 A126.0353 
N471 X-306.444 Y-32.919 Z-3.773 A127.9038 
N472 X-306.443 Y-33.092 Z-3.960 A129.8023 
N473 X-306.442 Y-33.255 Z-4.149 A131.6647 
N474 X-306.442 Y-33.409 Z-4.340 A133.4887 
N475 X-306.443 Y-33.564 Z-4.549 A135.4225 
N476 X-306.445 Y-33.708 Z-4.758 A137.3103 
N477 X-306.448 Y-33.839 Z-4.965 A139.1375 
N478 X-306.453 Y-33.972 Z-5.193 A141.0932 
N479 X-306.458 Y-34.093 Z-5.423 A143.0213 
N480 X-306.464 Y-34.203 Z-5.652 A144.8976 
N481 X-306.473 Y-34.316 Z-5.916 A147.0226 
N482 X-306.482 Y-34.411 Z-6.172 A149.0308 
N483 X-306.494 Y-34.503 Z-6.462 A151.2681 
N484 X-306.507 Y-34.580 Z-6.756 A153.4983 
N485 X-306.524 Y-34.653 Z-7.106 A156.1155 
N486 X-306.545 Y-34.706 Z-7.484 A158.8921 
N487 X-306.570 Y-34.735 Z-7.903 A161.9349 
N488 X-306.602 Y-34.725 Z-8.366 A165.2469 
N489 X-306.639 Y-34.657 Z-8.839 A168.5942 
N490 X-306.680 Y-34.521 Z-9.296 A171.7904 
N491 X-306.726 Y-34.303 Z-9.719 A174.7410 
N492 X-306.775 Y-34.000 Z-10.081 A177.2653 
N493 X-306.827 Y-33.602 Z-10.368 A179.2945 
N494 X-306.881 Y-33.104 Z-10.570 A180.7571 
N495 X-306.938 Y-32.496 Z-10.688 A181.6634 
N496 X-307.001 Y-31.770 Z-10.736 A182.1175 
N497 X-307.071 Y-30.912 Z-10.739 A182.2693 
N498 X-307.151 Y-29.911 Z-10.718 A182.2704 
N499 X-307.243 Y-28.760 Z-10.689 A182.2324 
N500 X-307.348 Y-27.456 Z-10.661 A182.2136 
N501 X-307.465 Y-26.000 Z-10.634 
N502 X-307.594 Y-24.400 Z-10.603 
N503 X-307.733 Y-22.671 Z-10.570 
N504 X-307.881 Y-20.832 Z-10.535 A182.2218 
N505 X-308.035 Y-18.909 Z-10.498 A182.2313 
N506 X-308.194 Y-16.929 Z-10.459 A182.2435 
N507 X-308.355 Y-14.923 Z-10.419 A182.2564 
N508 X-308.516 Y-12.922 Z-10.377 A182.2670 
N509 X-308.674 Y-10.958 Z-10.335 A182.2690 
N510 X-308.826 Y-9.058 Z-10.293 A182.2589 
N511 X-308.971 Y-7.247 Z-10.252 A182.2404 
N512 X-309.108 Y-5.544 Z-10.215 A182.2369 
N513 X-309.235 Y-3.964 Z-10.188 A182.2886 
N514 X-309.353 Y-2.515 Z-10.180 A182.4829 
N515 X-309.462 Y-1.200 Z-10.204 A182.9553 
N516 X-309.564 Y-0.014 Z-10.281 A183.9038 
N517 X-309.660 Y1.052 Z-10.425 A185.4993 
N518 X-309.752 Y2.014 Z-10.628 A187.7316 
N519 X-309.839 Y2.885 Z-10.856 A190.3465 
N520 X-309.917 Y3.675 Z-11.070 A193.0431 
N521 X-309.988 Y4.393 Z-11.257 A195.6679 
N522 X-310.053 Y5.052 Z-11.418 A198.2054 
N523 X-310.112 Y5.662 Z-11.558 A200.6650 
N524 X-310.167 Y6.237 Z-11.678 A203.0587 
N525 X-310.219 Y6.787 Z-11.780 A205.4017 
N526 X-310.268 Y7.324 Z-11.863 A207.7209 
N527 X-310.316 Y7.859 Z-11.929 A210.0494 
N528 X-310.364 Y8.403 Z-11.975 A212.4197 
N529 X-310.411 Y8.966 Z-11.999 A214.8648 
N530 X-310.459 Y9.558 Z-11.995 A217.4161 
N531 X-310.508 Y10.186 Z-11.957 A220.0899 
N532 X-310.557 Y10.854 Z-11.872 A222.8791 
N533 X-310.604 Y11.557 Z-11.723 A225.7000 
N534 X-310.647 Y12.277 Z-11.482 A228.3540 
N535 X-310.681 Y12.984 Z-11.124 A230.5642 
N536 X-310.704 Y13.657 Z-10.638 A232.1380 
N537 X-310.716 Y14.296 Z-10.030 A233.0668 
N538 X-310.719 Y14.917 Z-9.319 A233.4887 
N539 X-310.718 Y15.541 Z-8.530 A233.5971 
N540 X-310.714 Y16.186 Z-7.685 A233.5703 
N541 X-310.710 Y16.858 Z-6.801 A233.5254 
N542 X-310.707 Y17.555 Z-5.894 A233.5034 
N543 X-310.704 Y18.267 Z-4.973 A233.5007 
N544 X-310.701 Y18.980 Z-4.051 A233.4996 
N545 X-310.698 Y19.686 Z-3.141 
N546 X-310.696 Y20.374 Z-2.254 
N547 X-310.693 Y21.037 Z-1.401 
N548 X-310.691 Y21.671 Z-0.595 A233.5617 
N549 X-310.692 Y22.277 Z0.144 A233.7864 
N550 X-310.695 Y22.855 Z0.810 A234.2244 
N551 X-310.701 Y23.410 Z1.394 A234.9631 
N552 X-310.712 Y23.948 Z1.894 A236.0663 
N553 X-310.727 Y24.473 Z2.311 A237.5666 
N554 X-310.746 Y24.985 Z2.653 A239.4296 
N555 X-310.768 Y25.479 Z2.935 A241.5626 
N556 X-310.791 Y25.953 Z3.170 A243.8700 
N557 X-310.814 Y26.400 Z3.370 A246.2425 
N558 X-310.837 Y26.816 Z3.541 A248.6097 
N559 X-310.859 Y27.211 Z3.692 A250.9717 
N560 X-310.880 Y27.581 Z3.827 A253.2876 
N561 X-310.900 Y27.931 Z3.952 A255.5491 
N562 X-310.920 Y28.259 Z4.069 A257.7329 
N563 X-310.937 Y28.570 Z4.181 A259.8486 
N564 X-310.954 Y28.862 Z4.288 A261.8786 
N565 X-310.970 Y29.144 Z4.395 A263.8752 
N566 X-310.985 Y29.417 Z4.501 A265.8367 
N567 X-311.000 Y29.681 Z4.609 A267.7670 
N568 X-311.013 Y29.938 Z4.718 A269.6719 
N569 X-311.027 Y30.189 Z4.830 A271.5601 
N570 X-311.039 Y30.435 Z4.946 A273.4382 
N571 X-311.051 Y30.675 Z5.064 A275.3011 
N572 X-311.062 Y30.909 Z5.186 A277.1475 
N573 X-311.072 Y31.140 Z5.314 A278.9989 
N574 X-311.082 Y31.368 Z5.446 A280.8541 
N575 X-311.091 Y31.591 Z5.583 A282.7001 
N576 X-311.099 Y31.809 Z5.726 A284.5412 
N577 X-311.107 Y32.023 Z5.874 A286.3883 
N578 X-311.114 Y32.232 Z6.028 A288.2330 
N579 X-311.120 Y32.436 Z6.187 A290.0696 
N580 X-311.125 Y32.635 Z6.352 A291.9093 
N581 X-311.130 Y32.829 Z6.523 A293.7458 
N582 X-311.133 Y33.017 Z6.699 A295.5802 
N583 X-311.136 Y33.199 Z6.881 A297.4140 
N584 X-311.138 Y33.374 Z7.070 A299.2463 
N585 X-311.139 Y33.544 Z7.264 A301.0810 
N586 X-311.139 Y33.707 Z7.464 A302.9130 
N587 X-311.138 Y33.863 Z7.670 A304.7490 
N588 X-311.136 Y34.013 Z7.882 A306.5894 
N589 X-311.133 Y34.154 Z8.100 A308.4263 
N590 X-311.129 Y34.288 Z8.323 A310.2676 
N591 X-311.124 Y34.414 Z8.554 A312.1198 
N592 X-311.118 Y34.531 Z8.789 A313.9661 
N593 X-311.111 Y34.639 Z9.029 A315.8074 
N594 X-311.103 Y34.737 Z9.277 A317.6667 
N595 X-311.093 Y34.825 Z9.531 A319.5330 
N596 X-311.082 Y34.902 Z9.790 A321.3984 
N597 X-311.070 Y34.968 Z10.054 A323.2654 
N598 X-311.056 Y35.021 Z10.325 A325.1397 
N599 X-311.041 Y35.061 Z10.602 A327.0289 
N600 X-311.024 Y35.087 Z10.886 A328.9397 
N601 X-311.006 Y35.098 Z11.179 A330.8765 
N602 X-310.985 Y35.091 Z11.481 A332.8398 
N603 X-310.962 Y35.064 Z11.790 A334.8255 
N604 X-310.937 Y35.015 Z12.110 A336.8526 
N605 X-310.909 Y34.939 Z12.445 A338.9601 
N606 X-310.877 Y34.831 Z12.792 A341.1137 
N607 X-310.841 Y34.686 Z13.150 A343.3203 
N608 X-310.801 Y34.494 Z13.519 A345.5850 
N609 X-310.756 Y34.250 Z13.895 A347.8846 
N610 X-310.705 Y33.940 Z14.278 A350.2313 
N611 X-310.649 Y33.554 Z14.658 A352.5731 
N612 X-310.586 Y33.084 Z15.017 A354.8178 
N613 X-310.519 Y32.518 Z15.342 A356.8786 
N614 X-310.446 Y31.849 Z15.617 A358.6762 
N615 X-310.368 Y31.071 Z15.835 A0.1643 
N616 X-310.284 Y30.182 Z15.994 A1.3385 
N617 X-310.196 Y29.177 Z16.096 A2.2184 
N618 X-310.101 Y28.057 Z16.148 A2.8367 
N619 X-309.999 Y26.823 Z16.157 A3.2392 
N620 X-309.891 Y25.481 Z16.133 A3.4790 
N621 X-309.777 Y24.040 Z16.087 A3.6103 
N622 X-309.656 Y22.513 Z16.025 A3.6797 
N623 X-309.530 Y20.917 Z15.955 A3.7158 
N624 X-309.401 Y19.272 Z15.880 A3.7317 
N625 X-309.270 Y17.601 Z15.801 A3.7324 
N626 X-309.139 Y15.928 Z15.720 A3.7191 
N627 X-309.009 Y14.275 Z15.642 A3.7110 
N628 X-308.882 Y12.662 Z15.567 
N629 X-308.760 Y11.110 Z15.500 A3.7614 
N630 X-308.643 Y9.635 Z15.450 A3.9268 
N631 X-308.531 Y8.247 Z15.423 A4.2829 
N632 X-308.425 Y6.953 Z15.430 A4.9432 
N633 X-308.324 Y5.754 Z15.481 A6.0223 
N634 X-308.227 Y4.645 Z15.577 A7.5873 
N635 X-308.134 Y3.620 Z15.712 A9.6140 
N636 X-308.046 Y2.670 Z15.865 A11.9644 
N637 X-307.964 Y1.788 Z16.013 A14.4657 
N638 X-307.889 Y0.967 Z16.141 A16.9763 
N639 X-307.819 Y0.198 Z16.242 A19.4217 
N640 X-307.755 Y-0.527 Z16.317 A21.7935 
N641 X-307.695 Y-1.221 Z16.367 A24.1006 
N642 X-307.639 Y-1.893 Z16.392 A26.3574 
N643 X-307.585 Y-2.556 Z16.392 A28.5836 
N644 X-307.532 Y-3.219 Z16.363 A30.8012 
N645 X-307.481 Y-3.893 Z16.304 A33.0305 
N646 X-307.431 Y-4.585 Z16.208 A35.2878 
N647 X-307.382 Y-5.305 Z16.069 A37.5833 
N648 X-307.333 Y-6.056 Z15.877 A39.9057 
N649 X-307.287 Y-6.836 Z15.617 A42.2015 
N650 X-307.243 Y-7.642 Z15.275 A44.3879 
N651 X-307.205 Y-8.464 Z14.838 A46.3707 
N652 X-307.174 Y-9.293 Z14.297 A48.0740 
N653 X-307.148 Y-10.125 Z13.653 A49.4576 
N654 X-307.130 Y-10.957 Z12.908 A50.5080 
N655 X-307.118 Y-11.787 Z12.073 A51.2289 
N656 X-307.111 Y-12.615 Z11.160 A51.6523 
N657 X-307.108 Y-13.444 Z10.187 A51.8386 
N658 X-307.107 Y-14.276 Z9.175 A51.8680 
N659 X-307.107 Y-15.112 Z8.147 A51.8282 
N660 X-307.107 Y-15.947 Z7.121 A51.7800 
N661 X-307.106 Y-16.771 Z6.116 A51.7518 
N662 X-307.105 Y-17.574 Z5.144 A51.7428 
N663 X-307.104 Y-18.341 Z4.218 A51.7379 
N664 X-307.103 Y-19.062 Z3.348 A51.7249 
N665 X-307.102 Y-19.732 Z2.545 
N666 X-307.100 Y-20.345 Z1.811 
N667 X-307.099 Y-20.901 Z1.146 
N668 X-307.097 Y-21.407 Z0.560 A51.8319 
N669 X-307.091 Y-21.874 Z0.070 A52.2081 
N670 X-307.082 Y-22.312 Z-0.327 A52.9054 
N671 X-307.067 Y-22.734 Z-0.629 A54.0233 
N672 X-307.047 Y-23.158 Z-0.842 A55.6404 
N673 X-307.020 Y-23.588 Z-0.972 A57.7596 
N674 X-306.988 Y-24.040 Z-1.040 A60.3767 
N675 X-306.953 Y-24.493 Z-1.064 A63.2677 
N676 X-306.916 Y-24.943 Z-1.068 A66.3064 
N677 X-306.881 Y-25.368 Z-1.067 A69.2563 
N678 X-306.849 Y-25.767 Z-1.070 A72.0765 
N679 X-306.819 Y-26.137 Z-1.077 A74.7164 
N680 X-306.792 Y-26.483 Z-1.090 A77.2179 
N681 X-306.766 Y-26.819 Z-1.110 A79.6657 
N682 X-306.743 Y-27.113 Z-1.133 A81.8136 
N683 X-306.721 Y-27.412 Z-1.164 A84.0178 
N684 X-306.701 Y-27.680 Z-1.199 A86.0052 
N685 X-306.681 Y-27.958 Z-1.243 A88.0759 
N686 X-306.664 Y-28.206 Z-1.288 A89.9345 
N687 X-306.647 Y-28.463 Z-1.342 A91.8726 
N688 X-306.630 Y-28.713 Z-1.401 A93.7768 
N689 X-306.615 Y-28.954 Z-1.465 A95.6242 
N690 X-306.600 Y-29.200 Z-1.538 A97.5249 
N691 X-306.585 Y-29.437 Z-1.615 A99.3761 
N692 X-306.572 Y-29.669 Z-1.699 A101.2137 
N693 X-306.559 Y-29.905 Z-1.791 A103.0937 
N694 X-306.547 Y-30.135 Z-1.889 A104.9542 
N695 X-306.535 Y-30.359 Z-1.992 A106.7908 
N696 X-306.524 Y-30.583 Z-2.104 A108.6523 
N697 X-306.514 Y-30.804 Z-2.223 A110.5230 
N698 X-306.505 Y-31.019 Z-2.347 A112.3647 
N699 X-306.496 Y-31.230 Z-2.478 A114.2166 
N700 X-306.489 Y-31.437 Z-2.616 A116.0740 
N701 X-306.482 Y-31.640 Z-2.761 A117.9315 
N702 X-306.475 Y-31.838 Z-2.912 A119.7850 
N703 X-306.470 Y-32.030 Z-3.069 A121.6299 
N704 X-306.466 Y-32.217 Z-3.233 A123.4813 
N705 X-306.462 Y-32.399 Z-3.404 A125.3446 
N706 X-306.460 Y-32.574 Z-3.579 A127.1854 
N707 X-306.458 Y-32.741 Z-3.758 A129.0068 
N708 X-306.457 Y-32.906 Z-3.949 A130.8816 
N709 X-306.457 Y-33.061 Z-4.141 A132.7181 
N710 X-306.458 Y-33.207 Z-4.334 A134.5152 
N711 X-306.460 Y-33.351 Z-4.542 A136.3927 
N712 X-306.463 Y-33.485 Z-4.750 A138.2289 
N713 X-306.467 Y-33.607 Z-4.957 A140.0091 
N714 X-306.472 Y-33.730 Z-5.184 A141.9159 
N715 X-306.478 Y-33.840 Z-5.408 A143.7626 
N716 X-306.485 Y-33.944 Z-5.642 A145.6500 
N717 X-306.493 Y-34.044 Z-5.893 A147.6444 
N718 X-306.503 Y-34.130 Z-6.142 A149.5766 
N719 X-306.515 Y-34.216 Z-6.431 A151.7896 
N720 X-306.529 Y-34.289 Z-6.727 A154.0218 
N721 X-306.547 Y-34.358 Z-7.080 A156.6540 
N722 X-306.569 Y-34.414 Z-7.483 A159.6220 
N723 X-306.597 Y-34.446 Z-7.942 A162.9633 
N724 X-306.631 Y-34.436 Z-8.450 A166.6330 
N725 X-306.671 Y-34.366 Z-8.962 A170.2928 
N726 X-306.717 Y-34.212 Z-9.463 A173.8544 
N727 X-306.764 Y-33.975 Z-9.882 A176.8309 
N728 X-306.812 Y-33.648 Z-10.210 A179.1778 
N729 X-306.862 Y-33.230 Z-10.441 A180.8746 
N730 X-306.914 Y-32.715 Z-10.585 A181.9962 
N731 X-306.969 Y-32.090 Z-10.657 A182.6466 
N732 X-307.031 Y-31.343 Z-10.674 A182.9496 
N733 X-307.102 Y-30.461 Z-10.655 A183.0337 
N734 X-307.184 Y-29.434 Z-10.618 A183.0158 
N735 X-307.277 Y-28.254 Z-10.573 A182.9771 
N736 X-307.383 Y-26.919 Z-10.529 A182.9676 
N737 X-307.501 Y-25.431 Z-10.481 
N738 X-307.631 Y-23.799 Z-10.429 
N739 X-307.771 Y-22.039 Z-10.373 A182.9681 
N740 X-307.920 Y-20.173 Z-10.313 A182.9750 
N741 X-308.074 Y-18.227 Z-10.249 A182.9819 
N742 X-308.233 Y-16.229 Z-10.183 A182.9907 
N743 X-308.393 Y-14.211 Z-10.116 A183.0005 
N744 X-308.553 Y-12.205 Z-10.049 A183.0101 
N745 X-308.709 Y-10.243 Z-9.982 A183.0164 
N746 X-308.859 Y-8.351 Z-9.916 A183.0163 
N747 X-309.001 Y-6.555 Z-9.853 A183.0085 
N748 X-309.134 Y-4.874 Z-9.793 A182.9959 
N749 X-309.258 Y-3.322 Z-9.739 A182.9995 
N750 X-309.371 Y-1.905 Z-9.701 A183.0903 
N751 X-309.475 Y-0.625 Z-9.698 A183.4408 
N752 X-309.573 Y0.523 Z-9.758 A184.3183 
N753 X-309.666 Y1.552 Z-9.900 A185.9370 
N754 X-309.756 Y2.477 Z-10.109 A188.2395 
N755 X-309.840 Y3.313 Z-10.343 A190.9253 
N756 X-309.916 Y4.070 Z-10.567 A193.7030 
N757 X-309.986 Y4.758 Z-10.769 A196.4449 
N758 X-310.049 Y5.390 Z-10.947 A199.1122 
N759 X-310.108 Y5.978 Z-11.104 A201.6998 
N760 X-310.162 Y6.533 Z-11.239 A204.2179 
N761 X-310.214 Y7.069 Z-11.356 A206.6958 
N762 X-310.263 Y7.597 Z-11.455 A209.1650 
N763 X-310.312 Y8.129 Z-11.535 A211.6646 
N764 X-310.361 Y8.675 Z-11.594 A214.2295 
N765 X-310.409 Y9.246 Z-11.629 A216.8934 
N766 X-310.459 Y9.850 Z-11.632 A219.6705 
N767 X-310.508 Y10.489 Z-11.592 A222.5517 
N768 X-310.557 Y11.159 Z-11.491 A225.4489 
N769 X-310.600 Y11.841 Z-11.303 A228.1540 
N770 X-310.633 Y12.500 Z-11.002 A230.3559 
N771 X-310.655 Y13.112 Z-10.574 A231.8373 
N772 X-310.666 Y13.681 Z-10.033 A232.6325 
N773 X-310.669 Y14.232 Z-9.403 A232.9624 
N774 X-310.668 Y14.788 Z-8.711 A233.0486 
N775 X-310.666 Y15.362 Z-7.975 A233.0391 
N776 X-310.664 Y15.957 Z-7.210 A233.0157 
N777 X-310.662 Y16.569 Z-6.427 A233.0061 
N778 X-310.660 Y17.189 Z-5.638 A233.0079 
N779 X-310.658 Y17.806 Z-4.850 A232.9988 
N780 X-310.656 Y18.412 Z-4.078 A232.9940 
N781 X-310.655 Y19.002 Z-3.329 
N782 X-310.654 Y19.571 Z-2.612 A233.0263 
N783 X-310.655 Y20.125 Z-1.953 A233.2556 
N784 X-310.659 Y20.663 Z-1.356 A233.7195 
N785 X-310.667 Y21.188 Z-0.829 A234.4913 
N786 X-310.679 Y21.702 Z-0.376 A235.6124 
N787 X-310.695 Y22.209 Z0.006 A237.1174 
N788 X-310.715 Y22.711 Z0.321 A239.0039 
N789 X-310.739 Y23.211 Z0.580 A241.2340 
N790 X-310.764 Y23.698 Z0.795 A243.6848 
N791 X-310.790 Y24.166 Z0.981 A246.2405 
N792 X-310.815 Y24.608 Z1.150 A248.7975 
N793 X-310.838 Y25.015 Z1.306 A251.2443 
N794 X-310.859 Y25.394 Z1.453 A253.6010 
N795 X-310.879 Y25.748 Z1.596 A255.8705 
N796 X-310.897 Y26.081 Z1.734 A258.0520 
N797 X-310.913 Y26.390 Z1.868 A260.1257 
N798 X-310.928 Y26.686 Z2.004 A262.1536 
N799 X-310.942 Y26.966 Z2.139 A264.1085 
N800 X-310.955 Y27.233 Z2.274 A266.0120 
N801 X-310.967 Y27.492 Z2.413 A267.8914 
N802 X-310.978 Y27.744 Z2.555 A269.7498 
N803 X-310.988 Y27.988 Z2.701 A271.5888 
N804 X-310.998 Y28.226 Z2.851 A273.4098 
N805 X-311.006 Y28.457 Z3.005 A275.2195 
N806 X-311.014 Y28.682 Z3.164 A277.0234 
N807 X-311.021 Y28.902 Z3.329 A278.8242 
N808 X-311.027 Y29.117 Z3.499 A280.6220 
N809 X-311.033 Y29.326 Z3.675 A282.4167 
N810 X-311.037 Y29.529 Z3.857 A284.2086 
N811 X-311.041 Y29.726 Z4.044 A285.9978 
N812 X-311.044 Y29.917 Z4.238 A287.7841 
N813 X-311.045 Y30.101 Z4.437 A289.5668 
N814 X-311.046 Y30.279 Z4.642 A291.3452 
N815 X-311.046 Y30.449 Z4.853 A293.1189 
N816 X-311.045 Y30.611 Z5.070 A294.8874 
N817 X-311.043 Y30.766 Z5.292 A296.6501 
N818 X-311.040 Y30.912 Z5.519 A298.4067 
N819 X-311.036 Y31.050 Z5.752 A300.1572 
N820 X-311.030 Y31.180 Z5.989 A301.9023 
N821 X-311.024 Y31.301 Z6.232 A303.6434 
N822 X-311.017 Y31.413 Z6.479 A305.3833 
N823 X-311.009 Y31.516 Z6.732 A307.1240 
N824 X-310.999 Y31.611 Z6.990 A308.8650 
N825 X-310.989 Y31.696 Z7.252 A310.6061 
N826 X-310.977 Y31.771 Z7.519 A312.3468 
N827 X-310.965 Y31.837 Z7.789 A314.0861 
N828 X-310.951 Y31.892 Z8.065 A315.8309 
N829 X-310.936 Y31.937 Z8.345 A317.5802 
N830 X-310.920 Y31.971 Z8.628 A319.3271 
N831 X-310.903 Y31.993 Z8.914 A321.0729 
N832 X-310.884 Y32.003 Z9.205 A322.8300 
N833 X-310.865 Y32.002 Z9.498 A324.5851 
N834 X-310.844 Y31.987 Z9.795 A326.3471 
N835 X-310.821 Y31.959 Z10.097 A328.1227 
N836 X-310.798 Y31.917 Z10.401 A329.9041 
N837 X-310.772 Y31.859 Z10.711 A331.7045 
N838 X-310.745 Y31.785 Z11.026 A333.5317 
N839 X-310.717 Y31.692 Z11.346 A335.3816 
N840 X-310.686 Y31.580 Z11.673 A337.2738 
N841 X-310.652 Y31.443 Z12.009 A339.2177 
N842 X-310.616 Y31.279 Z12.356 A341.2240 
N843 X-310.576 Y31.081 Z12.715 A343.3130 
N844 X-310.532 Y30.847 Z13.084 A345.4824 
N845 X-310.484 Y30.566 Z13.469 A347.7691 
N846 X-310.430 Y30.229 Z13.863 A350.1504 
N847 X-310.371 Y29.826 Z14.256 A352.5720 
N848 X-310.307 Y29.347 Z14.635 A354.9547 
N849 X-310.237 Y28.784 Z14.983 A357.2136 
N850 X-310.164 Y28.130 Z15.286 A359.2678 
N851 X-310.086 Y27.382 Z15.533 A1.0526 
N852 X-310.005 Y26.538 Z15.715 A2.5202 
N853 X-309.921 Y25.597 Z15.829 A3.6440 
N854 X-309.833 Y24.561 Z15.879 A4.4386 
N855 X-309.741 Y23.433 Z15.875 A4.9554 
N856 X-309.645 Y22.217 Z15.828 A5.2644 
N857 X-309.544 Y20.923 Z15.753 A5.4374 
N858 X-309.439 Y19.560 Z15.659 A5.5256 
N859 X-309.331 Y18.144 Z15.552 A5.5602 
N860 X-309.220 Y16.693 Z15.438 A5.5582 
N861 X-309.108 Y15.224 Z15.319 A5.5315 
N862 X-308.996 Y13.757 Z15.203 A5.5035 
N863 X-308.885 Y12.310 Z15.092 
N864 X-308.777 Y10.897 Z14.987 A5.5299 
N865 X-308.671 Y9.537 Z14.905 A5.7240 
N866 X-308.569 Y8.241 Z14.849 A6.1272 
N867 X-308.470 Y7.015 Z14.827 A6.8333 
N868 X-308.375 Y5.862 Z14.845 A7.9219 
N869 X-308.283 Y4.781 Z14.905 A9.4494 
N870 X-308.193 Y3.767 Z15.000 A11.4084 
N871 X-308.108 Y2.813 Z15.116 A13.7017 
N872 X-308.027 Y1.913 Z15.230 A16.1726 
N873 X-307.951 Y1.064 Z15.326 A18.6813 
N874 X-307.881 Y0.257 Z15.394 A21.1412 
N875 X-307.815 Y-0.517 Z15.432 A23.5366 
N876 X-307.753 Y-1.267 Z15.442 A25.8833 
N877 X-307.694 Y-2.006 Z15.422 A28.1981 
N878 X-307.637 Y-2.745 Z15.369 A30.4976 
N879 X-307.582 Y-3.493 Z15.280 A32.7948 
N880 X-307.528 Y-4.258 Z15.146 A35.0895 
N881 X-307.476 Y-5.046 Z14.958 A37.3656 
N882 X-307.427 Y-5.860 Z14.707 A39.5988 
N883 X-307.380 Y-6.699 Z14.381 A41.7524 
N884 X-307.337 Y-7.559 Z13.969 A43.7646 
N885 X-307.299 Y-8.432 Z13.463 A45.5557 
N886 X-307.268 Y-9.310 Z12.855 A47.0423 
N887 X-307.244 Y-10.185 Z12.147 A48.1728 
N888 X-307.225 Y-11.056 Z11.348 A48.9574 
N889 X-307.213 Y-11.925 Z10.474 A49.4484 
N890 X-307.203 Y-12.794 Z9.544 A49.7216 
N891 X-307.196 Y-13.665 Z8.577 A49.8484 
N892 X-307.191 Y-14.534 Z7.593 A49.8830 
N893 X-307.186 Y-15.394 Z6.610 A49.8675 
N894 X-307.181 Y-16.238 Z5.644 A49.8347 
N895 X-307.176 Y-17.055 Z4.712 A49.8056 
N896 X-307.171 Y-17.835 Z3.826 A49.7879 
N897 X-307.167 Y-18.569 Z2.996 A49.7792 
N898 X-307.162 Y-19.247 Z2.230 A49.7627 
N899 X-307.158 Y-19.866 Z1.535 
N900 X-307.154 Y-20.424 Z0.911 
N901 X-307.150 Y-20.924 Z0.350 
N902 X-307.143 Y-21.387 Z-0.115 A50.0522 
N903 X-307.132 Y-21.828 Z-0.481 A50.7445 
N904 X-307.114 Y-22.262 Z-0.748 A51.9646 
N905 X-307.090 Y-22.698 Z-0.922 A53.7242 
N906 X-307.060 Y-23.143 Z-1.021 A55.9863 
N907 X-307.026 Y-23.590 Z-1.063 A58.6077 
N908 X-306.990 Y-24.040 Z-1.069 A61.4935 
N909 X-306.954 Y-24.472 Z-1.056 A64.4197 
N910 X-306.917 Y-24.905 Z-1.034 A67.4463 
N911 X-306.882 Y-25.316 Z-1.015 A70.3787 
N912 X-306.850 Y-25.695 Z-1.003 A73.1138 
N913 X-306.821 Y-26.049 Z-1.001 A75.6766 
N914 X-306.794 Y-26.386 Z-1.008 A78.1362 
N915 X-306.771 Y-26.679 Z-1.023 A80.2773 
N916 X-306.749 Y-26.971 Z-1.045 A82.4226 
N917 X-306.729 Y-27.239 Z-1.072 A84.4042 
N918 X-306.709 Y-27.515 Z-1.106 A86.4545 
N919 X-306.691 Y-27.764 Z-1.144 A88.3114 
N920 X-306.673 Y-28.020 Z-1.190 A90.2306 
N921 X-306.656 Y-28.267 Z-1.242 A92.1019 
N922 X-306.640 Y-28.508 Z-1.299 A93.9357 
N923 X-306.625 Y-28.754 Z-1.365 A95.8246 
N924 X-306.610 Y-28.992 Z-1.435 A97.6604 
N925 X-306.596 Y-29.226 Z-1.512 A99.4897 
N926 X-306.582 Y-29.462 Z-1.597 A101.3549 
N927 X-306.569 Y-29.692 Z-1.687 A103.1933 
N928 X-306.557 Y-29.918 Z-1.784 A105.0212 
N929 X-306.546 Y-30.144 Z-1.889 A106.8725 
N930 X-306.535 Y-30.366 Z-2.000 A108.7230 
N931 X-306.525 Y-30.582 Z-2.117 A110.5525 
N932 X-306.516 Y-30.796 Z-2.242 A112.3918 
N933 X-306.508 Y-31.006 Z-2.373 A114.2369 
N934 X-306.500 Y-31.211 Z-2.511 A116.0752 
N935 X-306.493 Y-31.411 Z-2.655 A117.9108 
N936 X-306.487 Y-31.606 Z-2.805 A119.7400 
N937 X-306.482 Y-31.797 Z-2.962 A121.5804 
N938 X-306.478 Y-31.982 Z-3.125 A123.4182 
N939 X-306.474 Y-32.160 Z-3.293 A125.2376 
N940 X-306.472 Y-32.333 Z-3.467 A127.0586 
N941 X-306.470 Y-32.501 Z-3.648 A128.8991 
N942 X-306.469 Y-32.660 Z-3.833 A130.7101 
N943 X-306.470 Y-32.812 Z-4.020 A132.5028 
N944 X-306.471 Y-32.960 Z-4.218 A134.3388 
N945 X-306.472 Y-33.099 Z-4.417 A136.1340 
N946 X-306.475 Y-33.228 Z-4.618 A137.9082 
N947 X-306.479 Y-33.356 Z-4.832 A139.7526 
N948 X-306.484 Y-33.472 Z-5.045 A141.5448 
N949 X-306.489 Y-33.581 Z-5.263 A143.3501 
N950 X-306.496 Y-33.687 Z-5.496 A145.2337 
N951 X-306.504 Y-33.781 Z-5.727 A147.0783 
N952 X-306.513 Y-33.879 Z-5.993 A149.1586 
N953 X-306.524 Y-33.965 Z-6.263 A151.2455 
N954 X-306.538 Y-34.049 Z-6.572 A153.6000 
N955 X-306.554 Y-34.120 Z-6.893 A156.0123 
N956 X-306.575 Y-34.185 Z-7.290 A158.9583 
N957 X-306.601 Y-34.227 Z-7.732 A162.2008 
N958 X-306.633 Y-34.237 Z-8.235 A165.8511 
N959 X-306.673 Y-34.193 Z-8.778 A169.7759 
N960 X-306.719 Y-34.073 Z-9.324 A173.7003 
N961 X-306.768 Y-33.866 Z-9.805 A177.1731 
N962 X-306.817 Y-33.564 Z-10.180 A179.9078 
N963 X-306.865 Y-33.177 Z-10.422 A181.7291 
N964 X-306.913 Y-32.699 Z-10.552 A182.7955 
N965 X-306.963 Y-32.116 Z-10.602 A183.3311 
N966 X-307.021 Y-31.416 Z-10.601 A183.5532 
N967 X-307.087 Y-30.583 Z-10.573 A183.6190 
N968 X-307.164 Y-29.605 Z-10.528 A183.6188 
N969 X-307.252 Y-28.475 Z-10.475 A183.6004 
N970 X-307.354 Y-27.186 Z-10.417 A183.5904 
N971 X-307.468 Y-25.741 Z-10.353 
N972 X-307.593 Y-24.146 Z-10.282 
N973 X-307.730 Y-22.414 Z-10.206 A183.5968 
N974 X-307.875 Y-20.566 Z-10.125 A183.6092 
N975 X-308.028 Y-18.626 Z-10.040 A183.6234 
N976 X-308.185 Y-16.623 Z-9.951 A183.6393 
N977 X-308.346 Y-14.588 Z-9.860 A183.6567 
N978 X-308.506 Y-12.554 Z-9.768 A183.6758 
N979 X-308.663 Y-10.554 Z-9.677 A183.6954 
N980 X-308.815 Y-8.618 Z-9.589 A183.7141 
N981 X-308.960 Y-6.773 Z-9.504 A183.7280 
N982 X-309.096 Y-5.041 Z-9.422 A183.7343 
N983 X-309.222 Y-3.437 Z-9.345 A183.7216 
N984 X-309.337 Y-1.974 Z-9.275 A183.7143 
N985 X-309.441 Y-0.652 Z-9.218 A183.7511 
N986 X-309.536 Y0.529 Z-9.201 A184.0680 
N987 X-309.626 Y1.578 Z-9.257 A184.9636 
N988 X-309.712 Y2.512 Z-9.409 A186.6885 
N989 X-309.796 Y3.348 Z-9.640 A189.1771 
N990 X-309.875 Y4.105 Z-9.906 A192.1071 
N991 X-309.948 Y4.792 Z-10.165 A195.1477 
N992 X-310.015 Y5.418 Z-10.399 A198.1202 
N993 X-310.076 Y5.995 Z-10.603 A200.9669 
N994 X-310.132 Y6.533 Z-10.780 A203.6899 
N995 X-310.184 Y7.046 Z-10.934 A206.3282 
N996 X-310.233 Y7.544 Z-11.067 A208.9142 
N997 X-310.281 Y8.040 Z-11.180 A211.4865 
N998 X-310.328 Y8.543 Z-11.273 A214.0867 
N999 X-310.376 Y9.065 Z-11.344 A216.7544 
N1000 X-310.423 Y9.612 Z-11.388 A219.5162 
N1001 X-310.471 Y10.191 Z-11.397 A222.3718 
N1002 X-310.518 Y10.796 Z-11.354 A225.2486 
N1003 X-310.561 Y11.413 Z-11.240 A227.9731 
N1004 X-310.596 Y12.014 Z-11.030 A230.3013 
N1005 X-310.621 Y12.579 Z-10.713 A232.0451 
N1006 X-310.635 Y13.100 Z-10.293 A233.1634 
N1007 X-310.642 Y13.587 Z-9.786 A233.7496 
N1008 X-310.642 Y14.059 Z-9.211 A233.9703 
N1009 X-310.639 Y14.533 Z-8.590 A234.0007 
N1010 X-310.636 Y15.020 Z-7.940 A233.9777 
N1011 X-310.633 Y15.522 Z-7.273 A233.9616 
N1012 X-310.630 Y16.031 Z-6.600 A233.9615 
N1013 X-310.626 Y16.540 Z-5.927 A233.9514 
N1014 X-310.623 Y17.041 Z-5.266 A233.9511 
N1015 X-310.621 Y17.530 Z-4.622 
N1016 X-310.619 Y18.008 Z-4.010 A234.0344 
N1017 X-310.620 Y18.480 Z-3.447 A234.3338 
N1018 X-310.625 Y18.950 Z-2.941 A234.9126 
N1019 X-310.634 Y19.418 Z-2.498 A235.8322 
N1020 X-310.647 Y19.887 Z-2.119 A237.1172 
N1021 X-310.664 Y20.357 Z-1.800 A238.7726 
N1022 X-310.685 Y20.828 Z-1.535 A240.7776 
N1023 X-310.709 Y21.302 Z-1.315 A243.0945 
N1024 X-310.735 Y21.769 Z-1.128 A245.6137 
N1025 X-310.760 Y22.219 Z-0.963 A248.2078 
N1026 X-310.785 Y22.649 Z-0.809 A250.7998 
N1027 X-310.808 Y23.049 Z-0.660 A253.2900 
N1028 X-310.829 Y23.418 Z-0.515 A255.6501 
N1029 X-310.847 Y23.761 Z-0.373 A257.8981 
N1030 X-310.864 Y24.086 Z-0.230 A260.0747 
N1031 X-310.880 Y24.389 Z-0.087 A262.1465 
N1032 X-310.894 Y24.680 Z0.058 A264.1696 
N1033 X-310.906 Y24.954 Z0.205 A266.1159 
N1034 X-310.918 Y25.218 Z0.357 A268.0283 
N1035 X-310.928 Y25.473 Z0.513 A269.9101 
N1036 X-310.938 Y25.719 Z0.673 A271.7622 
N1037 X-310.946 Y25.957 Z0.840 A273.5990 
N1038 X-310.953 Y26.188 Z1.013 A275.4231 
N1039 X-310.960 Y26.413 Z1.193 A277.2354 
N1040 X-310.965 Y26.630 Z1.379 A279.0384 
N1041 X-310.969 Y26.840 Z1.573 A280.8360 
N1042 X-310.973 Y27.043 Z1.774 A282.6270 
N1043 X-310.975 Y27.239 Z1.982 A284.4097 
N1044 X-310.976 Y27.427 Z2.198 A286.1852 
N1045 X-310.976 Y27.606 Z2.421 A287.9571 
N1046 X-310.974 Y27.777 Z2.652 A289.7183 
N1047 X-310.972 Y27.938 Z2.889 A291.4669 
N1048 X-310.968 Y28.091 Z3.134 A293.2109 
N1049 X-310.963 Y28.233 Z3.385 A294.9416 
N1050 X-310.956 Y28.364 Z3.642 A296.6557 
N1051 X-310.949 Y28.485 Z3.906 A298.3625 
N1052 X-310.940 Y28.594 Z4.175 A300.0479 
N1053 X-310.930 Y28.692 Z4.449 A301.7236 
N1054 X-310.918 Y28.779 Z4.727 A303.3813 
N1055 X-310.906 Y28.854 Z5.011 A305.0304 
N1056 X-310.892 Y28.918 Z5.298 A306.6663 
N1057 X-310.877 Y28.972 Z5.589 A308.3012 
N1058 X-310.861 Y29.014 Z5.884 A309.9280 
N1059 X-310.843 Y29.046 Z6.183 A311.5582 
N1060 X-310.825 Y29.068 Z6.485 A313.1885 
N1061 X-310.806 Y29.079 Z6.790 A314.8193 
N1062 X-310.785 Y29.080 Z7.098 A316.4570 
N1063 X-310.764 Y29.070 Z7.408 A318.0999 
N1064 X-310.742 Y29.050 Z7.720 A319.7480 
N1065 X-310.718 Y29.019 Z8.034 A321.4040 
N1066 X-310.694 Y28.978 Z8.350 A323.0701 
N1067 X-310.668 Y28.926 Z8.668 A324.7469 
N1068 X-310.642 Y28.862 Z8.987 A326.4351 
N1069 X-310.615 Y28.788 Z9.308 A328.1366 
N1070 X-310.586 Y28.702 Z9.630 A329.8528 
N1071 X-310.557 Y28.603 Z9.953 A331.5873 
N1072 X-310.526 Y28.491 Z10.279 A333.3460 
N1073 X-310.494 Y28.364 Z10.609 A335.1363 
N1074 X-310.460 Y28.221 Z10.942 A336.9654 
N1075 X-310.424 Y28.060 Z11.281 A338.8405 
N1076 X-310.386 Y27.878 Z11.625 A340.7693 
N1077 X-310.346 Y27.671 Z11.979 A342.7768 
N1078 X-310.303 Y27.435 Z12.343 A344.8775 
N1079 X-310.255 Y27.162 Z12.720 A347.0917 
N1080 X-310.204 Y26.847 Z13.105 A349.4035 
N1081 X-310.148 Y26.481 Z13.493 A351.7911 
N1082 X-310.088 Y26.053 Z13.877 A354.2165 
N1083 X-310.023 Y25.556 Z14.246 A356.6252 
N1084 X-309.953 Y24.983 Z14.585 A358.9429 
N1085 X-309.881 Y24.330 Z14.878 A1.0731 
N1086 X-309.805 Y23.595 Z15.110 A2.9231 
N1087 X-309.728 Y22.779 Z15.269 A4.4169 
N1088 X-309.649 Y21.883 Z15.355 A5.5369 
N1089 X-309.568 Y20.911 Z15.375 A6.3197 
N1090 X-309.485 Y19.865 Z15.341 A6.8320 
N1091 X-309.399 Y18.752 Z15.267 A7.1477 
N1092 X-309.310 Y17.579 Z15.163 A7.3251 
N1093 X-309.219 Y16.356 Z15.038 A7.4042 
N1094 X-309.125 Y15.097 Z14.900 A7.4123 
N1095 X-309.030 Y13.817 Z14.754 A7.3741 
N1096 X-308.935 Y12.530 Z14.608 A7.3280 
N1097 X-308.840 Y11.251 Z14.470 
N1098 X-308.745 Y9.988 Z14.339 A7.3746 
N1099 X-308.652 Y8.761 Z14.241 A7.6656 
N1100 X-308.559 Y7.577 Z14.175 A8.2312 
N1101 X-308.469 Y6.442 Z14.146 A9.1446 
N1102 X-308.380 Y5.359 Z14.153 A10.4323 
N1103 X-308.293 Y4.327 Z14.192 A12.1058 
N1104 X-308.208 Y3.342 Z14.257 A14.1360 
N1105 X-308.126 Y2.400 Z14.332 A16.4411 
N1106 X-308.048 Y1.496 Z14.402 A18.8991 
N1107 X-307.973 Y0.624 Z14.450 A21.3998 
N1108 X-307.903 Y-0.220 Z14.467 A23.8729 
N1109 X-307.837 Y-1.047 Z14.450 A26.3039 
N1110 X-307.773 Y-1.866 Z14.396 A28.7000 
N1111 X-307.713 Y-2.686 Z14.301 A31.0618 
N1112 X-307.655 Y-3.515 Z14.158 A33.3856 
N1113 X-307.599 Y-4.360 Z13.959 A35.6608 
N1114 X-307.546 Y-5.224 Z13.695 A37.8566 
N1115 X-307.496 Y-6.107 Z13.355 A39.9265 
N1116 X-307.451 Y-7.005 Z12.930 A41.8194 
N1117 X-307.411 Y-7.915 Z12.416 A43.4905 
N1118 X-307.376 Y-8.833 Z11.811 A44.9068 
N1119 X-307.347 Y-9.753 Z11.118 A46.0440 
N1120 X-307.324 Y-10.672 Z10.343 A46.8864 
N1121 X-307.305 Y-11.585 Z9.500 A47.4478 
N1122 X-307.290 Y-12.492 Z8.603 A47.7729 
N1123 X-307.279 Y-13.393 Z7.674 A47.9278 
N1124 X-307.268 Y-14.284 Z6.733 A47.9840 
N1125 X-307.259 Y-15.161 Z5.799 A47.9916 
N1126 X-307.250 Y-16.014 Z4.887 A47.9793 
N1127 X-307.241 Y-16.834 Z4.011 A47.9559 
N1128 X-307.233 Y-17.610 Z3.182 A47.9264 
N1129 X-307.225 Y-18.333 Z2.410 A47.8896 
N1130 X-307.217 Y-19.000 Z1.705 A47.8817 
N1131 X-307.210 Y-19.607 Z1.067 
N1132 X-307.204 Y-20.154 Z0.492 
N1133 X-307.196 Y-20.648 Z-0.004 A48.0207 
N1134 X-307.186 Y-21.101 Z-0.412 A48.4120 
N1135 X-307.173 Y-21.526 Z-0.729 A49.1604 
N1136 X-307.154 Y-21.940 Z-0.952 A50.3877 
N1137 X-307.128 Y-22.363 Z-1.083 A52.1992 
N1138 X-307.095 Y-22.808 Z-1.134 A54.6238 
N1139 X-307.056 Y-23.271 Z-1.125 A57.5225 
N1140 X-307.016 Y-23.737 Z-1.085 A60.6662 
N1141 X-306.975 Y-24.200 Z-1.036 A63.9130 
N1142 X-306.936 Y-24.637 Z-0.993 A67.0289 
N1143 X-306.902 Y-25.031 Z-0.963 A69.8592 
N1144 X-306.871 Y-25.389 Z-0.944 A72.4559 
N1145 X-306.843 Y-25.728 Z-0.934 A74.9195 
N1146 X-306.816 Y-26.058 Z-0.933 A77.3340 
N1147 X-306.793 Y-26.345 Z-0.939 A79.4375 
N1148 X-306.770 Y-26.641 Z-0.954 A81.6138 
N1149 X-306.750 Y-26.900 Z-0.974 A83.5264 
N1150 X-306.730 Y-27.165 Z-1.003 A85.4938 
N1151 X-306.712 Y-27.420 Z-1.036 A87.3893 
N1152 X-306.694 Y-27.668 Z-1.076 A89.2486 
N1153 X-306.676 Y-27.922 Z-1.124 A91.1649 
N1154 X-306.660 Y-28.161 Z-1.175 A92.9735 
N1155 X-306.645 Y-28.401 Z-1.234 A94.8065 
N1156 X-306.629 Y-28.644 Z-1.302 A96.6827 
N1157 X-306.615 Y-28.877 Z-1.373 A98.4858 
N1158 X-306.601 Y-29.110 Z-1.452 A100.3140 
N1159 X-306.588 Y-29.344 Z-1.539 A102.1704 
N1160 X-306.576 Y-29.570 Z-1.631 A103.9908 
N1161 X-306.564 Y-29.794 Z-1.731 A105.8135 
N1162 X-306.553 Y-30.017 Z-1.837 A107.6528 
N1163 X-306.542 Y-30.236 Z-1.951 A109.4866 
N1164 X-306.533 Y-30.450 Z-2.070 A111.3088 
N1165 X-306.524 Y-30.660 Z-2.197 A113.1355 
N1166 X-306.516 Y-30.866 Z-2.330 A114.9635 
N1167 X-306.509 Y-31.068 Z-2.469 A116.7910 
N1168 X-306.503 Y-31.265 Z-2.615 A118.6125 
N1169 X-306.497 Y-31.456 Z-2.766 A120.4249 
N1170 X-306.492 Y-31.644 Z-2.925 A122.2526 
N1171 X-306.488 Y-31.825 Z-3.089 A124.0739 
N1172 X-306.485 Y-31.999 Z-3.257 A125.8761 
N1173 X-306.483 Y-32.169 Z-3.432 A127.6853 
N1174 X-306.482 Y-32.333 Z-3.614 A129.5044 
N1175 X-306.481 Y-32.488 Z-3.798 A131.2958 
N1176 X-306.482 Y-32.637 Z-3.987 A133.0805 
N1177 X-306.483 Y-32.781 Z-4.184 A134.8923 
N1178 X-306.485 Y-32.916 Z-4.382 A136.6645 
N1179 X-306.488 Y-33.043 Z-4.583 A138.4267 
N1180 X-306.492 Y-33.166 Z-4.794 A140.2383 
N1181 X-306.497 Y-33.279 Z-5.005 A142.0082 
N1182 X-306.503 Y-33.386 Z-5.223 A143.8041 
N1183 X-306.509 Y-33.488 Z-5.452 A145.6545 
N1184 X-306.517 Y-33.580 Z-5.681 A147.4676 
N1185 X-306.527 Y-33.675 Z-5.944 A149.5338 
N1186 X-306.538 Y-33.763 Z-6.218 A151.6519 
N1187 X-306.552 Y-33.852 Z-6.538 A154.1014 
N1188 X-306.568 Y-33.929 Z-6.879 A156.6801 
N1189 X-306.590 Y-33.999 Z-7.296 A159.7858 
N1190 X-306.617 Y-34.042 Z-7.752 A163.1402 
N1191 X-306.650 Y-34.047 Z-8.257 A166.8174 
N1192 X-306.690 Y-33.995 Z-8.798 A170.7312 
N1193 X-306.736 Y-33.870 Z-9.328 A174.5537 
N1194 X-306.785 Y-33.656 Z-9.810 A178.0572 
N1195 X-306.835 Y-33.351 Z-10.185 A180.8330 
N1196 X-306.883 Y-32.963 Z-10.423 A182.6730 
N1197 X-306.929 Y-32.485 Z-10.540 A183.6960 
N1198 X-306.979 Y-31.904 Z-10.569 A184.1376 
N1199 X-307.034 Y-31.205 Z-10.546 A184.2524 
N1200 X-307.099 Y-30.373 Z-10.498 A184.2441 
N1201 X-307.175 Y-29.395 Z-10.440 A184.2138 
N1202 X-307.263 Y-28.262 Z-10.377 A184.2029 
N1203 X-307.364 Y-26.970 Z-10.307 
N1204 X-307.478 Y-25.518 Z-10.229 
N1205 X-307.603 Y-23.915 Z-10.142 
N1206 X-307.739 Y-22.174 Z-10.047 A184.2034 
N1207 X-307.884 Y-20.316 Z-9.946 A184.2086 
N1208 X-308.036 Y-18.364 Z-9.840 A184.2150 
N1209 X-308.193 Y-16.349 Z-9.730 A184.2234 
N1210 X-308.353 Y-14.302 Z-9.617 A184.2336 
N1211 X-308.512 Y-12.256 Z-9.504 A184.2461 
N1212 X-308.669 Y-10.246 Z-9.393 A184.2613 
N1213 X-308.821 Y-8.301 Z-9.285 A184.2787 
N1214 X-308.965 Y-6.450 Z-9.182 A184.2971 
N1215 X-309.101 Y-4.714 Z-9.085 A184.3100 
N1216 X-309.225 Y-3.111 Z-8.993 A184.3101 
N1217 X-309.339 Y-1.650 Z-8.906 A184.2790 
N1218 X-309.441 Y-0.339 Z-8.832 A184.2739 
N1219 X-309.533 Y0.831 Z-8.777 A184.3593 
N1220 X-309.617 Y1.862 Z-8.783 A184.8782 
N1221 X-309.698 Y2.771 Z-8.881 A186.1413 
N1222 X-309.778 Y3.579 Z-9.088 A188.3453 
N1223 X-309.856 Y4.308 Z-9.374 A191.3182 
N1224 X-309.931 Y4.971 Z-9.678 A194.6000 
N1225 X-309.999 Y5.575 Z-9.955 A197.8162 
N1226 X-310.059 Y6.125 Z-10.195 A200.8410 
N1227 X-310.115 Y6.633 Z-10.402 A203.6849 
N1228 X-310.165 Y7.110 Z-10.581 A206.3898 
N1229 X-310.213 Y7.566 Z-10.736 A208.9781 
N1230 X-310.258 Y8.009 Z-10.869 A211.4872 
N1231 X-310.301 Y8.450 Z-10.982 A213.9675 
N1232 X-310.344 Y8.899 Z-11.075 A216.4540 
N1233 X-310.387 Y9.361 Z-11.146 A218.9711 
N1234 X-310.429 Y9.843 Z-11.191 A221.5391 
N1235 X-310.471 Y10.345 Z-11.202 A224.1361 
N1236 X-310.512 Y10.868 Z-11.172 A226.7364 
N1237 X-310.550 Y11.403 Z-11.089 A229.2642 
N1238 X-310.583 Y11.937 Z-10.939 A231.5960 
N1239 X-310.610 Y12.451 Z-10.711 A233.5725 
N1240 X-310.628 Y12.928 Z-10.399 A235.0552 
N1241 X-310.638 Y13.362 Z-10.007 A236.0111 
N1242 X-310.640 Y13.763 Z-9.548 A236.5305 
N1243 X-310.638 Y14.147 Z-9.042 A236.7655 
N1244 X-310.633 Y14.527 Z-8.503 A236.8575 
N1245 X-310.627 Y14.910 Z-7.946 A236.8896 
N1246 X-310.621 Y15.295 Z-7.380 A236.8996 
N1247 X-310.615 Y15.680 Z-6.813 A236.9034 
N1248 X-310.609 Y16.061 Z-6.255 A236.9299 
N1249 X-310.604 Y16.441 Z-5.718 A237.0348 
N1250 X-310.602 Y16.823 Z-5.212 A237.3030 
N1251 X-310.603 Y17.213 Z-4.748 A237.8314 
N1252 X-310.608 Y17.614 Z-4.335 A238.6884 
N1253 X-310.618 Y18.028 Z-3.972 A239.9053 
N1254 X-310.632 Y18.451 Z-3.659 A241.4659 
N1255 X-310.649 Y18.879 Z-3.388 A243.3225 
N1256 X-310.668 Y19.307 Z-3.153 A245.4127 
N1257 X-310.689 Y19.732 Z-2.946 A247.6913 
N1258 X-310.711 Y20.150 Z-2.761 A250.0828 
N1259 X-310.733 Y20.556 Z-2.589 A252.5341 
N1260 X-310.754 Y20.944 Z-2.428 A254.9730 
N1261 X-310.773 Y21.314 Z-2.270 A257.3697 
N1262 X-310.791 Y21.662 Z-2.115 A259.6804 
N1263 X-310.808 Y21.987 Z-1.962 A261.8908 
N1264 X-310.823 Y22.298 Z-1.805 A264.0517 
N1265 X-310.836 Y22.590 Z-1.648 A266.1226 
N1266 X-310.848 Y22.870 Z-1.487 A268.1556 
N1267 X-310.859 Y23.137 Z-1.321 A270.1289 
N1268 X-310.869 Y23.393 Z-1.151 A272.0633 
N1269 X-310.877 Y23.639 Z-0.974 A273.9689 
N1270 X-310.884 Y23.876 Z-0.791 A275.8474 
N1271 X-310.890 Y24.104 Z-0.601 A277.7077 
N1272 X-310.895 Y24.324 Z-0.403 A279.5533 
N1273 X-310.899 Y24.536 Z-0.196 A281.3848 
N1274 X-310.901 Y24.739 Z0.019 A283.2091 
N1275 X-310.902 Y24.933 Z0.243 A285.0195 
N1276 X-310.902 Y25.117 Z0.475 A286.8140 
N1277 X-310.900 Y25.292 Z0.716 A288.6042 
N1278 X-310.897 Y25.455 Z0.966 A290.3729 
N1279 X-310.892 Y25.608 Z1.225 A292.1336 
N1280 X-310.886 Y25.749 Z1.491 A293.8718 
N1281 X-310.878 Y25.877 Z1.767 A295.5971 
N1282 X-310.869 Y25.992 Z2.048 A297.2945 
N1283 X-310.858 Y26.094 Z2.338 A298.9763 
N1284 X-310.845 Y26.181 Z2.633 A300.6285 
N1285 X-310.831 Y26.254 Z2.933 A302.2526 
N1286 X-310.816 Y26.313 Z3.239 A303.8547 
N1287 X-310.799 Y26.358 Z3.550 A305.4349 
N1288 X-310.780 Y26.389 Z3.864 A306.9945 
N1289 X-310.761 Y26.407 Z4.181 A308.5391 
N1290 X-310.740 Y26.412 Z4.502 A310.0739 
N1291 X-310.718 Y26.406 Z4.826 A311.6041 
N1292 X-310.695 Y26.388 Z5.152 A313.1341 
N1293 X-310.671 Y26.360 Z5.481 A314.6679 
N1294 X-310.646 Y26.322 Z5.811 A316.2091 
N1295 X-310.620 Y26.274 Z6.143 A317.7612 
N1296 X-310.593 Y26.217 Z6.477 A319.3271 
N1297 X-310.565 Y26.150 Z6.811 A320.9092 
N1298 X-310.537 Y26.075 Z7.146 A322.5087 
N1299 X-310.508 Y25.991 Z7.482 A324.1270 
N1300 X-310.478 Y25.898 Z7.818 A325.7657 
N1301 X-310.447 Y25.796 Z8.154 A327.4268 
N1302 X-310.416 Y25.686 Z8.491 A329.1113 
N1303 X-310.383 Y25.565 Z8.827 A330.8200 
N1304 X-310.350 Y25.434 Z9.164 A332.5550 
N1305 X-310.316 Y25.292 Z9.502 A334.3208 
N1306 X-310.281 Y25.138 Z9.842 A336.1243 
N1307 X-310.245 Y24.969 Z10.184 A337.9728 
N1308 X-310.207 Y24.785 Z10.530 A339.8673 
N1309 X-310.167 Y24.581 Z10.881 A341.8241 
N1310 X-310.125 Y24.354 Z11.237 A343.8460 
N1311 X-310.080 Y24.100 Z11.601 A345.9530 
N1312 X-310.032 Y23.813 Z11.971 A348.1447 
N1313 X-309.980 Y23.487 Z12.347 A350.4281 
N1314 X-309.925 Y23.116 Z12.723 A352.7744 
N1315 X-309.865 Y22.689 Z13.093 A355.1501 
N1316 X-309.802 Y22.202 Z13.443 A357.4892 
N1317 X-309.736 Y21.649 Z13.763 A359.7300 
N1318 X-309.667 Y21.027 Z14.040 A1.8065 
N1319 X-309.595 Y20.336 Z14.263 A3.6516 
N1320 X-309.523 Y19.577 Z14.423 A5.2066 
N1321 X-309.449 Y18.751 Z14.516 A6.4292 
N1322 X-309.375 Y17.864 Z14.542 A7.3187 
N1323 X-309.300 Y16.920 Z14.511 A7.9123 
N1324 X-309.224 Y15.922 Z14.435 A8.2713 
N1325 X-309.146 Y14.879 Z14.326 A8.4671 
N1326 X-309.066 Y13.798 Z14.196 A8.5638 
N1327 X-308.985 Y12.689 Z14.055 A8.6174 
N1328 X-308.902 Y11.562 Z13.913 A8.6805 
N1329 X-308.819 Y10.431 Z13.776 A8.8070 
N1330 X-308.735 Y9.304 Z13.652 A9.0559 
N1331 X-308.651 Y8.191 Z13.550 A9.4958 
N1332 X-308.567 Y7.101 Z13.476 A10.2073 
N1333 X-308.483 Y6.036 Z13.435 A11.2617 
N1334 X-308.398 Y5.000 Z13.428 A12.6942 
N1335 X-308.315 Y3.992 Z13.447 A14.4863 
N1336 X-308.233 Y3.012 Z13.477 A16.5572 
N1337 X-308.153 Y2.057 Z13.502 A18.8075 
N1338 X-308.077 Y1.125 Z13.510 A21.1539 
N1339 X-308.003 Y0.210 Z13.492 A23.5410 
N1340 X-307.933 Y-0.693 Z13.441 A25.9403 
N1341 X-307.865 Y-1.592 Z13.352 A28.3249 
N1342 X-307.801 Y-2.492 Z13.216 A30.6659 
N1343 X-307.739 Y-3.399 Z13.026 A32.9402 
N1344 X-307.681 Y-4.317 Z12.774 A35.1260 
N1345 X-307.626 Y-5.247 Z12.452 A37.1910 
N1346 X-307.576 Y-6.190 Z12.054 A39.0963 
N1347 X-307.530 Y-7.143 Z11.574 A40.8039 
N1348 X-307.489 Y-8.102 Z11.011 A42.2854 
N1349 X-307.453 Y-9.065 Z10.367 A43.5247 
N1350 X-307.422 Y-10.026 Z9.649 A44.5126 
N1351 X-307.397 Y-10.981 Z8.865 A45.2471 
N1352 X-307.375 Y-11.926 Z8.030 A45.7470 
N1353 X-307.357 Y-12.857 Z7.159 A46.0509 
N1354 X-307.341 Y-13.771 Z6.273 A46.2125 
N1355 X-307.327 Y-14.665 Z5.388 A46.2868 
N1356 X-307.313 Y-15.529 Z4.523 A46.3119 
N1357 X-307.301 Y-16.357 Z3.690 A46.3086 
N1358 X-307.290 Y-17.139 Z2.901 A46.2812 
N1359 X-307.279 Y-17.867 Z2.165 A46.2374 
N1360 X-307.269 Y-18.536 Z1.489 A46.1814 
N1361 X-307.260 Y-19.145 Z0.884 
N1362 X-307.251 Y-19.695 Z0.339 
N1363 X-307.242 Y-20.193 Z-0.136 A46.2907 
N1364 X-307.230 Y-20.653 Z-0.520 A46.7062 
N1365 X-307.215 Y-21.083 Z-0.817 A47.4766 
N1366 X-307.194 Y-21.500 Z-1.024 A48.7006 
N1367 X-307.169 Y-21.913 Z-1.146 A50.4192 
N1368 X-307.137 Y-22.343 Z-1.192 A52.6960 
N1369 X-307.099 Y-22.788 Z-1.176 A55.4461 
N1370 X-307.059 Y-23.237 Z-1.124 A58.4763 
N1371 X-307.016 Y-23.704 Z-1.053 A61.7728 
N1372 X-306.976 Y-24.144 Z-0.988 A64.9456 
N1373 X-306.939 Y-24.554 Z-0.936 A67.9291 
N1374 X-306.907 Y-24.921 Z-0.900 A70.6045 
N1375 X-306.877 Y-25.260 Z-0.876 A73.0790 
N1376 X-306.850 Y-25.590 Z-0.863 A75.4972 
N1377 X-306.826 Y-25.879 Z-0.859 A77.6160 
N1378 X-306.802 Y-26.173 Z-0.863 A79.7775 
N1379 X-306.781 Y-26.436 Z-0.874 A81.7202 
N1380 X-306.760 Y-26.708 Z-0.893 A83.7330 
N1381 X-306.741 Y-26.960 Z-0.918 A85.6059 
N1382 X-306.723 Y-27.211 Z-0.949 A87.4751 
N1383 X-306.705 Y-27.465 Z-0.989 A89.3777 
N1384 X-306.688 Y-27.703 Z-1.032 A91.1706 
N1385 X-306.672 Y-27.945 Z-1.084 A93.0070 
N1386 X-306.656 Y-28.189 Z-1.143 A94.8674 
N1387 X-306.641 Y-28.421 Z-1.206 A96.6567 
N1388 X-306.627 Y-28.655 Z-1.277 A98.4737 
N1389 X-306.613 Y-28.890 Z-1.357 A100.3178 
N1390 X-306.600 Y-29.117 Z-1.441 A102.1149 
N1391 X-306.588 Y-29.343 Z-1.532 A103.9289 
N1392 X-306.576 Y-29.568 Z-1.631 A105.7588 
N1393 X-306.565 Y-29.788 Z-1.737 A107.5747 
N1394 X-306.555 Y-30.004 Z-1.848 A109.3856 
N1395 X-306.545 Y-30.218 Z-1.967 A111.2023 
N1396 X-306.536 Y-30.427 Z-2.092 A113.0201 
N1397 X-306.528 Y-30.632 Z-2.224 A114.8329 
N1398 X-306.521 Y-30.832 Z-2.362 A116.6419 
N1399 X-306.515 Y-31.027 Z-2.505 A118.4443 
N1400 X-306.509 Y-31.219 Z-2.656 A120.2605 
N1401 X-306.504 Y-31.405 Z-2.813 A122.0673 
N1402 X-306.500 Y-31.584 Z-2.974 A123.8596 
N1403 X-306.497 Y-31.759 Z-3.142 A125.6641 
N1404 X-306.495 Y-31.929 Z-3.316 A127.4714 
N1405 X-306.493 Y-32.091 Z-3.494 A129.2574 
N1406 X-306.493 Y-32.247 Z-3.677 A131.0434 
N1407 X-306.493 Y-32.398 Z-3.867 A132.8515 
N1408 X-306.494 Y-32.541 Z-4.060 A134.6313 
N1409 X-306.496 Y-32.677 Z-4.256 A136.4004 
N1410 X-306.499 Y-32.808 Z-4.461 A138.2066 
N1411 X-306.503 Y-32.930 Z-4.667 A139.9800 
N1412 X-306.507 Y-33.045 Z-4.876 A141.7425 
N1413 X-306.513 Y-33.154 Z-5.093 A143.5415 
N1414 X-306.519 Y-33.254 Z-5.309 A145.3022 
N1415 X-306.526 Y-33.347 Z-5.531 A147.0745 
N1416 X-306.534 Y-33.433 Z-5.758 A148.8715 
N1417 X-306.543 Y-33.509 Z-5.984 A150.6287 
N1418 X-306.553 Y-33.580 Z-6.221 A152.4507 
N1419 X-306.564 Y-33.642 Z-6.459 A154.2553 
N1420 X-306.575 Y-33.695 Z-6.701 A156.0833 
N1421 X-306.589 Y-33.742 Z-6.957 A157.9904 
N1422 X-306.603 Y-33.779 Z-7.214 A159.8962 
N1423 X-306.619 Y-33.809 Z-7.497 A161.9816 
N1424 X-306.637 Y-33.826 Z-7.783 A164.0775 
N1425 X-306.657 Y-33.831 Z-8.098 A166.3769 
N1426 X-306.680 Y-33.819 Z-8.425 A168.7574 
N1427 X-306.705 Y-33.787 Z-8.761 A171.2045 
N1428 X-306.734 Y-33.729 Z-9.127 A173.8691 
N1429 X-306.766 Y-33.638 Z-9.505 A176.6398 
N1430 X-306.802 Y-33.512 Z-9.883 A179.4408 
N1431 X-306.841 Y-33.341 Z-10.261 A182.2927 
N1432 X-306.882 Y-33.125 Z-10.610 A184.9979 
N1433 X-306.924 Y-32.861 Z-10.922 A187.5169 
N1434 X-306.966 Y-32.554 Z-11.178 A189.7192 
N1435 X-307.008 Y-32.195 Z-11.370 A191.5718 
N1436 X-307.049 Y-31.793 Z-11.486 A192.9725 
N1437 X-307.088 Y-31.343 Z-11.521 A193.8841 
N1438 X-307.126 Y-30.837 Z-11.476 A194.3055 
N1439 X-307.165 Y-30.269 Z-11.365 A194.3058 
N1440 X-307.207 Y-29.624 Z-11.206 A193.9912 
N1441 X-307.255 Y-28.890 Z-11.019 A193.4752 
N1442 X-307.310 Y-28.055 Z-10.832 A192.9227 
N1443 X-307.377 Y-27.105 Z-10.667 A192.4552 
N1444 X-307.458 Y-26.043 Z-10.579 
N1445 X-307.551 Y-24.831 Z-10.497 
N1446 X-307.657 Y-23.476 Z-10.414 
N1447 X-307.772 Y-22.005 Z-10.341 A192.5969 
N1448 X-307.895 Y-20.459 Z-10.295 A193.0217 
N1449 X-308.022 Y-18.850 Z-10.232 A193.4426 
N1450 X-308.151 Y-17.205 Z-10.148 A193.7992 
N1451 X-308.279 Y-15.544 Z-10.035 A193.9828 
N1452 X-308.405 Y-13.890 Z-9.897 A193.9594 
N1453 X-308.528 Y-12.261 Z-9.747 A193.7396 
N1454 X-308.648 Y-10.674 Z-9.604 A193.4028 
N1455 X-308.765 Y-9.142 Z-9.484 A193.0403 
N1456 X-308.879 Y-7.678 Z-9.399 A192.7348 
N1457 X-308.989 Y-6.291 Z-9.349 A192.5024 
N1458 X-309.095 Y-4.995 Z-9.347 A192.4552 
N1459 X-309.195 Y-3.784 Z-9.367 
N1460 X-309.289 Y-2.653 Z-9.395 
N1461 X-309.378 Y-1.596 Z-9.426 
N1462 X-309.461 Y-0.602 Z-9.452 
N1463 X-309.538 Y0.336 Z-9.465 
N1464 X-309.610 Y1.223 Z-9.461 
N1465 X-309.678 Y2.051 Z-9.456 A192.6112 
N1466 X-309.742 Y2.800 Z-9.498 A193.2541 
N1467 X-309.801 Y3.482 Z-9.554 A194.1538 
N1468 X-309.856 Y4.099 Z-9.623 A195.2897 
N1469 X-309.906 Y4.655 Z-9.699 A196.5847 
N1470 X-309.953 Y5.159 Z-9.784 A198.0294 
N1471 X-309.997 Y5.618 Z-9.877 A199.6010 
N1472 X-310.038 Y6.038 Z-9.977 A201.2636 
N1473 X-310.077 Y6.431 Z-10.084 A203.0237 
N1474 X-310.115 Y6.801 Z-10.197 A204.8609 
N1475 X-310.151 Y7.157 Z-10.313 A206.7601 
N1476 X-310.188 Y7.505 Z-10.430 A208.7132 
N1477 X-310.223 Y7.850 Z-10.544 A210.7125 
N1478 X-310.259 Y8.196 Z-10.652 A212.7504 
N1479 X-310.294 Y8.546 Z-10.753 A214.8203 
N1480 X-310.329 Y8.905 Z-10.842 A216.9189 
N1481 X-310.364 Y9.273 Z-10.918 A219.0493 
N1482 X-310.399 Y9.653 Z-10.977 A221.2107 
N1483 X-310.434 Y10.048 Z-11.016 A223.3999 
N1484 X-310.469 Y10.456 Z-11.032 A225.6118 
N1485 X-310.502 Y10.876 Z-11.019 A227.8146 
N1486 X-310.534 Y11.304 Z-10.973 A229.9756 
N1487 X-310.563 Y11.735 Z-10.886 A232.0529 
N1488 X-310.590 Y12.163 Z-10.754 A233.9892 
N1489 X-310.612 Y12.580 Z-10.574 A235.7291 
N1490 X-310.629 Y12.979 Z-10.346 A237.2382 
N1491 X-310.642 Y13.358 Z-10.070 A238.4988 
N1492 X-310.650 Y13.714 Z-9.752 A239.5106 
N1493 X-310.654 Y14.049 Z-9.398 A240.2963 
N1494 X-310.654 Y14.367 Z-9.014 A240.8982 
N1495 X-310.652 Y14.672 Z-8.610 A241.3766 
N1496 X-310.649 Y14.971 Z-8.195 A241.8030 
N1497 X-310.646 Y15.269 Z-7.778 A242.2493 
N1498 X-310.643 Y15.571 Z-7.368 A242.7736 
N1499 X-310.642 Y15.879 Z-6.970 A243.4219 
N1500 X-310.642 Y16.194 Z-6.590 A244.2331 
N1501 X-310.645 Y16.519 Z-6.233 A245.2358 
N1502 X-310.650 Y16.852 Z-5.901 A246.4448 
N1503 X-310.658 Y17.194 Z-5.592 A247.8641 
N1504 X-310.667 Y17.542 Z-5.307 A249.4741 
N1505 X-310.678 Y17.892 Z-5.043 A251.2427 
N1506 X-310.690 Y18.240 Z-4.797 A253.1353 
N1507 X-310.703 Y18.587 Z-4.565 A255.1348 
N1508 X-310.716 Y18.927 Z-4.345 A257.1915 
N1509 X-310.729 Y19.261 Z-4.134 A259.2935 
N1510 X-310.742 Y19.585 Z-3.929 A261.4142 
N1511 X-310.755 Y19.899 Z-3.727 A263.5305 
N1512 X-310.766 Y20.201 Z-3.527 A265.6308 
N1513 X-310.776 Y20.492 Z-3.327 A267.7059 
N1514 X-310.786 Y20.769 Z-3.126 A269.7387 
N1515 X-310.794 Y21.036 Z-2.922 A271.7500 
N1516 X-310.801 Y21.293 Z-2.715 A273.7331 
N1517 X-310.807 Y21.538 Z-2.503 A275.6877 
N1518 X-310.812 Y21.773 Z-2.286 A277.6185 
N1519 X-310.815 Y21.998 Z-2.062 A279.5241 
N1520 X-310.818 Y22.213 Z-1.832 A281.4081 
N1521 X-310.819 Y22.417 Z-1.594 A283.2730 
N1522 X-310.818 Y22.610 Z-1.349 A285.1190 
N1523 X-310.816 Y22.793 Z-1.095 A286.9486 
N1524 X-310.813 Y22.964 Z-0.834 A288.7570 
N1525 X-310.808 Y23.124 Z-0.564 A290.5520 
N1526 X-310.801 Y23.270 Z-0.286 A292.3199 
N1527 X-310.793 Y23.404 Z0.000 A294.0720 
N1528 X-310.784 Y23.524 Z0.294 A295.8009 
N1529 X-310.772 Y23.629 Z0.594 A297.5021 
N1530 X-310.759 Y23.720 Z0.901 A299.1785 
N1531 X-310.745 Y23.796 Z1.215 A300.8289 
N1532 X-310.728 Y23.857 Z1.534 A302.4530 
N1533 X-310.711 Y23.903 Z1.858 A304.0498 
N1534 X-310.691 Y23.933 Z2.186 A305.6220 
N1535 X-310.671 Y23.950 Z2.518 A307.1732 
N1536 X-310.649 Y23.952 Z2.853 A308.7074 
N1537 X-310.625 Y23.941 Z3.191 A310.2303 
N1538 X-310.601 Y23.917 Z3.531 A311.7463 
N1539 X-310.575 Y23.882 Z3.874 A313.2608 
N1540 X-310.548 Y23.835 Z4.218 A314.7772 
N1541 X-310.521 Y23.778 Z4.564 A316.2995 
N1542 X-310.492 Y23.710 Z4.911 A317.8330 
N1543 X-310.463 Y23.633 Z5.259 A319.3815 
N1544 X-310.433 Y23.547 Z5.607 A320.9472 
N1545 X-310.402 Y23.452 Z5.956 A322.5323 
N1546 X-310.370 Y23.349 Z6.304 A324.1386 
N1547 X-310.338 Y23.236 Z6.653 A325.7672 
N1548 X-310.305 Y23.115 Z7.001 A327.4196 
N1549 X-310.271 Y22.985 Z7.349 A329.0979 
N1550 X-310.236 Y22.845 Z7.696 A330.8031 
N1551 X-310.201 Y22.695 Z8.044 A332.5352 
N1552 X-310.165 Y22.535 Z8.391 A334.2972 
N1553 X-310.128 Y22.362 Z8.738 A336.0900 
N1554 X-310.089 Y22.175 Z9.086 A337.9165 
N1555 X-310.050 Y21.973 Z9.435 A339.7832 
N1556 X-310.009 Y21.754 Z9.785 A341.6889 
N1557 X-309.966 Y21.513 Z10.137 A343.6391 
N1558 X-309.921 Y21.249 Z10.490 A345.6352 
N1559 X-309.873 Y20.957 Z10.842 A347.6709 
N1560 X-309.824 Y20.634 Z11.194 A349.7441 
N1561 X-309.771 Y20.274 Z11.541 A351.8465 
N1562 X-309.716 Y19.872 Z11.882 A353.9662 
N1563 X-309.657 Y19.424 Z12.209 A356.0727 
N1564 X-309.596 Y18.927 Z12.516 A358.1299 
N1565 X-309.533 Y18.377 Z12.794 A0.0978 
N1566 X-309.468 Y17.774 Z13.037 A1.9339 
N1567 X-309.401 Y17.116 Z13.238 A3.6030 
N1568 X-309.332 Y16.407 Z13.391 A5.0723 
N1569 X-309.264 Y15.648 Z13.493 A6.3134 
N1570 X-309.195 Y14.844 Z13.544 A7.3115 
N1571 X-309.125 Y13.998 Z13.546 A8.0805 
N1572 X-309.056 Y13.116 Z13.509 A8.6599 
N1573 X-308.986 Y12.202 Z13.443 A9.1106 
N1574 X-308.915 Y11.263 Z13.358 A9.5040 
N1575 X-308.842 Y10.303 Z13.266 A9.9073 
N1576 X-308.769 Y9.330 Z13.173 A10.3833 
N1577 X-308.695 Y8.349 Z13.088 A10.9939 
N1578 X-308.619 Y7.365 Z13.015 A11.7930 
N1579 X-308.543 Y6.384 Z12.958 A12.8164 
N1580 X-308.466 Y5.409 Z12.914 A14.0777 
N1581 X-308.389 Y4.441 Z12.879 A15.5648 
N1582 X-308.313 Y3.482 Z12.846 A17.2506 
N1583 X-308.238 Y2.531 Z12.809 A19.1060 
N1584 X-308.164 Y1.585 Z12.762 A21.1005 
N1585 X-308.091 Y0.642 Z12.695 A23.2014 
N1586 X-308.020 Y-0.301 Z12.602 A25.3718 
N1587 X-307.952 Y-1.249 Z12.473 A27.5725 
N1588 X-307.885 Y-2.204 Z12.300 A29.7665 
N1589 X-307.821 Y-3.169 Z12.075 A31.9218 
N1590 X-307.760 Y-4.146 Z11.791 A34.0038 
N1591 X-307.703 Y-5.134 Z11.438 A35.9729 
N1592 X-307.650 Y-6.131 Z11.014 A37.7915 
N1593 X-307.601 Y-7.136 Z10.513 A39.4280 
N1594 X-307.557 Y-8.143 Z9.937 A40.8586 
N1595 X-307.518 Y-9.148 Z9.289 A42.0649 
N1596 X-307.484 Y-10.145 Z8.576 A43.0320 
N1597 X-307.455 Y-11.129 Z7.807 A43.7565 
N1598 X-307.430 Y-12.096 Z6.997 A44.2578 
N1599 X-307.408 Y-13.041 Z6.162 A44.5736 
N1600 X-307.389 Y-13.960 Z5.319 A44.7545 
N1601 X-307.371 Y-14.847 Z4.487 A44.8462 
N1602 X-307.356 Y-15.697 Z3.680 A44.8796 
N1603 X-307.341 Y-16.502 Z2.910 A44.8707 
N1604 X-307.328 Y-17.253 Z2.187 A44.8313 
N1605 X-307.316 Y-17.945 Z1.519 A44.7687 
N1606 X-307.304 Y-18.577 Z0.914 A44.7314 
N1607 X-307.293 Y-19.150 Z0.374 
N1608 X-307.284 Y-19.666 Z-0.112 
N1609 X-307.271 Y-20.140 Z-0.507 A45.0361 
N1610 X-307.256 Y-20.581 Z-0.819 A45.6579 
N1611 X-307.236 Y-21.002 Z-1.042 A46.7121 
N1612 X-307.212 Y-21.415 Z-1.180 A48.2429 
N1613 X-307.182 Y-21.830 Z-1.239 A50.2721 
N1614 X-307.146 Y-22.261 Z-1.233 A52.8068 
N1615 X-307.107 Y-22.700 Z-1.181 A55.6931 
N1616 X-307.064 Y-23.159 Z-1.103 A58.9008 
N1617 X-307.023 Y-23.599 Z-1.022 A62.0779 
N1618 X-306.984 Y-24.019 Z-0.951 A65.1397 
N1619 X-306.948 Y-24.407 Z-0.894 A67.9825 
N1620 X-306.917 Y-24.753 Z-0.854 A70.5260 
N1621 X-306.888 Y-25.086 Z-0.825 A72.9719 
N1622 X-306.862 Y-25.393 Z-0.808 A75.2276 
N1623 X-306.838 Y-25.685 Z-0.799 A77.3788 
N1624 X-306.815 Y-25.962 Z-0.799 A79.4188 
N1625 X-306.793 Y-26.239 Z-0.806 A81.4696 
N1626 X-306.773 Y-26.494 Z-0.820 A83.3519 
N1627 X-306.753 Y-26.754 Z-0.842 A85.2873 
N1628 X-306.735 Y-27.005 Z-0.870 A87.1580 
N1629 X-306.717 Y-27.249 Z-0.905 A88.9838 
N1630 X-306.700 Y-27.496 Z-0.947 A90.8457 
N1631 X-306.683 Y-27.737 Z-0.996 A92.6664 
N1632 X-306.667 Y-27.974 Z-1.050 A94.4730 
N1633 X-306.652 Y-28.213 Z-1.113 A96.3083 
N1634 X-306.637 Y-28.448 Z-1.182 A98.1299 
N1635 X-306.624 Y-28.677 Z-1.257 A99.9273 
N1636 X-306.610 Y-28.907 Z-1.340 A101.7418 
N1637 X-306.598 Y-29.135 Z-1.430 A103.5652 
N1638 X-306.586 Y-29.357 Z-1.526 A105.3645 
N1639 X-306.575 Y-29.577 Z-1.629 A107.1737 
N1640 X-306.564 Y-29.794 Z-1.739 A108.9888 
N1641 X-306.555 Y-30.008 Z-1.856 A110.7982 
N1642 X-306.546 Y-30.217 Z-1.979 A112.6049 
N1643 X-306.538 Y-30.422 Z-2.108 A114.4088 
N1644 X-306.530 Y-30.623 Z-2.244 A116.2143 
N1645 X-306.524 Y-30.820 Z-2.387 A118.0236 
N1646 X-306.518 Y-31.010 Z-2.535 A119.8218 
N1647 X-306.513 Y-31.195 Z-2.688 A121.6064 
N1648 X-306.509 Y-31.378 Z-2.850 A123.4206 
N1649 X-306.506 Y-31.553 Z-3.016 A125.2164 
N1650 X-306.503 Y-31.721 Z-3.186 A126.9922 
N1651 X-306.502 Y-31.885 Z-3.364 A128.7919 
N1652 X-306.501 Y-32.043 Z-3.547 A130.5853 
N1653 X-306.501 Y-32.193 Z-3.732 A132.3531 
N1654 X-306.502 Y-32.338 Z-3.924 A134.1366 
N1655 X-306.504 Y-32.476 Z-4.121 A135.9260 
N1656 X-306.506 Y-32.606 Z-4.320 A137.6852 
N1657 X-306.510 Y-32.730 Z-4.525 A139.4575 
N1658 X-306.514 Y-32.847 Z-4.735 A141.2384 
N1659 X-306.519 Y-32.956 Z-4.945 A142.9863 
N1660 X-306.525 Y-33.058 Z-5.161 A144.7569 
N1661 X-306.532 Y-33.153 Z-5.381 A146.5256 
N1662 X-306.540 Y-33.238 Z-5.600 A148.2582 
N1663 X-306.548 Y-33.318 Z-5.827 A150.0355 
N1664 X-306.557 Y-33.389 Z-6.054 A151.7866 
N1665 X-306.568 Y-33.452 Z-6.282 A153.5292 
N1666 X-306.579 Y-33.508 Z-6.517 A155.3069 
N1667 X-306.590 Y-33.554 Z-6.750 A157.0477 
N1668 X-306.603 Y-33.594 Z-6.990 A158.8352 
N1669 X-306.616 Y-33.625 Z-7.229 A160.6023 
N1670 X-306.631 Y-33.647 Z-7.472 A162.3911 
N1671 X-306.646 Y-33.660 Z-7.720 A164.2023 
N1672 X-306.662 Y-33.665 Z-7.969 A166.0248 
N1673 X-306.680 Y-33.660 Z-8.228 A167.9074 
N1674 X-306.698 Y-33.645 Z-8.488 A169.8071 
N1675 X-306.718 Y-33.618 Z-8.758 A171.7799 
N1676 X-306.740 Y-33.579 Z-9.035 A173.8053 
N1677 X-306.763 Y-33.526 Z-9.314 A175.8613 
N1678 X-306.788 Y-33.455 Z-9.612 A178.0642 
N1679 X-306.816 Y-33.366 Z-9.912 A180.3119 
N1680 X-306.845 Y-33.256 Z-10.219 A182.6345 
N1681 X-306.877 Y-33.121 Z-10.535 A185.0664 
N1682 X-306.912 Y-32.957 Z-10.853 A187.5725 
N1683 X-306.948 Y-32.761 Z-11.166 A190.1212 
N1684 X-306.987 Y-32.534 Z-11.465 A192.6426 
N1685 X-307.025 Y-32.282 Z-11.733 A195.0298 
N1686 X-307.064 Y-31.998 Z-11.971 A197.3092 
N1687 X-307.102 Y-31.693 Z-12.161 A199.3384 
N1688 X-307.137 Y-31.371 Z-12.293 A201.0408 
N1689 X-307.169 Y-31.035 Z-12.360 A202.3458 
N1690 X-307.196 Y-30.691 Z-12.355 A203.1870 
N1691 X-307.221 Y-30.337 Z-12.284 A203.5789 
N1692 X-307.242 Y-29.964 Z-12.151 A203.5637 
N1693 X-307.263 Y-29.565 Z-11.971 A203.2172 
N1694 X-307.284 Y-29.129 Z-11.756 A202.6206 
N1695 X-307.309 Y-28.641 Z-11.533 A201.9443 
N1696 X-307.340 Y-28.085 Z-11.320 A201.3188 
N1697 X-307.382 Y-27.451 Z-11.170 A201.0739 
N1698 X-307.434 Y-26.720 Z-11.059 
N1699 X-307.496 Y-25.879 Z-10.948 
N1700 X-307.566 Y-24.932 Z-10.833 
N1701 X-307.643 Y-23.889 Z-10.710 
N1702 X-307.728 Y-22.783 Z-10.644 A201.5447 
N1703 X-307.819 Y-21.627 Z-10.593 A202.2354 
N1704 X-307.912 Y-20.444 Z-10.537 A202.9979 
N1705 X-308.004 Y-19.255 Z-10.450 A203.6202 
N1706 X-308.091 Y-18.078 Z-10.322 A203.9658 
N1707 X-308.174 Y-16.927 Z-10.157 A203.9839 
N1708 X-308.254 Y-15.804 Z-9.970 A203.6973 
N1709 X-308.330 Y-14.712 Z-9.779 A203.1787 
N1710 X-308.405 Y-13.647 Z-9.603 A202.5220 
N1711 X-308.481 Y-12.606 Z-9.466 A201.8676 
N1712 X-308.560 Y-11.582 Z-9.387 A201.3419 
N1713 X-308.642 Y-10.574 Z-9.381 A201.0739 
N1714 X-308.727 Y-9.580 Z-9.448 
N1715 X-308.814 Y-8.592 Z-9.538 
N1716 X-308.901 Y-7.612 Z-9.648 
N1717 X-308.988 Y-6.644 Z-9.770 
N1718 X-309.075 Y-5.692 Z-9.898 
N1719 X-309.159 Y-4.759 Z-10.026 
N1720 X-309.242 Y-3.850 Z-10.147 
N1721 X-309.321 Y-2.968 Z-10.259 
N1722 X-309.397 Y-2.115 Z-10.355 
N1723 X-309.469 Y-1.293 Z-10.434 
N1724 X-309.538 Y-0.505 Z-10.491 
N1725 X-309.602 Y0.249 Z-10.527 
N1726 X-309.661 Y0.967 Z-10.540 
N1727 X-309.716 Y1.649 Z-10.531 
N1728 X-309.767 Y2.292 Z-10.501 A201.0803 
N1729 X-309.814 Y2.893 Z-10.469 A201.2066 
N1730 X-309.857 Y3.455 Z-10.429 A201.3941 
N1731 X-309.897 Y3.981 Z-10.386 A201.6602 
N1732 X-309.934 Y4.473 Z-10.342 A202.0197 
N1733 X-309.969 Y4.929 Z-10.301 A202.4675 
N1734 X-310.001 Y5.357 Z-10.267 A203.0325 
N1735 X-310.032 Y5.756 Z-10.243 A203.7196 
N1736 X-310.062 Y6.131 Z-10.233 A204.5433 
N1737 X-310.092 Y6.486 Z-10.240 A205.5285 
N1738 X-310.121 Y6.827 Z-10.266 A206.6948 
N1739 X-310.152 Y7.158 Z-10.313 A208.0457 
N1740 X-310.182 Y7.484 Z-10.376 A209.5633 
N1741 X-310.214 Y7.807 Z-10.449 A211.2130 
N1742 X-310.245 Y8.129 Z-10.528 A212.9630 
N1743 X-310.277 Y8.452 Z-10.607 A214.7768 
N1744 X-310.308 Y8.778 Z-10.681 A216.6280 
N1745 X-310.340 Y9.107 Z-10.746 A218.5039 
N1746 X-310.370 Y9.441 Z-10.801 A220.3939 
N1747 X-310.401 Y9.780 Z-10.843 A222.2953 
N1748 X-310.431 Y10.126 Z-10.872 A224.2088 
N1749 X-310.461 Y10.478 Z-10.883 A226.1255 
N1750 X-310.489 Y10.835 Z-10.876 A228.0301 
N1751 X-310.517 Y11.195 Z-10.847 A229.9062 
N1752 X-310.543 Y11.557 Z-10.795 A231.7387 
N1753 X-310.567 Y11.917 Z-10.718 A233.5145 
N1754 X-310.590 Y12.276 Z-10.615 A235.2222 
N1755 X-310.610 Y12.628 Z-10.487 A236.8423 
N1756 X-310.628 Y12.973 Z-10.331 A238.3763 
N1757 X-310.643 Y13.309 Z-10.151 A239.8157 
N1758 X-310.656 Y13.637 Z-9.948 A241.1694 
N1759 X-310.668 Y13.956 Z-9.724 A242.4431 
N1760 X-310.677 Y14.265 Z-9.482 A243.6540 
N1761 X-310.684 Y14.568 Z-9.225 A244.8204 
N1762 X-310.691 Y14.864 Z-8.957 A245.9625 
N1763 X-310.696 Y15.156 Z-8.680 A247.1010 
N1764 X-310.701 Y15.443 Z-8.399 A248.2549 
N1765 X-310.705 Y15.729 Z-8.115 A249.4413 
N1766 X-310.710 Y16.012 Z-7.830 A250.6756 
N1767 X-310.714 Y16.296 Z-7.548 A251.9704 
N1768 X-310.719 Y16.578 Z-7.269 A253.3348 
N1769 X-310.724 Y16.861 Z-6.994 A254.7725 
N1770 X-310.729 Y17.143 Z-6.725 A256.2824 
N1771 X-310.734 Y17.425 Z-6.459 A257.8663 
N1772 X-310.740 Y17.705 Z-6.200 A259.5111 
N1773 X-310.745 Y17.983 Z-5.943 A261.2204 
N1774 X-310.751 Y18.259 Z-5.690 A262.9793 
N1775 X-310.757 Y18.530 Z-5.440 A264.7791 
N1776 X-310.762 Y18.797 Z-5.191 A266.6148 
N1777 X-310.767 Y19.059 Z-4.943 A268.4762 
N1778 X-310.771 Y19.315 Z-4.694 A270.3545 
N1779 X-310.775 Y19.564 Z-4.444 A272.2429 
N1780 X-310.778 Y19.805 Z-4.192 A274.1363 
N1781 X-310.780 Y20.038 Z-3.936 A276.0309 
N1782 X-310.781 Y20.263 Z-3.676 A277.9219 
N1783 X-310.781 Y20.478 Z-3.412 A279.8054 
N1784 X-310.780 Y20.684 Z-3.144 A281.6792 
N1785 X-310.778 Y20.879 Z-2.869 A283.5414 
N1786 X-310.774 Y21.063 Z-2.588 A285.3895 
N1787 X-310.769 Y21.236 Z-2.302 A287.2227 
N1788 X-310.763 Y21.398 Z-2.008 A289.0407 
N1789 X-310.755 Y21.547 Z-1.708 A290.8420 
N1790 X-310.746 Y21.683 Z-1.402 A292.6233 
N1791 X-310.735 Y21.806 Z-1.089 A294.3829 
N1792 X-310.723 Y21.914 Z-0.770 A296.1193 
N1793 X-310.709 Y22.008 Z-0.445 A297.8318 
N1794 X-310.693 Y22.087 Z-0.114 A299.5197 
N1795 X-310.676 Y22.151 Z0.221 A301.1829 
N1796 X-310.658 Y22.199 Z0.561 A302.8211 
N1797 X-310.638 Y22.233 Z0.905 A304.4345 
N1798 X-310.616 Y22.251 Z1.252 A306.0238 
N1799 X-310.593 Y22.255 Z1.602 A307.5916 
N1800 X-310.569 Y22.244 Z1.954 A309.1431 
N1801 X-310.543 Y22.220 Z2.308 A310.6824 
N1802 X-310.517 Y22.183 Z2.664 A312.2120 
N1803 X-310.489 Y22.134 Z3.021 A313.7386 
N1804 X-310.460 Y22.073 Z3.379 A315.2684 
N1805 X-310.430 Y22.002 Z3.738 A316.8037 
N1806 X-310.400 Y21.920 Z4.097 A318.3502 
N1807 X-310.369 Y21.828 Z4.457 A319.9103 
N1808 X-310.336 Y21.727 Z4.816 A321.4857 
N1809 X-310.303 Y21.616 Z5.176 A323.0795 
N1810 X-310.270 Y21.496 Z5.534 A324.6928 
N1811 X-310.236 Y21.367 Z5.892 A326.3281 
N1812 X-310.201 Y21.229 Z6.249 A327.9857 
N1813 X-310.165 Y21.080 Z6.606 A329.6669 
N1814 X-310.128 Y20.922 Z6.961 A331.3714 
N1815 X-310.091 Y20.753 Z7.315 A333.1010 
N1816 X-310.053 Y20.572 Z7.667 A334.8552 
N1817 X-310.014 Y20.379 Z8.019 A336.6372 
N1818 X-309.973 Y20.172 Z8.370 A338.4449 
N1819 X-309.932 Y19.949 Z8.720 A340.2823 
N1820 X-309.889 Y19.709 Z9.069 A342.1449 
N1821 X-309.845 Y19.449 Z9.415 A344.0321 
N1822 X-309.799 Y19.167 Z9.759 A345.9436 
N1823 X-309.751 Y18.861 Z10.100 A347.8761 
N1824 X-309.702 Y18.527 Z10.436 A349.8238 
N1825 X-309.650 Y18.162 Z10.764 A351.7768 
N1826 X-309.597 Y17.763 Z11.082 A353.7204 
N1827 X-309.541 Y17.328 Z11.386 A355.6381 
N1828 X-309.483 Y16.854 Z11.670 A357.5086 
N1829 X-309.424 Y16.340 Z11.933 A359.3137 
N1830 X-309.363 Y15.785 Z12.168 A1.0313 
N1831 X-309.301 Y15.188 Z12.372 A2.6418 
N1832 X-309.237 Y14.551 Z12.542 A4.1259 
N1833 X-309.173 Y13.876 Z12.676 A5.4711 
N1834 X-309.109 Y13.163 Z12.773 A6.6765 
N1835 X-309.044 Y12.417 Z12.835 A7.7540 
N1836 X-308.978 Y11.640 Z12.865 A8.7247 
N1837 X-308.912 Y10.836 Z12.869 A9.6177 
N1838 X-308.846 Y10.007 Z12.851 A10.4665 
N1839 X-308.779 Y9.158 Z12.816 A11.3075 
N1840 X-308.711 Y8.291 Z12.769 A12.1804 
N1841 X-308.643 Y7.410 Z12.715 A13.1256 
N1842 X-308.574 Y6.518 Z12.658 A14.1760 
N1843 X-308.504 Y5.616 Z12.598 A15.3547 
N1844 X-308.434 Y4.705 Z12.535 A16.6737 
N1845 X-308.363 Y3.788 Z12.466 A18.1347 
N1846 X-308.293 Y2.862 Z12.389 A19.7335 
N1847 X-308.222 Y1.927 Z12.299 A21.4609 
N1848 X-308.152 Y0.981 Z12.191 A23.3014 
N1849 X-308.083 Y0.023 Z12.057 A25.2325 
N1850 X-308.015 Y-0.950 Z11.890 A27.2239 
N1851 X-307.948 Y-1.938 Z11.682 A29.2403 
N1852 X-307.883 Y-2.942 Z11.424 A31.2447 
N1853 X-307.821 Y-3.962 Z11.108 A33.1989 
N1854 X-307.762 Y-4.994 Z10.728 A35.0625 
N1855 X-307.706 Y-6.037 Z10.280 A36.7972 
N1856 X-307.655 Y-7.084 Z9.761 A38.3707 
N1857 X-307.609 Y-8.133 Z9.173 A39.7584 
N1858 X-307.567 Y-9.175 Z8.521 A40.9419 
N1859 X-307.530 Y-10.206 Z7.810 A41.9055 
N1860 X-307.498 Y-11.217 Z7.052 A42.6367 
N1861 X-307.470 Y-12.202 Z6.258 A43.1409 
N1862 X-307.446 Y-13.157 Z5.445 A43.4467 
N1863 X-307.425 Y-14.077 Z4.631 A43.6032 
N1864 X-307.406 Y-14.959 Z3.834 A43.6690 
N1865 X-307.388 Y-15.797 Z3.068 A43.6876 
N1866 X-307.372 Y-16.584 Z2.344 A43.6808 
N1867 X-307.357 Y-17.315 Z1.672 A43.6536 
N1868 X-307.344 Y-17.982 Z1.054 A43.6008 
N1869 X-307.331 Y-18.586 Z0.498 A43.5587 
N1870 X-307.320 Y-19.129 Z0.007 
N1871 X-307.309 Y-19.617 Z-0.431 A43.5855 
N1872 X-307.294 Y-20.073 Z-0.773 A44.0080 
N1873 X-307.275 Y-20.508 Z-1.023 A44.8706 
N1874 X-307.251 Y-20.936 Z-1.179 A46.2835 
N1875 X-307.221 Y-21.363 Z-1.253 A48.2164 
N1876 X-307.186 Y-21.794 Z-1.261 A50.6039 
N1877 X-307.148 Y-22.228 Z-1.223 A53.3276 
N1878 X-307.109 Y-22.652 Z-1.157 A56.1980 
N1879 X-307.069 Y-23.082 Z-1.077 A59.2429 
N1880 X-307.029 Y-23.499 Z-0.997 A62.2666 
N1881 X-306.993 Y-23.889 Z-0.926 A65.1351 
N1882 X-306.959 Y-24.259 Z-0.867 A67.8608 
N1883 X-306.926 Y-24.615 Z-0.820 A70.4890 
N1884 X-306.898 Y-24.933 Z-0.788 A72.8351 
N1885 X-306.872 Y-25.239 Z-0.767 A75.0928 
N1886 X-306.848 Y-25.523 Z-0.755 A77.1866 
N1887 X-306.825 Y-25.807 Z-0.752 A79.2832 
N1888 X-306.804 Y-26.063 Z-0.756 A81.1768 
N1889 X-306.783 Y-26.326 Z-0.768 A83.1307 
N1890 X-306.764 Y-26.581 Z-0.787 A85.0193 
N1891 X-306.745 Y-26.828 Z-0.812 A86.8655 
N1892 X-306.727 Y-27.080 Z-0.845 A88.7531 
N1893 X-306.709 Y-27.325 Z-0.884 A90.5895 
N1894 X-306.693 Y-27.564 Z-0.930 A92.4001 
N1895 X-306.677 Y-27.805 Z-0.984 A94.2360 
N1896 X-306.661 Y-28.043 Z-1.044 A96.0603 
N1897 X-306.647 Y-28.275 Z-1.111 A97.8588 
N1898 X-306.633 Y-28.508 Z-1.185 A99.6774 
N1899 X-306.619 Y-28.740 Z-1.266 A101.5073 
N1900 X-306.607 Y-28.965 Z-1.353 A103.3059 
N1901 X-306.595 Y-29.189 Z-1.448 A105.1123 
N1902 X-306.583 Y-29.410 Z-1.550 A106.9247 
N1903 X-306.573 Y-29.627 Z-1.658 A108.7341 
N1904 X-306.563 Y-29.841 Z-1.773 A110.5411 
N1905 X-306.554 Y-30.051 Z-1.895 A112.3458 
N1906 X-306.546 Y-30.256 Z-2.023 A114.1492 
N1907 X-306.538 Y-30.459 Z-2.158 A115.9604 
N1908 X-306.531 Y-30.655 Z-2.299 A117.7603 
N1909 X-306.526 Y-30.846 Z-2.445 A119.5468 
N1910 X-306.520 Y-31.033 Z-2.599 A121.3541 
N1911 X-306.516 Y-31.215 Z-2.759 A123.1524 
N1912 X-306.513 Y-31.390 Z-2.922 A124.9303 
N1913 X-306.510 Y-31.559 Z-3.092 A126.7169 
N1914 X-306.508 Y-31.724 Z-3.269 A128.5129 
N1915 X-306.508 Y-31.881 Z-3.449 A130.2832 
N1916 X-306.508 Y-32.031 Z-3.633 A132.0474 
N1917 X-306.508 Y-32.178 Z-3.825 A133.8386 
N1918 X-306.510 Y-32.315 Z-4.018 A135.5998 
N1919 X-306.512 Y-32.445 Z-4.215 A137.3473 
N1920 X-306.516 Y-32.571 Z-4.420 A139.1289 
N1921 X-306.520 Y-32.687 Z-4.626 A140.8784 
N1922 X-306.525 Y-32.796 Z-4.834 A142.6178 
N1923 X-306.531 Y-32.899 Z-5.050 A144.3838 
N1924 X-306.537 Y-32.994 Z-5.264 A146.1161 
N1925 X-306.545 Y-33.081 Z-5.483 A147.8531 
N1926 X-306.553 Y-33.161 Z-5.706 A149.5990 
N1927 X-306.562 Y-33.232 Z-5.927 A151.3132 
N1928 X-306.572 Y-33.297 Z-6.155 A153.0557 
N1929 X-306.582 Y-33.354 Z-6.382 A154.7807 
N1930 X-306.593 Y-33.403 Z-6.610 A156.4926 
N1931 X-306.605 Y-33.444 Z-6.843 A158.2325 
N1932 X-306.618 Y-33.477 Z-7.074 A159.9454 
N1933 X-306.632 Y-33.504 Z-7.311 A161.6929 
N1934 X-306.646 Y-33.522 Z-7.548 A163.4315 
N1935 X-306.661 Y-33.532 Z-7.787 A165.1831 
N1936 X-306.677 Y-33.534 Z-8.029 A166.9560 
N1937 X-306.693 Y-33.528 Z-8.272 A168.7276 
N1938 X-306.711 Y-33.513 Z-8.522 A170.5615 
N1939 X-306.730 Y-33.489 Z-8.771 A172.3876 
N1940 X-306.750 Y-33.454 Z-9.034 A174.3175 
N1941 X-306.771 Y-33.410 Z-9.296 A176.2509 
N1942 X-306.794 Y-33.351 Z-9.573 A178.3165 
N1943 X-306.819 Y-33.279 Z-9.855 A180.4297 
N1944 X-306.845 Y-33.191 Z-10.144 A182.6167 
N1945 X-306.875 Y-33.081 Z-10.448 A184.9528 
N1946 X-306.906 Y-32.949 Z-10.756 A187.3542 
N1947 X-306.939 Y-32.793 Z-11.068 A189.8512 
N1948 X-306.976 Y-32.606 Z-11.388 A192.4723 
N1949 X-307.015 Y-32.384 Z-11.707 A195.1938 
N1950 X-307.056 Y-32.129 Z-12.010 A197.9130 
N1951 X-307.097 Y-31.849 Z-12.279 A200.4919 
N1952 X-307.137 Y-31.538 Z-12.508 A202.9231 
N1953 X-307.175 Y-31.212 Z-12.674 A205.0148 
N1954 X-307.209 Y-30.877 Z-12.770 A206.6923 
N1955 X-307.238 Y-30.533 Z-12.789 A207.9126 
N1956 X-307.262 Y-30.186 Z-12.729 A208.6237 
N1957 X-307.282 Y-29.832 Z-12.589 A208.8114 
N1958 X-307.298 Y-29.464 Z-12.374 A208.5104 
N1959 X-307.312 Y-29.067 Z-12.102 A207.8412 
N1960 X-307.328 Y-28.623 Z-11.797 A206.9780 
N1961 X-307.349 Y-28.113 Z-11.485 A206.1194 
N1962 X-307.377 Y-27.526 Z-11.189 A205.4213 
N1963 X-307.414 Y-26.857 Z-10.922 A204.9730 
N1964 X-307.460 Y-26.107 Z-10.692 A204.8247 
N1965 X-307.515 Y-25.280 Z-10.501 A205.0025 
N1966 X-307.578 Y-24.386 Z-10.345 A205.4837 
N1967 X-307.646 Y-23.440 Z-10.212 A206.1906 
N1968 X-307.717 Y-22.463 Z-10.083 A206.9940 
N1969 X-307.789 Y-21.475 Z-9.941 A207.7412 
N1970 X-307.858 Y-20.497 Z-9.778 A208.3257 
N1971 X-307.923 Y-19.544 Z-9.595 A208.6931 
N1972 X-307.985 Y-18.626 Z-9.396 A208.8305 
N1973 X-308.043 Y-17.749 Z-9.190 A208.7518 
N1974 X-308.098 Y-16.915 Z-8.986 A208.4846 
N1975 X-308.149 Y-16.122 Z-8.791 A208.0734 
N1976 X-308.200 Y-15.365 Z-8.616 A207.5832 
N1977 X-308.249 Y-14.637 Z-8.468 A207.0747 
N1978 X-308.299 Y-13.930 Z-8.350 A206.5782 
N1979 X-308.349 Y-13.240 Z-8.259 A206.0907 
N1980 X-308.400 Y-12.562 Z-8.189 A205.5797 
N1981 X-308.451 Y-11.890 Z-8.133 A205.0086 
N1982 X-308.503 Y-11.222 Z-8.087 A204.3567 
N1983 X-308.555 Y-10.551 Z-8.050 A203.6199 
N1984 X-308.608 Y-9.876 Z-8.023 A202.8109 
N1985 X-308.663 Y-9.193 Z-8.011 A201.9566 
N1986 X-308.720 Y-8.503 Z-8.017 A201.0975 
N1987 X-308.779 Y-7.804 Z-8.050 A200.2893 
N1988 X-308.841 Y-7.100 Z-8.119 A199.6013 
N1989 X-308.907 Y-6.393 Z-8.229 A199.0983 
N1990 X-308.975 Y-5.685 Z-8.383 A198.8249 
N1991 X-309.045 Y-4.980 Z-8.580 A198.8017 
N1992 X-309.118 Y-4.283 Z-8.813 A199.0224 
N1993 X-309.191 Y-3.595 Z-9.074 A199.4651 
N1994 X-309.265 Y-2.919 Z-9.352 A200.1000 
N1995 X-309.338 Y-2.254 Z-9.637 A200.8842 
N1996 X-309.410 Y-1.604 Z-9.917 A201.7561 
N1997 X-309.479 Y-0.971 Z-10.177 A202.6502 
N1998 X-309.544 Y-0.356 Z-10.409 A203.5098 
N1999 X-309.606 Y0.238 Z-10.605 A204.2931 
N2000 X-309.663 Y0.811 Z-10.764 A204.9847 
N2001 X-309.716 Y1.360 Z-10.882 A205.5577 
N2002 X-309.764 Y1.885 Z-10.959 A206.0032 
N2003 X-309.807 Y2.383 Z-10.999 A206.3239 
N2004 X-309.847 Y2.861 Z-11.009 A206.5586 
N2005 X-309.883 Y3.315 Z-10.992 A206.7103 
N2006 X-309.916 Y3.747 Z-10.953 A206.8072 
N2007 X-309.946 Y4.162 Z-10.898 A206.8808 
N2008 X-309.974 Y4.561 Z-10.831 A206.9520 
N2009 X-310.000 Y4.944 Z-10.757 A207.0408 
N2010 X-310.025 Y5.311 Z-10.679 A207.1615 
N2011 X-310.049 Y5.664 Z-10.601 A207.3380 
N2012 X-310.072 Y6.006 Z-10.528 A207.6089 
N2013 X-310.095 Y6.337 Z-10.465 A207.9964 
N2014 X-310.118 Y6.658 Z-10.417 A208.5303 
N2015 X-310.141 Y6.971 Z-10.386 A209.2361 
N2016 X-310.165 Y7.276 Z-10.373 A210.1109 
N2017 X-310.190 Y7.576 Z-10.377 A211.1571 
N2018 X-310.215 Y7.872 Z-10.398 A212.3526 
N2019 X-310.241 Y8.164 Z-10.430 A213.6817 
N2020 X-310.268 Y8.454 Z-10.472 A215.1184 
N2021 X-310.295 Y8.744 Z-10.520 A216.6443 
N2022 X-310.322 Y9.035 Z-10.570 A218.2412 
N2023 X-310.349 Y9.328 Z-10.619 A219.8918 
N2024 X-310.376 Y9.624 Z-10.665 A221.5852 
N2025 X-310.403 Y9.923 Z-10.706 A223.3061 
N2026 X-310.430 Y10.226 Z-10.739 A225.0492 
N2027 X-310.457 Y10.530 Z-10.762 A226.7997 
N2028 X-310.483 Y10.838 Z-10.775 A228.5576 
N2029 X-310.508 Y11.146 Z-10.777 A230.3085 
N2030 X-310.533 Y11.456 Z-10.766 A232.0556 
N2031 X-310.556 Y11.766 Z-10.742 A233.7872 
N2032 X-310.579 Y12.075 Z-10.705 A235.4996 
N2033 X-310.601 Y12.383 Z-10.654 A237.1953 
N2034 X-310.622 Y12.689 Z-10.589 A238.8666 
N2035 X-310.641 Y12.992 Z-10.511 A240.5154 
N2036 X-310.660 Y13.293 Z-10.419 A242.1486 
N2037 X-310.677 Y13.592 Z-10.315 A243.7688 
N2038 X-310.693 Y13.888 Z-10.197 A245.3764 
N2039 X-310.709 Y14.181 Z-10.068 A246.9748 
N2040 X-310.723 Y14.471 Z-9.927 A248.5673 
N2041 X-310.736 Y14.758 Z-9.774 A250.1574 
N2042 X-310.749 Y15.042 Z-9.610 A251.7479 
N2043 X-310.760 Y15.323 Z-9.435 A253.3405 
N2044 X-310.770 Y15.600 Z-9.249 A254.9359 
N2045 X-310.780 Y15.873 Z-9.053 A256.5342 
N2046 X-310.788 Y16.141 Z-8.847 A258.1348 
N2047 X-310.795 Y16.404 Z-8.631 A259.7376 
N2048 X-310.801 Y16.662 Z-8.406 A261.3433 
N2049 X-310.806 Y16.914 Z-8.172 A262.9524 
N2050 X-310.810 Y17.160 Z-7.930 A264.5655 
N2051 X-310.813 Y17.400 Z-7.679 A266.1830 
N2052 X-310.815 Y17.633 Z-7.420 A267.8055 
N2053 X-310.816 Y17.860 Z-7.154 A269.4337 
N2054 X-310.815 Y18.080 Z-6.880 A271.0680 
N2055 X-310.814 Y18.293 Z-6.598 A272.7089 
N2056 X-310.812 Y18.498 Z-6.310 A274.3562 
N2057 X-310.808 Y18.696 Z-6.015 A276.0097 
N2058 X-310.804 Y18.886 Z-5.714 A277.6692 
N2059 X-310.798 Y19.068 Z-5.406 A279.3341 
N2060 X-310.791 Y19.241 Z-5.092 A281.0033 
N2061 X-310.784 Y19.405 Z-4.771 A282.6753 
N2062 X-310.775 Y19.560 Z-4.446 A284.3486 
N2063 X-310.764 Y19.705 Z-4.114 A286.0226 
N2064 X-310.753 Y19.840 Z-3.778 A287.6964 
N2065 X-310.741 Y19.964 Z-3.436 A289.3689 
N2066 X-310.727 Y20.078 Z-3.090 A291.0392 
N2067 X-310.712 Y20.180 Z-2.739 A292.7076 
N2068 X-310.696 Y20.272 Z-2.385 A294.3739 
N2069 X-310.679 Y20.352 Z-2.026 A296.0368 
N2070 X-310.660 Y20.421 Z-1.664 A297.6957 
N2071 X-310.641 Y20.477 Z-1.299 A299.3511 
N2072 X-310.620 Y20.522 Z-0.931 A301.0015 
N2073 X-310.598 Y20.555 Z-0.561 A302.6467 
N2074 X-310.575 Y20.576 Z-0.189 A304.2879 
N2075 X-310.551 Y20.585 Z0.185 A305.9242 
N2076 X-310.526 Y20.581 Z0.559 A307.5571 
N2077 X-310.499 Y20.566 Z0.935 A309.1880 
N2078 X-310.472 Y20.539 Z1.311 A310.8168 
N2079 X-310.444 Y20.500 Z1.688 A312.4460 
N2080 X-310.415 Y20.450 Z2.064 A314.0756 
N2081 X-310.385 Y20.388 Z2.440 A315.7082 
N2082 X-310.354 Y20.314 Z2.816 A317.3435 
N2083 X-310.322 Y20.229 Z3.191 A318.9839 
N2084 X-310.289 Y20.133 Z3.564 A320.6292 
N2085 X-310.256 Y20.025 Z3.937 A322.2814 
N2086 X-310.221 Y19.906 Z4.308 A323.9399 
N2087 X-310.186 Y19.775 Z4.678 A325.6065 
N2088 X-310.150 Y19.632 Z5.045 A327.2799 
N2089 X-310.113 Y19.477 Z5.411 A328.9620 
N2090 X-310.075 Y19.309 Z5.774 A330.6510 
N2091 X-310.037 Y19.128 Z6.134 A332.3486 
N2092 X-309.997 Y18.934 Z6.492 A334.0547 
N2093 X-309.957 Y18.726 Z6.846 A335.7672 
N2094 X-309.915 Y18.503 Z7.197 A337.4878 
N2095 X-309.872 Y18.265 Z7.545 A339.2160 
N2096 X-309.829 Y18.010 Z7.888 A340.9503 
N2097 X-309.784 Y17.739 Z8.226 A342.6901 
N2098 X-309.738 Y17.449 Z8.559 A344.4354 
N2099 X-309.691 Y17.140 Z8.887 A346.1850 
N2100 X-309.643 Y16.810 Z9.207 A347.9366 
N2101 X-309.594 Y16.459 Z9.520 A349.6864 
N2102 X-309.543 Y16.085 Z9.824 A351.4316 
N2103 X-309.491 Y15.687 Z10.118 A353.1707 
N2104 X-309.438 Y15.264 Z10.399 A354.8954 
N2105 X-309.383 Y14.815 Z10.668 A356.6028 
N2106 X-309.328 Y14.338 Z10.920 A358.2845 
N2107 X-309.271 Y13.835 Z11.155 A359.9329 
N2108 X-309.213 Y13.303 Z11.371 A1.5414 
N2109 X-309.155 Y12.744 Z11.565 A3.1059 
N2110 X-309.095 Y12.158 Z11.736 A4.6226 
N2111 X-309.035 Y11.545 Z11.884 A6.0886 
N2112 X-308.975 Y10.906 Z12.008 A7.5046 
N2113 X-308.914 Y10.242 Z12.107 A8.8741 
N2114 X-308.853 Y9.554 Z12.181 A10.2047 
N2115 X-308.792 Y8.843 Z12.233 A11.5075 
N2116 X-308.730 Y8.109 Z12.262 A12.7969 
N2117 X-308.668 Y7.353 Z12.270 A14.0879 
N2118 X-308.605 Y6.576 Z12.259 A15.3955 
N2119 X-308.542 Y5.777 Z12.227 A16.7335 
N2120 X-308.478 Y4.956 Z12.176 A18.1145 
N2121 X-308.414 Y4.112 Z12.104 A19.5490 
N2122 X-308.349 Y3.243 Z12.009 A21.0447 
N2123 X-308.284 Y2.349 Z11.890 A22.6055 
N2124 X-308.219 Y1.428 Z11.743 A24.2315 
N2125 X-308.153 Y0.478 Z11.563 A25.9165 
N2126 X-308.088 Y-0.502 Z11.344 A27.6466 
N2127 X-308.023 Y-1.511 Z11.080 A29.4014 
N2128 X-307.959 Y-2.548 Z10.765 A31.1551 
N2129 X-307.897 Y-3.610 Z10.392 A32.8763 
N2130 X-307.837 Y-4.694 Z9.956 A34.5293 
N2131 X-307.781 Y-5.793 Z9.454 A36.0777 
N2132 X-307.728 Y-6.901 Z8.885 A37.4883 
N2133 X-307.680 Y-8.011 Z8.252 A38.7342 
N2134 X-307.636 Y-9.113 Z7.560 A39.7949 
N2135 X-307.596 Y-10.200 Z6.819 A40.6531 
N2136 X-307.561 Y-11.263 Z6.039 A41.3000 
N2137 X-307.530 Y-12.295 Z5.235 A41.7459 
N2138 X-307.503 Y-13.288 Z4.423 A42.0189 
N2139 X-307.479 Y-14.238 Z3.619 A42.1623 
N2140 X-307.457 Y-15.139 Z2.841 A42.2213 
N2141 X-307.437 Y-15.985 Z2.101 A42.2315 
N2142 X-307.419 Y-16.772 Z1.411 A42.2273 
N2143 X-307.402 Y-17.494 Z0.779 A42.2297 
N2144 X-307.386 Y-18.151 Z0.210 A42.2733 
N2145 X-307.371 Y-18.742 Z-0.290 A42.3812 
N2146 X-307.356 Y-19.269 Z-0.720 A42.5788 
N2147 X-307.342 Y-19.735 Z-1.081 A42.8915 
N2148 X-307.328 Y-20.150 Z-1.372 A43.3603 
N2149 X-307.312 Y-20.522 Z-1.591 A44.0490 
N2150 X-307.293 Y-20.871 Z-1.738 A45.0607 
N2151 X-307.270 Y-21.210 Z-1.806 A46.4964 
N2152 X-307.240 Y-21.567 Z-1.797 A48.4978 
N2153 X-307.203 Y-21.956 Z-1.717 A51.0981 
N2154 X-307.159 Y-22.388 Z-1.582 A54.2939 
N2155 X-307.111 Y-22.845 Z-1.423 A57.8072 
N2156 X-307.064 Y-23.300 Z-1.268 A61.3484 
N2157 X-307.018 Y-23.743 Z-1.132 A64.7857 
N2158 X-306.973 Y-24.205 Z-1.010 A68.3443 
N2159 X-306.938 Y-24.568 Z-0.932 A71.1171 
N2160 X-306.902 Y-24.950 Z-0.867 A74.0039 
N2161 X-306.872 Y-25.280 Z-0.826 A76.4897 
N2162 X-306.846 Y-25.582 Z-0.801 A78.7534 
N2163 X-306.821 Y-25.885 Z-0.787 A81.0157 
N2164 X-306.797 Y-26.166 Z-0.786 A83.1163 
N2165 X-306.777 Y-26.424 Z-0.794 A85.0403 
N2166 X-306.757 Y-26.676 Z-0.811 A86.9290 
N2167 X-306.739 Y-26.922 Z-0.836 A88.7773 
N2168 X-306.722 Y-27.157 Z-0.869 A90.5441 
N2169 X-306.706 Y-27.385 Z-0.908 A92.2642 
N2170 X-306.691 Y-27.607 Z-0.954 A93.9529 
N2171 X-306.677 Y-27.825 Z-1.006 A95.6251 
N2172 X-306.663 Y-28.044 Z-1.066 A97.3094 
N2173 X-306.649 Y-28.261 Z-1.131 A99.0001 
N2174 X-306.636 Y-28.478 Z-1.203 A100.7014 
N2175 X-306.624 Y-28.694 Z-1.283 A102.4208 
N2176 X-306.612 Y-28.911 Z-1.370 A104.1580 
N2177 X-306.601 Y-29.125 Z-1.463 A105.8953 
N2178 X-306.590 Y-29.335 Z-1.563 A107.6316 
N2179 X-306.580 Y-29.545 Z-1.670 A109.3845 
N2180 X-306.571 Y-29.751 Z-1.783 A111.1399 
N2181 X-306.562 Y-29.954 Z-1.903 A112.8909 
N2182 X-306.554 Y-30.152 Z-2.029 A114.6403 
N2183 X-306.547 Y-30.348 Z-2.161 A116.4007 
N2184 X-306.541 Y-30.538 Z-2.300 A118.1526 
N2185 X-306.535 Y-30.723 Z-2.443 A119.8953 
N2186 X-306.530 Y-30.905 Z-2.593 A121.6464 
N2187 X-306.526 Y-31.081 Z-2.748 A123.3966 
N2188 X-306.523 Y-31.252 Z-2.908 A125.1360 
N2189 X-306.521 Y-31.417 Z-3.073 A126.8737 
N2190 X-306.519 Y-31.580 Z-3.246 A128.6424 
N2191 X-306.518 Y-31.737 Z-3.424 A130.4085 
N2192 X-306.517 Y-31.890 Z-3.607 A132.1776 
N2193 X-306.518 Y-32.041 Z-3.801 A134.0131 
N2194 X-306.519 Y-32.189 Z-4.003 A135.8786 
N2195 X-306.521 Y-32.332 Z-4.211 A137.7537 
N2196 X-306.525 Y-32.471 Z-4.430 A139.6858 
N2197 X-306.529 Y-32.605 Z-4.659 A141.6571 
N2198 X-306.534 Y-32.729 Z-4.888 A143.5930 
N2199 X-306.540 Y-32.844 Z-5.121 A145.5262 
N2200 X-306.547 Y-32.948 Z-5.358 A147.4483 
N2201 X-306.555 Y-33.038 Z-5.587 A149.2717 
N2202 X-306.564 Y-33.116 Z-5.815 A151.0500 
N2203 X-306.573 Y-33.183 Z-6.037 A152.7631 
N2204 X-306.583 Y-33.236 Z-6.249 A154.3659 
N2205 X-306.593 Y-33.279 Z-6.458 A155.9267 
N2206 X-306.604 Y-33.312 Z-6.657 A157.4049 
N2207 X-306.615 Y-33.337 Z-6.850 A158.8194 
N2208 X-306.626 Y-33.355 Z-7.041 A160.2105 
N2209 X-306.637 Y-33.367 Z-7.229 A161.5745 
N2210 X-306.649 Y-33.374 Z-7.417 A162.9409 
N2211 X-306.662 Y-33.378 Z-7.609 A164.3259 
N2212 X-306.675 Y-33.378 Z-7.805 A165.7532 
N2213 X-306.689 Y-33.376 Z-8.011 A167.2544 
N2214 X-306.704 Y-33.371 Z-8.230 A168.8621 
N2215 X-306.720 Y-33.363 Z-8.470 A170.6269 
N2216 X-306.739 Y-33.349 Z-8.731 A172.5543 
N2217 X-306.759 Y-33.329 Z-9.020 A174.6941 
N2218 X-306.784 Y-33.296 Z-9.346 A177.1272 
N2219 X-306.810 Y-33.250 Z-9.688 A179.6928 
N2220 X-306.843 Y-33.176 Z-10.093 A182.7525 
N2221 X-306.878 Y-33.079 Z-10.495 A185.8314 
N2222 X-306.920 Y-32.936 Z-10.951 A189.3718 
N2223 X-306.964 Y-32.757 Z-11.394 A192.9088 
N2224 X-307.009 Y-32.540 Z-11.811 A196.3563 
N2225 X-307.055 Y-32.285 Z-12.188 A199.6419 
N2226 X-307.099 Y-32.001 Z-12.499 A202.5854 
N2227 X-307.138 Y-31.709 Z-12.721 A204.9857 
N2228 X-307.172 Y-31.402 Z-12.859 A206.9068 
N2229 X-307.201 Y-31.087 Z-12.913 A208.3263 
N2230 X-307.226 Y-30.761 Z-12.891 A209.3252 
N2231 X-307.249 Y-30.410 Z-12.803 A209.9868 
N2232 X-307.270 Y-30.032 Z-12.655 A210.3725 
N2233 X-307.290 Y-29.619 Z-12.454 A210.5417 
N2234 X-307.311 Y-29.165 Z-12.208 A210.5442 
N2235 X-307.333 Y-28.666 Z-11.925 A210.4346 
N2236 X-307.357 Y-28.118 Z-11.615 A210.2726 
N2237 X-307.384 Y-27.518 Z-11.287 A210.1194 
N2238 X-307.415 Y-26.868 Z-10.952 A210.0289 
N2239 X-307.450 Y-26.170 Z-10.616 A210.0252 
N2240 X-307.488 Y-25.432 Z-10.284 A210.1054 
N2241 X-307.529 Y-24.664 Z-9.957 A210.2471 
N2242 X-307.572 Y-23.878 Z-9.636 A210.4176 
N2243 X-307.616 Y-23.083 Z-9.323 A210.5879 
N2244 X-307.661 Y-22.290 Z-9.019 A210.7340 
N2245 X-307.705 Y-21.508 Z-8.728 A210.8349 
N2246 X-307.749 Y-20.745 Z-8.450 A210.8741 
N2247 X-307.792 Y-20.006 Z-8.189 A210.8431 
N2248 X-307.834 Y-19.295 Z-7.946 A210.7434 
N2249 X-307.875 Y-18.614 Z-7.724 A210.5875 
N2250 X-307.915 Y-17.960 Z-7.525 A210.3954 
N2251 X-307.955 Y-17.332 Z-7.351 A210.1845 
N2252 X-307.994 Y-16.726 Z-7.200 A209.9672 
N2253 X-308.034 Y-16.138 Z-7.073 A209.7494 
N2254 X-308.074 Y-15.562 Z-6.967 A209.5297 
N2255 X-308.114 Y-14.995 Z-6.879 A209.2976 
N2256 X-308.155 Y-14.431 Z-6.803 A209.0329 
N2257 X-308.197 Y-13.866 Z-6.736 A208.7056 
N2258 X-308.239 Y-13.296 Z-6.671 A208.2793 
N2259 X-308.282 Y-12.719 Z-6.603 A207.7229 
N2260 X-308.325 Y-12.130 Z-6.530 A207.0167 
N2261 X-308.369 Y-11.527 Z-6.451 A206.1536 
N2262 X-308.414 Y-10.907 Z-6.369 A205.1387 
N2263 X-308.461 Y-10.267 Z-6.286 A203.9912 
N2264 X-308.510 Y-9.608 Z-6.210 A202.7467 
N2265 X-308.561 Y-8.928 Z-6.150 A201.4554 
N2266 X-308.616 Y-8.229 Z-6.114 A200.1806 
N2267 X-308.674 Y-7.514 Z-6.114 A198.9888 
N2268 X-308.737 Y-6.787 Z-6.156 A197.9416 
N2269 X-308.803 Y-6.054 Z-6.248 A197.0979 
N2270 X-308.872 Y-5.319 Z-6.393 A196.5179 
N2271 X-308.946 Y-4.586 Z-6.596 A196.2539 
N2272 X-309.022 Y-3.862 Z-6.855 A196.3333 
N2273 X-309.101 Y-3.148 Z-7.162 A196.7511 
N2274 X-309.180 Y-2.450 Z-7.504 A197.4585 
N2275 X-309.260 Y-1.770 Z-7.865 A198.3869 
N2276 X-309.338 Y-1.112 Z-8.230 A199.4745 
N2277 X-309.414 Y-0.477 Z-8.589 A200.6657 
N2278 X-309.486 Y0.132 Z-8.933 A201.9045 
N2279 X-309.555 Y0.716 Z-9.251 A203.1343 
N2280 X-309.619 Y1.273 Z-9.537 A204.3059 
N2281 X-309.679 Y1.802 Z-9.788 A205.4000 
N2282 X-309.735 Y2.308 Z-10.008 A206.4149 
N2283 X-309.787 Y2.790 Z-10.189 A207.3083 
N2284 X-309.832 Y3.240 Z-10.320 A207.9970 
N2285 X-309.872 Y3.663 Z-10.404 A208.4740 
N2286 X-309.907 Y4.058 Z-10.447 A208.7750 
N2287 X-309.939 Y4.434 Z-10.464 A208.9846 
N2288 X-309.969 Y4.799 Z-10.466 A209.1669 
N2289 X-309.996 Y5.143 Z-10.446 A209.2766 
N2290 X-310.021 Y5.479 Z-10.418 A209.3980 
N2291 X-310.045 Y5.799 Z-10.376 A209.4881 
N2292 X-310.067 Y6.108 Z-10.328 A209.5938 
N2293 X-310.088 Y6.408 Z-10.276 A209.7417 
N2294 X-310.108 Y6.699 Z-10.225 A209.9433 
N2295 X-310.128 Y6.979 Z-10.176 A210.2152 
N2296 X-310.147 Y7.250 Z-10.133 A210.5781 
N2297 X-310.166 Y7.511 Z-10.100 A211.0528 
N2298 X-310.185 Y7.762 Z-10.080 A211.6492 
N2299 X-310.205 Y8.003 Z-10.075 A212.3770 
N2300 X-310.225 Y8.237 Z-10.088 A213.2625 
N2301 X-310.246 Y8.465 Z-10.121 A214.3024 
N2302 X-310.267 Y8.689 Z-10.170 A215.4854 
N2303 X-310.289 Y8.907 Z-10.235 A216.7837 
N2304 X-310.312 Y9.123 Z-10.312 A218.1938 
N2305 X-310.335 Y9.340 Z-10.397 A219.6878 
N2306 X-310.359 Y9.555 Z-10.487 A221.2359 
N2307 X-310.383 Y9.771 Z-10.578 A222.8217 
N2308 X-310.406 Y9.989 Z-10.669 A224.4335 
N2309 X-310.430 Y10.209 Z-10.756 A226.0648 
N2310 X-310.454 Y10.433 Z-10.841 A227.7232 
N2311 X-310.478 Y10.663 Z-10.922 A229.4148 
N2312 X-310.503 Y10.899 Z-10.999 A231.1511 
N2313 X-310.528 Y11.145 Z-11.074 A232.9521 
N2314 X-310.553 Y11.403 Z-11.145 A234.8248 
N2315 X-310.580 Y11.670 Z-11.211 A236.7637 
N2316 X-310.606 Y11.949 Z-11.270 A238.7687 
N2317 X-310.634 Y12.241 Z-11.321 A240.8535 
N2318 X-310.661 Y12.546 Z-11.362 A243.0201 
N2319 X-310.689 Y12.862 Z-11.390 A245.2435 
N2320 X-310.716 Y13.186 Z-11.401 A247.5074 
N2321 X-310.742 Y13.516 Z-11.394 A249.7852 
N2322 X-310.767 Y13.844 Z-11.364 A252.0370 
N2323 X-310.790 Y14.164 Z-11.309 A254.2090 
N2324 X-310.809 Y14.467 Z-11.227 A256.2476 
N2325 X-310.825 Y14.750 Z-11.116 A258.1242 
N2326 X-310.836 Y15.001 Z-10.979 A259.7639 
N2327 X-310.844 Y15.225 Z-10.816 A261.1984 
N2328 X-310.847 Y15.421 Z-10.631 A262.4402 
N2329 X-310.848 Y15.600 Z-10.425 A263.5637 
N2330 X-310.847 Y15.770 Z-10.199 A264.6340 
N2331 X-310.845 Y15.939 Z-9.957 A265.7145 
N2332 X-310.842 Y16.111 Z-9.698 A266.8462 
N2333 X-310.838 Y16.288 Z-9.423 A268.0520 
N2334 X-310.833 Y16.469 Z-9.131 A269.3327 
N2335 X-310.828 Y16.651 Z-8.826 A270.6695 
N2336 X-310.822 Y16.833 Z-8.507 A272.0543 
N2337 X-310.814 Y17.010 Z-8.176 A273.4729 
N2338 X-310.806 Y17.183 Z-7.834 A274.9213 
N2339 X-310.796 Y17.350 Z-7.483 A276.3917 
N2340 X-310.785 Y17.510 Z-7.123 A277.8828 
N2341 X-310.773 Y17.662 Z-6.757 A279.3913 
N2342 X-310.760 Y17.807 Z-6.386 A280.9163 
N2343 X-310.747 Y17.944 Z-6.011 A282.4579 
N2344 X-310.732 Y18.073 Z-5.632 A284.0161 
N2345 X-310.717 Y18.194 Z-5.251 A285.5920 
N2346 X-310.700 Y18.308 Z-4.868 A287.1849 
N2347 X-310.684 Y18.413 Z-4.485 A288.7939 
N2348 X-310.666 Y18.511 Z-4.100 A290.4195 
N2349 X-310.648 Y18.600 Z-3.715 A292.0584 
N2350 X-310.629 Y18.681 Z-3.330 A293.7099 
N2351 X-310.609 Y18.753 Z-2.945 A295.3720 
N2352 X-310.589 Y18.817 Z-2.560 A297.0418 
N2353 X-310.568 Y18.871 Z-2.177 A298.7193 
N2354 X-310.546 Y18.916 Z-1.794 A300.4016 
N2355 X-310.523 Y18.952 Z-1.411 A302.0890 
N2356 X-310.500 Y18.978 Z-1.030 A303.7805 
N2357 X-310.476 Y18.995 Z-0.650 A305.4748 
N2358 X-310.452 Y19.002 Z-0.271 A307.1726 
N2359 X-310.426 Y18.998 Z0.108 A308.8718 
N2360 X-310.400 Y18.985 Z0.485 A310.5734 
N2361 X-310.373 Y18.961 Z0.861 A312.2766 
N2362 X-310.346 Y18.926 Z1.235 A313.9815 
N2363 X-310.317 Y18.881 Z1.609 A315.6884 
N2364 X-310.288 Y18.824 Z1.982 A317.3972 
N2365 X-310.257 Y18.756 Z2.353 A319.1089 
N2366 X-310.226 Y18.677 Z2.723 A320.8231 
N2367 X-310.194 Y18.585 Z3.092 A322.5415 
N2368 X-310.161 Y18.481 Z3.460 A324.2630 
N2369 X-310.128 Y18.365 Z3.826 A325.9871 
N2370 X-310.093 Y18.235 Z4.190 A327.7143 
N2371 X-310.057 Y18.091 Z4.552 A329.4409 
N2372 X-310.020 Y17.933 Z4.912 A331.1685 
N2373 X-309.982 Y17.760 Z5.269 A332.8924 
N2374 X-309.944 Y17.572 Z5.622 A334.6145 
N2375 X-309.904 Y17.367 Z5.972 A336.3315 
N2376 X-309.863 Y17.146 Z6.317 A338.0419 
N2377 X-309.821 Y16.907 Z6.657 A339.7469 
N2378 X-309.777 Y16.651 Z6.992 A341.4444 
