; PROGRAM NAME: C99999914
; ORDER       : C999999
; OPER. NAME  : Spiral Rough Rhombic:105
; OPER. DESCR.: spiral roughing rhombic/bandaz zgr
; OPER. TYPE  : rouRoot
; GEO. OPTION : 4
; MACHINE     : HSTM_500M_SIM840D_Py
;             : HSTM500 Morelia- HAMUEL: 5-axis milling machine-SIM840D Traori PP_Script
; CONTROL     : SINUMERIK 840D
; created:   2022-11-16 11:59:37.648581
;----------------------------------------
;-------DODATKOWE DANE-------------------
; PROGRAMISTA : Mariusz Malec
; PARTID      : 301T002159P1002_-
;  ap         : 2.5
;  ae         : 30.0
;  lean_angle : 1.0
;  fin_offset : 0.6
;----------------------------------------
;RAPORT("TC999999","Spiral Rough Rhombic:105")
N10 TRAFOOF
N11 D0
N12 G90 G94
N13 G0 G53 D0 Z550
N14 STOPRE
M9 ; chlodziwo wyl
; --- Spiral Rough Rhombic:105 - spiral roughing rhombic/bandaz zgr ---
N16 ;ToolChange : concat=None ,current_tdmid=None, PP.tdmId=941290
N17 TRAFOOF
N18 G0 G53 D0 X-200 Y150 Z550 B0
N19 T="7741290"
;RAPORT("TC999999","ToolChangeStart 7741290")
N20 M6
;RAPORT("TC999999","ToolChangeEnd")
N21 STOPRE
N22 MSG(" TLID=941290 D=50.0 R=6.0 Ang=0.0 Len=90.0 ")
N23 S1718 M03
N24 STOPRE
N25 TOL(0.1,1,1)
N26 G0 G53 A270.9335 B0.0000
N27 TRAORI
N28 G54 D1
N29 D1 
N30 ; DELTA A > 40.1
N31 TRAFOOF
N32 D1
N33 STOPRE
N34 G00 G54 Z296.000
N35 G01 A270.9335 F10000
N36 TRAORI
N37 G54 D1
N38 STOPRE
N39 TRANS 
N40 G00 X-322.312 Y98.410 Z-49.799 A270.9335 
N41 M346 ; chlodziwo mgla
N42 X-322.312 Y48.417 Z-50.614 
N43 G01 X-322.312 Y45.327 Z-50.121 F2834 
N44 X-322.312 Y42.541 Z-48.697 
N45 X-322.312 Y40.331 Z-46.482 
N46 X-322.312 Y38.914 Z-43.693 
N47 X-322.312 Y38.428 Z-40.602 
N48 X-322.312 Y38.433 Z-36.435 
N49 X-322.312 Y38.438 Z-32.340 
N50 X-322.312 Y38.442 Z-28.382 
N51 X-322.312 Y38.447 Z-24.622 
N52 X-322.312 Y38.451 Z-21.108 
N53 X-322.312 Y38.455 Z-17.880 
N54 X-322.312 Y38.458 Z-14.963 
N55 X-322.312 Y38.461 Z-12.368 
N56 X-322.312 Y38.464 Z-10.097 
N57 X-322.312 Y38.466 Z-8.139 
N58 X-322.312 Y38.469 Z-6.475 A270.9361 
N59 X-322.312 Y38.529 Z-5.078 A271.1149 
N60 X-322.312 Y38.849 Z-3.913 A272.1050 
N61 X-322.312 Y39.554 Z-2.925 A274.3254 
N62 X-322.312 Y40.582 Z-2.043 A277.6231 
N63 X-322.312 Y41.817 Z-1.200 A281.6613 
N64 X-322.312 Y43.119 Z-0.360 A286.0288 
N65 X-322.312 Y44.375 Z0.483 A290.3748 
N66 X-322.312 Y45.535 Z1.324 A294.5360 
N67 X-322.312 Y46.587 Z2.159 A298.4625 
N68 X-322.312 Y47.524 Z2.979 A302.1189 
N69 X-322.312 Y48.349 Z3.778 A305.4961 
N70 X-322.312 Y49.076 Z4.556 A308.6344 
N71 X-322.312 Y49.725 Z5.324 A311.5988 
N72 X-322.312 Y50.312 Z6.092 A314.4480 
N73 X-322.312 Y50.848 Z6.871 A317.2360 
N74 X-322.312 Y51.342 Z7.675 A320.0172 
N75 X-322.312 Y51.802 Z8.520 A322.8505 
N76 X-322.312 Y52.231 Z9.427 A325.7989 
N77 X-322.312 Y52.626 Z10.415 A328.9250 
N78 X-322.312 Y52.979 Z11.506 A332.2830 
N79 X-322.312 Y53.269 Z12.712 A335.9045 
N80 X-322.312 Y53.465 Z14.034 A339.7829 
N81 X-322.312 Y53.527 Z15.456 A343.8726 
N82 X-322.312 Y53.412 Z16.937 A348.0774 
N83 X-322.312 Y53.081 Z18.405 A352.2176 
N84 X-322.312 Y52.505 Z19.724 A355.9439 
N85 X-322.312 Y51.681 Z20.705 A358.7297 
N86 X-322.312 Y50.631 Z21.242 A0.2624 
N87 X-322.312 Y49.358 Z21.443 A0.8396 
N88 X-322.312 Y47.845 Z21.491 A0.9802 
N89 X-322.312 Y46.069 Z21.496 A0.9920 
N90 X-322.312 Y44.011 Z21.496 
N91 X-322.312 Y41.665 Z21.496 
N92 X-322.312 Y39.030 Z21.497 
N93 X-322.312 Y36.119 Z21.497 
N94 X-322.312 Y32.955 Z21.497 
N95 X-322.312 Y29.575 Z21.498 
N96 X-322.312 Y26.025 Z21.498 
N97 X-322.312 Y22.358 Z21.499 
N98 X-322.312 Y18.638 Z21.499 
N99 X-322.312 Y14.926 Z21.500 
N100 X-322.312 Y11.288 Z21.500 
N101 X-322.312 Y7.782 Z21.501 
N102 X-322.312 Y4.461 Z21.501 
N103 X-322.312 Y1.368 Z21.502 
N104 X-322.312 Y-1.464 Z21.502 
N105 X-322.312 Y-4.015 Z21.503 
N106 X-322.312 Y-6.277 Z21.503 
N107 X-322.312 Y-8.251 Z21.503 
N108 X-322.312 Y-9.949 Z21.511 A1.0143 
N109 X-322.312 Y-11.391 Z21.600 A1.2888 
N110 X-322.312 Y-12.607 Z21.911 A2.2662 
N111 X-322.312 Y-13.643 Z22.535 A4.2541 
N112 X-322.312 Y-14.563 Z23.475 A7.2874 B0.0000 
N113 X-322.312 Y-15.429 Z24.634 A11.0950 B0.0004 
N114 X-322.312 Y-16.278 Z25.866 A15.2436 B0.0013 
N115 X-322.312 Y-17.120 Z27.071 A19.4209 B0.0032 
N116 X-322.312 Y-17.956 Z28.198 A23.4640 B0.0059 
N117 X-322.312 Y-18.780 Z29.227 A27.2950 B0.0089 
N118 X-322.312 Y-19.590 Z30.153 A30.8897 B0.0116 
N119 X-322.312 Y-20.385 Z30.982 A34.2576 B0.0133 
N120 X-322.312 Y-21.164 Z31.723 A37.4165 B0.0136 
N121 X-322.312 Y-21.929 Z32.384 A40.3919 B0.0128 
N122 X-322.312 Y-22.687 Z32.976 A43.2210 B0.0111 
N123 X-322.312 Y-23.444 Z33.511 A45.9493 B0.0088 
N124 X-322.312 Y-24.213 Z33.999 A48.6292 B0.0061 
N125 X-322.312 Y-25.009 Z34.450 A51.3175 B0.0033 
N126 X-322.312 Y-25.848 Z34.871 A54.0742 B0.0008 
N127 X-322.312 Y-26.749 Z35.263 A56.9597 B-0.0014 
N128 X-322.312 Y-27.732 Z35.625 A60.0293 B-0.0030 
N129 X-322.312 Y-28.810 Z35.944 A63.3195 B-0.0038 
N130 X-322.312 Y-29.988 Z36.200 A66.8334 
N131 X-322.312 Y-31.255 Z36.362 A70.5347 B-0.0031 
N132 X-322.312 Y-32.584 Z36.401 A74.3515 B-0.0020 
N133 X-322.312 Y-33.937 Z36.286 A78.1932 B-0.0010 
N134 X-322.312 Y-35.254 Z35.994 A81.9059 B-0.0003 
N135 X-322.312 Y-36.434 Z35.511 A85.2307 B-0.0000 
N136 X-322.312 Y-37.366 Z34.841 A87.8667 B-0.0000 
N137 X-322.312 Y-37.997 Z34.003 A89.6632 
N138 X-322.312 Y-38.344 Z33.013 A90.6643 
N139 X-322.312 Y-38.477 Z31.876 A91.0599 
N140 X-322.312 Y-38.502 Z30.590 A91.1407 
N141 X-322.312 Y-38.499 Z29.156 A91.1440 B-0.0000 
N142 X-322.312 Y-38.495 Z27.580 B-0.0002 
N143 X-322.312 Y-38.491 Z25.876 B-0.0009 
N144 X-322.312 Y-38.486 Z24.064 B-0.0025 
N145 X-322.312 Y-38.482 Z22.169 B-0.0055 
N146 X-322.312 Y-38.477 Z20.223 B-0.0096 
N147 X-322.312 Y-38.472 Z18.257 B-0.0146 
N148 X-322.312 Y-38.467 Z16.306 B-0.0202 
N149 X-322.312 Y-38.462 Z14.404 B-0.0262 
N150 X-322.312 Y-38.457 Z12.579 B-0.0326 
N151 X-322.312 Y-38.453 Z10.860 B-0.0391 
N152 X-322.313 Y-38.449 Z9.267 B-0.0454 
N153 X-322.313 Y-38.445 Z7.814 B-0.0513 
N154 X-322.313 Y-38.445 Z6.510 A91.1516 B-0.0569 
N155 X-322.313 Y-38.493 Z5.356 A91.3094 B-0.0623 
N156 X-322.313 Y-38.721 Z4.344 A92.0241 B-0.0690 
N157 X-322.313 Y-39.235 Z3.452 A93.6470 B-0.0791 
N158 X-322.313 Y-40.027 Z2.644 A96.1784 B-0.0943 
N159 X-322.313 Y-41.024 Z1.879 A99.4172 B-0.1153 
N160 X-322.313 Y-42.146 Z1.122 A103.1302 B-0.1418 
N161 X-322.313 Y-43.300 Z0.356 A107.0474 B-0.1723 
N162 X-322.313 Y-44.415 Z-0.417 A110.9423 B-0.2045 
N163 X-322.314 Y-45.450 Z-1.190 A114.6876 B-0.2359 
N164 X-322.314 Y-46.396 Z-1.958 A118.2398 B-0.2643 
N165 X-322.314 Y-47.254 Z-2.718 A121.5958 B-0.2883 
N166 X-322.314 Y-48.034 Z-3.472 A124.7791 B-0.3070 
N167 X-322.314 Y-48.744 Z-4.224 A127.8212 B-0.3204 
N168 X-322.314 Y-49.391 Z-4.975 A130.7419 B-0.3285 
N169 X-322.314 Y-49.979 Z-5.730 A133.5597 B-0.3315 
N170 X-322.314 Y-50.515 Z-6.492 A136.3033 B-0.3299 
N171 X-322.314 Y-51.006 Z-7.272 A139.0160 B-0.3239 
N172 X-322.314 Y-51.460 Z-8.085 A141.7556 B-0.3137 
N173 X-322.314 Y-51.885 Z-8.952 A144.5913 B-0.2997 
N174 X-322.314 Y-52.284 Z-9.896 A147.5979 B-0.2818 
N175 X-322.314 Y-52.650 Z-10.944 A150.8491 B-0.2603 
N176 X-322.314 Y-52.969 Z-12.116 A154.3976 B-0.2354 
N177 X-322.313 Y-53.210 Z-13.418 A158.2501 B-0.2077 
N178 X-322.313 Y-53.331 Z-14.836 A162.3574 B-0.1779 
N179 X-322.313 Y-53.287 Z-16.329 A166.6160 B-0.1471 
N180 X-322.313 Y-53.034 Z-17.836 A170.8761 B-0.1168 
N181 X-322.313 Y-52.539 Z-19.242 A174.8466 B-0.0889 
N182 X-322.313 Y-51.790 Z-20.356 A178.0047 B-0.0660 
N183 X-322.313 Y-50.808 Z-21.021 A179.8982 B-0.0502 
N184 X-322.312 Y-49.606 Z-21.296 A180.6840 B-0.0418 
N185 X-322.312 Y-48.172 Z-21.373 A180.9027 B-0.0387 
N186 X-322.312 Y-46.480 Z-21.384 A180.9294 B-0.0373 
N187 X-322.312 Y-44.513 Z-21.387 A180.9295 B-0.0358 
N188 X-322.312 Y-42.258 Z-21.390 B-0.0342 
N189 X-322.312 Y-39.714 Z-21.393 B-0.0324 
N190 X-322.312 Y-36.889 Z-21.396 B-0.0304 
N191 X-322.312 Y-33.803 Z-21.400 B-0.0284 
N192 X-322.312 Y-30.488 Z-21.404 B-0.0262 
N193 X-322.312 Y-26.988 Z-21.408 B-0.0240 
N194 X-322.312 Y-23.356 Z-21.413 B-0.0218 
N195 X-322.312 Y-19.649 Z-21.417 B-0.0197 
N196 X-322.312 Y-15.933 Z-21.422 B-0.0176 
N197 X-322.312 Y-12.271 Z-21.427 B-0.0156 
N198 X-322.312 Y-8.725 Z-21.431 B-0.0138 
N199 X-322.312 Y-5.348 Z-21.435 B-0.0122 
N200 X-322.312 Y-2.187 Z-21.439 B-0.0107 
N201 X-322.312 Y0.721 Z-21.443 B-0.0094 
N202 X-322.312 Y3.353 Z-21.446 B-0.0082 
N203 X-322.312 Y5.697 Z-21.449 B-0.0067 
N204 X-322.312 Y7.751 Z-21.451 B-0.0047 
N205 X-322.312 Y9.525 Z-21.455 A180.9347 B-0.0028 
N206 X-322.312 Y11.035 Z-21.501 A181.0700 B-0.0015 
N207 X-322.312 Y12.309 Z-21.705 A181.7037 B-0.0016 
N208 X-322.312 Y13.383 Z-22.188 A183.2278 B-0.0040 
N209 X-322.312 Y14.318 Z-23.017 A185.8765 B-0.0100 
N210 X-322.312 Y15.183 Z-24.139 A189.5171 B-0.0195 
N211 X-322.312 Y16.026 Z-25.390 A193.6711 B-0.0306 
N212 X-322.312 Y16.864 Z-26.635 A197.9209 B-0.0409 
N213 X-322.313 Y17.696 Z-27.802 A202.0443 B-0.0485 
N214 X-322.313 Y18.515 Z-28.868 A205.9468 B-0.0525 
N215 X-322.313 Y19.320 Z-29.828 A209.6056 B-0.0530 
N216 X-322.313 Y20.112 Z-30.692 A213.0425 B-0.0507 
N217 X-322.313 Y20.893 Z-31.471 A216.2867 B-0.0462 
N218 X-322.312 Y21.666 Z-32.173 A219.3615 B-0.0403 
N219 X-322.312 Y22.435 Z-32.806 A222.2950 B-0.0334 
N220 X-322.312 Y23.204 Z-33.378 A225.1225 B-0.0260 
N221 X-322.312 Y23.983 Z-33.899 A227.8848 B-0.0185 
N222 X-322.312 Y24.783 Z-34.377 A230.6294 B-0.0110 
N223 X-322.312 Y25.619 Z-34.817 A233.4101 B-0.0038 
N224 X-322.312 Y26.508 Z-35.224 A236.2844 B0.0029 
N225 X-322.312 Y27.469 Z-35.598 A239.3098 B0.0087 
N226 X-322.312 Y28.519 Z-35.930 A242.5354 B0.0132 
N227 X-322.312 Y29.668 Z-36.205 A245.9857 B0.0158 
N228 X-322.312 Y30.914 Z-36.396 A249.6464 B0.0160 
N229 X-322.312 Y32.235 Z-36.471 A253.4591 B0.0139 
N230 X-322.312 Y33.595 Z-36.400 A257.3334 B0.0101 
N231 X-322.312 Y34.939 Z-36.155 A261.1316 B0.0060 
N232 X-322.312 Y36.170 Z-35.718 A264.6050 B0.0028 
N233 X-322.312 Y37.162 Z-35.089 A267.4096 B0.0009 
N234 X-322.312 Y37.835 Z-34.289 A269.3213 B0.0002 
N235 X-322.312 Y38.210 Z-33.334 A270.3930 B0.0000 
N236 X-322.312 Y38.371 Z-32.230 A270.8548 B0.0000 
N237 X-322.312 Y38.412 Z-30.977 A270.9754 
N238 X-322.312 Y38.416 Z-29.573 A270.9859 
N239 X-322.312 Y38.417 Z-28.024 
N240 X-322.312 Y38.417 Z-26.341 
N241 X-322.312 Y38.418 Z-24.544 
N242 X-322.312 Y38.418 Z-22.657 
N243 X-322.312 Y38.419 Z-20.710 
N244 X-322.312 Y38.419 Z-18.734 
N245 X-322.312 Y38.419 Z-16.765 
N246 X-322.312 Y38.420 Z-14.837 
N247 X-322.312 Y38.420 Z-12.980 
N248 X-322.312 Y38.421 Z-11.223 
N249 X-322.312 Y38.421 Z-9.588 
N250 X-322.312 Y38.422 Z-8.092 
N251 X-322.312 Y38.422 Z-6.746 A270.9864 
N252 X-322.312 Y38.443 Z-5.551 A271.0488 
N253 X-322.312 Y38.585 Z-4.503 A271.4882 
N254 X-322.312 Y38.981 Z-3.588 A272.7239 
N255 X-322.312 Y39.666 Z-2.773 A274.8908 
N256 X-322.312 Y40.595 Z-2.016 A277.8751 
N257 X-322.312 Y41.696 Z-1.277 A281.4728 
N258 X-322.312 Y42.870 Z-0.529 A285.3938 
N259 X-322.312 Y44.025 Z0.231 A289.3595 
N260 X-322.312 Y45.113 Z0.997 A293.2179 
N261 X-322.312 Y46.120 Z1.767 A296.9178 
N262 X-322.312 Y47.041 Z2.536 A300.4337 
N263 X-322.312 Y47.869 Z3.297 A303.7410 
N264 X-322.312 Y48.611 Z4.046 A306.8456 
N265 X-322.312 Y49.279 Z4.789 A309.7891 
N266 X-322.312 Y49.886 Z5.532 A312.6210 
N267 X-322.312 Y50.444 Z6.286 A315.3868 
N268 X-322.312 Y50.960 Z7.061 A318.1315 
N269 X-322.312 Y51.441 Z7.869 A320.9038 
N270 X-322.312 Y51.892 Z8.727 A323.7595 
N271 X-322.312 Y52.314 Z9.655 A326.7578 
N272 X-322.312 Y52.702 Z10.673 A329.9558 
N273 X-322.312 Y53.042 Z11.798 A333.3994 
N274 X-322.312 Y53.312 Z13.039 A337.1066 
N275 X-322.312 Y53.477 Z14.392 A341.0561 
N276 X-322.312 Y53.496 Z15.831 A345.1835 
N277 X-322.312 Y53.329 Z17.305 A349.3631 
N278 X-322.312 Y52.938 Z18.726 A353.3713 
N279 X-322.312 Y52.305 Z19.950 A356.8341 
N280 X-322.312 Y51.435 Z20.810 A359.2824 
N281 X-322.312 Y50.348 Z21.252 A0.5536 
N282 X-322.312 Y49.042 Z21.409 A1.0127 
N283 X-322.312 Y47.495 Z21.441 A1.1148 
N284 X-322.312 Y45.688 Z21.439 A1.1207 
N285 X-322.312 Y43.604 Z21.434 
N286 X-322.312 Y41.239 Z21.429 
N287 X-322.312 Y38.595 Z21.424 
N288 X-322.312 Y35.687 Z21.418 
N289 X-322.312 Y32.541 Z21.411 
N290 X-322.312 Y29.193 Z21.404 
N291 X-322.312 Y25.691 Z21.397 
N292 X-322.312 Y22.089 Z21.389 
N293 X-322.312 Y18.447 Z21.381 
N294 X-322.312 Y14.825 Z21.374 A1.1214 
N295 X-322.312 Y11.285 Z21.378 A1.1581 
N296 X-322.312 Y7.882 Z21.432 A1.3648 
N297 X-322.312 Y4.664 Z21.501 A1.6565 
N298 X-322.312 Y1.673 Z21.560 A1.9593 
N299 X-322.312 Y-1.062 Z21.576 A2.1599 
N300 X-322.312 Y-3.523 Z21.561 A2.2734 
N301 X-322.312 Y-5.703 Z21.533 A2.3394 
N302 X-322.312 Y-7.605 Z21.497 A2.3653 
N303 X-322.312 Y-9.243 Z21.466 A2.3912 
N304 X-322.312 Y-10.639 Z21.531 A2.6954 B0.0001 
N305 X-322.312 Y-11.828 Z21.858 A3.8087 B0.0006 
N306 X-322.312 Y-12.860 Z22.523 A6.0013 B0.0024 
N307 X-322.312 Y-13.795 Z23.478 A9.1663 B0.0063 
N308 X-322.312 Y-14.689 Z24.615 A12.9877 B0.0128 
N309 X-322.312 Y-15.566 Z25.799 A17.0726 B0.0209 
N310 X-322.312 Y-16.432 Z26.943 A21.1407 B0.0290 
N311 X-322.312 Y-17.285 Z28.003 A25.0483 B0.0354 
N312 X-322.312 Y-18.120 Z28.965 A28.7362 B0.0392 
N313 X-322.312 Y-18.936 Z29.828 A32.1963 B0.0403 
N314 X-322.312 Y-19.735 Z30.604 A35.4517 B0.0388 
N315 X-322.312 Y-20.521 Z31.302 A38.5300 B0.0356 
N316 X-322.312 Y-21.298 Z31.928 A41.4571 B0.0310 
N317 X-322.312 Y-22.071 Z32.492 A44.2646 B0.0255 
N318 X-322.312 Y-22.847 Z33.003 A46.9919 B0.0195 
N319 X-322.312 Y-23.639 Z33.470 A49.6867 B0.0130 
N320 X-322.312 Y-24.461 Z33.899 A52.4041 B0.0064 
N321 X-322.312 Y-25.331 Z34.296 A55.2035 B-0.0005 
N322 X-322.312 Y-26.268 Z34.663 A58.1446 B-0.0075 
N323 X-322.312 Y-27.290 Z34.993 A61.2779 B-0.0146 
N324 X-322.312 Y-28.407 Z35.271 A64.6287 B-0.0216 
N325 X-322.312 Y-29.618 Z35.474 A68.1849 B-0.0284 
N326 X-322.312 Y-30.905 Z35.571 A71.8959 B-0.0345 
N327 X-322.312 Y-32.239 Z35.532 A75.6857 B-0.0396 
N328 X-322.313 Y-33.576 Z35.330 A79.4476 B-0.0436 
N329 X-322.313 Y-34.838 Z34.945 A82.9859 B-0.0467 
N330 X-322.313 Y-35.918 Z34.369 A86.0132 B-0.0498 
N331 X-322.313 Y-36.727 Z33.615 A88.2855 B-0.0540 
N332 X-322.313 Y-37.236 Z32.703 A89.7209 B-0.0595 
N333 X-322.313 Y-37.480 Z31.644 A90.4042 B-0.0657 
N334 X-322.313 Y-37.554 Z30.443 A90.5957 B-0.0711 
N335 X-322.313 Y-37.569 Z29.099 A90.6143 B-0.0757 
N336 X-322.313 Y-37.579 Z27.618 A90.6143 B-0.0800 
N337 X-322.313 Y-37.590 Z26.011 B-0.0845 
N338 X-322.313 Y-37.602 Z24.296 B-0.0893 
N339 X-322.313 Y-37.614 Z22.495 B-0.0944 
N340 X-322.313 Y-37.626 Z20.636 B-0.0997 
N341 X-322.313 Y-37.639 Z18.750 B-0.1050 
N342 X-322.313 Y-37.652 Z16.869 A90.6143 B-0.1103 
N343 X-322.313 Y-37.665 Z15.026 A90.6160 B-0.1155 
N344 X-322.313 Y-37.681 Z13.250 A90.6282 B-0.1205 
N345 X-322.313 Y-37.706 Z11.568 A90.6725 B-0.1253 
N346 X-322.313 Y-37.742 Z10.001 A90.7570 B-0.1300 
N347 X-322.313 Y-37.771 Z8.566 A90.8295 B-0.1346 
N348 X-322.313 Y-37.783 Z7.271 A90.8565 B-0.1388 
N349 X-322.313 Y-37.808 Z6.121 A90.9213 B-0.1427 
N350 X-322.313 Y-37.956 Z5.112 A91.3697 B-0.1481 
N351 X-322.313 Y-38.379 Z4.226 A92.6829 B-0.1582 
N352 X-322.313 Y-39.117 Z3.430 A95.0072 B-0.1752 
N353 X-322.313 Y-40.090 Z2.684 A98.1275 B-0.1997 
N354 X-322.314 Y-41.206 Z1.950 A101.7750 B-0.2307 
N355 X-322.314 Y-42.375 Z1.206 A105.6850 B-0.2661 
N356 X-322.314 Y-43.514 Z0.452 A109.6072 B-0.3032 
N357 X-322.314 Y-44.573 Z-0.303 A113.3747 B-0.3393 
N358 X-322.314 Y-45.536 Z-1.051 A116.9286 B-0.3721 
N359 X-322.315 Y-46.407 Z-1.790 A120.2721 B-0.4002 
N360 X-322.315 Y-47.199 Z-2.521 A123.4359 B-0.4231 
N361 X-322.315 Y-47.924 Z-3.251 A126.4609 B-0.4405 
N362 X-322.315 Y-48.590 Z-3.984 A129.3790 B-0.4526 
N363 X-322.315 Y-49.202 Z-4.722 A132.2084 B-0.4595 
N364 X-322.315 Y-49.765 Z-5.470 A134.9700 B-0.4616 
N365 X-322.315 Y-50.283 Z-6.236 A137.6957 B-0.4591 
N366 X-322.315 Y-50.764 Z-7.030 A140.4329 B-0.4523 
N367 X-322.315 Y-51.216 Z-7.871 A143.2432 B-0.4414 
N368 X-322.315 Y-51.641 Z-8.780 A146.1971 B-0.4264 
N369 X-322.315 Y-52.038 Z-9.783 A149.3685 B-0.4074 
N370 X-322.314 Y-52.398 Z-10.904 A152.8222 B-0.3846 
N371 X-322.314 Y-52.697 Z-12.157 A156.5885 B-0.3582 
N372 X-322.314 Y-52.896 Z-13.535 A160.6390 B-0.3292 
N373 X-322.314 Y-52.949 Z-15.003 A164.8740 B-0.2988 
N374 X-322.314 Y-52.812 Z-16.498 A169.1286 B-0.2689 
N375 X-322.314 Y-52.450 Z-17.930 A173.1780 B-0.2415 
N376 X-322.314 Y-51.848 Z-19.168 A176.6863 B-0.2191 
N377 X-322.313 Y-51.012 Z-20.054 A179.2113 B-0.2038 
N378 X-322.313 Y-49.961 Z-20.526 A180.5731 B-0.1958 
N379 X-322.313 Y-48.695 Z-20.702 A181.0921 B-0.1934 
N380 X-322.313 Y-47.195 Z-20.736 A181.2100 B-0.1936 
N381 X-322.313 Y-45.438 Z-20.732 A181.2165 B-0.1945 
N382 X-322.313 Y-43.409 Z-20.724 B-0.1957 
N383 X-322.313 Y-41.103 Z-20.716 B-0.1969 
N384 X-322.313 Y-38.521 Z-20.706 B-0.1984 
N385 X-322.313 Y-35.677 Z-20.695 B-0.2000 
N386 X-322.313 Y-32.597 Z-20.684 B-0.2017 
N387 X-322.313 Y-29.316 Z-20.671 B-0.2035 
N388 X-322.313 Y-25.880 Z-20.658 B-0.2054 
N389 X-322.313 Y-22.343 Z-20.645 B-0.2074 
N390 X-322.313 Y-18.763 Z-20.631 B-0.2094 
N391 X-322.313 Y-15.202 Z-20.618 B-0.2113 
N392 X-322.313 Y-11.720 Z-20.605 B-0.2133 
N393 X-322.314 Y-8.371 Z-20.592 A181.2166 B-0.2151 
N394 X-322.314 Y-5.206 Z-20.588 A181.2404 B-0.2169 
N395 X-322.314 Y-2.261 Z-20.622 A181.3900 B-0.2190 
N396 X-322.314 Y0.433 Z-20.692 A181.6736 B-0.2223 
N397 X-322.314 Y2.858 Z-20.761 A181.9849 B-0.2263 
N398 X-322.314 Y5.009 Z-20.838 A182.3459 B-0.2260 
N399 X-322.314 Y6.885 Z-20.861 A182.5591 B-0.2203 
N400 X-322.313 Y8.499 Z-20.833 A182.6117 B-0.2136 
N401 X-322.313 Y9.873 Z-20.878 A182.8668 B-0.2073 
N402 X-322.313 Y11.043 Z-21.185 A183.9281 B-0.2007 
N403 X-322.313 Y12.062 Z-21.847 A186.1171 B-0.1934 
N404 X-322.313 Y12.990 Z-22.812 A189.3120 B-0.1854 
N405 X-322.313 Y13.881 Z-23.965 A193.1884 B-0.1763 
N406 X-322.313 Y14.764 Z-25.172 A197.3480 B-0.1660 
N407 X-322.313 Y15.640 Z-26.335 A201.4874 B-0.1546 
N408 X-322.313 Y16.502 Z-27.404 A205.4383 B-0.1423 
N409 X-322.313 Y17.344 Z-28.361 A209.1321 B-0.1294 
N410 X-322.313 Y18.162 Z-29.213 A212.5681 B-0.1160 
N411 X-322.313 Y18.961 Z-29.973 A215.7885 B-0.1020 
N412 X-322.313 Y19.748 Z-30.658 A218.8436 B-0.0875 
N413 X-322.313 Y20.532 Z-31.278 A221.7713 B-0.0725 
N414 X-322.313 Y21.319 Z-31.840 A224.6062 B-0.0572 
N415 X-322.312 Y22.117 Z-32.353 A227.3856 B-0.0417 
N416 X-322.312 Y22.937 Z-32.821 A230.1537 B-0.0262 
N417 X-322.312 Y23.796 Z-33.252 A232.9646 B-0.0108 
N418 X-322.312 Y24.712 Z-33.649 A235.8798 B0.0045 
N419 X-322.312 Y25.706 Z-34.010 A238.9619 B0.0196 
N420 X-322.312 Y26.795 Z-34.326 A242.2617 B0.0343 
N421 X-322.312 Y27.989 Z-34.578 A245.7959 B0.0483 
N422 X-322.312 Y29.277 Z-34.735 A249.5307 B0.0612 
N423 X-322.312 Y30.629 Z-34.762 A253.3826 B0.0725 
N424 X-322.312 Y31.999 Z-34.629 A257.2325 B0.0819 
N425 X-322.312 Y33.311 Z-34.308 A260.8867 B0.0890 
N426 X-322.312 Y34.452 Z-33.788 A264.0438 B0.0936 
N427 X-322.312 Y35.314 Z-33.078 A266.4056 B0.0955 
N428 X-322.312 Y35.865 Z-32.199 A267.8835 B0.0951 
N429 X-322.312 Y36.153 Z-31.165 A268.6005 B0.0931 
N430 X-322.312 Y36.273 Z-29.984 A268.8178 B0.0897 
N431 X-322.312 Y36.331 Z-28.660 A268.8434 B0.0855 
N432 X-322.312 Y36.386 Z-27.197 A268.8435 B0.0809 
N433 X-322.312 Y36.446 Z-25.609 B0.0757 
N434 X-322.312 Y36.510 Z-23.911 B0.0696 
N435 X-322.312 Y36.577 Z-22.126 B0.0609 
N436 X-322.312 Y36.647 Z-20.282 B0.0494 
N437 X-322.312 Y36.717 Z-18.409 B0.0363 
N438 X-322.312 Y36.788 Z-16.538 B0.0239 
N439 X-322.312 Y36.857 Z-14.704 B0.0135 
N440 X-322.312 Y36.923 Z-12.934 B0.0057 
N441 X-322.312 Y36.986 Z-11.257 B0.0015 
N442 X-322.312 Y37.045 Z-9.695 B0.0002 
N443 X-322.312 Y37.099 Z-8.263 B0.0000 
N444 X-322.312 Y37.148 Z-6.971 A268.8436 B0.0000 
N445 X-322.312 Y37.203 Z-5.823 A268.8787 
N446 X-322.312 Y37.354 Z-4.820 A269.2288 
N447 X-322.312 Y37.759 Z-3.953 A270.3845 
N448 X-322.312 Y38.479 Z-3.193 A272.5585 
N449 X-322.312 Y39.459 Z-2.495 A275.6010 
N450 X-322.312 Y40.607 Z-1.814 A279.2517 
N451 X-322.312 Y41.829 Z-1.122 A283.2266 
N452 X-322.312 Y43.025 Z-0.415 A287.2245 
N453 X-322.312 Y44.137 Z0.297 A291.0595 
N454 X-322.312 Y45.150 Z1.009 A294.6744 
N455 X-322.312 Y46.073 Z1.717 A298.0851 
N456 X-322.312 Y46.910 Z2.419 A301.2993 
N457 X-322.312 Y47.664 Z3.114 A304.3207 
N458 X-322.312 Y48.346 Z3.801 A307.1751 
N459 X-322.312 Y48.969 Z4.487 A309.9120 
N460 X-322.312 Y49.546 Z5.184 A312.5838 
N461 X-322.312 Y50.088 Z5.900 A315.2385 
N462 X-322.312 Y50.603 Z6.649 A317.9227 
N463 X-322.312 Y51.094 Z7.445 A320.6856 
N464 X-322.312 Y51.566 Z8.304 A323.5807 
N465 X-322.312 Y52.016 Z9.246 A326.6617 
N466 X-322.312 Y52.436 Z10.289 A329.9758 
N467 X-322.312 Y52.809 Z11.447 A333.5544 
N468 X-322.312 Y53.109 Z12.724 A337.3985 
N469 X-322.312 Y53.297 Z14.107 A341.4667 
N470 X-322.312 Y53.334 Z15.562 A345.6650 
N471 X-322.312 Y53.178 Z17.018 A349.8135 
N472 X-322.312 Y52.802 Z18.367 A353.6265 
N473 X-322.312 Y52.198 Z19.487 A356.7915 
N474 X-322.312 Y51.378 Z20.286 A359.0593 
N475 X-322.312 Y50.352 Z20.743 A0.3648 
N476 X-322.312 Y49.119 Z20.936 A0.9256 
N477 X-322.312 Y47.660 Z20.988 A1.0812 
N478 X-322.312 Y45.957 Z20.990 A1.0961 
N479 X-322.312 Y43.994 Z20.987 
N480 X-322.312 Y41.767 Z20.983 
N481 X-322.312 Y39.278 Z20.979 
N482 X-322.312 Y36.541 Z20.974 
N483 X-322.312 Y33.577 Z20.969 
N484 X-322.312 Y30.421 Z20.964 
N485 X-322.312 Y27.113 Z20.958 
N486 X-322.312 Y23.704 Z20.953 
N487 X-322.312 Y20.246 Z20.947 
N488 X-322.312 Y16.796 Z20.941 A1.0965 
N489 X-322.312 Y13.409 Z20.948 A1.1357 
N490 X-322.312 Y10.134 Z21.058 A1.5116 
N491 X-322.312 Y7.013 Z21.304 A2.4017 
N492 X-322.312 Y4.084 Z21.555 A3.4484 
N493 X-322.312 Y1.382 Z21.712 A4.3314 
N494 X-322.312 Y-1.066 Z21.727 A4.8366 B0.0001 
N495 X-322.312 Y-3.252 Z21.671 A5.1273 B0.0024 
N496 X-322.312 Y-5.180 Z21.587 A5.3019 B0.0108 
N497 X-322.312 Y-6.857 Z21.481 A5.3637 B0.0249 
N498 X-322.312 Y-8.301 Z21.397 A5.4453 B0.0418 
N499 X-322.312 Y-9.548 Z21.485 A6.0107 B0.0593 
N500 X-322.312 Y-10.647 Z21.920 A7.6366 B0.0740 
N501 X-322.312 Y-11.654 Z22.702 A10.3756 B0.0836 
N502 X-322.312 Y-12.613 Z23.704 A13.8755 B0.0883 
N503 X-322.312 Y-13.551 Z24.792 A17.7496 B0.0896 
N504 X-322.312 Y-14.474 Z25.866 A21.6858 B0.0884 
N505 X-322.312 Y-15.377 Z26.867 A25.5004 B0.0854 
N506 X-322.312 Y-16.255 Z27.777 A29.1145 B0.0809 
N507 X-322.312 Y-17.108 Z28.594 A32.5115 B0.0753 
N508 X-322.312 Y-17.938 Z29.326 A35.7124 B0.0686 
N509 X-322.312 Y-18.754 Z29.987 A38.7571 B0.0608 
N510 X-322.312 Y-19.563 Z30.584 A41.6796 B0.0520 
N511 X-322.312 Y-20.370 Z31.125 A44.5055 B0.0423 
N512 X-322.312 Y-21.182 Z31.614 A47.2636 B0.0320 
N513 X-322.312 Y-22.010 Z32.056 A49.9928 B0.0210 
N514 X-322.312 Y-22.868 Z32.459 A52.7452 B0.0096 
N515 X-322.312 Y-23.774 Z32.826 A55.5812 B-0.0025 
N516 X-322.312 Y-24.748 Z33.157 A58.5613 B-0.0151 
N517 X-322.312 Y-25.807 Z33.445 A61.7322 B-0.0284 
N518 X-322.313 Y-26.958 Z33.672 A65.1081 B-0.0423 
N519 X-322.313 Y-28.194 Z33.812 A68.6643 B-0.0567 
N520 X-322.313 Y-29.495 Z33.835 A72.3444 B-0.0714 
N521 X-322.313 Y-30.829 Z33.713 A76.0704 B-0.0861 
N522 X-322.313 Y-32.138 Z33.421 A79.6987 B-0.1005 
N523 X-322.313 Y-33.332 Z32.941 A82.9906 B-0.1141 
N524 X-322.313 Y-34.308 Z32.275 A85.6716 B-0.1264 
N525 X-322.313 Y-34.993 Z31.438 A87.5327 B-0.1368 
N526 X-322.313 Y-35.367 Z30.450 A88.5027 B-0.1452 
N527 X-322.313 Y-35.512 Z29.325 A88.8015 B-0.1520 
N528 X-322.313 Y-35.571 Z28.068 A88.8360 B-0.1586 
N529 X-322.313 Y-35.624 Z26.686 A88.8361 B-0.1656 
N530 X-322.313 Y-35.681 Z25.192 A88.8381 B-0.1732 
N531 X-322.313 Y-35.744 Z23.599 A88.8492 B-0.1812 
N532 X-322.313 Y-35.814 Z21.930 A88.8703 B-0.1892 
N533 X-322.313 Y-35.883 Z20.209 A88.8858 B-0.1968 
N534 X-322.313 Y-35.949 Z18.465 A88.8924 B-0.2041 
N535 X-322.313 Y-36.017 Z16.726 A88.9048 B-0.2109 
N536 X-322.314 Y-36.093 Z15.022 A88.9459 B-0.2172 
N537 X-322.314 Y-36.197 Z13.381 A89.0857 B-0.2235 
N538 X-322.314 Y-36.341 Z11.827 A89.3742 B-0.2305 
N539 X-322.314 Y-36.502 Z10.378 A89.7475 B-0.2378 
N540 X-322.314 Y-36.627 Z9.048 A90.0461 B-0.2444 
N541 X-322.314 Y-36.689 Z7.847 A90.1753 B-0.2496 
N542 X-322.314 Y-36.727 Z6.779 A90.2470 B-0.2543 
N543 X-322.314 Y-36.860 Z5.841 A90.6140 B-0.2612 
N544 X-322.314 Y-37.257 Z5.022 A91.8085 B-0.2750 
N545 X-322.314 Y-37.989 Z4.288 A94.0734 B-0.2984 
N546 X-322.314 Y-38.973 Z3.598 A97.1811 B-0.3308 
N547 X-322.314 Y-40.093 Z2.917 A100.7896 B-0.3700 
N548 X-322.315 Y-41.260 Z2.225 A104.6390 B-0.4133 
N549 X-322.315 Y-42.401 Z1.518 A108.5028 B-0.4575 
N550 X-322.315 Y-43.460 Z0.808 A112.2064 B-0.4995 
N551 X-322.315 Y-44.418 Z0.105 A115.6746 B-0.5372 
N552 X-322.316 Y-45.281 Z-0.587 A118.9176 B-0.5696 
N553 X-322.316 Y-46.067 Z-1.272 A121.9789 B-0.5966 
N554 X-322.316 Y-46.789 Z-1.957 A124.9100 B-0.6181 
N555 X-322.316 Y-47.462 Z-2.648 A127.7549 B-0.6344 
N556 X-322.316 Y-48.090 Z-3.352 A130.5399 B-0.6457 
N557 X-322.316 Y-48.676 Z-4.070 A133.2814 B-0.6522 
N558 X-322.316 Y-49.224 Z-4.810 A136.0008 B-0.6540 
N559 X-322.316 Y-49.737 Z-5.578 A138.7314 B-0.6513 
N560 X-322.316 Y-50.222 Z-6.390 A141.5238 B-0.6443 
N561 X-322.316 Y-50.682 Z-7.264 A144.4410 B-0.6329 
N562 X-322.316 Y-51.119 Z-8.225 A147.5528 B-0.6171 
N563 X-322.316 Y-51.527 Z-9.295 A150.9275 B-0.5967 
N564 X-322.316 Y-51.888 Z-10.496 A154.6139 B-0.5717 
N565 X-322.315 Y-52.169 Z-11.831 A158.6111 B-0.5424 
N566 X-322.315 Y-52.327 Z-13.276 A162.8422 B-0.5098 
N567 X-322.315 Y-52.314 Z-14.771 A167.1441 B-0.4754 
N568 X-322.315 Y-52.090 Z-16.227 A171.2862 B-0.4416 
N569 X-322.315 Y-51.638 Z-17.540 A175.0068 B-0.4112 
N570 X-322.315 Y-50.957 Z-18.590 A177.9904 B-0.3870 
N571 X-322.314 Y-50.062 Z-19.268 A179.9336 B-0.3716 
N572 X-322.314 Y-48.963 Z-19.590 A180.8684 B-0.3645 
N573 X-322.314 Y-47.650 Z-19.690 A181.1746 B-0.3629 
N574 X-322.314 Y-46.103 Z-19.700 A181.2212 B-0.3635 
N575 X-322.314 Y-44.303 Z-19.693 A181.2217 B-0.3645 
N576 X-322.314 Y-42.238 Z-19.685 B-0.3657 
N577 X-322.314 Y-39.908 Z-19.676 B-0.3670 
N578 X-322.314 Y-37.319 Z-19.666 B-0.3685 
N579 X-322.314 Y-34.490 Z-19.655 B-0.3702 
N580 X-322.314 Y-31.449 Z-19.644 B-0.3719 
N581 X-322.314 Y-28.235 Z-19.631 B-0.3738 
N582 X-322.314 Y-24.895 Z-19.618 B-0.3757 
N583 X-322.314 Y-21.482 Z-19.605 B-0.3777 
N584 X-322.314 Y-18.054 Z-19.592 B-0.3797 
N585 X-322.314 Y-14.668 Z-19.579 B-0.3816 
N586 X-322.314 Y-11.379 Z-19.566 B-0.3835 
N587 X-322.314 Y-8.238 Z-19.554 A181.2224 B-0.3853 
N588 X-322.315 Y-5.286 Z-19.566 A181.2957 B-0.3869 
N589 X-322.315 Y-2.554 Z-19.663 A181.6510 B-0.3887 
N590 X-322.315 Y-0.064 Z-19.830 A182.2748 B-0.3924 
N591 X-322.315 Y2.173 Z-20.020 A183.0357 B-0.3969 
N592 X-322.315 Y4.153 Z-20.199 A183.8254 B-0.3942 
N593 X-322.314 Y5.872 Z-20.251 A184.2549 B-0.3838 
N594 X-322.314 Y7.345 Z-20.217 A184.4101 B-0.3726 
N595 X-322.314 Y8.606 Z-20.290 A184.8654 B-0.3609 
N596 X-322.314 Y9.702 Z-20.683 A186.2970 B-0.3462 
N597 X-322.314 Y10.692 Z-21.455 A188.9335 B-0.3278 
N598 X-322.314 Y11.631 Z-22.488 A192.4580 B-0.3066 
N599 X-322.314 Y12.553 Z-23.635 A196.4461 B-0.2835 
N600 X-322.314 Y13.467 Z-24.776 A200.5319 B-0.2593 
N601 X-322.314 Y14.365 Z-25.838 A204.4837 B-0.2348 
N602 X-322.313 Y15.240 Z-26.795 A208.2015 B-0.2107 
N603 X-322.313 Y16.087 Z-27.646 A211.6662 B-0.1870 
N604 X-322.313 Y16.911 Z-28.402 A214.9018 B-0.1638 
N605 X-322.313 Y17.718 Z-29.079 A217.9596 B-0.1407 
N606 X-322.313 Y18.520 Z-29.692 A220.8966 B-0.1176 
N607 X-322.313 Y19.327 Z-30.251 A223.7554 B-0.0941 
N608 X-322.313 Y20.149 Z-30.762 A226.5717 B-0.0704 
N609 X-322.313 Y20.995 Z-31.229 A229.3837 B-0.0465 
N610 X-322.312 Y21.881 Z-31.655 A232.2395 B-0.0225 
N611 X-322.312 Y22.826 Z-32.044 A235.2004 B0.0016 
N612 X-322.312 Y23.850 Z-32.394 A238.3315 B0.0257 
N613 X-322.312 Y24.973 Z-32.693 A241.6831 B0.0497 
N614 X-322.312 Y26.200 Z-32.921 A245.2614 B0.0731 
N615 X-322.312 Y27.513 Z-33.043 A249.0126 B0.0953 
N616 X-322.312 Y28.877 Z-33.025 A252.8384 B0.1152 
N617 X-322.311 Y30.239 Z-32.835 A256.6029 B0.1323 
N618 X-322.311 Y31.509 Z-32.449 A260.0707 B0.1455 
N619 X-322.311 Y32.567 Z-31.859 A262.9119 B0.1538 
N620 X-322.311 Y33.329 Z-31.079 A264.8938 B0.1570 
N621 X-322.311 Y33.787 Z-30.129 A265.9901 B0.1558 
N622 X-322.311 Y34.012 Z-29.027 A266.3901 B0.1511 
N623 X-322.311 Y34.134 Z-27.783 A266.4559 B0.1443 
N624 X-322.311 Y34.243 Z-26.410 A266.4572 B0.1366 
N625 X-322.312 Y34.362 Z-24.916 B0.1281 
N626 X-322.312 Y34.489 Z-23.317 B0.1191 
N627 X-322.312 Y34.623 Z-21.634 B0.1096 
N628 X-322.312 Y34.761 Z-19.891 B0.0998 
N629 X-322.312 Y34.902 Z-18.118 B0.0898 
N630 X-322.312 Y35.043 Z-16.344 B0.0796 
N631 X-322.312 Y35.182 Z-14.599 B0.0677 
N632 X-322.312 Y35.316 Z-12.914 B0.0518 
N633 X-322.312 Y35.443 Z-11.312 B0.0336 
N634 X-322.312 Y35.562 Z-9.816 B0.0180 
N635 X-322.312 Y35.671 Z-8.442 B0.0078 
N636 X-322.312 Y35.770 Z-7.200 B0.0026 
N637 X-322.312 Y35.862 Z-6.095 A266.4703 B0.0006 
N638 X-322.312 Y36.016 Z-5.130 A266.7079 B0.0001 
N639 X-322.312 Y36.405 Z-4.306 A267.7018 B0.0000 
N640 X-322.312 Y37.137 Z-3.602 A269.8114 
N641 X-322.312 Y38.162 Z-2.968 A272.8917 
N642 X-322.312 Y39.352 Z-2.355 A276.5735 
N643 X-322.312 Y40.608 Z-1.733 A280.5519 
N644 X-322.312 Y41.841 Z-1.092 A284.5599 
N645 X-322.312 Y42.988 Z-0.439 A288.4002 
N646 X-322.312 Y44.030 Z0.214 A291.9938 
N647 X-322.312 Y44.972 Z0.864 A295.3536 
N648 X-322.312 Y45.832 Z1.512 A298.5233 
N649 X-322.312 Y46.616 Z2.158 A301.5200 
N650 X-322.312 Y47.329 Z2.800 A304.3539 
N651 X-322.312 Y47.979 Z3.440 A307.0497 
N652 X-322.312 Y48.579 Z4.083 A309.6528 
N653 X-322.312 Y49.142 Z4.741 A312.2141 
N654 X-322.312 Y49.678 Z5.424 A314.7830 
N655 X-322.312 Y50.194 Z6.146 A317.4084 
N656 X-322.312 Y50.696 Z6.921 A320.1410 
N657 X-322.312 Y51.186 Z7.767 A323.0353 
N658 X-322.312 Y51.661 Z8.703 A326.1431 
N659 X-322.312 Y52.113 Z9.747 A329.5060 
N660 X-322.312 Y52.521 Z10.911 A333.1463 
N661 X-322.312 Y52.856 Z12.197 A337.0555 
N662 X-322.312 Y53.083 Z13.589 A341.1850 
N663 X-322.312 Y53.161 Z15.051 A345.4378 
N664 X-322.312 Y53.050 Z16.514 A349.6312 
N665 X-322.312 Y52.722 Z17.860 A353.4551 
N666 X-322.312 Y52.174 Z18.963 A356.5779 
N667 X-322.312 Y51.422 Z19.751 A358.8134 
N668 X-322.312 Y50.477 Z20.226 A0.1673 
N669 X-322.312 Y49.336 Z20.450 A0.8115 
N670 X-322.312 Y47.985 Z20.523 A1.0278 
N671 X-322.312 Y46.406 Z20.534 A1.0628 
N672 X-322.312 Y44.586 Z20.532 A1.0633 
N673 X-322.312 Y42.518 Z20.529 
N674 X-322.312 Y40.204 Z20.527 
N675 X-322.312 Y37.655 Z20.524 
N676 X-322.312 Y34.891 Z20.521 
N677 X-322.312 Y31.941 Z20.518 
N678 X-322.312 Y28.841 Z20.514 
N679 X-322.312 Y25.636 Z20.511 
N680 X-322.312 Y22.373 Z20.507 
N681 X-322.312 Y19.102 Z20.504 
N682 X-322.312 Y15.874 Z20.502 A1.0683 
N683 X-322.312 Y12.735 Z20.544 A1.2124 
N684 X-322.312 Y9.721 Z20.799 A2.0667 
N685 X-322.312 Y6.857 Z21.253 A3.7026 
N686 X-322.312 Y4.171 Z21.708 A5.5735 
N687 X-322.312 Y1.702 Z21.974 A7.0608 B0.0004 
N688 X-322.312 Y-0.520 Z22.016 A7.9437 B0.0071 
N689 X-322.312 Y-2.493 Z21.926 A8.4169 B0.0284 
N690 X-322.312 Y-4.227 Z21.769 A8.6334 B0.0586 
N691 X-322.312 Y-5.739 Z21.598 A8.7327 B0.0848 
N692 X-322.312 Y-7.056 Z21.490 A8.9485 B0.1019 
N693 X-322.312 Y-8.218 Z21.580 A9.7154 B0.1132 
N694 X-322.312 Y-9.281 Z22.007 A11.5048 B0.1207 
N695 X-322.312 Y-10.295 Z22.754 A14.3216 B0.1247 
N696 X-322.312 Y-11.289 Z23.687 A17.7951 B0.1253 
N697 X-322.312 Y-12.272 Z24.677 A21.5509 B0.1229 
N698 X-322.312 Y-13.239 Z25.634 A25.3119 B0.1183 
N699 X-322.312 Y-14.180 Z26.515 A28.9252 B0.1117 
N700 X-322.312 Y-15.091 Z27.305 A32.3359 B0.1036 
N701 X-322.312 Y-15.972 Z28.008 A35.5450 B0.0944 
N702 X-322.312 Y-16.831 Z28.636 A38.5839 B0.0839 
N703 X-322.312 Y-17.677 Z29.202 A41.5001 B0.0723 
N704 X-322.312 Y-18.521 Z29.714 A44.3329 B0.0594 
N705 X-322.312 Y-19.369 Z30.175 A47.1084 B0.0454 
N706 X-322.312 Y-20.233 Z30.589 A49.8568 B0.0303 
N707 X-322.312 Y-21.123 Z30.961 A52.6235 B0.0142 
N708 X-322.312 Y-22.061 Z31.293 A55.4702 B-0.0029 
N709 X-322.312 Y-23.067 Z31.586 A58.4620 B-0.0211 
N710 X-322.312 Y-24.157 Z31.831 A61.6468 B-0.0408 
N711 X-322.313 Y-25.338 Z32.009 A65.0328 B-0.0619 
N712 X-322.313 Y-26.599 Z32.093 A68.5869 B-0.0841 
N713 X-322.313 Y-27.918 Z32.053 A72.2501 B-0.1074 
N714 X-322.313 Y-29.256 Z31.862 A75.9247 B-0.1311 
N715 X-322.313 Y-30.541 Z31.494 A79.4241 B-0.1546 
N716 X-322.313 Y-31.672 Z30.936 A82.4769 B-0.1766 
N717 X-322.313 Y-32.544 Z30.196 A84.7900 B-0.1955 
N718 X-322.313 Y-33.079 Z29.293 A86.1300 B-0.2103 
N719 X-322.314 Y-33.321 Z28.248 A86.6044 B-0.2210 
N720 X-322.314 Y-33.434 Z27.079 A86.6748 B-0.2303 
N721 X-322.314 Y-33.532 Z25.798 A86.6806 B-0.2400 
N722 X-322.314 Y-33.643 Z24.416 A86.7012 B-0.2501 
N723 X-322.314 Y-33.774 Z22.948 A86.7625 B-0.2606 
N724 X-322.314 Y-33.922 Z21.413 A86.8712 B-0.2710 
N725 X-322.314 Y-34.064 Z19.831 A86.9582 B-0.2809 
N726 X-322.314 Y-34.185 Z18.227 A86.9827 B-0.2901 
N727 X-322.314 Y-34.301 Z16.629 A86.9921 B-0.2986 
N728 X-322.314 Y-34.428 Z15.063 A87.0462 B-0.3062 
N729 X-322.314 Y-34.606 Z13.556 A87.2750 B-0.3145 
N730 X-322.314 Y-34.863 Z12.131 A87.7846 B-0.3250 
N731 X-322.314 Y-35.145 Z10.800 A88.4260 B-0.3366 
N732 X-322.314 Y-35.369 Z9.576 A88.9522 B-0.3470 
N733 X-322.314 Y-35.498 Z8.466 A89.2268 B-0.3547 
N734 X-322.314 Y-35.577 Z7.475 A89.3763 B-0.3611 
N735 X-322.314 Y-35.720 Z6.605 A89.7368 B-0.3695 
N736 X-322.314 Y-36.082 Z5.847 A90.7895 B-0.3854 
N737 X-322.315 Y-36.768 Z5.175 A92.8732 B-0.4131 
N738 X-322.315 Y-37.729 Z4.547 A95.8605 B-0.4520 
N739 X-322.315 Y-38.836 Z3.926 A99.3691 B-0.4987 
N740 X-322.315 Y-39.992 Z3.294 A103.1198 B-0.5495 
N741 X-322.316 Y-41.135 Z2.643 A106.9172 B-0.6010 
N742 X-322.316 Y-42.208 Z1.980 A110.5908 B-0.6499 
N743 X-322.316 Y-43.182 Z1.321 A114.0306 B-0.6937 
N744 X-322.317 Y-44.055 Z0.671 A117.2221 B-0.7314 
N745 X-322.317 Y-44.843 Z0.031 A120.2108 B-0.7631 
N746 X-322.317 Y-45.568 Z-0.608 A123.0579 B-0.7892 
N747 X-322.317 Y-46.245 Z-1.254 A125.8194 B-0.8101 
N748 X-322.317 Y-46.885 Z-1.913 A128.5358 B-0.8263 
N749 X-322.317 Y-47.490 Z-2.593 A131.2294 B-0.8378 
N750 X-322.317 Y-48.064 Z-3.296 A133.9159 B-0.8447 
N751 X-322.317 Y-48.607 Z-4.029 A136.6163 B-0.8470 
N752 X-322.317 Y-49.123 Z-4.800 A139.3649 B-0.8449 
N753 X-322.317 Y-49.616 Z-5.627 A142.2138 B-0.8383 
N754 X-322.317 Y-50.090 Z-6.528 A145.2265 B-0.8270 
N755 X-322.317 Y-50.542 Z-7.528 A148.4706 B-0.8106 
N756 X-322.317 Y-50.962 Z-8.650 A152.0077 B-0.7890 
N757 X-322.317 Y-51.327 Z-9.910 A155.8716 B-0.7618 
N758 X-322.316 Y-51.599 Z-11.302 A160.0348 B-0.7293 
N759 X-322.316 Y-51.730 Z-12.786 A164.3790 B-0.6924 
N760 X-322.316 Y-51.674 Z-14.285 A168.6910 B-0.6534 
N761 X-322.316 Y-51.400 Z-15.692 A172.7017 B-0.6153 
N762 X-322.316 Y-50.901 Z-16.907 A176.1544 B-0.5816 
N763 X-322.315 Y-50.187 Z-17.824 A178.7717 B-0.5557 
N764 X-322.315 Y-49.273 Z-18.369 A180.3424 B-0.5402 
N765 X-322.315 Y-48.163 Z-18.598 A181.0166 B-0.5339 
N766 X-322.315 Y-46.842 Z-18.657 A181.2031 B-0.5329 
N767 X-322.315 Y-45.291 Z-18.658 A181.2225 B-0.5336 
N768 X-322.315 Y-43.493 Z-18.651 A181.2225 B-0.5347 
N769 X-322.315 Y-41.440 Z-18.643 B-0.5359 
N770 X-322.315 Y-39.135 Z-18.634 B-0.5373 
N771 X-322.315 Y-36.587 Z-18.624 B-0.5388 
N772 X-322.315 Y-33.816 Z-18.613 B-0.5404 
N773 X-322.315 Y-30.853 Z-18.602 B-0.5422 
N774 X-322.315 Y-27.738 Z-18.590 B-0.5440 
N775 X-322.315 Y-24.517 Z-18.577 B-0.5459 
N776 X-322.315 Y-21.243 Z-18.565 B-0.5478 
N777 X-322.315 Y-17.970 Z-18.552 B-0.5498 
N778 X-322.315 Y-14.753 Z-18.539 B-0.5517 
N779 X-322.315 Y-11.641 Z-18.527 B-0.5535 
N780 X-322.315 Y-8.681 Z-18.516 A181.2232 B-0.5552 
N781 X-322.315 Y-5.908 Z-18.535 A181.3149 B-0.5565 
N782 X-322.315 Y-3.349 Z-18.678 A181.8133 B-0.5569 
N783 X-322.315 Y-1.017 Z-18.946 A182.7701 B-0.5585 
N784 X-322.316 Y1.082 Z-19.279 A184.0282 B-0.5611 
N785 X-322.315 Y2.944 Z-19.581 A185.2891 B-0.5570 
N786 X-322.315 Y4.560 Z-19.708 A186.0681 B-0.5427 
N787 X-322.315 Y5.943 Z-19.712 A186.4609 B-0.5252 
N788 X-322.315 Y7.136 Z-19.816 A187.1306 B-0.5058 
N789 X-322.315 Y8.193 Z-20.219 A188.7055 B-0.4821 
N790 X-322.315 Y9.176 Z-20.982 A191.4257 B-0.4523 
N791 X-322.315 Y10.132 Z-21.993 A194.9914 B-0.4177 
N792 X-322.314 Y11.083 Z-23.095 A198.9544 B-0.3803 
N793 X-322.314 Y12.027 Z-24.172 A202.9568 B-0.3424 
N794 X-322.314 Y12.951 Z-25.157 A206.7800 B-0.3053 
N795 X-322.314 Y13.845 Z-26.031 A210.3430 B-0.2698 
N796 X-322.314 Y14.708 Z-26.799 A213.6514 B-0.2360 
N797 X-322.313 Y15.546 Z-27.477 A216.7474 B-0.2035 
N798 X-322.313 Y16.370 Z-28.084 A219.6935 B-0.1718 
N799 X-322.313 Y17.198 Z-28.637 A222.5611 B-0.1402 
N800 X-322.313 Y18.044 Z-29.144 A225.4042 B-0.1081 
N801 X-322.313 Y18.919 Z-29.610 A228.2600 B-0.0755 
N802 X-322.313 Y19.834 Z-30.033 A231.1614 B-0.0425 
N803 X-322.312 Y20.806 Z-30.412 A234.1538 B-0.0092 
N804 X-322.312 Y21.854 Z-30.746 A237.2990 B0.0243 
N805 X-322.312 Y22.999 Z-31.025 A240.6545 B0.0577 
N806 X-322.312 Y24.247 Z-31.227 A244.2323 B0.0906 
N807 X-322.312 Y25.579 Z-31.317 A247.9727 B0.1220 
N808 X-322.311 Y26.957 Z-31.260 A251.7673 B0.1506 
N809 X-322.311 Y28.318 Z-31.022 A255.4533 B0.1750 
N810 X-322.311 Y29.556 Z-30.580 A258.7423 B0.1933 
N811 X-322.311 Y30.547 Z-29.927 A261.2934 B0.2040 
N812 X-322.311 Y31.224 Z-29.080 A262.9120 B0.2069 
N813 X-322.311 Y31.603 Z-28.064 A263.6327 B0.2029 
N814 X-322.311 Y31.807 Z-26.900 A263.7964 B0.1944 
N815 X-322.311 Y31.972 Z-25.610 A263.8053 B0.1839 
N816 X-322.311 Y32.150 Z-24.206 B0.1725 
N817 X-322.311 Y32.339 Z-22.703 B0.1603 
N818 X-322.311 Y32.540 Z-21.118 B0.1475 
N819 X-322.311 Y32.747 Z-19.474 B0.1341 
N820 X-322.312 Y32.959 Z-17.798 B0.1205 
N821 X-322.312 Y33.171 Z-16.117 B0.1069 
N822 X-322.312 Y33.380 Z-14.461 B0.0934 
N823 X-322.312 Y33.582 Z-12.857 B0.0800 
N824 X-322.312 Y33.775 Z-11.330 B0.0648 
N825 X-322.312 Y33.956 Z-9.900 B0.0467 
N826 X-322.312 Y34.122 Z-8.583 B0.0282 
N827 X-322.312 Y34.273 Z-7.390 A263.8056 B0.0135 
N828 X-322.312 Y34.409 Z-6.325 A263.8107 B0.0050 
N829 X-322.312 Y34.571 Z-5.395 A263.9455 B0.0015 
N830 X-322.312 Y34.915 Z-4.607 A264.6927 B0.0004 
N831 X-322.312 Y35.611 Z-3.958 A266.5836 B0.0001 
N832 X-322.312 Y36.649 Z-3.399 A269.6071 B0.0000 
N833 X-322.312 Y37.887 Z-2.868 A273.3313 B0.0000 
N834 X-322.312 Y39.191 Z-2.327 A277.3533 
N835 X-322.312 Y40.474 Z-1.762 A281.4080 
N836 X-322.312 Y41.675 Z-1.177 A285.3021 
N837 X-322.312 Y42.764 Z-0.584 A288.9341 
N838 X-322.312 Y43.742 Z0.008 A292.2919 
N839 X-322.312 Y44.627 Z0.597 A295.4261 
N840 X-322.312 Y45.440 Z1.189 A298.3937 
N841 X-322.312 Y46.188 Z1.783 A301.2182 
N842 X-322.312 Y46.875 Z2.378 A303.9099 
N843 X-322.312 Y47.508 Z2.975 A306.4866 
N844 X-322.312 Y48.096 Z3.579 A308.9838 
N845 X-322.312 Y48.650 Z4.199 A311.4484 
N846 X-322.312 Y49.183 Z4.845 A313.9302 
N847 X-322.312 Y49.701 Z5.532 A316.4802 
N848 X-322.312 Y50.211 Z6.274 A319.1518 
N849 X-322.312 Y50.718 Z7.091 A322.0016 
N850 X-322.312 Y51.218 Z8.002 A325.0851 
N851 X-322.312 Y51.703 Z9.027 A328.4446 
N852 X-322.312 Y52.154 Z10.176 A332.1005 
N853 X-322.312 Y52.540 Z11.453 A336.0398 
N854 X-322.312 Y52.825 Z12.841 A340.2114 
N855 X-322.312 Y52.968 Z14.310 A344.5244 
N856 X-322.312 Y52.932 Z15.796 A348.8195 
N857 X-322.312 Y52.685 Z17.190 A352.8071 
N858 X-322.312 Y52.220 Z18.345 A356.0953 
N859 X-322.312 Y51.555 Z19.169 A358.4350 
N860 X-322.312 Y50.707 Z19.666 A359.8485 
N861 X-322.312 Y49.678 Z19.913 A0.5482 
N862 X-322.312 Y48.454 Z20.018 A0.8451 
N863 X-322.312 Y47.018 Z20.065 A0.9807 
N864 X-322.312 Y45.359 Z20.082 A1.0317 
N865 X-322.312 Y43.468 Z20.083 A1.0395 
N866 X-322.312 Y41.347 Z20.082 A1.0396 
N867 X-322.312 Y39.003 Z20.080 
N868 X-322.312 Y36.453 Z20.078 
N869 X-322.312 Y33.722 Z20.077 
N870 X-322.312 Y30.844 Z20.075 
N871 X-322.312 Y27.856 Z20.072 
N872 X-322.312 Y24.801 Z20.070 
N873 X-322.312 Y21.724 Z20.068 
N874 X-322.312 Y18.670 Z20.066 
N875 X-322.312 Y15.681 Z20.067 A1.0496 
N876 X-322.312 Y12.795 Z20.132 A1.2617 
N877 X-322.312 Y10.036 Z20.479 A2.4053 
N878 X-322.312 Y7.407 Z21.131 A4.7003 
N879 X-322.312 Y4.919 Z21.827 A7.4366 B0.0001 
N880 X-322.312 Y2.617 Z22.305 A9.7753 B0.0034 
N881 X-322.312 Y0.551 Z22.464 A11.2776 B0.0197 
N882 X-322.312 Y-1.275 Z22.396 A12.0977 B0.0525 
N883 X-322.312 Y-2.874 Z22.195 A12.4460 B0.0847 
N884 X-322.312 Y-4.275 Z21.957 A12.5864 B0.1071 
N885 X-322.312 Y-5.512 Z21.784 A12.8285 B0.1238 
N886 X-322.311 Y-6.628 Z21.782 A13.5256 B0.1373 
N887 X-322.311 Y-7.673 Z22.058 A15.0483 B0.1469 
N888 X-322.311 Y-8.695 Z22.636 A17.5229 B0.1517 
N889 X-322.311 Y-9.718 Z23.418 A20.7042 B0.1519 
N890 X-322.311 Y-10.745 Z24.283 A24.2435 B0.1481 
N891 X-322.311 Y-11.764 Z25.137 A27.8588 B0.1410 
N892 X-322.311 Y-12.762 Z25.927 A31.3724 B0.1316 
N893 X-322.312 Y-13.730 Z26.633 A34.7065 B0.1204 
N894 X-322.312 Y-14.666 Z27.254 A37.8501 B0.1077 
N895 X-322.312 Y-15.577 Z27.800 A40.8294 B0.0938 
N896 X-322.312 Y-16.473 Z28.283 A43.6935 B0.0785 
N897 X-322.312 Y-17.369 Z28.714 A46.4901 B0.0616 
N898 X-322.312 Y-18.273 Z29.095 A49.2505 B0.0430 
N899 X-322.312 Y-19.198 Z29.427 A52.0110 B0.0230 
N900 X-322.312 Y-20.162 Z29.716 A54.8317 B0.0013 
N901 X-322.312 Y-21.190 Z29.963 A57.7884 B-0.0222 
N902 X-322.313 Y-22.302 Z30.163 A60.9427 B-0.0480 
N903 X-322.313 Y-23.505 Z30.295 A64.3081 B-0.0762 
N904 X-322.313 Y-24.789 Z30.332 A67.8482 B-0.1066 
N905 X-322.313 Y-26.127 Z30.244 A71.4938 B-0.1388 
N906 X-322.313 Y-27.469 Z29.999 A75.1069 B-0.1719 
N907 X-322.313 Y-28.723 Z29.573 A78.4421 B-0.2042 
N908 X-322.314 Y-29.778 Z28.958 A81.1907 B-0.2334 
N909 X-322.314 Y-30.527 Z28.164 A83.0498 B-0.2571 
N910 X-322.314 Y-30.951 Z27.216 A83.9435 B-0.2743 
N911 X-322.314 Y-31.173 Z26.141 A84.2162 B-0.2872 
N912 X-322.314 Y-31.332 Z24.963 A84.2762 B-0.2990 
N913 X-322.314 Y-31.489 Z23.694 A84.2992 B-0.3109 
N914 X-322.314 Y-31.668 Z22.351 A84.3631 B-0.3233 
N915 X-322.314 Y-31.880 Z20.949 A84.5153 B-0.3360 
N916 X-322.314 Y-32.096 Z19.507 A84.6757 B-0.3481 
N917 X-322.314 Y-32.278 Z18.044 A84.7378 B-0.3586 
N918 X-322.314 Y-32.442 Z16.583 A84.7491 B-0.3683 
N919 X-322.314 Y-32.616 Z15.152 A84.8006 B-0.3780 
N920 X-322.315 Y-32.846 Z13.776 A85.0495 B-0.3887 
N921 X-322.315 Y-33.197 Z12.480 A85.7134 B-0.4034 
N922 X-322.315 Y-33.612 Z11.270 A86.6483 B-0.4211 
N923 X-322.315 Y-33.967 Z10.151 A87.4806 B-0.4376 
N924 X-322.315 Y-34.193 Z9.129 A87.9846 B-0.4497 
N925 X-322.315 Y-34.326 Z8.212 A88.2446 B-0.4585 
N926 X-322.315 Y-34.484 Z7.404 A88.6081 B-0.4684 
N927 X-322.315 Y-34.805 Z6.702 A89.4963 B-0.4854 
N928 X-322.315 Y-35.410 Z6.088 A91.2893 B-0.5151 
N929 X-322.315 Y-36.310 Z5.524 A94.0337 B-0.5586 
N930 X-322.316 Y-37.391 Z4.971 A97.3998 B-0.6118 
N931 X-322.316 Y-38.537 Z4.406 A101.0436 B-0.6699 
N932 X-322.316 Y-39.683 Z3.819 A104.7695 B-0.7291 
N933 X-322.317 Y-40.782 Z3.211 A108.4371 B-0.7862 
N934 X-322.317 Y-41.795 Z2.594 A111.9135 B-0.8380 
N935 X-322.317 Y-42.702 Z1.983 A115.1283 B-0.8828 
N936 X-322.318 Y-43.512 Z1.382 A118.0986 B-0.9205 
N937 X-322.318 Y-44.247 Z0.787 A120.8879 B-0.9520 
N938 X-322.318 Y-44.929 Z0.190 A123.5662 B-0.9780 
N939 X-322.318 Y-45.574 Z-0.419 A126.1915 B-0.9993 
N940 X-322.318 Y-46.191 Z-1.049 A128.8025 B-1.0161 
N941 X-322.318 Y-46.783 Z-1.704 A131.4206 B-1.0285 
N942 X-322.318 Y-47.352 Z-2.389 A134.0614 B-1.0366 
N943 X-322.318 Y-47.897 Z-3.112 A136.7454 B-1.0404 
N944 X-322.318 Y-48.421 Z-3.880 A139.5060 B-1.0396 
N945 X-322.318 Y-48.928 Z-4.712 A142.3958 B-1.0341 
N946 X-322.318 Y-49.420 Z-5.629 A145.4790 B-1.0235 
N947 X-322.318 Y-49.893 Z-6.653 A148.8221 B-1.0073 
N948 X-322.318 Y-50.333 Z-7.809 A152.4813 B-0.9849 
N949 X-322.318 Y-50.714 Z-9.109 A156.4817 B-0.9558 
N950 X-322.318 Y-50.995 Z-10.543 A160.7803 B-0.9201 
N951 X-322.317 Y-51.126 Z-12.059 A165.2281 B-0.8788 
N952 X-322.317 Y-51.060 Z-13.563 A169.5709 B-0.8347 
N953 X-322.317 Y-50.773 Z-14.940 A173.5071 B-0.7917 
N954 X-322.317 Y-50.269 Z-16.091 A176.7908 B-0.7542 
N955 X-322.316 Y-49.561 Z-16.927 A179.1890 B-0.7260 
N956 X-322.316 Y-48.663 Z-17.396 A180.5481 B-0.7100 
N957 X-322.316 Y-47.578 Z-17.575 A181.0783 B-0.7040 
N958 X-322.316 Y-46.289 Z-17.615 A181.2088 B-0.7032 
N959 X-322.316 Y-44.776 Z-17.613 A181.2203 B-0.7040 
N960 X-322.316 Y-43.026 Z-17.607 B-0.7050 
N961 X-322.316 Y-41.033 Z-17.599 B-0.7062 
N962 X-322.316 Y-38.799 Z-17.590 B-0.7075 
N963 X-322.316 Y-36.335 Z-17.581 B-0.7090 
N964 X-322.316 Y-33.664 Z-17.571 B-0.7106 
N965 X-322.316 Y-30.814 Z-17.560 B-0.7123 
N966 X-322.316 Y-27.826 Z-17.548 B-0.7141 
N967 X-322.316 Y-24.744 Z-17.536 A181.2203 B-0.7159 
N968 X-322.316 Y-21.619 Z-17.524 B-0.7178 
N969 X-322.316 Y-18.501 Z-17.512 B-0.7196 
N970 X-322.316 Y-15.442 Z-17.501 B-0.7215 
N971 X-322.316 Y-12.489 Z-17.489 B-0.7232 
N972 X-322.316 Y-9.684 Z-17.478 A181.2203 B-0.7249 
N973 X-322.316 Y-7.058 Z-17.484 A181.2685 B-0.7261 
N974 X-322.316 Y-4.636 Z-17.618 A181.7272 B-0.7251 
N975 X-322.316 Y-2.424 Z-17.948 A182.8582 B-0.7225 
N976 X-322.316 Y-0.421 Z-18.419 A184.5471 B-0.7198 
N977 X-322.316 Y1.373 Z-18.895 A186.3891 B-0.7132 
N978 X-322.316 Y2.946 Z-19.202 A187.8089 B-0.6947 
N979 X-322.316 Y4.293 Z-19.318 A188.6643 B-0.6698 
N980 X-322.316 Y5.459 Z-19.445 A189.5317 B-0.6428 
N981 X-322.316 Y6.499 Z-19.780 A191.0233 B-0.6114 
N982 X-322.316 Y7.476 Z-20.421 A193.4752 B-0.5727 
N983 X-322.315 Y8.440 Z-21.319 A196.7911 B-0.5267 
N984 X-322.315 Y9.410 Z-22.337 A200.5797 B-0.4764 
N985 X-322.315 Y10.382 Z-23.351 A204.4815 B-0.4249 
N986 X-322.314 Y11.341 Z-24.289 A208.2554 B-0.3747 
N987 X-322.314 Y12.273 Z-25.120 A211.7911 B-0.3269 
N988 X-322.314 Y13.176 Z-25.845 A215.0783 B-0.2819 
N989 X-322.314 Y14.054 Z-26.478 A218.1574 B-0.2391 
N990 X-322.313 Y14.921 Z-27.036 A221.0881 B-0.1979 
N991 X-322.313 Y15.793 Z-27.536 A223.9449 B-0.1573 
N992 X-322.313 Y16.689 Z-27.990 A226.7974 B-0.1163 
N993 X-322.313 Y17.625 Z-28.399 A229.6922 B-0.0746 
N994 X-322.312 Y18.614 Z-28.761 A232.6670 B-0.0322 
N995 X-322.312 Y19.675 Z-29.072 A235.7764 B0.0105 
N996 X-322.312 Y20.832 Z-29.327 A239.0891 B0.0534 
N997 X-322.312 Y22.094 Z-29.505 A242.6328 B0.0960 
N998 X-322.311 Y23.443 Z-29.570 A246.3441 B0.1369 
N999 X-322.311 Y24.836 Z-29.484 A250.0985 B0.1743 
N1000 X-322.311 Y26.202 Z-29.211 A253.7036 B0.2059 
N1001 X-322.311 Y27.419 Z-28.723 A256.8246 B0.2289 
N1002 X-322.311 Y28.363 Z-28.017 A259.1115 B0.2411 
N1003 X-322.311 Y28.973 Z-27.110 A260.3784 B0.2421 
N1004 X-322.311 Y29.308 Z-26.033 A260.7879 B0.2343 
N1005 X-322.311 Y29.541 Z-24.824 A260.8353 B0.2223 
N1006 X-322.311 Y29.778 Z-23.506 A260.8355 B0.2089 
N1007 X-322.311 Y30.031 Z-22.093 B0.1945 
N1008 X-322.311 Y30.298 Z-20.602 B0.1793 
N1009 X-322.311 Y30.576 Z-19.053 B0.1634 
N1010 X-322.311 Y30.860 Z-17.470 B0.1473 
N1011 X-322.311 Y31.145 Z-15.880 B0.1310 
N1012 X-322.312 Y31.427 Z-14.308 B0.1150 
N1013 X-322.312 Y31.701 Z-12.782 A260.8355 B0.0994 
N1014 X-322.312 Y31.962 Z-11.324 B0.0845 
N1015 X-322.312 Y32.207 Z-9.956 B0.0697 
N1016 X-322.312 Y32.434 Z-8.692 B0.0530 
N1017 X-322.312 Y32.640 Z-7.544 A260.8367 B0.0342 
N1018 X-322.312 Y32.830 Z-6.518 A260.8558 B0.0181 
N1019 X-322.312 Y33.029 Z-5.619 A260.9708 B0.0080 
N1020 X-322.312 Y33.346 Z-4.860 A261.5193 B0.0030 
N1021 X-322.312 Y33.962 Z-4.252 A263.0649 B0.0009 
N1022 X-322.312 Y34.945 Z-3.763 A265.8209 B0.0002 
N1023 X-322.312 Y36.188 Z-3.325 A269.4654 B0.0000 
N1024 X-322.312 Y37.531 Z-2.881 A273.5042 B0.0000 
N1025 X-322.312 Y38.868 Z-2.408 A277.6142 
N1026 X-322.312 Y40.135 Z-1.904 A281.5979 
N1027 X-322.312 Y41.294 Z-1.380 A285.3310 
N1028 X-322.312 Y42.333 Z-0.849 A288.7683 
N1029 X-322.312 Y43.264 Z-0.317 A291.9304 
N1030 X-322.312 Y44.109 Z0.215 A294.8830 
N1031 X-322.312 Y44.890 Z0.754 A297.6921 
N1032 X-322.312 Y45.618 Z1.300 A300.3873 
N1033 X-322.312 Y46.293 Z1.853 A302.9771 
N1034 X-322.312 Y46.921 Z2.411 A305.4694 
N1035 X-322.312 Y47.505 Z2.978 A307.8856 
N1036 X-322.312 Y48.058 Z3.559 A310.2644 
N1037 X-322.312 Y48.588 Z4.164 A312.6535 
N1038 X-322.312 Y49.107 Z4.807 A315.1053 
N1039 X-322.312 Y49.622 Z5.502 A317.6756 
N1040 X-322.312 Y50.139 Z6.270 A320.4244 
N1041 X-322.312 Y50.659 Z7.132 A323.4145 
N1042 X-322.312 Y51.176 Z8.109 A326.6987 
N1043 X-322.312 Y51.674 Z9.218 A330.3063 
N1044 X-322.312 Y52.123 Z10.463 A334.2308 
N1045 X-322.312 Y52.487 Z11.833 A338.4221 
N1046 X-322.312 Y52.723 Z13.299 A342.7932 
N1047 X-322.312 Y52.793 Z14.812 A347.2141 
N1048 X-322.312 Y52.662 Z16.283 A351.4604 
N1049 X-322.312 Y52.314 Z17.566 A355.1391 
N1050 X-322.312 Y51.761 Z18.514 A357.8465 
N1051 X-322.312 Y51.028 Z19.085 A359.4725 
N1052 X-322.312 Y50.126 Z19.363 A0.2569 
N1053 X-322.312 Y49.046 Z19.479 A0.5730 
N1054 X-322.312 Y47.772 Z19.553 A0.7722 
N1055 X-322.312 Y46.288 Z19.613 A0.9439 
N1056 X-322.312 Y44.589 Z19.637 A1.0125 
N1057 X-322.312 Y42.671 Z19.638 A1.0190 
N1058 X-322.312 Y40.540 Z19.637 
N1059 X-322.312 Y38.210 Z19.637 
N1060 X-322.312 Y35.702 Z19.636 
N1061 X-322.312 Y33.045 Z19.635 
N1062 X-322.312 Y30.274 Z19.634 
N1063 X-322.312 Y27.427 Z19.633 
N1064 X-322.312 Y24.546 Z19.632 
N1065 X-322.312 Y21.671 Z19.631 
N1066 X-322.312 Y18.842 Z19.630 
N1067 X-322.312 Y16.093 Z19.631 A1.0254 
N1068 X-322.312 Y13.455 Z19.683 A1.1917 
N1069 X-322.312 Y10.945 Z19.995 A2.2018 
N1070 X-322.312 Y8.548 Z20.749 A4.7556 
N1071 X-322.312 Y6.246 Z21.690 A8.2205 B0.0000 
N1072 X-322.312 Y4.060 Z22.522 A11.7095 B0.0023 
N1073 X-322.312 Y2.068 Z22.979 A14.2984 B0.0176 
N1074 X-322.312 Y0.312 Z23.085 A15.8958 B0.0477 
N1075 X-322.312 Y-1.215 Z22.941 A16.6921 B0.0801 
N1076 X-322.312 Y-2.546 Z22.669 A16.9971 B0.1069 
N1077 X-322.312 Y-3.725 Z22.388 A17.1679 B0.1278 
N1078 X-322.311 Y-4.802 Z22.219 A17.5900 B0.1448 
N1079 X-322.311 Y-5.823 Z22.253 A18.5855 B0.1579 
N1080 X-322.311 Y-6.831 Z22.541 A20.3592 B0.1661 
N1081 X-322.311 Y-7.857 Z23.067 A22.9152 B0.1687 
N1082 X-322.311 Y-8.911 Z23.743 A26.0328 B0.1659 
N1083 X-322.311 Y-9.983 Z24.473 A29.4337 B0.1584 
N1084 X-322.311 Y-11.054 Z25.181 A32.8855 B0.1473 
N1085 X-322.311 Y-12.108 Z25.824 A36.2380 B0.1336 
N1086 X-322.312 Y-13.133 Z26.383 A39.4250 B0.1180 
N1087 X-322.312 Y-14.127 Z26.861 A42.4393 B0.1007 
N1088 X-322.312 Y-15.100 Z27.266 A45.3152 B0.0819 
N1089 X-322.312 Y-16.067 Z27.609 A48.1095 B0.0611 
N1090 X-322.312 Y-17.039 Z27.897 A50.8661 B0.0381 
N1091 X-322.312 Y-18.035 Z28.132 A53.6371 B0.0130 
N1092 X-322.312 Y-19.080 Z28.321 A56.5096 B-0.0147 
N1093 X-322.313 Y-20.206 Z28.465 A59.5781 B-0.0457 
N1094 X-322.313 Y-21.427 Z28.550 A62.8838 B-0.0805 
N1095 X-322.313 Y-22.733 Z28.547 A66.3918 B-0.1188 
N1096 X-322.313 Y-24.095 Z28.421 A70.0109 B-0.1600 
N1097 X-322.313 Y-25.442 Z28.137 A73.5497 B-0.2023 
N1098 X-322.314 Y-26.668 Z27.668 A76.7034 B-0.2428 
N1099 X-322.314 Y-27.653 Z27.009 A79.1390 B-0.2779 
N1100 X-322.314 Y-28.317 Z26.176 A80.6169 B-0.3046 
N1101 X-322.314 Y-28.707 Z25.202 A81.2611 B-0.3236 
N1102 X-322.314 Y-28.960 Z24.121 A81.4662 B-0.3385 
N1103 X-322.314 Y-29.173 Z22.956 A81.5208 B-0.3522 
N1104 X-322.314 Y-29.398 Z21.726 A81.5818 B-0.3663 
N1105 X-322.314 Y-29.662 Z20.450 A81.7403 B-0.3811 
N1106 X-322.315 Y-29.945 Z19.142 A81.9540 B-0.3956 
N1107 X-322.315 Y-30.194 Z17.814 A82.0712 B-0.4081 
N1108 X-322.315 Y-30.410 Z16.486 A82.0932 B-0.4188 
N1109 X-322.315 Y-30.627 Z15.185 A82.1351 B-0.4295 
N1110 X-322.315 Y-30.894 Z13.937 A82.3534 B-0.4416 
N1111 X-322.315 Y-31.299 Z12.769 A83.0463 B-0.4595 
N1112 X-322.315 Y-31.837 Z11.689 A84.2313 B-0.4843 
N1113 X-322.315 Y-32.353 Z10.687 A85.4464 B-0.5098 
N1114 X-322.315 Y-32.724 Z9.763 A86.3093 B-0.5296 
N1115 X-322.315 Y-32.943 Z8.924 A86.7689 B-0.5428 
N1116 X-322.315 Y-33.126 Z8.180 A87.1587 B-0.5547 
N1117 X-322.316 Y-33.423 Z7.535 A87.9310 B-0.5727 
N1118 X-322.316 Y-33.950 Z6.978 A89.4391 B-0.6029 
N1119 X-322.316 Y-34.757 Z6.482 A91.8463 B-0.6485 
N1120 X-322.316 Y-35.787 Z6.004 A94.9931 B-0.7068 
N1121 X-322.317 Y-36.917 Z5.515 A98.5114 B-0.7719 
N1122 X-322.317 Y-38.060 Z5.003 A102.1435 B-0.8387 
N1123 X-322.318 Y-39.175 Z4.464 A105.7667 B-0.9042 
N1124 X-322.318 Y-40.231 Z3.902 A109.2830 B-0.9655 
N1125 X-322.318 Y-41.195 Z3.332 A112.5843 B-1.0197 
N1126 X-322.318 Y-42.053 Z2.767 A115.6171 B-1.0658 
N1127 X-322.319 Y-42.818 Z2.212 A118.4092 B-1.1042 
N1128 X-322.319 Y-43.514 Z1.662 A121.0323 B-1.1361 
N1129 X-322.319 Y-44.163 Z1.106 A123.5618 B-1.1628 
N1130 X-322.319 Y-44.783 Z0.535 A126.0594 B-1.1850 
N1131 X-322.319 Y-45.382 Z-0.060 A128.5651 B-1.2031 
N1132 X-322.319 Y-45.964 Z-0.685 A131.1016 B-1.2172 
N1133 X-322.319 Y-46.530 Z-1.345 A133.6845 B-1.2273 
N1134 X-322.319 Y-47.079 Z-2.047 A136.3330 B-1.2331 
N1135 X-322.319 Y-47.614 Z-2.801 A139.0780 B-1.2345 
N1136 X-322.319 Y-48.137 Z-3.622 A141.9700 B-1.2311 
N1137 X-322.319 Y-48.650 Z-4.533 A145.0748 B-1.2224 
N1138 X-322.319 Y-49.148 Z-5.559 A148.4602 B-1.2076 
N1139 X-322.319 Y-49.618 Z-6.722 A152.1825 B-1.1857 
N1140 X-322.319 Y-50.033 Z-8.038 A156.2669 B-1.1558 
N1141 X-322.319 Y-50.350 Z-9.496 A160.6727 B-1.1176 
N1142 X-322.318 Y-50.515 Z-11.043 A165.2416 B-1.0721 
N1143 X-322.318 Y-50.482 Z-12.576 A169.6912 B-1.0225 
N1144 X-322.318 Y-50.227 Z-13.963 A173.6761 B-0.9738 
N1145 X-322.318 Y-49.757 Z-15.101 A176.9368 B-0.9312 
N1146 X-322.317 Y-49.092 Z-15.916 A179.2818 B-0.8994 
N1147 X-322.317 Y-48.249 Z-16.364 A180.5842 B-0.8812 
N1148 X-322.317 Y-47.226 Z-16.525 A181.0586 B-0.8743 
N1149 X-322.317 Y-46.009 Z-16.561 A181.1760 B-0.8728 
N1150 X-322.317 Y-44.579 Z-16.565 A181.2025 B-0.8730 
N1151 X-322.317 Y-42.923 Z-16.563 A181.2147 B-0.8738 
N1152 X-322.317 Y-41.034 Z-16.557 A181.2188 B-0.8750 
N1153 X-322.317 Y-38.915 Z-16.549 A181.2190 B-0.8763 
N1154 X-322.317 Y-36.577 Z-16.540 B-0.8778 
N1155 X-322.317 Y-34.039 Z-16.531 B-0.8794 
N1156 X-322.317 Y-31.330 Z-16.520 B-0.8812 
N1157 X-322.317 Y-28.489 Z-16.509 B-0.8830 
N1158 X-322.317 Y-25.556 Z-16.498 B-0.8849 
N1159 X-322.317 Y-22.581 Z-16.487 B-0.8868 
N1160 X-322.317 Y-19.612 Z-16.475 B-0.8887 
N1161 X-322.317 Y-16.696 Z-16.464 B-0.8905 
N1162 X-322.317 Y-13.879 Z-16.454 B-0.8923 
N1163 X-322.317 Y-11.199 Z-16.443 B-0.8940 
N1164 X-322.317 Y-8.688 Z-16.435 A181.2240 B-0.8956 
N1165 X-322.317 Y-6.368 Z-16.493 A181.4335 B-0.8952 
N1166 X-322.317 Y-4.246 Z-16.773 A182.3609 B-0.8899 
N1167 X-322.317 Y-2.314 Z-17.302 A184.1698 B-0.8802 
N1168 X-322.317 Y-0.558 Z-17.962 A186.5380 B-0.8676 
N1169 X-322.317 Y1.016 Z-18.546 A188.8272 B-0.8468 
N1170 X-322.317 Y2.390 Z-18.914 A190.5447 B-0.8137 
N1171 X-322.317 Y3.575 Z-19.145 A191.8560 B-0.7762 
N1172 X-322.317 Y4.626 Z-19.432 A193.3305 B-0.7362 
N1173 X-322.316 Y5.601 Z-19.905 A195.3826 B-0.6910 
N1174 X-322.316 Y6.555 Z-20.602 A198.1689 B-0.6381 
N1175 X-322.316 Y7.523 Z-21.465 A201.5548 B-0.5783 
N1176 X-322.315 Y8.509 Z-22.388 A205.2391 B-0.5149 
N1177 X-322.315 Y9.503 Z-23.282 A208.9607 B-0.4511 
N1178 X-322.315 Y10.489 Z-24.097 A212.5500 B-0.3893 
N1179 X-322.314 Y11.457 Z-24.811 A215.9335 B-0.3307 
N1180 X-322.314 Y12.404 Z-25.427 A219.1098 B-0.2754 
N1181 X-322.314 Y13.339 Z-25.954 A222.1161 B-0.2229 
N1182 X-322.313 Y14.274 Z-26.406 A225.0136 B-0.1722 
N1183 X-322.313 Y15.233 Z-26.798 A227.8867 B-0.1218 
N1184 X-322.313 Y16.235 Z-27.134 A230.8029 B-0.0710 
N1185 X-322.312 Y17.296 Z-27.411 A233.8074 B-0.0197 
N1186 X-322.312 Y18.437 Z-27.626 A236.9654 B0.0316 
N1187 X-322.312 Y19.682 Z-27.769 A240.3510 B0.0829 
N1188 X-322.311 Y21.027 Z-27.811 A243.9473 B0.1330 
N1189 X-322.311 Y22.430 Z-27.709 A247.6262 B0.1795 
N1190 X-322.311 Y23.814 Z-27.421 A251.1699 B0.2191 
N1191 X-322.311 Y25.043 Z-26.911 A254.1934 B0.2475 
N1192 X-322.311 Y25.980 Z-26.168 A256.2973 B0.2614 
N1193 X-322.311 Y26.564 Z-25.212 A257.2975 B0.2603 
N1194 X-322.311 Y26.911 Z-24.091 A257.5227 B0.2492 
N1195 X-322.311 Y27.211 Z-22.854 A257.5335 B0.2347 
N1196 X-322.311 Y27.529 Z-21.526 B0.2190 
N1197 X-322.311 Y27.865 Z-20.123 B0.2024 
N1198 X-322.311 Y28.215 Z-18.663 B0.1851 
N1199 X-322.311 Y28.573 Z-17.166 B0.1674 
N1200 X-322.311 Y28.934 Z-15.658 B0.1495 
N1201 X-322.311 Y29.292 Z-14.163 A257.5335 B0.1319 
N1202 X-322.312 Y29.641 Z-12.706 B0.1146 
N1203 X-322.312 Y29.975 Z-11.310 B0.0981 
N1204 X-322.312 Y30.290 Z-9.995 B0.0824 
N1205 X-322.312 Y30.582 Z-8.775 B0.0666 
N1206 X-322.312 Y30.848 Z-7.664 A257.5336 B0.0497 
N1207 X-322.312 Y31.092 Z-6.668 A257.5479 B0.0329 
N1208 X-322.312 Y31.332 Z-5.793 A257.6406 B0.0186 
N1209 X-322.312 Y31.636 Z-5.051 A258.0195 B0.0088 
N1210 X-322.312 Y32.153 Z-4.463 A259.1506 B0.0034 
N1211 X-322.312 Y33.019 Z-4.026 A261.4567 B0.0010 
N1212 X-322.312 Y34.210 Z-3.680 A264.8518 B0.0002 
N1213 X-322.312 Y35.575 Z-3.349 A268.8617 B0.0000 
N1214 X-322.312 Y36.969 Z-2.988 A273.0400 B0.0000 
N1215 X-322.312 Y38.309 Z-2.586 A277.1378 
N1216 X-322.312 Y39.554 Z-2.149 A281.0175 
N1217 X-322.312 Y40.680 Z-1.689 A284.6068 
N1218 X-322.312 Y41.687 Z-1.219 A287.8932 
N1219 X-322.312 Y42.590 Z-0.745 A290.9107 
N1220 X-322.312 Y43.411 Z-0.267 A293.7271 
N1221 X-322.312 Y44.175 Z0.221 A296.4159 
N1222 X-322.312 Y44.894 Z0.721 A299.0157 
N1223 X-322.312 Y45.570 Z1.233 A301.5357 
N1224 X-322.312 Y46.203 Z1.755 A303.9748 
N1225 X-322.312 Y46.795 Z2.286 A306.3383 
N1226 X-322.312 Y47.352 Z2.828 A308.6496 
N1227 X-322.312 Y47.884 Z3.390 A310.9497 
N1228 X-322.312 Y48.402 Z3.982 A313.2891 
N1229 X-322.312 Y48.916 Z4.620 A315.7242 
N1230 X-322.312 Y49.435 Z5.320 A318.3169 
N1231 X-322.312 Y49.963 Z6.107 A321.1349 
N1232 X-322.312 Y50.502 Z7.003 A324.2466 
N1233 X-322.312 Y51.040 Z8.033 A327.7040 
N1234 X-322.312 Y51.556 Z9.210 A331.5249 
N1235 X-322.312 Y52.013 Z10.532 A335.6774 
N1236 X-322.312 Y52.367 Z11.976 A340.0774 
N1237 X-322.312 Y52.574 Z13.499 A344.6061 
N1238 X-322.312 Y52.596 Z15.037 A349.1008 
N1239 X-322.312 Y52.407 Z16.483 A353.2823 
N1240 X-322.312 Y52.004 Z17.663 A356.6771 
N1241 X-322.312 Y51.411 Z18.432 A358.8849 
N1242 X-322.312 Y50.654 Z18.807 A359.9519 
N1243 X-322.312 Y49.736 Z18.952 A0.3467 
N1244 X-322.312 Y48.641 Z19.021 A0.5232 
N1245 X-322.312 Y47.353 Z19.099 A0.7303 
N1246 X-322.312 Y45.862 Z19.168 A0.9246 
N1247 X-322.312 Y44.162 Z19.192 A0.9934 
N1248 X-322.312 Y42.256 Z19.193 A0.9985 
N1249 X-322.312 Y40.152 Z19.193 
N1250 X-322.312 Y37.867 Z19.193 
N1251 X-322.312 Y35.426 Z19.194 
N1252 X-322.312 Y32.860 Z19.194 
N1253 X-322.312 Y30.204 Z19.194 
N1254 X-322.312 Y27.500 Z19.194 
N1255 X-322.312 Y24.785 Z19.194 
N1256 X-322.312 Y22.099 Z19.194 
N1257 X-322.312 Y19.476 Z19.194 
N1258 X-322.312 Y16.948 Z19.194 A0.9994 
N1259 X-322.312 Y14.537 Z19.217 A1.0696 
N1260 X-322.312 Y12.258 Z19.390 A1.6211 
N1261 X-322.312 Y10.099 Z20.005 A3.6304 
N1262 X-322.312 Y8.014 Z21.050 A7.2261 
N1263 X-322.312 Y5.966 Z22.232 A11.6282 B0.0001 
N1264 X-322.312 Y4.001 Z23.202 A15.7660 B0.0058 
N1265 X-322.312 Y2.217 Z23.748 A18.8475 B0.0297 
N1266 X-322.312 Y0.663 Z23.897 A20.7806 B0.0628 
N1267 X-322.312 Y-0.666 Z23.754 A21.7629 B0.0895 
N1268 X-322.312 Y-1.818 Z23.457 A22.1694 B0.1110 
N1269 X-322.311 Y-2.852 Z23.135 A22.3934 B0.1305 
N1270 X-322.311 Y-3.825 Z22.901 A22.8142 B0.1478 
N1271 X-322.311 Y-4.785 Z22.842 A23.7389 B0.1614 
N1272 X-322.311 Y-5.767 Z22.994 A25.3293 B0.1698 
N1273 X-322.311 Y-6.796 Z23.347 A27.6125 B0.1722 
N1274 X-322.311 Y-7.881 Z23.847 A30.4641 B0.1683 
N1275 X-322.311 Y-9.009 Z24.413 A33.6632 B0.1587 
N1276 X-322.311 Y-10.157 Z24.971 A36.9864 B0.1445 
N1277 X-322.312 Y-11.298 Z25.470 A40.2595 B0.1269 
N1278 X-322.312 Y-12.413 Z25.883 A43.3841 B0.1069 
N1279 X-322.312 Y-13.496 Z26.205 A46.3314 B0.0849 
N1280 X-322.312 Y-14.555 Z26.444 A49.1386 B0.0608 
N1281 X-322.312 Y-15.609 Z26.614 A51.8722 B0.0341 
N1282 X-322.312 Y-16.681 Z26.724 A54.6162 B0.0044 
N1283 X-322.312 Y-17.811 Z26.787 A57.5065 B-0.0295 
N1284 X-322.313 Y-19.038 Z26.807 A60.6596 B-0.0687 
N1285 X-322.313 Y-20.361 Z26.758 A64.0742 B-0.1135 
N1286 X-322.313 Y-21.747 Z26.599 A67.6357 B-0.1629 
N1287 X-322.313 Y-23.111 Z26.288 A71.0993 B-0.2140 
N1288 X-322.314 Y-24.331 Z25.792 A74.1037 B-0.2621 
N1289 X-322.314 Y-25.287 Z25.104 A76.3075 B-0.3023 
N1290 X-322.314 Y-25.932 Z24.248 A77.5632 B-0.3319 
N1291 X-322.314 Y-26.343 Z23.265 A78.0936 B-0.3526 
N1292 X-322.314 Y-26.642 Z22.193 A78.2550 B-0.3689 
N1293 X-322.314 Y-26.922 Z21.063 A78.3300 B-0.3842 
N1294 X-322.315 Y-27.233 Z19.897 A78.4763 B-0.4004 
N1295 X-322.315 Y-27.572 Z18.709 A78.7036 B-0.4169 
N1296 X-322.315 Y-27.891 Z17.508 A78.8768 B-0.4314 
N1297 X-322.315 Y-28.165 Z16.306 A78.9257 B-0.4431 
N1298 X-322.315 Y-28.426 Z15.128 A78.9533 B-0.4541 
N1299 X-322.315 Y-28.720 Z14.000 A79.1143 B-0.4666 
N1300 X-322.315 Y-29.136 Z12.952 A79.6998 B-0.4855 
N1301 X-322.315 Y-29.743 Z12.006 A80.9615 B-0.5159 
N1302 X-322.315 Y-30.421 Z11.139 A82.5512 B-0.5525 
N1303 X-322.316 Y-30.989 Z10.330 A83.9101 B-0.5848 
N1304 X-322.316 Y-31.362 Z9.583 A84.7628 B-0.6074 
N1305 X-322.316 Y-31.604 Z8.910 A85.2769 B-0.6232 
N1306 X-322.316 Y-31.889 Z8.324 A85.9620 B-0.6420 
N1307 X-322.316 Y-32.355 Z7.825 A87.2366 B-0.6723 
N1308 X-322.316 Y-33.063 Z7.394 A89.2944 B-0.7180 
N1309 X-322.317 Y-34.005 Z6.996 A92.1115 B-0.7789 
N1310 X-322.317 Y-35.099 Z6.594 A95.4472 B-0.8498 
N1311 X-322.318 Y-36.237 Z6.168 A98.9783 B-0.9242 
N1312 X-322.318 Y-37.357 Z5.713 A102.5211 B-0.9979 
N1313 X-322.318 Y-38.437 Z5.228 A106.0100 B-1.0686 
N1314 X-322.319 Y-39.460 Z4.716 A109.3898 B-1.1340 
N1315 X-322.319 Y-40.397 Z4.191 A112.5681 B-1.1917 
N1316 X-322.319 Y-41.231 Z3.668 A115.4852 B-1.2404 
N1317 X-322.320 Y-41.972 Z3.155 A118.1572 B-1.2809 
N1318 X-322.320 Y-42.643 Z2.646 A120.6538 B-1.3144 
N1319 X-322.320 Y-43.268 Z2.132 A123.0549 B-1.3426 
N1320 X-322.320 Y-43.867 Z1.602 A125.4285 B-1.3663 
N1321 X-322.320 Y-44.451 Z1.047 A127.8221 B-1.3863 
N1322 X-322.320 Y-45.024 Z0.459 A130.2618 B-1.4026 
N1323 X-322.320 Y-45.588 Z-0.165 A132.7640 B-1.4153 
N1324 X-322.321 Y-46.141 Z-0.834 A135.3463 B-1.4240 
N1325 X-322.321 Y-46.685 Z-1.556 A138.0355 B-1.4285 
N1326 X-322.321 Y-47.222 Z-2.345 A140.8759 B-1.4283 
N1327 X-322.321 Y-47.754 Z-3.224 A143.9336 B-1.4229 
N1328 X-322.320 Y-48.281 Z-4.220 A147.2824 B-1.4111 
N1329 X-322.320 Y-48.789 Z-5.358 A150.9864 B-1.3917 
N1330 X-322.320 Y-49.253 Z-6.656 A155.0809 B-1.3632 
N1331 X-322.320 Y-49.634 Z-8.114 A159.5455 B-1.3247 
N1332 X-322.320 Y-49.876 Z-9.689 A164.2483 B-1.2764 
N1333 X-322.319 Y-49.924 Z-11.278 A168.9055 B-1.2213 
N1334 X-322.319 Y-49.749 Z-12.736 A173.1240 B-1.1653 
N1335 X-322.319 Y-49.356 Z-13.930 A176.5631 B-1.1157 
N1336 X-322.319 Y-48.771 Z-14.787 A179.0337 B-1.0779 
N1337 X-322.318 Y-48.015 Z-15.264 A180.4192 B-1.0557 
N1338 X-322.318 Y-47.093 Z-15.426 A180.8930 B-1.0474 
N1339 X-322.318 Y-45.989 Z-15.473 A181.0298 B-1.0449 
N1340 X-322.318 Y-44.685 Z-15.506 A181.1356 B-1.0437 
N1341 X-322.318 Y-43.167 Z-15.523 A181.2000 B-1.0435 
N1342 X-322.318 Y-41.427 Z-15.524 A181.2229 B-1.0442 
N1343 X-322.318 Y-39.467 Z-15.517 A181.2256 B-1.0455 
N1344 X-322.318 Y-37.293 Z-15.509 B-1.0469 
N1345 X-322.318 Y-34.923 Z-15.499 A181.2256 B-1.0485 
N1346 X-322.318 Y-32.382 Z-15.489 B-1.0502 
N1347 X-322.318 Y-29.705 Z-15.479 B-1.0519 
N1348 X-322.318 Y-26.932 Z-15.468 B-1.0538 
N1349 X-322.318 Y-24.107 Z-15.457 B-1.0556 
N1350 X-322.318 Y-21.277 Z-15.446 B-1.0575 
N1351 X-322.318 Y-18.487 Z-15.435 B-1.0593 
N1352 X-322.318 Y-15.782 Z-15.424 B-1.0611 
N1353 X-322.318 Y-13.199 Z-15.414 B-1.0628 
N1354 X-322.318 Y-10.770 Z-15.404 A181.2256 B-1.0644 
N1355 X-322.318 Y-8.517 Z-15.401 A181.2433 B-1.0657 
N1356 X-322.318 Y-6.454 Z-15.502 A181.5849 B-1.0633 
N1357 X-322.318 Y-4.577 Z-15.883 A182.8359 B-1.0524 
N1358 X-322.318 Y-2.862 Z-16.575 A185.1682 B-1.0321 
N1359 X-322.318 Y-1.285 Z-17.405 A188.1087 B-1.0057 
N1360 X-322.318 Y0.149 Z-18.154 A190.9693 B-0.9695 
N1361 X-322.318 Y1.419 Z-18.700 A193.3115 B-0.9201 
N1362 X-322.317 Y2.535 Z-19.110 A195.2804 B-0.8654 
N1363 X-322.317 Y3.545 Z-19.528 A197.2865 B-0.8095 
N1364 X-322.317 Y4.502 Z-20.044 A199.6195 B-0.7503 
N1365 X-322.316 Y5.450 Z-20.687 A202.4033 B-0.6857 
N1366 X-322.316 Y6.421 Z-21.435 A205.6070 B-0.6152 
N1367 X-322.315 Y7.423 Z-22.229 A209.0738 B-0.5408 
N1368 X-322.315 Y8.452 Z-23.006 A212.6301 B-0.4652 
N1369 X-322.315 Y9.495 Z-23.720 A216.1408 B-0.3909 
N1370 X-322.314 Y10.541 Z-24.345 A219.5230 B-0.3194 
N1371 X-322.314 Y11.582 Z-24.869 A222.7385 B-0.2515 
N1372 X-322.313 Y12.617 Z-25.287 A225.7809 B-0.1877 
N1373 X-322.313 Y13.655 Z-25.607 A228.6932 B-0.1271 
N1374 X-322.313 Y14.720 Z-25.841 A231.5682 B-0.0680 
N1375 X-322.312 Y15.835 Z-25.996 A234.4925 B-0.0098 
N1376 X-322.312 Y17.033 Z-26.077 A237.5761 B0.0480 
N1377 X-322.312 Y18.341 Z-26.075 A240.9095 B0.1057 
N1378 X-322.311 Y19.734 Z-25.952 A244.4155 B0.1608 
N1379 X-322.311 Y21.139 Z-25.659 A247.8713 B0.2092 
N1380 X-322.311 Y22.411 Z-25.144 A250.8543 B0.2446 
N1381 X-322.311 Y23.388 Z-24.381 A252.8768 B0.2616 
N1382 X-322.311 Y24.001 Z-23.387 A253.7286 B0.2595 
N1383 X-322.311 Y24.407 Z-22.230 A253.8668 B0.2464 
N1384 X-322.311 Y24.794 Z-20.976 A253.8691 B0.2305 
N1385 X-322.311 Y25.203 Z-19.649 B0.2136 
N1386 X-322.311 Y25.629 Z-18.266 B0.1960 
N1387 X-322.311 Y26.067 Z-16.847 B0.1779 
N1388 X-322.311 Y26.509 Z-15.412 B0.1596 
N1389 X-322.311 Y26.949 Z-13.986 A253.8691 B0.1414 
N1390 X-322.312 Y27.379 Z-12.590 B0.1237 
N1391 X-322.312 Y27.793 Z-11.248 B0.1066 
N1392 X-322.312 Y28.184 Z-9.979 B0.0904 
N1393 X-322.312 Y28.548 Z-8.798 B0.0752 
N1394 X-322.312 Y28.881 Z-7.717 B0.0609 
N1395 X-322.312 Y29.183 Z-6.744 A253.8732 B0.0467 
N1396 X-322.312 Y29.467 Z-5.885 A253.9309 B0.0322 
N1397 X-322.312 Y29.777 Z-5.153 A254.1782 B0.0189 
N1398 X-322.312 Y30.212 Z-4.568 A254.9306 B0.0092 
N1399 X-322.312 Y30.922 Z-4.150 A256.6538 B0.0038 
N1400 X-322.312 Y31.978 Z-3.874 A259.5529 B0.0013 
N1401 X-322.312 Y33.301 Z-3.660 A263.3601 B0.0004 
N1402 X-322.312 Y34.731 Z-3.434 A267.5627 B0.0001 
N1403 X-322.312 Y36.144 Z-3.161 A271.7818 B0.0000 
N1404 X-322.312 Y37.478 Z-2.838 A275.8260 B0.0000 
N1405 X-322.312 Y38.704 Z-2.474 A279.6057 B0.0000 
N1406 X-322.312 Y39.812 Z-2.083 A283.0853 
N1407 X-322.312 Y40.805 Z-1.675 A286.2701 
N1408 X-322.312 Y41.699 Z-1.259 A289.1967 
N1409 X-322.312 Y42.513 Z-0.834 A291.9253 
N1410 X-322.312 Y43.273 Z-0.398 A294.5296 
N1411 X-322.312 Y43.994 Z0.055 A297.0616 
N1412 X-322.312 Y44.680 Z0.525 A299.5373 
N1413 X-322.312 Y45.329 Z1.011 A301.9516 
N1414 X-322.312 Y45.940 Z1.507 A304.2954 
N1415 X-322.312 Y46.513 Z2.014 A306.5723 
N1416 X-322.312 Y47.055 Z2.534 A308.8076 
N1417 X-322.312 Y47.576 Z3.075 A311.0440 
N1418 X-322.312 Y48.088 Z3.650 A313.3348 
N1419 X-322.312 Y48.602 Z4.273 A315.7399 
N1420 X-322.312 Y49.125 Z4.966 A318.3255 
N1421 X-322.312 Y49.665 Z5.751 A321.1660 
N1422 X-322.312 Y50.222 Z6.659 A324.3376 
N1423 X-322.312 Y50.786 Z7.713 A327.8988 
N1424 X-322.312 Y51.329 Z8.929 A331.8659 
N1425 X-322.312 Y51.811 Z10.302 A336.1928 
N1426 X-322.312 Y52.181 Z11.799 A340.7670 
N1427 X-322.312 Y52.393 Z13.367 A345.4386 
N1428 X-322.312 Y52.410 Z14.932 A350.0248 
N1429 X-322.312 Y52.213 Z16.382 A354.2322 
N1430 X-322.312 Y51.805 Z17.526 A357.5479 
N1431 X-322.312 Y51.217 Z18.205 A359.5119 
N1432 X-322.312 Y50.477 Z18.456 A0.2224 
N1433 X-322.312 Y49.581 Z18.510 A0.3513 
N1434 X-322.312 Y48.513 Z18.552 A0.4448 
N1435 X-322.312 Y47.256 Z18.633 A0.6585 
N1436 X-322.312 Y45.800 Z18.713 A0.8818 
N1437 X-322.312 Y44.143 Z18.745 A0.9698 
N1438 X-322.312 Y42.286 Z18.748 A0.9779 
N1439 X-322.312 Y40.241 Z18.749 
N1440 X-322.312 Y38.025 Z18.750 
N1441 X-322.312 Y35.665 Z18.751 
N1442 X-322.312 Y33.192 Z18.752 
N1443 X-322.312 Y30.645 Z18.753 
N1444 X-322.312 Y28.063 Z18.754 
N1445 X-322.312 Y25.485 Z18.754 
N1446 X-322.312 Y22.950 Z18.755 
N1447 X-322.312 Y20.493 Z18.756 
N1448 X-322.312 Y18.141 Z18.757 
N1449 X-322.312 Y15.915 Z18.762 A0.9892 
N1450 X-322.312 Y13.828 Z18.817 A1.1583 
N1451 X-322.312 Y11.882 Z19.097 A2.0491 
N1452 X-322.312 Y10.042 Z19.880 A4.6050 
N1453 X-322.312 Y8.239 Z21.093 A8.7504 B0.0000 
N1454 X-322.312 Y6.416 Z22.473 A13.7924 B0.0007 
N1455 X-322.312 Y4.606 Z23.683 A18.7271 B0.0058 
N1456 X-322.312 Y2.922 Z24.480 A22.6867 B0.0227 
N1457 X-322.312 Y1.438 Z24.855 A25.4708 B0.0494 
N1458 X-322.312 Y0.184 Z24.863 A27.1039 B0.0744 
N1459 X-322.312 Y-0.879 Z24.626 A27.8934 B0.0947 
N1460 X-322.312 Y-1.819 Z24.278 A28.2496 B0.1130 
N1461 X-322.312 Y-2.704 Z23.936 A28.5589 B0.1302 
N1462 X-322.311 Y-3.589 Z23.690 A29.1434 B0.1450 
N1463 X-322.311 Y-4.519 Z23.598 A30.2399 B0.1557 
N1464 X-322.311 Y-5.523 Z23.682 A31.9660 B0.1608 
N1465 X-322.311 Y-6.618 Z23.925 A34.3282 B0.1590 
N1466 X-322.311 Y-7.800 Z24.271 A37.1991 B0.1500 
N1467 X-322.311 Y-9.041 Z24.642 A40.3592 B0.1345 
N1468 X-322.312 Y-10.300 Z24.967 A43.5715 B0.1139 
N1469 X-322.312 Y-11.537 Z25.197 A46.6512 B0.0899 
N1470 X-322.312 Y-12.729 Z25.313 A49.5089 B0.0637 
N1471 X-322.312 Y-13.884 Z25.328 A52.1866 B0.0349 
N1472 X-322.312 Y-15.037 Z25.267 A54.8182 B0.0024 
N1473 X-322.312 Y-16.248 Z25.163 A57.6235 B-0.0361 
N1474 X-322.313 Y-17.567 Z25.024 A60.7663 B-0.0828 
N1475 X-322.313 Y-18.975 Z24.816 A64.1781 B-0.1374 
N1476 X-322.313 Y-20.384 Z24.480 A67.5796 B-0.1960 
N1477 X-322.314 Y-21.652 Z23.966 A70.5353 B-0.2518 
N1478 X-322.314 Y-22.653 Z23.261 A72.6693 B-0.2980 
N1479 X-322.314 Y-23.348 Z22.390 A73.8641 B-0.3313 
N1480 X-322.314 Y-23.815 Z21.401 A74.3440 B-0.3538 
N1481 X-322.314 Y-24.180 Z20.344 A74.4884 B-0.3708 
N1482 X-322.315 Y-24.547 Z19.259 A74.6244 B-0.3874 
N1483 X-322.315 Y-24.939 Z18.166 A74.8337 B-0.4048 
N1484 X-322.315 Y-25.324 Z17.071 A75.0339 B-0.4208 
N1485 X-322.315 Y-25.666 Z15.980 A75.1225 B-0.4336 
N1486 X-322.315 Y-25.976 Z14.911 A75.1430 B-0.4444 
N1487 X-322.315 Y-26.299 Z13.892 A75.2402 B-0.4562 
N1488 X-322.315 Y-26.704 Z12.951 A75.6526 B-0.4737 
N1489 X-322.315 Y-27.302 Z12.125 A76.7498 B-0.5050 
N1490 X-322.315 Y-28.073 Z11.403 A78.4956 B-0.5503 
N1491 X-322.316 Y-28.822 Z10.738 A80.2966 B-0.5969 
N1492 X-322.316 Y-29.412 Z10.113 A81.7151 B-0.6349 
N1493 X-322.316 Y-29.830 Z9.535 A82.6896 B-0.6629 
N1494 X-322.316 Y-30.184 Z9.022 A83.5282 B-0.6875 
N1495 X-322.316 Y-30.626 Z8.586 A84.6878 B-0.7192 
N1496 X-322.317 Y-31.251 Z8.220 A86.4460 B-0.7646 
N1497 X-322.317 Y-32.080 Z7.901 A88.8733 B-0.8253 
N1498 X-322.317 Y-33.086 Z7.593 A91.8795 B-0.8988 
N1499 X-322.318 Y-34.194 Z7.267 A95.2424 B-0.9796 
N1500 X-322.318 Y-35.315 Z6.910 A98.6992 B-1.0615 
N1501 X-322.319 Y-36.403 Z6.519 A102.1088 B-1.1408 
N1502 X-322.319 Y-37.446 Z6.096 A105.4418 B-1.2162 
N1503 X-322.320 Y-38.444 Z5.641 A108.6964 B-1.2865 
N1504 X-322.320 Y-39.375 Z5.163 A111.8062 B-1.3495 
N1505 X-322.320 Y-40.216 Z4.679 A114.6894 B-1.4035 
N1506 X-322.321 Y-40.960 Z4.200 A117.3216 B-1.4482 
N1507 X-322.321 Y-41.627 Z3.727 A119.7503 B-1.4851 
N1508 X-322.321 Y-42.241 Z3.253 A122.0554 B-1.5159 
N1509 X-322.321 Y-42.825 Z2.767 A124.3140 B-1.5419 
N1510 X-322.321 Y-43.394 Z2.258 A126.5862 B-1.5643 
N1511 X-322.321 Y-43.957 Z1.717 A128.9099 B-1.5833 
N1512 X-322.322 Y-44.515 Z1.139 A131.3039 B-1.5989 
N1513 X-322.322 Y-45.069 Z0.517 A133.7837 B-1.6111 
N1514 X-322.322 Y-45.618 Z-0.155 A136.3706 B-1.6194 
N1515 X-322.322 Y-46.164 Z-0.891 A139.0998 B-1.6235 
N1516 X-322.322 Y-46.710 Z-1.708 A142.0275 B-1.6227 
N1517 X-322.322 Y-47.257 Z-2.634 A145.2331 B-1.6160 
N1518 X-322.322 Y-47.802 Z-3.700 A148.7978 B-1.6017 
N1519 X-322.321 Y-48.324 Z-4.933 A152.7810 B-1.5781 
N1520 X-322.321 Y-48.789 Z-6.342 A157.1944 B-1.5431 
N1521 X-322.321 Y-49.144 Z-7.912 A161.9689 B-1.4957 
N1522 X-322.321 Y-49.328 Z-9.564 A166.8786 B-1.4373 
N1523 X-322.320 Y-49.292 Z-11.151 A171.5183 B-1.3735 
N1524 X-322.320 Y-49.026 Z-12.490 A175.4007 B-1.3138 
N1525 X-322.320 Y-48.560 Z-13.469 A178.2292 B-1.2668 
N1526 X-322.319 Y-47.926 Z-14.066 A179.9594 B-1.2366 
N1527 X-322.319 Y-47.137 Z-14.329 A180.7244 B-1.2225 
N1528 X-322.319 Y-46.183 Z-14.399 A180.9282 B-1.2179 
N1529 X-322.319 Y-45.045 Z-14.435 A181.0363 B-1.2155 
N1530 X-322.319 Y-43.708 Z-14.469 A181.1439 B-1.2138 
N1531 X-322.319 Y-42.161 Z-14.487 A181.2117 B-1.2135 
N1532 X-322.319 Y-40.400 Z-14.486 A181.2311 B-1.2143 
N1533 X-322.319 Y-38.430 Z-14.479 A181.2321 B-1.2157 
N1534 X-322.319 Y-36.262 Z-14.470 B-1.2171 
N1535 X-322.319 Y-33.917 Z-14.460 B-1.2187 
N1536 X-322.319 Y-31.424 Z-14.450 B-1.2204 
N1537 X-322.319 Y-28.820 Z-14.440 B-1.2222 
N1538 X-322.319 Y-26.145 Z-14.429 B-1.2240 
N1539 X-322.319 Y-23.444 Z-14.418 B-1.2259 
N1540 X-322.319 Y-20.763 Z-14.407 B-1.2277 
N1541 X-322.319 Y-18.145 Z-14.397 A181.2321 B-1.2295 
N1542 X-322.319 Y-15.628 Z-14.386 B-1.2312 
N1543 X-322.319 Y-13.247 Z-14.377 B-1.2328 
N1544 X-322.319 Y-11.026 Z-14.368 B-1.2343 
N1545 X-322.319 Y-8.984 Z-14.364 A181.2462 B-1.2355 
N1546 X-322.319 Y-7.127 Z-14.454 A181.5500 B-1.2327 
N1547 X-322.319 Y-5.448 Z-14.831 A182.7740 B-1.2186 
N1548 X-322.319 Y-3.911 Z-15.588 A185.2733 B-1.1888 
N1549 X-322.319 Y-2.475 Z-16.573 A188.6536 B-1.1468 
N1550 X-322.319 Y-1.129 Z-17.552 A192.2116 B-1.0945 
N1551 X-322.318 Y0.107 Z-18.371 A195.4320 B-1.0274 
N1552 X-322.318 Y1.226 Z-19.022 A198.2240 B-0.9510 
N1553 X-322.317 Y2.255 Z-19.594 A200.8324 B-0.8733 
N1554 X-322.317 Y3.234 Z-20.159 A203.4718 B-0.7963 
N1555 X-322.316 Y4.201 Z-20.752 A206.2708 B-0.7183 
N1556 X-322.316 Y5.187 Z-21.385 A209.2972 B-0.6372 
N1557 X-322.315 Y6.217 Z-22.045 A212.5528 B-0.5524 
N1558 X-322.315 Y7.298 Z-22.699 A215.9717 B-0.4648 
N1559 X-322.314 Y8.424 Z-23.306 A219.4515 B-0.3767 
N1560 X-322.314 Y9.579 Z-23.825 A222.8770 B-0.2908 
N1561 X-322.313 Y10.738 Z-24.221 A226.1317 B-0.2102 
N1562 X-322.313 Y11.874 Z-24.468 A229.1200 B-0.1373 
N1563 X-322.313 Y12.992 Z-24.574 A231.8770 B-0.0715 
N1564 X-322.312 Y14.129 Z-24.567 A234.5587 B-0.0098 
N1565 X-322.312 Y15.332 Z-24.468 A237.3440 B0.0500 
N1566 X-322.312 Y16.644 Z-24.286 A240.3860 B0.1097 
N1567 X-322.311 Y18.030 Z-23.982 A243.5827 B0.1660 
N1568 X-322.311 Y19.371 Z-23.489 A246.5559 B0.2115 
N1569 X-322.311 Y20.471 Z-22.748 A248.7099 B0.2368 
N1570 X-322.311 Y21.211 Z-21.750 A249.6656 B0.2386 
N1571 X-322.311 Y21.722 Z-20.573 A249.8167 B0.2260 
N1572 X-322.311 Y22.213 Z-19.309 A249.8187 B0.2101 
N1573 X-322.311 Y22.724 Z-17.989 B0.1935 
N1574 X-322.311 Y23.251 Z-16.630 B0.1764 
N1575 X-322.311 Y23.785 Z-15.253 B0.1590 
N1576 X-322.311 Y24.318 Z-13.877 B0.1417 
N1577 X-322.312 Y24.841 Z-12.526 B0.1247 
N1578 X-322.312 Y25.347 Z-11.220 B0.1083 
N1579 X-322.312 Y25.829 Z-9.978 A249.8187 B0.0926 
N1580 X-322.312 Y26.279 Z-8.817 B0.0780 
N1581 X-322.312 Y26.692 Z-7.749 B0.0646 
N1582 X-322.312 Y27.067 Z-6.782 A249.8188 B0.0521 
N1583 X-322.312 Y27.406 Z-5.922 A249.8353 B0.0399 
N1584 X-322.312 Y27.738 Z-5.181 A249.9635 B0.0277 
N1585 X-322.312 Y28.126 Z-4.575 A250.4031 B0.0169 
N1586 X-322.312 Y28.679 Z-4.133 A251.5026 B0.0092 
N1587 X-322.312 Y29.524 Z-3.869 A253.6541 B0.0047 
N1588 X-322.312 Y30.690 Z-3.739 A256.9136 B0.0023 
N1589 X-322.312 Y32.082 Z-3.655 A260.9442 B0.0011 
N1590 X-322.312 Y33.546 Z-3.541 A265.2444 B0.0005 
N1591 X-322.312 Y34.970 Z-3.368 A269.4768 B0.0002 
N1592 X-322.312 Y36.304 Z-3.136 A273.4829 B0.0001 
N1593 X-322.312 Y37.527 Z-2.855 A277.2045 B0.0000 
N1594 X-322.312 Y38.636 Z-2.539 A280.6305 B0.0000 
N1595 X-322.312 Y39.638 Z-2.199 A283.7767 B0.0000 
N1596 X-322.312 Y40.545 Z-1.842 A286.6774 
N1597 X-322.312 Y41.374 Z-1.472 A289.3810 
N1598 X-322.312 Y42.146 Z-1.088 A291.9495 
N1599 X-322.312 Y42.880 Z-0.685 A294.4453 
N1600 X-322.312 Y43.586 Z-0.260 A296.9002 
N1601 X-322.312 Y44.262 Z0.185 A299.3149 
N1602 X-322.312 Y44.904 Z0.646 A301.6726 
N1603 X-322.312 Y45.508 Z1.120 A303.9590 
N1604 X-322.312 Y46.074 Z1.602 A306.1771 
N1605 X-322.312 Y46.610 Z2.098 A308.3528 
N1606 X-322.312 Y47.127 Z2.614 A310.5303 
N1607 X-322.312 Y47.637 Z3.163 A312.7631 
N1608 X-322.312 Y48.150 Z3.760 A315.1110 
N1609 X-322.312 Y48.676 Z4.426 A317.6412 
N1610 X-322.312 Y49.223 Z5.185 A320.4309 
N1611 X-322.312 Y49.794 Z6.067 A323.5645 
N1612 X-322.312 Y50.381 Z7.103 A327.1156 
N1613 X-322.312 Y50.960 Z8.312 A331.1151 
N1614 X-322.312 Y51.487 Z9.694 A335.5196 
N1615 X-322.312 Y51.906 Z11.208 A340.1915 
N1616 X-322.312 Y52.163 Z12.784 A344.9236 
N1617 X-322.312 Y52.225 Z14.340 A349.5019 
N1618 X-322.312 Y52.077 Z15.781 A353.6984 
N1619 X-322.312 Y51.725 Z16.974 A357.1607 
N1620 X-322.312 Y51.194 Z17.758 A359.4403 
N1621 X-322.312 Y50.513 Z18.101 A0.4337 
N1622 X-322.312 Y49.683 Z18.177 A0.6437 
N1623 X-322.312 Y48.688 Z18.193 A0.6755 
N1624 X-322.312 Y47.512 Z18.227 A0.7578 
N1625 X-322.312 Y46.144 Z18.271 A0.8761 
N1626 X-322.312 Y44.578 Z18.296 A0.9448 
N1627 X-322.312 Y42.817 Z18.301 A0.9567 
N1628 X-322.312 Y40.868 Z18.303 A0.9569 
N1629 X-322.312 Y38.749 Z18.304 
N1630 X-322.312 Y36.485 Z18.306 
N1631 X-322.312 Y34.108 Z18.308 
N1632 X-322.312 Y31.654 Z18.310 
N1633 X-322.312 Y29.164 Z18.311 
N1634 X-322.312 Y26.678 Z18.313 
N1635 X-322.312 Y24.237 Z18.315 
N1636 X-322.312 Y21.876 Z18.317 
N1637 X-322.312 Y19.626 Z18.319 
N1638 X-322.312 Y17.509 Z18.320 A0.9569 
N1639 X-322.312 Y15.541 Z18.329 A0.9793 
N1640 X-322.312 Y13.727 Z18.396 A1.1837 
N1641 X-322.312 Y12.060 Z18.688 A2.1070 
N1642 X-322.312 Y10.502 Z19.463 A4.6105 
N1643 X-322.312 Y8.973 Z20.702 A8.7520 B0.0000 
N1644 X-322.312 Y7.394 Z22.179 A13.9578 B0.0005 
N1645 X-322.312 Y5.740 Z23.660 A19.5810 B0.0035 
N1646 X-322.312 Y4.104 Z24.831 A24.6296 B0.0121 
N1647 X-322.312 Y2.581 Z25.609 A28.7150 B0.0277 
N1648 X-322.312 Y1.234 Z26.001 A31.7189 B0.0466 
N1649 X-322.312 Y0.100 Z26.042 A33.6121 B0.0639 
N1650 X-322.312 Y-0.850 Z25.820 A34.6131 B0.0790 
N1651 X-322.312 Y-1.684 Z25.445 A35.0737 B0.0936 
N1652 X-322.312 Y-2.483 Z25.029 A35.3898 B0.1080 
N1653 X-322.312 Y-3.316 Z24.662 A35.9041 B0.1210 
N1654 X-322.312 Y-4.239 Z24.410 A36.8886 B0.1303 
N1655 X-322.311 Y-5.286 Z24.299 A38.4971 B0.1335 
N1656 X-322.312 Y-6.470 Z24.315 A40.7485 B0.1288 
N1657 X-322.312 Y-7.772 Z24.397 A43.5027 B0.1155 
N1658 X-322.312 Y-9.137 Z24.458 A46.4776 B0.0946 
N1659 X-322.312 Y-10.489 Z24.418 A49.3589 B0.0689 
N1660 X-322.312 Y-11.774 Z24.237 A51.9468 B0.0409 
N1661 X-322.312 Y-13.003 Z23.938 A54.3064 B0.0101 
N1662 X-322.312 Y-14.255 Z23.584 A56.7472 B-0.0271 
N1663 X-322.313 Y-15.616 Z23.218 A59.5823 B-0.0756 
N1664 X-322.313 Y-17.061 Z22.806 A62.7276 B-0.1348 
N1665 X-322.313 Y-18.447 Z22.269 A65.7158 B-0.1969 
N1666 X-322.314 Y-19.600 Z21.552 A67.9952 B-0.2509 
N1667 X-322.314 Y-20.439 Z20.663 A69.3154 B-0.2899 
N1668 X-322.314 Y-21.032 Z19.659 A69.8734 B-0.3153 
N1669 X-322.314 Y-21.510 Z18.606 A70.0795 B-0.3335 
N1670 X-322.314 Y-21.970 Z17.552 A70.2453 B-0.3505 
N1671 X-322.314 Y-22.423 Z16.513 A70.4177 B-0.3666 
N1672 X-322.314 Y-22.845 Z15.495 A70.5322 B-0.3800 
N1673 X-322.315 Y-23.225 Z14.506 A70.5638 B-0.3905 
N1674 X-322.315 Y-23.589 Z13.568 A70.6032 B-0.4005 
N1675 X-322.315 Y-23.990 Z12.708 A70.8369 B-0.4146 
N1676 X-322.315 Y-24.527 Z11.967 A71.5991 B-0.4410 
N1677 X-322.315 Y-25.284 Z11.369 A73.1723 B-0.4877 
N1678 X-322.315 Y-26.148 Z10.863 A75.2144 B-0.5465 
N1679 X-322.316 Y-26.937 Z10.394 A77.1429 B-0.6025 
N1680 X-322.316 Y-27.580 Z9.950 A78.7221 B-0.6493 
N1681 X-322.316 Y-28.109 Z9.545 A80.0311 B-0.6889 
N1682 X-322.316 Y-28.626 Z9.194 A81.3674 B-0.7291 
N1683 X-322.317 Y-29.239 Z8.906 A83.0522 B-0.7784 
N1684 X-322.317 Y-30.003 Z8.668 A85.2412 B-0.8408 
N1685 X-322.318 Y-30.918 Z8.454 A87.9267 B-0.9158 
N1686 X-322.318 Y-31.949 Z8.236 A91.0008 B-1.0001 
N1687 X-322.319 Y-33.042 Z7.991 A94.2969 B-1.0889 
N1688 X-322.319 Y-34.131 Z7.710 A97.6266 B-1.1769 
N1689 X-322.320 Y-35.180 Z7.394 A100.8771 B-1.2612 
N1690 X-322.320 Y-36.183 Z7.044 A104.0324 B-1.3410 
N1691 X-322.320 Y-37.151 Z6.658 A107.1339 B-1.4163 
N1692 X-322.321 Y-38.085 Z6.237 A110.1877 B-1.4863 
N1693 X-322.321 Y-38.958 Z5.792 A113.1095 B-1.5486 
N1694 X-322.322 Y-39.744 Z5.342 A115.8095 B-1.6013 
N1695 X-322.322 Y-40.440 Z4.898 A118.2696 B-1.6446 
N1696 X-322.322 Y-41.065 Z4.458 A120.5471 B-1.6801 
N1697 X-322.322 Y-41.646 Z4.014 A122.7263 B-1.7099 
N1698 X-322.322 Y-42.205 Z3.554 A124.8834 B-1.7354 
N1699 X-322.322 Y-42.756 Z3.066 A127.0760 B-1.7574 
N1700 X-322.323 Y-43.307 Z2.544 A129.3384 B-1.7764 
N1701 X-322.323 Y-43.857 Z1.981 A131.6860 B-1.7924 
N1702 X-322.323 Y-44.406 Z1.372 A134.1331 B-1.8050 
N1703 X-322.323 Y-44.955 Z0.707 A136.7033 B-1.8139 
N1704 X-322.323 Y-45.505 Z-0.025 A139.4359 B-1.8186 
N1705 X-322.323 Y-46.059 Z-0.847 A142.3930 B-1.8183 
N1706 X-322.323 Y-46.621 Z-1.788 A145.6640 B-1.8117 
N1707 X-322.323 Y-47.186 Z-2.886 A149.3446 B-1.7967 
N1708 X-322.323 Y-47.730 Z-4.170 A153.5005 B-1.7707 
N1709 X-322.322 Y-48.214 Z-5.649 A158.1329 B-1.7311 
N1710 X-322.322 Y-48.576 Z-7.295 A163.1429 B-1.6763 
N1711 X-322.322 Y-48.750 Z-9.011 A168.2485 B-1.6085 
N1712 X-322.321 Y-48.689 Z-10.614 A172.9498 B-1.5359 
N1713 X-322.321 Y-48.398 Z-11.886 A176.6529 B-1.4719 
N1714 X-322.321 Y-47.923 Z-12.714 A179.0563 B-1.4268 
N1715 X-322.320 Y-47.298 Z-13.141 A180.2975 B-1.4023 
N1716 X-322.320 Y-46.527 Z-13.303 A180.7671 B-1.3923 
N1717 X-322.320 Y-45.595 Z-13.353 A180.9084 B-1.3887 
N1718 X-322.320 Y-44.483 Z-13.393 A181.0278 B-1.3860 
N1719 X-322.320 Y-43.176 Z-13.430 A181.1459 B-1.3840 
N1720 X-322.320 Y-41.667 Z-13.449 A181.2175 B-1.3834 
N1721 X-322.320 Y-39.952 Z-13.449 A181.2359 B-1.3843 
N1722 X-322.320 Y-38.036 Z-13.441 A181.2367 B-1.3856 
N1723 X-322.320 Y-35.933 Z-13.432 B-1.3870 
N1724 X-322.320 Y-33.663 Z-13.423 B-1.3886 
N1725 X-322.320 Y-31.258 Z-13.413 B-1.3903 
N1726 X-322.320 Y-28.752 Z-13.403 B-1.3921 
N1727 X-322.320 Y-26.188 Z-13.392 B-1.3938 
N1728 X-322.320 Y-23.608 Z-13.381 B-1.3956 
N1729 X-322.320 Y-21.057 Z-13.371 A181.2367 B-1.3974 
N1730 X-322.320 Y-18.578 Z-13.361 B-1.3992 
N1731 X-322.320 Y-16.205 Z-13.351 B-1.4008 
N1732 X-322.320 Y-13.972 Z-13.342 B-1.4024 
N1733 X-322.320 Y-11.900 Z-13.333 B-1.4038 
N1734 X-322.320 Y-10.005 Z-13.326 A181.2381 B-1.4051 
N1735 X-322.320 Y-8.293 Z-13.357 A181.3574 B-1.4044 
N1736 X-322.320 Y-6.757 Z-13.593 A182.1159 B-1.3939 
N1737 X-322.320 Y-5.369 Z-14.209 A184.1060 B-1.3648 
N1738 X-322.320 Y-4.069 Z-15.222 A187.4522 B-1.3130 
N1739 X-322.319 Y-2.812 Z-16.409 A191.5259 B-1.2446 
N1740 X-322.319 Y-1.585 Z-17.568 A195.7220 B-1.1608 
N1741 X-322.318 Y-0.413 Z-18.571 A199.6126 B-1.0614 
N1742 X-322.318 Y0.696 Z-19.407 A203.1214 B-0.9542 
N1743 X-322.317 Y1.767 Z-20.142 A206.4349 B-0.8470 
N1744 X-322.317 Y2.827 Z-20.814 A209.6736 B-0.7425 
N1745 X-322.316 Y3.901 Z-21.439 A212.9192 B-0.6400 
N1746 X-322.315 Y5.016 Z-22.026 A216.2373 B-0.5376 
N1747 X-322.315 Y6.188 Z-22.566 A219.6430 B-0.4346 
N1748 X-322.314 Y7.412 Z-23.024 A223.0684 B-0.3330 
N1749 X-322.314 Y8.658 Z-23.354 A226.3703 B-0.2368 
N1750 X-322.313 Y9.884 Z-23.513 A229.3811 B-0.1511 
N1751 X-322.313 Y11.048 Z-23.473 A231.9695 B-0.0795 
N1752 X-322.312 Y12.170 Z-23.263 A234.2394 B-0.0193 
N1753 X-322.312 Y13.317 Z-22.931 A236.4547 B0.0354 
N1754 X-322.312 Y14.556 Z-22.516 A238.8736 B0.0894 
N1755 X-322.311 Y15.872 Z-21.996 A241.4655 B0.1408 
N1756 X-322.311 Y17.112 Z-21.291 A243.7369 B0.1788 
N1757 X-322.311 Y18.077 Z-20.331 A245.0434 B0.1924 
N1758 X-322.311 Y18.763 Z-19.150 A245.3560 B0.1848 
N1759 X-322.311 Y19.382 Z-17.868 A245.3666 B0.1710 
N1760 X-322.311 Y20.018 Z-16.542 B0.1565 
N1761 X-322.311 Y20.665 Z-15.194 B0.1418 
N1762 X-322.312 Y21.314 Z-13.841 B0.1271 
N1763 X-322.312 Y21.954 Z-12.507 B0.1125 
N1764 X-322.312 Y22.576 Z-11.211 B0.0983 
N1765 X-322.312 Y23.170 Z-9.972 B0.0848 
N1766 X-322.312 Y23.729 Z-8.808 B0.0721 
N1767 X-322.312 Y24.246 Z-7.731 B0.0604 
N1768 X-322.312 Y24.716 Z-6.752 B0.0497 
N1769 X-322.312 Y25.137 Z-5.875 A245.3671 B0.0398 
N1770 X-322.312 Y25.518 Z-5.106 A245.4023 B0.0304 
N1771 X-322.312 Y25.903 Z-4.463 A245.6137 B0.0214 
N1772 X-322.312 Y26.365 Z-3.972 A246.2400 B0.0140 
N1773 X-322.312 Y27.005 Z-3.659 A247.6072 B0.0087 
N1774 X-322.312 Y27.925 Z-3.533 A250.0172 B0.0053 
N1775 X-322.312 Y29.135 Z-3.540 A253.4478 B0.0032 
N1776 X-322.312 Y30.543 Z-3.588 A257.5576 B0.0019 
N1777 X-322.312 Y32.009 Z-3.599 A261.8759 B0.0010 
N1778 X-322.312 Y33.432 Z-3.542 A266.0908 B0.0005 
N1779 X-322.312 Y34.764 Z-3.417 A270.0613 B0.0002 
N1780 X-322.312 Y35.989 Z-3.235 A273.7453 B0.0001 
N1781 X-322.312 Y37.109 Z-3.009 A277.1485 B0.0000 
N1782 X-322.312 Y38.132 Z-2.748 A280.2941 B0.0000 
N1783 X-322.312 Y39.069 Z-2.462 A283.2145 B0.0000 
N1784 X-322.312 Y39.932 Z-2.154 A285.9480 
N1785 X-322.312 Y40.736 Z-1.827 A288.5395 
N1786 X-322.312 Y41.499 Z-1.479 A291.0416 
N1787 X-322.312 Y42.235 Z-1.107 A293.5030 
N1788 X-322.312 Y42.948 Z-0.709 A295.9405 
N1789 X-322.312 Y43.633 Z-0.289 A298.3407 
N1790 X-322.312 Y44.283 Z0.148 A300.6792 
N1791 X-322.312 Y44.892 Z0.595 A302.9378 
N1792 X-322.312 Y45.463 Z1.052 A305.1197 
N1793 X-322.312 Y46.002 Z1.520 A307.2505 
N1794 X-322.312 Y46.521 Z2.006 A309.3729 
N1795 X-322.312 Y47.032 Z2.521 A311.5368 
N1796 X-322.312 Y47.544 Z3.079 A313.7969 
N1797 X-322.312 Y48.068 Z3.697 A316.2146 
N1798 X-322.312 Y48.612 Z4.397 A318.8624 
N1799 X-322.312 Y49.183 Z5.209 A321.8253 
N1800 X-322.312 Y49.781 Z6.166 A325.1948 
N1801 X-322.312 Y50.391 Z7.300 A329.0407 
N1802 X-322.312 Y50.979 Z8.626 A333.3708 
N1803 X-322.312 Y51.489 Z10.123 A338.0857 
N1804 X-322.312 Y51.855 Z11.721 A342.9618 
N1805 X-322.312 Y52.028 Z13.313 A347.7015 
N1806 X-322.312 Y51.990 Z14.795 A352.0455 
N1807 X-322.312 Y51.750 Z16.077 A355.7762 
N1808 X-322.312 Y51.327 Z17.049 A358.6056 
N1809 X-322.312 Y50.748 Z17.616 A0.2593 
N1810 X-322.312 Y50.028 Z17.817 A0.8494 
N1811 X-322.312 Y49.157 Z17.847 A0.9359 
N1812 X-322.312 Y48.117 Z17.848 A0.9367 
N1813 X-322.312 Y46.893 Z17.850 
N1814 X-322.312 Y45.478 Z17.851 
N1815 X-322.312 Y43.867 Z17.853 
N1816 X-322.312 Y42.067 Z17.855 
N1817 X-322.312 Y40.089 Z17.857 
N1818 X-322.312 Y37.954 Z17.860 
N1819 X-322.312 Y35.689 Z17.862 
N1820 X-322.312 Y33.331 Z17.865 
N1821 X-322.312 Y30.917 Z17.867 
N1822 X-322.312 Y28.489 Z17.870 
N1823 X-322.312 Y26.088 Z17.873 
N1824 X-322.312 Y23.755 Z17.875 
N1825 X-322.312 Y21.523 Z17.878 
N1826 X-322.312 Y19.421 Z17.880 
N1827 X-322.312 Y17.469 Z17.882 A0.9368 
N1828 X-322.312 Y15.681 Z17.890 A0.9540 
N1829 X-322.312 Y14.059 Z17.939 A1.1012 
N1830 X-322.312 Y12.595 Z18.151 A1.7656 
N1831 X-322.312 Y11.260 Z18.762 A3.7067 
N1832 X-322.312 Y9.982 Z19.859 A7.2792 
N1833 X-322.312 Y8.675 Z21.277 A12.0698 B0.0001 
N1834 X-322.312 Y7.270 Z22.847 A17.6493 B0.0011 
N1835 X-322.312 Y5.756 Z24.371 A23.4798 B0.0047 
N1836 X-322.312 Y4.220 Z25.610 A28.8044 B0.0120 
N1837 X-322.312 Y2.738 Z26.508 A33.3680 B0.0220 
N1838 X-322.312 Y1.356 Z27.082 A37.1279 B0.0327 
N1839 X-322.312 Y0.137 Z27.318 A39.9178 B0.0422 
N1840 X-322.312 Y-0.883 Z27.231 A41.6809 B0.0504 
N1841 X-322.312 Y-1.733 Z26.883 A42.5744 B0.0589 
N1842 X-322.312 Y-2.495 Z26.371 A42.9535 B0.0690 
N1843 X-322.312 Y-3.281 Z25.812 A43.2897 B0.0793 
N1844 X-322.312 Y-4.181 Z25.296 A43.9790 B0.0870 
N1845 X-322.312 Y-5.250 Z24.867 A45.2559 B0.0887 
N1846 X-322.312 Y-6.485 Z24.507 A47.1207 B0.0821 
N1847 X-322.312 Y-7.836 Z24.151 A49.3705 B0.0666 
N1848 X-322.312 Y-9.208 Z23.710 A51.6430 B0.0448 
N1849 X-322.312 Y-10.509 Z23.127 A53.6194 B0.0206 
N1850 X-322.312 Y-11.742 Z22.425 A55.3393 B-0.0056 
N1851 X-322.312 Y-13.017 Z21.696 A57.2352 B-0.0402 
N1852 X-322.313 Y-14.390 Z20.980 A59.5448 B-0.0884 
N1853 X-322.313 Y-15.740 Z20.208 A61.8743 B-0.1432 
N1854 X-322.313 Y-16.875 Z19.300 A63.5912 B-0.1907 
N1855 X-322.314 Y-17.728 Z18.261 A64.4601 B-0.2223 
N1856 X-322.314 Y-18.387 Z17.163 A64.7695 B-0.2418 
N1857 X-322.314 Y-18.972 Z16.079 A64.9115 B-0.2567 
N1858 X-322.314 Y-19.515 Z15.037 A65.0019 B-0.2692 
N1859 X-322.314 Y-20.012 Z14.047 A65.0421 B-0.2789 
N1860 X-322.314 Y-20.466 Z13.121 A65.0519 B-0.2867 
N1861 X-322.314 Y-20.900 Z12.276 A65.1139 B-0.2954 
N1862 X-322.314 Y-21.376 Z11.544 A65.4453 B-0.3111 
N1863 X-322.314 Y-22.004 Z10.974 A66.4239 B-0.3450 
N1864 X-322.315 Y-22.834 Z10.573 A68.2174 B-0.4031 
N1865 X-322.315 Y-23.736 Z10.266 A70.3902 B-0.4727 
N1866 X-322.315 Y-24.582 Z9.994 A72.5095 B-0.5410 
N1867 X-322.316 Y-25.351 Z9.749 A74.4863 B-0.6049 
N1868 X-322.316 Y-26.071 Z9.536 A76.3957 B-0.6667 
N1869 X-322.317 Y-26.800 Z9.362 A78.3969 B-0.7313 
N1870 X-322.317 Y-27.596 Z9.227 A80.6560 B-0.8035 
N1871 X-322.317 Y-28.490 Z9.118 A83.2514 B-0.8853 
N1872 X-322.318 Y-29.474 Z9.012 A86.1517 B-0.9755 
N1873 X-322.318 Y-30.518 Z8.887 A89.2566 B-1.0704 
N1874 X-322.319 Y-31.584 Z8.730 A92.4530 B-1.1665 
N1875 X-322.320 Y-32.635 Z8.535 A95.6314 B-1.2601 
N1876 X-322.320 Y-33.644 Z8.302 A98.7165 B-1.3493 
N1877 X-322.321 Y-34.606 Z8.035 A101.6941 B-1.4335 
N1878 X-322.321 Y-35.534 Z7.733 A104.6059 B-1.5135 
N1879 X-322.321 Y-36.451 Z7.391 A107.5291 B-1.5904 
N1880 X-322.322 Y-37.362 Z7.004 A110.4849 B-1.6636 
N1881 X-322.322 Y-38.227 Z6.586 A113.3577 B-1.7293 
N1882 X-322.323 Y-39.005 Z6.160 A116.0088 B-1.7846 
N1883 X-322.323 Y-39.688 Z5.742 A118.3994 B-1.8294 
N1884 X-322.323 Y-40.297 Z5.331 A120.5946 B-1.8658 
N1885 X-322.323 Y-40.863 Z4.915 A122.6917 B-1.8963 
N1886 X-322.323 Y-41.410 Z4.482 A124.7730 B-1.9224 
N1887 X-322.324 Y-41.952 Z4.021 A126.8974 B-1.9453 
N1888 X-322.324 Y-42.497 Z3.523 A129.1008 B-1.9654 
N1889 X-322.324 Y-43.045 Z2.984 A131.3983 B-1.9826 
N1890 X-322.324 Y-43.595 Z2.397 A133.7995 B-1.9967 
N1891 X-322.324 Y-44.146 Z1.756 A136.3242 B-2.0072 
N1892 X-322.324 Y-44.699 Z1.049 A139.0079 B-2.0137 
N1893 X-322.324 Y-45.259 Z0.255 A141.9080 B-2.0153 
N1894 X-322.324 Y-45.827 Z-0.654 A145.1097 B-2.0107 
N1895 X-322.324 Y-46.404 Z-1.718 A148.7242 B-1.9978 
N1896 X-322.324 Y-46.974 Z-2.977 A152.8482 B-1.9733 
N1897 X-322.323 Y-47.498 Z-4.450 A157.5124 B-1.9336 
N1898 X-322.323 Y-47.913 Z-6.118 A162.6311 B-1.8761 
N1899 X-322.323 Y-48.146 Z-7.892 A167.9465 B-1.8018 
N1900 X-322.322 Y-48.143 Z-9.587 A172.9470 B-1.7190 
N1901 X-322.322 Y-47.901 Z-10.945 A176.9242 B-1.6444 
N1902 X-322.322 Y-47.473 Z-11.780 A179.3651 B-1.5945 
N1903 X-322.321 Y-46.907 Z-12.143 A180.4247 B-1.5713 
N1904 X-322.321 Y-46.206 Z-12.257 A180.7530 B-1.5634 
N1905 X-322.321 Y-45.353 Z-12.301 A180.8785 B-1.5601 
N1906 X-322.321 Y-44.330 Z-12.350 A181.0205 B-1.5567 
N1907 X-322.321 Y-43.121 Z-12.391 A181.1506 B-1.5542 
N1908 X-322.321 Y-41.717 Z-12.408 A181.2162 B-1.5535 
N1909 X-322.321 Y-40.115 Z-12.408 A181.2344 B-1.5542 
N1910 X-322.321 Y-38.316 Z-12.401 A181.2358 B-1.5555 
N1911 X-322.321 Y-36.332 Z-12.393 B-1.5569 
N1912 X-322.321 Y-34.182 Z-12.384 B-1.5584 
N1913 X-322.321 Y-31.895 Z-12.375 B-1.5600 
N1914 X-322.321 Y-29.505 Z-12.365 B-1.5617 
N1915 X-322.321 Y-27.051 Z-12.355 B-1.5634 
N1916 X-322.321 Y-24.576 Z-12.345 B-1.5651 
N1917 X-322.321 Y-22.123 Z-12.335 A181.2358 B-1.5669 
N1918 X-322.321 Y-19.735 Z-12.325 B-1.5685 
N1919 X-322.321 Y-17.448 Z-12.315 B-1.5701 
N1920 X-322.321 Y-15.295 Z-12.307 B-1.5717 
N1921 X-322.321 Y-13.299 Z-12.298 B-1.5731 
N1922 X-322.321 Y-11.476 Z-12.291 B-1.5743 
N1923 X-322.321 Y-9.834 Z-12.287 A181.2440 B-1.5753 
N1924 X-322.321 Y-8.371 Z-12.347 A181.4484 B-1.5726 
N1925 X-322.321 Y-7.072 Z-12.643 A182.3920 B-1.5569 
N1926 X-322.321 Y-5.898 Z-13.345 A184.6426 B-1.5174 
N1927 X-322.321 Y-4.774 Z-14.492 A188.3825 B-1.4467 
N1928 X-322.320 Y-3.631 Z-15.878 A193.0567 B-1.3496 
N1929 X-322.319 Y-2.437 Z-17.302 A198.0898 B-1.2299 
N1930 X-322.319 Y-1.201 Z-18.618 A203.0525 B-1.0887 
N1931 X-322.318 Y0.040 Z-19.736 A207.6430 B-0.9366 
N1932 X-322.317 Y1.302 Z-20.697 A211.9962 B-0.7818 
N1933 X-322.316 Y2.607 Z-21.532 A216.2332 B-0.6299 
N1934 X-322.315 Y3.952 Z-22.222 A220.3229 B-0.4852 
N1935 X-322.314 Y5.316 Z-22.735 A224.1804 B-0.3515 
N1936 X-322.314 Y6.648 Z-23.025 A227.6196 B-0.2349 
N1937 X-322.313 Y7.876 Z-23.047 A230.4077 B-0.1427 
N1938 X-322.313 Y8.975 Z-22.808 A232.4940 B-0.0757 
N1939 X-322.312 Y9.989 Z-22.361 A234.0834 B-0.0267 
N1940 X-322.312 Y10.994 Z-21.768 A235.4651 B0.0130 
N1941 X-322.312 Y12.034 Z-21.061 A236.8133 B0.0480 
N1942 X-322.312 Y13.154 Z-20.271 A238.3086 B0.0822 
N1943 X-322.312 Y14.268 Z-19.353 A239.6864 B0.1087 
N1944 X-322.312 Y15.207 Z-18.230 A240.3746 B0.1156 
N1945 X-322.312 Y16.008 Z-16.951 A240.4961 B0.1088 
N1946 X-322.312 Y16.797 Z-15.614 A240.4977 B0.0992 
N1947 X-322.312 Y17.596 Z-14.257 B0.0895 
N1948 X-322.312 Y18.394 Z-12.903 B0.0797 
N1949 X-322.312 Y19.177 Z-11.574 B0.0702 
N1950 X-322.312 Y19.933 Z-10.290 B0.0609 
N1951 X-322.312 Y20.652 Z-9.071 B0.0521 
N1952 X-322.312 Y21.323 Z-7.932 B0.0439 
N1953 X-322.312 Y21.939 Z-6.886 B0.0364 
N1954 X-322.312 Y22.496 Z-5.941 A240.4982 B0.0296 
N1955 X-322.312 Y22.993 Z-5.102 A240.5067 B0.0236 
N1956 X-322.312 Y23.443 Z-4.377 A240.5673 B0.0182 
N1957 X-322.312 Y23.896 Z-3.789 A240.8510 B0.0137 
N1958 X-322.312 Y24.429 Z-3.371 A241.6136 B0.0102 
N1959 X-322.312 Y25.119 Z-3.141 A243.0957 B0.0076 
N1960 X-322.312 Y26.034 Z-3.102 A245.4933 B0.0057 
N1961 X-322.312 Y27.191 Z-3.205 A248.7896 B0.0041 
N1962 X-322.312 Y28.529 Z-3.366 A252.7214 B0.0027 
N1963 X-322.312 Y29.936 Z-3.506 A256.8915 B0.0016 
N1964 X-322.312 Y31.321 Z-3.583 A261.0027 B0.0009 
N1965 X-322.312 Y32.637 Z-3.590 A264.9139 B0.0004 
N1966 X-322.312 Y33.866 Z-3.534 A268.5781 B0.0002 
N1967 X-322.312 Y35.007 Z-3.423 A271.9954 B0.0001 
N1968 X-322.312 Y36.064 Z-3.268 A275.1848 B0.0000 
N1969 X-322.312 Y37.046 Z-3.075 A278.1733 B0.0000 
N1970 X-322.312 Y37.963 Z-2.852 A280.9932 
N1971 X-322.312 Y38.826 Z-2.600 A283.6817 B0.0000 
N1972 X-322.312 Y39.650 Z-2.321 A286.2805 
N1973 X-322.312 Y40.448 Z-2.013 A288.8388 
N1974 X-322.312 Y41.230 Z-1.672 A291.3907 
N1975 X-322.312 Y41.994 Z-1.300 A293.9320 
N1976 X-322.312 Y42.729 Z-0.902 A296.4328 
N1977 X-322.312 Y43.424 Z-0.485 A298.8565 
N1978 X-322.312 Y44.072 Z-0.056 A301.1823 
N1979 X-322.312 Y44.676 Z0.381 A303.4116 
N1980 X-322.312 Y45.244 Z0.828 A305.5702 
N1981 X-322.312 Y45.785 Z1.289 A307.6958 
N1982 X-322.312 Y46.310 Z1.774 A309.8325 
N1983 X-322.312 Y46.831 Z2.292 A312.0267 
N1984 X-322.312 Y47.355 Z2.856 A314.3289 
N1985 X-322.312 Y47.893 Z3.484 A316.7990 
N1986 X-322.312 Y48.450 Z4.199 A319.5091 
N1987 X-322.312 Y49.035 Z5.030 A322.5461 
N1988 X-322.312 Y49.644 Z6.013 A326.0026 
N1989 X-322.312 Y50.263 Z7.180 A329.9514 
N1990 X-322.312 Y50.855 Z8.546 A334.3985 
N1991 X-322.312 Y51.359 Z10.084 A339.2281 
N1992 X-322.312 Y51.709 Z11.709 A344.1775 
N1993 X-322.312 Y51.855 Z13.292 A348.8861 
N1994 X-322.312 Y51.789 Z14.709 A353.0407 
N1995 X-322.312 Y51.529 Z15.879 A356.4457 
N1996 X-322.312 Y51.104 Z16.732 A358.9319 
N1997 X-322.312 Y50.534 Z17.220 A0.3563 
N1998 X-322.312 Y49.826 Z17.393 A0.8630 
N1999 X-322.312 Y48.969 Z17.419 A0.9395 
N2000 X-322.312 Y47.944 Z17.421 A0.9404 
N2001 X-322.312 Y46.738 Z17.422 
N2002 X-322.312 Y45.342 Z17.423 
N2003 X-322.312 Y43.754 Z17.425 
N2004 X-322.312 Y41.979 Z17.427 
N2005 X-322.312 Y40.030 Z17.429 
N2006 X-322.312 Y37.927 Z17.431 
N2007 X-322.312 Y35.700 Z17.433 
N2008 X-322.312 Y33.383 Z17.436 
N2009 X-322.312 Y31.016 Z17.438 
N2010 X-322.312 Y28.639 Z17.441 
N2011 X-322.312 Y26.294 Z17.443 
N2012 X-322.312 Y24.022 Z17.446 
N2013 X-322.312 Y21.857 Z17.448 
N2014 X-322.312 Y19.828 Z17.450 
N2015 X-322.312 Y17.955 Z17.452 
N2016 X-322.312 Y16.252 Z17.455 A0.9449 
N2017 X-322.312 Y14.722 Z17.475 A1.0023 
N2018 X-322.312 Y13.362 Z17.575 A1.3087 
N2019 X-322.312 Y12.152 Z17.935 A2.4365 
N2020 X-322.312 Y11.045 Z18.748 A5.0240 
N2021 X-322.312 Y9.957 Z19.992 A9.0721 
N2022 X-322.312 Y8.808 Z21.489 A14.1151 B0.0001 
N2023 X-322.312 Y7.531 Z23.107 A19.8349 B0.0010 
N2024 X-322.312 Y6.098 Z24.712 A25.9044 B0.0040 
N2025 X-322.312 Y4.565 Z26.103 A31.7430 B0.0094 
N2026 X-322.312 Y3.012 Z27.184 A37.0189 B0.0159 
N2027 X-322.312 Y1.469 Z27.970 A41.7439 B0.0210 
N2028 X-322.312 Y-0.008 Z28.444 A45.8019 B0.0230 
N2029 X-322.312 Y-1.307 Z28.553 A48.8483 B0.0219 
N2030 X-322.312 Y-2.340 Z28.276 A50.6364 B0.0204 
N2031 X-322.312 Y-3.132 Z27.670 A51.2897 B0.0219 
N2032 X-322.312 Y-3.859 Z26.885 A51.4674 B0.0255 
N2033 X-322.312 Y-4.685 Z26.048 A51.7896 B0.0279 
N2034 X-322.312 Y-5.651 Z25.192 A52.4337 B0.0265 
N2035 X-322.312 Y-6.727 Z24.298 A53.3153 B0.0204 
N2036 X-322.312 Y-7.856 Z23.333 A54.2617 B0.0103 
N2037 X-322.312 Y-8.974 Z22.273 A55.0815 B-0.0013 
N2038 X-322.312 Y-10.057 Z21.127 A55.7238 B-0.0131 
N2039 X-322.312 Y-11.150 Z19.954 A56.3936 B-0.0280 
N2040 X-322.313 Y-12.272 Z18.795 A57.2244 B-0.0490 
N2041 X-322.313 Y-13.349 Z17.631 A58.0008 B-0.0718 
N2042 X-322.313 Y-14.282 Z16.431 A58.4081 B-0.0874 
N2043 X-322.313 Y-15.083 Z15.229 A58.4946 B-0.0949 
N2044 X-322.313 Y-15.812 Z14.087 A58.4974 B-0.0998 
N2045 X-322.313 Y-16.486 Z13.030 B-0.1043 
N2046 X-322.313 Y-17.099 Z12.068 B-0.1084 
N2047 X-322.313 Y-17.650 Z11.207 A58.5052 B-0.1122 
N2048 X-322.313 Y-18.164 Z10.463 A58.6085 B-0.1187 
N2049 X-322.313 Y-18.730 Z9.886 A59.1217 B-0.1383 
N2050 X-322.313 Y-19.467 Z9.533 A60.4606 B-0.1857 
N2051 X-322.314 Y-20.344 Z9.358 A62.4913 B-0.2571 
N2052 X-322.314 Y-21.278 Z9.285 A64.8766 B-0.3413 
N2053 X-322.315 Y-22.255 Z9.280 A67.5308 B-0.4352 
N2054 X-322.315 Y-23.273 Z9.321 A70.4064 B-0.5369 
N2055 X-322.316 Y-24.310 Z9.377 A73.3991 B-0.6426 
N2056 X-322.317 Y-25.354 Z9.432 A76.4555 B-0.7503 
N2057 X-322.317 Y-26.416 Z9.476 A79.5883 B-0.8599 
N2058 X-322.318 Y-27.499 Z9.496 A82.7992 B-0.9710 
N2059 X-322.319 Y-28.586 Z9.482 A86.0343 B-1.0814 
N2060 X-322.319 Y-29.654 Z9.426 A89.2215 B-1.1885 
N2061 X-322.320 Y-30.680 Z9.328 A92.2975 B-1.2900 
N2062 X-322.320 Y-31.651 Z9.192 A95.2265 B-1.3851 
N2063 X-322.321 Y-32.569 Z9.022 A98.0170 B-1.4741 
N2064 X-322.321 Y-33.450 Z8.820 A100.7209 B-1.5588 
N2065 X-322.322 Y-34.324 Z8.580 A103.4339 B-1.6415 
N2066 X-322.322 Y-35.232 Z8.291 A106.2839 B-1.7248 
N2067 X-322.323 Y-36.177 Z7.941 A109.3016 B-1.8074 
N2068 X-322.323 Y-37.083 Z7.552 A112.2539 B-1.8820 
N2069 X-322.324 Y-37.875 Z7.162 A114.8989 B-1.9429 
N2070 X-322.324 Y-38.556 Z6.785 A117.2274 B-1.9911 
N2071 X-322.324 Y-39.168 Z6.411 A119.3714 B-2.0306 
N2072 X-322.324 Y-39.748 Z6.026 A121.4550 B-2.0646 
N2073 X-322.324 Y-40.318 Z5.616 A123.5556 B-2.0948 
N2074 X-322.325 Y-40.891 Z5.173 A125.7218 B-2.1220 
N2075 X-322.325 Y-41.471 Z4.689 A127.9843 B-2.1466 
N2076 X-322.325 Y-42.060 Z4.156 A130.3618 B-2.1683 
N2077 X-322.325 Y-42.656 Z3.569 A132.8636 B-2.1867 
N2078 X-322.325 Y-43.255 Z2.924 A135.4990 B-2.2014 
N2079 X-322.325 Y-43.855 Z2.210 A138.2905 B-2.2116 
N2080 X-322.325 Y-44.456 Z1.414 A141.2730 B-2.2165 
N2081 X-322.325 Y-45.054 Z0.520 A144.4915 B-2.2148 
N2082 X-322.325 Y-45.643 Z-0.494 A147.9971 B-2.2047 
N2083 X-322.325 Y-46.208 Z-1.649 A151.8414 B-2.1839 
N2084 X-322.325 Y-46.726 Z-2.961 A156.0525 B-2.1497 
N2085 X-322.324 Y-47.156 Z-4.421 A160.5918 B-2.0999 
N2086 X-322.324 Y-47.450 Z-5.986 A165.3326 B-2.0342 
N2087 X-322.324 Y-47.564 Z-7.575 A170.0504 B-1.9558 
N2088 X-322.323 Y-47.471 Z-9.041 A174.3565 B-1.8736 
N2089 X-322.323 Y-47.180 Z-10.193 A177.7263 B-1.8025 
N2090 X-322.322 Y-46.728 Z-10.914 A179.8384 B-1.7550 
N2091 X-322.322 Y-46.143 Z-11.257 A180.8520 B-1.7315 
N2092 X-322.322 Y-45.423 Z-11.366 A181.1800 B-1.7240 
N2093 X-322.322 Y-44.550 Z-11.378 A181.2256 B-1.7231 
N2094 X-322.322 Y-43.508 Z-11.374 A181.2262 B-1.7233 
N2095 X-322.322 Y-42.282 Z-11.369 A181.2266 B-1.7237 
N2096 X-322.322 Y-40.865 Z-11.364 A181.2269 B-1.7245 
N2097 X-322.322 Y-39.255 Z-11.357 A181.2270 B-1.7256 
N2098 X-322.322 Y-37.458 Z-11.350 B-1.7268 
N2099 X-322.322 Y-35.488 Z-11.342 B-1.7282 
N2100 X-322.322 Y-33.368 Z-11.334 B-1.7296 
N2101 X-322.322 Y-31.125 Z-11.325 A181.2270 B-1.7312 
N2102 X-322.322 Y-28.797 Z-11.316 B-1.7328 
N2103 X-322.322 Y-26.424 Z-11.307 B-1.7344 
N2104 X-322.322 Y-24.048 Z-11.297 B-1.7361 
N2105 X-322.322 Y-21.710 Z-11.288 B-1.7377 
N2106 X-322.322 Y-19.452 Z-11.279 B-1.7393 
N2107 X-322.322 Y-17.307 Z-11.271 A181.2270 B-1.7408 
N2108 X-322.322 Y-15.304 Z-11.263 B-1.7421 
N2109 X-322.322 Y-13.464 Z-11.255 B-1.7434 
N2110 X-322.322 Y-11.798 Z-11.249 B-1.7446 
N2111 X-322.322 Y-10.311 Z-11.244 A181.2312 B-1.7455 
N2112 X-322.322 Y-8.997 Z-11.285 A181.3706 B-1.7435 
N2113 X-322.322 Y-7.841 Z-11.515 A182.1005 B-1.7297 
N2114 X-322.322 Y-6.805 Z-12.123 A184.0270 B-1.6911 
N2115 X-322.322 Y-5.807 Z-13.259 A187.6670 B-1.6125 
N2116 X-322.321 Y-4.730 Z-14.854 A192.9056 B-1.4872 
N2117 X-322.320 Y-3.478 Z-16.674 A199.1494 B-1.3185 
N2118 X-322.319 Y-1.989 Z-18.552 A206.0344 B-1.1024 
N2119 X-322.317 Y-0.316 Z-20.227 A212.8450 B-0.8557 
N2120 X-322.316 Y1.453 Z-21.571 A219.1981 B-0.6066 
N2121 X-322.314 Y3.281 Z-22.586 A225.1031 B-0.3731 
N2122 X-322.313 Y5.015 Z-23.181 A230.1173 B-0.1798 
N2123 X-322.313 Y6.458 Z-23.288 A233.6847 B-0.0472 
N2124 X-322.312 Y7.394 Z-22.851 A235.1678 B0.0058 
N2125 X-322.312 Y8.014 Z-22.056 A235.2863 B0.0096 
N2126 X-322.312 Y8.669 Z-21.145 B0.0091 
N2127 X-322.312 Y9.392 Z-20.140 B0.0087 
N2128 X-322.312 Y10.181 Z-19.043 B0.0082 
N2129 X-322.312 Y11.030 Z-17.862 B0.0076 
N2130 X-322.312 Y11.930 Z-16.609 B0.0071 
