; PROGRAM NAME: C99999938
; ORDER       : C999999
; OPER. NAME  : Side Milling:140
; OPER. DESCR.: Side Milling/czolo nozki po luku zgr
; OPER. TYPE  : sideMill
; GEO. OPTION : 1
; MACHINE     : HSTM_500M_SIM840D_Py
;             : HSTM500 Morelia- HAMUEL: 5-axis milling machine-SIM840D Traori PP_Script
; CONTROL     : SINUMERIK 840D
; created:   2022-11-16 12:02:54.252105
;----------------------------------------
;-------DODATKOWE DANE-------------------
; PROGRAMISTA : Mariusz Malec
; PARTID      : 301T002159P1002_-
;  ap         : 4.4
;  ae         : 1.0
;  lean_angle : 0.0
;  fin_offset : -3.5
;----------------------------------------
;RAPORT("TC999999","Side Milling:140")
N10 TRAFOOF
N11 D0
N12 G90 G94
N13 G0 G53 D0 Z550
N14 STOPRE
M9 ; chlodziwo wyl
; --- Side Milling:140 - Side Milling/czolo nozki po luku zgr ---
N16 ;ToolChange : concat=None ,current_tdmid=None, PP.tdmId=957774
N17 TRAFOOF
N18 G0 G53 D0 X-200 Y150 Z550 B0
N19 T="7757774"
;RAPORT("TC999999","ToolChangeStart 7757774")
N20 M6
;RAPORT("TC999999","ToolChangeEnd")
N21 STOPRE
N22 MSG(" TLID=957774 D=10.0 R=0.0 Ang=0.0 Len=129.0 ")
N23 S2864 M03
N24 STOPRE
N25 TOL(0.1,1,1)
N26 G0 G53 A234.0000 B0.0000
N27 TRAORI
N28 G54 D1
;tol5=0.15
N29 D1 
STOPRE
E_ZDARZ=500001
;ACS_ROUGH_ROOT_FRONT=7757774
STOPRE
;UWAGA : ZMIENIONA TOLERANCJA OSI A i B, ruchy osi A i B beda usuniete : TOL5=0.15
N30 ; DELTA A > 40.1
N31 TRAFOOF
N32 D1
N33 STOPRE
N34 G00 G54 Z257.000
N35 G01 A234.0000 F10000
N36 TRAORI
N37 G54 D1
N38 STOPRE
N39 TRANS 
N40 G00 X-134.146 Y37.158 Z-57.738 A234.0000 
N41 M342 ; chlodziwo woda
N42 X-134.146 Y-3.293 Z-28.349 
N43 ;FSE_1
N44 G01 G41 X-134.130 Y-2.705 Z-27.540 F458
N45 G01 X-134.130 Y-2.705 Z-27.540 F458 
N46 X-134.128 Y-2.617 Z-27.418 
N47 X-134.126 Y-2.529 Z-27.297 
N48 X-134.123 Y-2.441 Z-27.176 
N49 X-134.121 Y-2.352 Z-27.054 
N50 X-134.118 Y-2.264 Z-26.933 
N51 X-134.116 Y-2.176 Z-26.812 
N52 X-134.114 Y-2.088 Z-26.690 
N53 X-134.111 Y-2.000 Z-26.569 
N54 X-134.109 Y-1.912 Z-26.448 
N55 X-134.107 Y-1.824 Z-26.326 
N56 X-134.104 Y-1.735 Z-26.205 
N57 X-134.102 Y-1.647 Z-26.084 
N58 X-134.099 Y-1.559 Z-25.962 
N59 X-134.097 Y-1.471 Z-25.841 
N60 X-134.095 Y-1.383 Z-25.720 
N61 X-134.092 Y-1.295 Z-25.598 
N62 X-134.090 Y-1.206 Z-25.477 
N63 X-134.088 Y-1.118 Z-25.356 
N64 X-134.085 Y-1.030 Z-25.234 
N65 X-134.083 Y-0.942 Z-25.113 
N66 X-134.081 Y-0.853 Z-24.990 
N67 X-134.078 Y-0.764 Z-24.868 
N68 X-134.076 Y-0.675 Z-24.745 
N69 X-134.073 Y-0.586 Z-24.623 
N70 X-134.071 Y-0.497 Z-24.500 
N71 X-134.069 Y-0.408 Z-24.377 
N72 X-134.066 Y-0.319 Z-24.255 
N73 X-134.064 Y-0.230 Z-24.132 
N74 X-134.061 Y-0.141 Z-24.010 
N75 X-134.059 Y-0.051 Z-23.887 
N76 X-134.057 Y0.038 Z-23.765 
N77 X-134.054 Y0.127 Z-23.642 
N78 X-134.052 Y0.216 Z-23.520 
N79 X-134.049 Y0.305 Z-23.397 
N80 X-134.047 Y0.394 Z-23.274 
N81 X-134.045 Y0.483 Z-23.152 
N82 X-134.042 Y0.572 Z-23.029 
N83 X-134.040 Y0.661 Z-22.907 
N84 X-134.037 Y0.750 Z-22.784 
N85 X-134.035 Y0.839 Z-22.662 
N86 X-134.033 Y0.928 Z-22.539 
N87 X-134.030 Y1.017 Z-22.416 
N88 X-134.028 Y1.106 Z-22.294 
N89 X-134.025 Y1.195 Z-22.171 
N90 X-134.023 Y1.284 Z-22.049 
N91 X-134.021 Y1.373 Z-21.926 
N92 X-134.018 Y1.462 Z-21.804 
N93 X-134.016 Y1.551 Z-21.681 
N94 X-134.014 Y1.640 Z-21.559 
N95 X-134.011 Y1.729 Z-21.436 
N96 X-134.009 Y1.818 Z-21.313 
N97 X-134.006 Y1.908 Z-21.191 
N98 X-134.004 Y1.997 Z-21.068 
N99 X-134.002 Y2.086 Z-20.945 
N100 X-133.999 Y2.176 Z-20.821 
N101 X-133.997 Y2.266 Z-20.698 
N102 X-133.994 Y2.356 Z-20.574 
N103 X-133.992 Y2.445 Z-20.451 
N104 X-133.989 Y2.535 Z-20.327 
N105 X-133.987 Y2.625 Z-20.204 
N106 X-133.985 Y2.714 Z-20.080 
N107 X-133.982 Y2.804 Z-19.957 
N108 X-133.980 Y2.894 Z-19.833 
N109 X-133.977 Y2.984 Z-19.710 
N110 X-133.975 Y3.073 Z-19.586 
N111 X-133.973 Y3.163 Z-19.463 
N112 X-133.970 Y3.253 Z-19.339 
N113 X-133.968 Y3.343 Z-19.216 
N114 X-133.965 Y3.432 Z-19.092 
N115 X-133.963 Y3.522 Z-18.969 
N116 X-133.961 Y3.612 Z-18.845 
N117 X-133.958 Y3.702 Z-18.722 
N118 X-133.956 Y3.791 Z-18.598 
N119 X-133.953 Y3.881 Z-18.475 
N120 X-133.951 Y3.971 Z-18.351 
N121 X-133.948 Y4.060 Z-18.228 
N122 X-133.946 Y4.150 Z-18.104 
N123 X-133.944 Y4.240 Z-17.981 
N124 X-133.941 Y4.330 Z-17.857 
N125 X-133.939 Y4.419 Z-17.734 
N126 X-133.936 Y4.509 Z-17.610 
N127 X-133.934 Y4.599 Z-17.487 
N128 X-133.932 Y4.689 Z-17.363 
N129 X-133.929 Y4.778 Z-17.240 
N130 X-133.927 Y4.868 Z-17.116 
N131 X-133.924 Y4.958 Z-16.993 
N132 X-133.922 Y5.048 Z-16.869 
N133 X-133.920 Y5.137 Z-16.746 
N134 X-133.917 Y5.227 Z-16.622 
N135 X-133.915 Y5.317 Z-16.499 
N136 X-133.912 Y5.406 Z-16.375 
N137 X-133.911 Y5.496 Z-16.252 
N138 X-133.909 Y5.586 Z-16.128 
N139 X-133.908 Y5.676 Z-16.004 
N140 X-133.907 Y5.765 Z-15.881 
N141 X-133.906 Y5.855 Z-15.757 
N142 X-133.904 Y5.945 Z-15.634 
N143 X-133.903 Y6.035 Z-15.510 
N144 X-133.902 Y6.124 Z-15.387 
N145 X-133.901 Y6.214 Z-15.263 
N146 X-133.899 Y6.304 Z-15.140 
N147 X-133.898 Y6.394 Z-15.016 
N148 X-133.897 Y6.483 Z-14.893 
N149 X-133.895 Y6.573 Z-14.769 
N150 X-133.894 Y6.663 Z-14.646 
N151 X-133.893 Y6.753 Z-14.522 
N152 X-133.892 Y6.842 Z-14.399 
N153 X-133.890 Y6.932 Z-14.275 
N154 X-133.889 Y7.022 Z-14.152 
N155 X-133.888 Y7.112 Z-14.028 
N156 X-133.887 Y7.201 Z-13.905 
N157 X-133.885 Y7.291 Z-13.781 
N158 X-133.884 Y7.381 Z-13.658 
N159 X-133.883 Y7.470 Z-13.534 
N160 X-133.882 Y7.560 Z-13.411 
N161 X-133.880 Y7.650 Z-13.287 
N162 X-133.879 Y7.740 Z-13.164 
N163 X-133.878 Y7.829 Z-13.040 
N164 X-133.877 Y7.919 Z-12.917 
N165 X-133.875 Y8.009 Z-12.793 
N166 X-133.874 Y8.099 Z-12.670 
N167 X-133.873 Y8.188 Z-12.546 
N168 X-133.871 Y8.278 Z-12.422 
N169 X-133.870 Y8.368 Z-12.299 
N170 X-133.869 Y8.458 Z-12.175 
N171 X-133.868 Y8.547 Z-12.052 
N172 X-133.866 Y8.637 Z-11.928 
N173 X-133.865 Y8.727 Z-11.805 
N174 X-133.864 Y8.817 Z-11.681 
N175 X-133.863 Y8.906 Z-11.558 
N176 X-133.861 Y8.996 Z-11.434 
N177 X-133.860 Y9.086 Z-11.311 
N178 X-133.859 Y9.176 Z-11.187 
N179 X-133.858 Y9.265 Z-11.064 
N180 X-133.856 Y9.355 Z-10.940 
N181 X-133.855 Y9.445 Z-10.817 
N182 X-133.854 Y9.535 Z-10.693 
N183 X-133.853 Y9.624 Z-10.570 
N184 X-133.851 Y9.714 Z-10.446 
N185 X-133.850 Y9.804 Z-10.323 
N186 X-133.849 Y9.893 Z-10.199 
N187 X-133.847 Y9.983 Z-10.076 
N188 X-133.846 Y10.073 Z-9.952 
N189 X-133.845 Y10.163 Z-9.829 
N190 X-133.846 Y10.252 Z-9.705 
N191 X-133.846 Y10.342 Z-9.582 
N192 X-133.846 Y10.432 Z-9.458 
N193 X-133.846 Y10.522 Z-9.335 
N194 X-133.846 Y10.611 Z-9.211 
N195 X-133.847 Y10.701 Z-9.087 
N196 X-133.847 Y10.791 Z-8.964 
N197 X-133.847 Y10.881 Z-8.840 
N198 X-133.847 Y10.970 Z-8.717 
N199 X-133.847 Y11.060 Z-8.593 
N200 X-133.848 Y11.150 Z-8.470 
N201 X-133.848 Y11.240 Z-8.346 
N202 X-133.848 Y11.329 Z-8.223 
N203 X-133.848 Y11.419 Z-8.099 
N204 X-133.848 Y11.509 Z-7.976 
N205 X-133.849 Y11.599 Z-7.852 
N206 X-133.849 Y11.688 Z-7.729 
N207 X-133.849 Y11.778 Z-7.605 
N208 X-133.849 Y11.868 Z-7.482 
N209 X-133.849 Y11.958 Z-7.358 
N210 X-133.850 Y12.047 Z-7.235 
N211 X-133.850 Y12.137 Z-7.111 
N212 X-133.850 Y12.227 Z-6.988 
N213 X-133.850 Y12.317 Z-6.864 
N214 X-133.850 Y12.406 Z-6.741 
N215 X-133.850 Y12.496 Z-6.617 
N216 X-133.851 Y12.586 Z-6.494 
N217 X-133.851 Y12.676 Z-6.370 
N218 X-133.851 Y12.765 Z-6.246 
N219 X-133.851 Y12.855 Z-6.123 
N220 X-133.851 Y12.945 Z-5.999 
N221 X-133.852 Y13.035 Z-5.876 
N222 X-133.852 Y13.124 Z-5.752 
N223 X-133.852 Y13.214 Z-5.629 
N224 X-133.852 Y13.304 Z-5.505 
N225 X-133.852 Y13.393 Z-5.382 
N226 X-133.853 Y13.483 Z-5.258 
N227 X-133.853 Y13.573 Z-5.135 
N228 X-133.853 Y13.663 Z-5.011 
N229 X-133.853 Y13.752 Z-4.888 
N230 X-133.853 Y13.842 Z-4.764 
N231 X-133.854 Y13.932 Z-4.641 
N232 X-133.854 Y14.022 Z-4.517 
N233 X-133.854 Y14.111 Z-4.394 
N234 X-133.854 Y14.201 Z-4.270 
N235 X-133.854 Y14.291 Z-4.147 
N236 X-133.855 Y14.381 Z-4.023 
N237 X-133.855 Y14.470 Z-3.900 
N238 X-133.855 Y14.560 Z-3.776 
N239 X-133.855 Y14.650 Z-3.653 
N240 X-133.855 Y14.740 Z-3.529 
N241 X-133.856 Y14.829 Z-3.405 
N242 X-133.856 Y14.919 Z-3.282 
N243 X-133.856 Y15.009 Z-3.158 
N244 X-133.856 Y15.099 Z-3.035 
N245 X-133.856 Y15.188 Z-2.911 
N246 X-133.857 Y15.278 Z-2.788 
N247 X-133.857 Y15.368 Z-2.664 
N248 X-133.857 Y15.458 Z-2.541 
N249 X-133.857 Y15.547 Z-2.417 
N250 X-133.857 Y15.637 Z-2.294 
N251 X-133.857 Y15.727 Z-2.170 
N252 X-133.858 Y15.817 Z-2.047 
N253 X-133.860 Y15.906 Z-1.923 
N254 X-133.861 Y15.996 Z-1.800 
N255 X-133.863 Y16.086 Z-1.676 
N256 X-133.865 Y16.176 Z-1.553 
N257 X-133.866 Y16.265 Z-1.429 
N258 X-133.868 Y16.355 Z-1.306 
N259 X-133.869 Y16.445 Z-1.182 
N260 X-133.871 Y16.534 Z-1.059 
N261 X-133.873 Y16.624 Z-0.935 
N262 X-133.874 Y16.714 Z-0.812 
N263 X-133.876 Y16.804 Z-0.688 
N264 X-133.877 Y16.893 Z-0.565 
N265 X-133.879 Y16.983 Z-0.441 
N266 X-133.881 Y17.073 Z-0.318 
N267 X-133.882 Y17.163 Z-0.194 
N268 X-133.884 Y17.252 Z-0.070 
N269 X-133.885 Y17.342 Z0.053 
N270 X-133.887 Y17.432 Z0.177 
N271 X-133.889 Y17.522 Z0.300 
N272 X-133.890 Y17.611 Z0.424 
N273 X-133.892 Y17.701 Z0.547 
N274 X-133.893 Y17.791 Z0.671 
N275 X-133.895 Y17.881 Z0.794 
N276 X-133.897 Y17.970 Z0.918 
N277 X-133.898 Y18.060 Z1.041 
N278 X-133.900 Y18.150 Z1.165 
N279 X-133.901 Y18.240 Z1.288 
N280 X-133.903 Y18.329 Z1.412 
N281 X-133.905 Y18.419 Z1.535 
N282 X-133.906 Y18.509 Z1.659 
N283 X-133.908 Y18.598 Z1.782 
N284 X-133.909 Y18.688 Z1.906 
N285 X-133.911 Y18.778 Z2.029 
N286 X-133.913 Y18.868 Z2.153 
N287 X-133.914 Y18.957 Z2.276 
N288 X-133.916 Y19.047 Z2.400 
N289 X-133.917 Y19.137 Z2.523 
N290 X-133.919 Y19.227 Z2.647 
N291 X-133.921 Y19.316 Z2.770 
N292 X-133.922 Y19.406 Z2.894 
N293 X-133.924 Y19.496 Z3.017 
N294 X-133.925 Y19.586 Z3.141 
N295 X-133.927 Y19.675 Z3.264 
N296 X-133.929 Y19.765 Z3.388 
N297 X-133.930 Y19.855 Z3.511 
N298 X-133.932 Y19.945 Z3.635 
N299 X-133.933 Y20.034 Z3.758 
N300 X-133.936 Y20.124 Z3.882 
N301 X-133.939 Y20.214 Z4.005 
N302 X-133.942 Y20.303 Z4.129 
N303 X-133.945 Y20.393 Z4.252 
N304 X-133.948 Y20.483 Z4.376 
N305 X-133.951 Y20.573 Z4.499 
N306 X-133.954 Y20.662 Z4.623 
N307 X-133.957 Y20.752 Z4.746 
N308 X-133.960 Y20.842 Z4.870 
N309 X-133.963 Y20.932 Z4.993 
N310 X-133.966 Y21.021 Z5.117 
N311 X-133.969 Y21.111 Z5.240 
N312 X-133.972 Y21.201 Z5.364 
N313 X-133.975 Y21.290 Z5.487 
N314 X-133.978 Y21.380 Z5.611 
N315 X-133.981 Y21.470 Z5.734 
N316 X-133.984 Y21.560 Z5.858 
N317 X-133.987 Y21.649 Z5.981 
N318 X-133.990 Y21.739 Z6.105 
N319 X-133.993 Y21.829 Z6.228 
N320 X-133.996 Y21.919 Z6.352 
N321 X-133.999 Y22.008 Z6.475 
N322 X-134.002 Y22.098 Z6.599 
N323 X-134.005 Y22.188 Z6.722 
N324 X-134.008 Y22.277 Z6.846 
N325 X-134.011 Y22.367 Z6.969 
N326 X-134.014 Y22.457 Z7.093 
N327 X-134.018 Y22.547 Z7.216 
N328 X-134.021 Y22.636 Z7.340 
N329 X-134.024 Y22.726 Z7.463 
N330 X-134.027 Y22.816 Z7.587 
N331 X-134.030 Y22.906 Z7.710 
N332 X-134.033 Y22.995 Z7.834 
N333 X-134.036 Y23.085 Z7.957 
N334 X-134.039 Y23.175 Z8.081 
N335 X-134.042 Y23.264 Z8.204 
N336 X-134.045 Y23.354 Z8.328 
N337 X-134.048 Y23.444 Z8.451 
N338 X-134.051 Y23.534 Z8.575 
N339 X-134.054 Y23.623 Z8.698 
N340 X-134.057 Y23.713 Z8.822 
N341 X-134.060 Y23.803 Z8.945 
N342 X-134.063 Y23.893 Z9.069 
N343 X-134.066 Y23.982 Z9.192 
N344 X-134.069 Y24.072 Z9.316 
N345 X-134.072 Y24.162 Z9.439 
N346 X-134.075 Y24.251 Z9.563 
N347 X-134.078 Y24.341 Z9.686 
N348 X-134.081 Y24.431 Z9.810 
N349 X-134.084 Y24.521 Z9.933 
N350 X-134.087 Y24.610 Z10.057 
N351 X-134.090 Y24.700 Z10.180 
N352 X-134.093 Y24.790 Z10.304 
N353 X-134.096 Y24.880 Z10.427 
N354 X-134.099 Y24.969 Z10.551 
N355 X-134.102 Y25.059 Z10.674 
N356 X-134.105 Y25.149 Z10.798 
N357 X-134.108 Y25.238 Z10.921 
N358 X-134.111 Y25.328 Z11.045 
N359 X-134.115 Y25.418 Z11.168 
N360 X-134.118 Y25.508 Z11.292 
N361 X-134.121 Y25.597 Z11.415 
N362 X-134.124 Y25.687 Z11.539 
N363 X-134.127 Y25.777 Z11.662 
N364 X-134.130 Y25.867 Z11.786 
N365 X-134.133 Y25.956 Z11.909 
N366 X-134.137 Y26.046 Z12.033 
N367 X-134.142 Y26.136 Z12.156 
N368 X-134.146 Y26.225 Z12.280 
N369 X-134.151 Y26.315 Z12.403 
N370 X-134.155 Y26.405 Z12.527 
N371 X-134.160 Y26.494 Z12.650 
N372 X-134.164 Y26.584 Z12.774 
N373 X-134.169 Y26.674 Z12.897 
N374 X-134.173 Y26.764 Z13.021 
N375 X-134.178 Y26.853 Z13.144 
N376 X-134.182 Y26.943 Z13.267 
N377 X-134.186 Y27.033 Z13.391 
N378 X-134.191 Y27.122 Z13.514 
N379 X-134.195 Y27.212 Z13.638 
N380 X-134.200 Y27.302 Z13.761 
N381 X-134.204 Y27.392 Z13.885 
N382 X-134.209 Y27.481 Z14.008 
N383 X-134.213 Y27.571 Z14.132 
N384 X-134.218 Y27.661 Z14.255 
N385 X-134.222 Y27.750 Z14.379 
N386 X-134.227 Y27.840 Z14.502 
N387 X-134.231 Y27.930 Z14.626 
N388 X-134.236 Y28.019 Z14.749 
N389 X-134.240 Y28.109 Z14.873 
N390 X-134.245 Y28.199 Z14.996 
N391 X-134.249 Y28.289 Z15.120 
N392 X-134.253 Y28.378 Z15.243 
N393 X-134.258 Y28.468 Z15.366 
N394 X-134.262 Y28.558 Z15.490 
N395 X-134.267 Y28.647 Z15.613 
N396 X-134.271 Y28.737 Z15.737 
N397 X-134.276 Y28.827 Z15.860 
N398 X-134.280 Y28.917 Z15.984 
N399 X-134.285 Y29.006 Z16.107 
N400 X-134.289 Y29.096 Z16.231 
N401 X-134.294 Y29.186 Z16.354 
N402 X-134.298 Y29.275 Z16.478 
N403 X-134.303 Y29.365 Z16.601 
N404 X-134.307 Y29.455 Z16.725 
N405 X-134.312 Y29.544 Z16.848 
N406 X-134.316 Y29.634 Z16.972 
N407 X-134.320 Y29.724 Z17.095 
N408 X-134.325 Y29.814 Z17.218 
N409 X-134.329 Y29.903 Z17.342 
N410 X-134.334 Y29.993 Z17.465 
N411 X-134.338 Y30.083 Z17.589 
N412 X-134.343 Y30.172 Z17.712 
N413 X-134.347 Y30.262 Z17.836 
N414 X-134.352 Y30.351 Z17.958 
N415 X-134.356 Y30.440 Z18.081 
N416 X-134.361 Y30.529 Z18.203 
N417 X-134.365 Y30.618 Z18.326 
N418 X-134.369 Y30.707 Z18.448 
N419 X-134.374 Y30.796 Z18.571 
N420 X-134.378 Y30.885 Z18.694 
N421 X-134.383 Y30.974 Z18.816 
N422 X-134.387 Y31.063 Z18.939 
N423 X-134.392 Y31.152 Z19.061 
N424 X-134.396 Y31.241 Z19.184 
N425 X-134.400 Y31.330 Z19.306 
N426 X-134.405 Y31.419 Z19.429 
N427 X-134.409 Y31.508 Z19.551 
N428 X-134.414 Y31.597 Z19.674 
N429 X-134.418 Y31.686 Z19.796 
N430 X-134.423 Y31.775 Z19.919 
N431 X-134.427 Y31.864 Z20.041 
N432 X-134.432 Y31.953 Z20.164 
N433 X-134.436 Y32.042 Z20.286 
N434 X-134.440 Y32.132 Z20.409 
N435 X-134.445 Y32.221 Z20.531 
N436 X-134.449 Y32.310 Z20.654 
N437 X-134.454 Y32.399 Z20.776 
N438 X-134.458 Y32.488 Z20.899 
N439 X-134.463 Y32.577 Z21.022 
N440 X-134.467 Y32.666 Z21.144 
N441 X-134.471 Y32.755 Z21.267 
N442 X-134.476 Y32.844 Z21.389 
N443 X-134.480 Y32.933 Z21.512 
N444 X-134.485 Y33.022 Z21.634 
N445 X-134.489 Y33.111 Z21.757 
N446 X-134.494 Y33.200 Z21.879 
N447 G40 X-134.523 Y33.787 Z22.688 F458
N448 X-134.523 Y33.787 Z22.688 
N449 G00 X-134.523 Y74.238 Z-6.701 
;RAPORT("TC999999","Side Milling:140 End")
;trailer : concat=None
; points cnt = 403
N451 MSG (" --- GROUPED OF SUBPROGRAM --- ")
N452 FGROUP()
N453 TRAFOOF
; PROGRAM NAME: C99999938
; ORDER       : C999999
; OPER. NAME  : Side Milling:141
; OPER. DESCR.: rough face root outlet FSA
; OPER. TYPE  : sideMill
; GEO. OPTION : 1
; MACHINE     : HSTM_500M_SIM840D_Py
;             : HSTM500 Morelia- HAMUEL: 5-axis milling machine-SIM840D Traori PP_Script
; CONTROL     : SINUMERIK 840D
; created:   2022-11-16 12:02:57.484141
;----------------------------------------
;-------DODATKOWE DANE-------------------
; PROGRAMISTA : Mariusz Malec
; PARTID      : 301T002159P1002_-
;  ap         : 4.4
;  ae         : 1.0
;  lean_angle : 0.0
;  fin_offset : -3.5
;----------------------------------------
;RAPORT("TC999999","Side Milling:141")
N10 TRAFOOF
N11 D0
N12 G90 G94
N13 G0 G53 D0 Z550
N14 STOPRE
M9 ; chlodziwo wyl
; --- Side Milling:141 - rough face root outlet FSA ---
N16 ;ToolChange : concat=None ,current_tdmid=None, PP.tdmId=957774
N17 TRAFOOF
N18 G0 G53 D0 Z550 B0
N19 STOPRE
N20 MSG(" TLID=957774 D=10.0 R=0.0 Ang=0.0 Len=129.0 ")
N21 S2864 M03
N22 STOPRE
N23 TOL(0.1,1,1)
N24 G0 G53 A54.0000 B-0.0000
N25 TRAORI
N26 G54 D2
;tol5=0.15
N27 D2 
STOPRE
E_ZDARZ=500001
;ACS_ROUGH_ROOT_FRONT=7757774
STOPRE
;UWAGA : ZMIENIONA TOLERANCJA OSI A i B, ruchy osi A i B beda usuniete : TOL5=0.15
N28 ; DELTA A > 40.1
N29 TRAFOOF
N30 D2
N31 STOPRE
N32 G00 G54 Z257.000
N33 G01 A54.0000 F10000
N34 TRAORI
N35 G54 D2
N36 STOPRE
N37 TRANS 
N38 G00 X-134.053 Y-37.170 Z57.724 A54.0000 
N39 M342 ; chlodziwo woda
N40 X-134.053 Y3.280 Z28.335 
N41 ;FSA_1
N42 G01 G41 X-134.041 Y2.693 Z27.526 F458
N43 G01 X-134.041 Y2.693 Z27.526 F458 
N44 X-134.039 Y2.605 Z27.405 
N45 X-134.038 Y2.516 Z27.284 
N46 X-134.036 Y2.428 Z27.162 
N47 X-134.034 Y2.340 Z27.041 
N48 X-134.032 Y2.252 Z26.920 
N49 X-134.031 Y2.164 Z26.798 
N50 X-134.029 Y2.076 Z26.677 
N51 X-134.027 Y1.987 Z26.555 
N52 X-134.026 Y1.899 Z26.434 
N53 X-134.024 Y1.811 Z26.313 
N54 X-134.022 Y1.723 Z26.191 
N55 X-134.020 Y1.635 Z26.070 
N56 X-134.019 Y1.547 Z25.949 
N57 X-134.017 Y1.458 Z25.827 
N58 X-134.015 Y1.370 Z25.706 
N59 X-134.013 Y1.282 Z25.585 
N60 X-134.012 Y1.194 Z25.463 
N61 X-134.010 Y1.106 Z25.342 
N62 X-134.008 Y1.018 Z25.221 
N63 X-134.006 Y0.929 Z25.099 
N64 X-134.005 Y0.840 Z24.977 
N65 X-134.003 Y0.751 Z24.854 
N66 X-134.001 Y0.662 Z24.732 
N67 X-133.999 Y0.573 Z24.609 
N68 X-133.998 Y0.484 Z24.487 
N69 X-133.996 Y0.395 Z24.364 
N70 X-133.994 Y0.306 Z24.241 
N71 X-133.992 Y0.217 Z24.119 
N72 X-133.991 Y0.128 Z23.996 
N73 X-133.989 Y0.039 Z23.874 
N74 X-133.987 Y-0.050 Z23.751 
N75 X-133.985 Y-0.139 Z23.629 
N76 X-133.984 Y-0.228 Z23.506 
N77 X-133.982 Y-0.317 Z23.383 
N78 X-133.980 Y-0.406 Z23.261 
N79 X-133.978 Y-0.495 Z23.138 
N80 X-133.977 Y-0.584 Z23.016 
N81 X-133.975 Y-0.673 Z22.893 
N82 X-133.973 Y-0.763 Z22.771 
N83 X-133.971 Y-0.852 Z22.648 
N84 X-133.970 Y-0.941 Z22.525 
N85 X-133.968 Y-1.030 Z22.403 
N86 X-133.966 Y-1.119 Z22.280 
N87 X-133.964 Y-1.208 Z22.158 
N88 X-133.963 Y-1.297 Z22.035 
N89 X-133.961 Y-1.386 Z21.913 
N90 X-133.959 Y-1.475 Z21.790 
N91 X-133.957 Y-1.564 Z21.667 
N92 X-133.956 Y-1.653 Z21.545 
N93 X-133.954 Y-1.742 Z21.422 
N94 X-133.952 Y-1.831 Z21.300 
N95 X-133.950 Y-1.920 Z21.177 
N96 X-133.949 Y-2.009 Z21.055 
N97 X-133.947 Y-2.099 Z20.931 
N98 X-133.945 Y-2.189 Z20.808 
N99 X-133.943 Y-2.278 Z20.684 
N100 X-133.941 Y-2.368 Z20.560 
N101 X-133.940 Y-2.458 Z20.437 
N102 X-133.938 Y-2.548 Z20.313 
N103 X-133.936 Y-2.637 Z20.190 
N104 X-133.934 Y-2.727 Z20.066 
N105 X-133.933 Y-2.817 Z19.943 
N106 X-133.931 Y-2.907 Z19.819 
N107 X-133.929 Y-2.996 Z19.696 
N108 X-133.927 Y-3.086 Z19.572 
N109 X-133.926 Y-3.176 Z19.449 
N110 X-133.924 Y-3.266 Z19.325 
N111 X-133.922 Y-3.355 Z19.202 
N112 X-133.920 Y-3.445 Z19.078 
N113 X-133.918 Y-3.535 Z18.955 
N114 X-133.917 Y-3.625 Z18.831 
N115 X-133.915 Y-3.714 Z18.708 
N116 X-133.913 Y-3.804 Z18.584 
N117 X-133.911 Y-3.894 Z18.461 
N118 X-133.910 Y-3.984 Z18.337 
N119 X-133.908 Y-4.073 Z18.214 
N120 X-133.906 Y-4.163 Z18.090 
N121 X-133.904 Y-4.253 Z17.967 
N122 X-133.903 Y-4.342 Z17.843 
N123 X-133.901 Y-4.432 Z17.720 
N124 X-133.899 Y-4.522 Z17.596 
N125 X-133.897 Y-4.612 Z17.473 
N126 X-133.895 Y-4.701 Z17.349 
N127 X-133.894 Y-4.791 Z17.226 
N128 X-133.892 Y-4.881 Z17.102 
N129 X-133.890 Y-4.971 Z16.979 
N130 X-133.888 Y-5.060 Z16.855 
N131 X-133.887 Y-5.150 Z16.732 
N132 X-133.885 Y-5.240 Z16.608 
N133 X-133.883 Y-5.330 Z16.485 
N134 X-133.881 Y-5.419 Z16.361 
N135 X-133.880 Y-5.509 Z16.238 
N136 X-133.878 Y-5.599 Z16.114 
N137 X-133.876 Y-5.689 Z15.991 
N138 X-133.874 Y-5.778 Z15.867 
N139 X-133.872 Y-5.868 Z15.743 
N140 X-133.871 Y-5.958 Z15.620 
N141 X-133.869 Y-6.047 Z15.496 
N142 X-133.867 Y-6.137 Z15.373 
N143 X-133.865 Y-6.227 Z15.249 
N144 X-133.865 Y-6.317 Z15.126 
N145 X-133.865 Y-6.406 Z15.002 
N146 X-133.864 Y-6.496 Z14.879 
N147 X-133.864 Y-6.586 Z14.755 
N148 X-133.863 Y-6.676 Z14.632 
N149 X-133.863 Y-6.765 Z14.508 
N150 X-133.862 Y-6.855 Z14.385 
N151 X-133.862 Y-6.945 Z14.261 
N152 X-133.862 Y-7.035 Z14.138 
N153 X-133.861 Y-7.124 Z14.014 
N154 X-133.861 Y-7.214 Z13.891 
N155 X-133.860 Y-7.304 Z13.767 
N156 X-133.860 Y-7.394 Z13.644 
N157 X-133.859 Y-7.483 Z13.520 
N158 X-133.859 Y-7.573 Z13.397 
N159 X-133.859 Y-7.663 Z13.273 
N160 X-133.858 Y-7.753 Z13.150 
N161 X-133.858 Y-7.842 Z13.026 
N162 X-133.857 Y-7.932 Z12.903 
N163 X-133.857 Y-8.022 Z12.779 
N164 X-133.856 Y-8.112 Z12.655 
N165 X-133.856 Y-8.201 Z12.532 
N166 X-133.856 Y-8.291 Z12.408 
N167 X-133.855 Y-8.381 Z12.285 
N168 X-133.855 Y-8.471 Z12.161 
N169 X-133.854 Y-8.560 Z12.038 
N170 X-133.854 Y-8.650 Z11.914 
N171 X-133.854 Y-8.740 Z11.791 
N172 X-133.853 Y-8.829 Z11.667 
N173 X-133.853 Y-8.919 Z11.544 
N174 X-133.852 Y-9.009 Z11.420 
N175 X-133.852 Y-9.099 Z11.297 
N176 X-133.851 Y-9.188 Z11.173 
N177 X-133.851 Y-9.278 Z11.050 
N178 X-133.851 Y-9.368 Z10.926 
N179 X-133.850 Y-9.458 Z10.803 
N180 X-133.850 Y-9.547 Z10.679 
N181 X-133.849 Y-9.637 Z10.556 
N182 X-133.849 Y-9.727 Z10.432 
N183 X-133.848 Y-9.817 Z10.309 
N184 X-133.848 Y-9.906 Z10.185 
N185 X-133.848 Y-9.996 Z10.062 
N186 X-133.847 Y-10.086 Z9.938 
N187 X-133.847 Y-10.176 Z9.815 
N188 X-133.846 Y-10.265 Z9.691 
N189 X-133.846 Y-10.355 Z9.567 
N190 X-133.845 Y-10.445 Z9.444 
N191 X-133.845 Y-10.535 Z9.320 
N192 X-133.845 Y-10.624 Z9.197 
N193 X-133.844 Y-10.714 Z9.073 
N194 X-133.844 Y-10.804 Z8.950 
N195 X-133.843 Y-10.894 Z8.826 
N196 X-133.843 Y-10.983 Z8.703 
N197 X-133.843 Y-11.073 Z8.579 
N198 X-133.842 Y-11.163 Z8.456 
N199 X-133.842 Y-11.253 Z8.332 
N200 X-133.841 Y-11.342 Z8.209 
N201 X-133.841 Y-11.432 Z8.085 
N202 X-133.840 Y-11.522 Z7.962 
N203 X-133.841 Y-11.612 Z7.838 
N204 X-133.842 Y-11.701 Z7.715 
N205 X-133.843 Y-11.791 Z7.591 
N206 X-133.844 Y-11.881 Z7.468 
N207 X-133.845 Y-11.971 Z7.344 
N208 X-133.846 Y-12.060 Z7.221 
N209 X-133.847 Y-12.150 Z7.097 
N210 X-133.848 Y-12.240 Z6.974 
N211 X-133.849 Y-12.329 Z6.850 
N212 X-133.850 Y-12.419 Z6.727 
N213 X-133.851 Y-12.509 Z6.603 
N214 X-133.852 Y-12.599 Z6.479 
N215 X-133.853 Y-12.688 Z6.356 
N216 X-133.854 Y-12.778 Z6.232 
N217 X-133.855 Y-12.868 Z6.109 
N218 X-133.856 Y-12.958 Z5.985 
N219 X-133.857 Y-13.047 Z5.862 
N220 X-133.858 Y-13.137 Z5.738 
N221 X-133.859 Y-13.227 Z5.615 
N222 X-133.860 Y-13.317 Z5.491 
N223 X-133.861 Y-13.406 Z5.368 
N224 X-133.862 Y-13.496 Z5.244 
N225 X-133.864 Y-13.586 Z5.121 
N226 X-133.865 Y-13.676 Z4.997 
N227 X-133.866 Y-13.765 Z4.874 
N228 X-133.867 Y-13.855 Z4.750 
N229 X-133.868 Y-13.945 Z4.627 
N230 X-133.869 Y-14.035 Z4.503 
N231 X-133.870 Y-14.124 Z4.380 
N232 X-133.871 Y-14.214 Z4.256 
N233 X-133.872 Y-14.304 Z4.133 
N234 X-133.873 Y-14.394 Z4.009 
N235 X-133.874 Y-14.483 Z3.886 
N236 X-133.875 Y-14.573 Z3.762 
N237 X-133.876 Y-14.663 Z3.639 
N238 X-133.877 Y-14.752 Z3.515 
N239 X-133.878 Y-14.842 Z3.392 
N240 X-133.879 Y-14.932 Z3.268 
N241 X-133.880 Y-15.022 Z3.144 
N242 X-133.881 Y-15.111 Z3.021 
N243 X-133.882 Y-15.201 Z2.897 
N244 X-133.883 Y-15.291 Z2.774 
N245 X-133.884 Y-15.381 Z2.650 
N246 X-133.885 Y-15.470 Z2.527 
N247 X-133.886 Y-15.560 Z2.403 
N248 X-133.887 Y-15.650 Z2.280 
N249 X-133.888 Y-15.740 Z2.156 
N250 X-133.889 Y-15.829 Z2.033 
N251 X-133.890 Y-15.919 Z1.909 
N252 X-133.891 Y-16.009 Z1.786 
N253 X-133.892 Y-16.099 Z1.662 
N254 X-133.893 Y-16.188 Z1.539 
N255 X-133.894 Y-16.278 Z1.415 
N256 X-133.895 Y-16.368 Z1.292 
N257 X-133.896 Y-16.458 Z1.168 
N258 X-133.898 Y-16.547 Z1.045 
N259 X-133.901 Y-16.637 Z0.921 
N260 X-133.903 Y-16.727 Z0.798 
N261 X-133.905 Y-16.817 Z0.674 
N262 X-133.907 Y-16.906 Z0.551 
N263 X-133.910 Y-16.996 Z0.427 
N264 X-133.912 Y-17.086 Z0.304 
N265 X-133.914 Y-17.175 Z0.180 
N266 X-133.916 Y-17.265 Z0.057 
N267 X-133.919 Y-17.355 Z-0.067 
N268 X-133.921 Y-17.445 Z-0.190 
N269 X-133.923 Y-17.534 Z-0.314 
N270 X-133.925 Y-17.624 Z-0.437 
N271 X-133.928 Y-17.714 Z-0.561 
N272 X-133.930 Y-17.804 Z-0.684 
N273 X-133.932 Y-17.893 Z-0.808 
N274 X-133.934 Y-17.983 Z-0.931 
N275 X-133.937 Y-18.073 Z-1.055 
N276 X-133.939 Y-18.163 Z-1.178 
N277 X-133.941 Y-18.252 Z-1.302 
N278 X-133.943 Y-18.342 Z-1.426 
N279 X-133.946 Y-18.432 Z-1.549 
N280 X-133.948 Y-18.521 Z-1.673 
N281 X-133.950 Y-18.611 Z-1.796 
N282 X-133.952 Y-18.701 Z-1.920 
N283 X-133.955 Y-18.791 Z-2.043 
N284 X-133.957 Y-18.880 Z-2.167 
N285 X-133.959 Y-18.970 Z-2.290 
N286 X-133.961 Y-19.060 Z-2.414 
N287 X-133.964 Y-19.150 Z-2.537 
N288 X-133.966 Y-19.239 Z-2.661 
N289 X-133.968 Y-19.329 Z-2.784 
N290 X-133.970 Y-19.419 Z-2.908 
N291 X-133.972 Y-19.509 Z-3.031 
N292 X-133.975 Y-19.598 Z-3.155 
N293 X-133.977 Y-19.688 Z-3.278 
N294 X-133.979 Y-19.778 Z-3.402 
N295 X-133.981 Y-19.867 Z-3.525 
N296 X-133.984 Y-19.957 Z-3.649 
N297 X-133.986 Y-20.047 Z-3.772 
N298 X-133.988 Y-20.137 Z-3.896 
N299 X-133.990 Y-20.226 Z-4.019 
N300 X-133.994 Y-20.316 Z-4.143 
N301 X-133.997 Y-20.406 Z-4.266 
N302 X-134.001 Y-20.496 Z-4.390 
N303 X-134.005 Y-20.585 Z-4.513 
N304 X-134.008 Y-20.675 Z-4.637 
N305 X-134.012 Y-20.765 Z-4.760 
N306 X-134.015 Y-20.854 Z-4.884 
N307 X-134.019 Y-20.944 Z-5.007 
N308 X-134.022 Y-21.034 Z-5.131 
N309 X-134.026 Y-21.124 Z-5.254 
N310 X-134.030 Y-21.213 Z-5.378 
N311 X-134.033 Y-21.303 Z-5.501 
N312 X-134.037 Y-21.393 Z-5.625 
N313 X-134.040 Y-21.482 Z-5.748 
N314 X-134.044 Y-21.572 Z-5.871 
N315 X-134.047 Y-21.662 Z-5.995 
N316 X-134.051 Y-21.752 Z-6.118 
N317 X-134.055 Y-21.841 Z-6.242 
N318 X-134.058 Y-21.931 Z-6.365 
N319 X-134.062 Y-22.021 Z-6.489 
N320 X-134.065 Y-22.110 Z-6.612 
N321 X-134.069 Y-22.200 Z-6.736 
N322 X-134.073 Y-22.290 Z-6.859 
N323 X-134.076 Y-22.380 Z-6.983 
N324 X-134.080 Y-22.469 Z-7.106 
N325 X-134.083 Y-22.559 Z-7.230 
N326 X-134.087 Y-22.649 Z-7.353 
N327 X-134.090 Y-22.739 Z-7.477 
N328 X-134.094 Y-22.828 Z-7.600 
N329 X-134.098 Y-22.918 Z-7.724 
N330 X-134.101 Y-23.008 Z-7.847 
N331 X-134.105 Y-23.097 Z-7.971 
N332 X-134.108 Y-23.187 Z-8.094 
N333 X-134.112 Y-23.277 Z-8.218 
N334 X-134.115 Y-23.367 Z-8.341 
N335 X-134.119 Y-23.456 Z-8.465 
N336 X-134.123 Y-23.546 Z-8.588 
N337 X-134.126 Y-23.636 Z-8.712 
N338 X-134.130 Y-23.725 Z-8.835 
N339 X-134.133 Y-23.815 Z-8.959 
N340 X-134.137 Y-23.905 Z-9.082 
N341 X-134.140 Y-23.995 Z-9.206 
N342 X-134.144 Y-24.084 Z-9.329 
N343 X-134.148 Y-24.174 Z-9.453 
N344 X-134.151 Y-24.264 Z-9.576 
N345 X-134.155 Y-24.353 Z-9.700 
N346 X-134.158 Y-24.443 Z-9.823 
N347 X-134.162 Y-24.533 Z-9.947 
N348 X-134.166 Y-24.623 Z-10.070 
N349 X-134.169 Y-24.712 Z-10.194 
N350 X-134.173 Y-24.802 Z-10.317 
N351 X-134.176 Y-24.892 Z-10.441 
N352 X-134.180 Y-24.982 Z-10.564 
N353 X-134.183 Y-25.071 Z-10.687 
N354 X-134.187 Y-25.161 Z-10.811 
N355 X-134.191 Y-25.251 Z-10.934 
N356 X-134.194 Y-25.340 Z-11.058 
N357 X-134.198 Y-25.430 Z-11.181 
N358 X-134.201 Y-25.520 Z-11.305 
N359 X-134.205 Y-25.610 Z-11.428 
N360 X-134.208 Y-25.699 Z-11.552 
N361 X-134.212 Y-25.789 Z-11.675 
N362 X-134.216 Y-25.879 Z-11.799 
N363 X-134.220 Y-25.968 Z-11.922 
N364 X-134.225 Y-26.058 Z-12.046 
N365 X-134.230 Y-26.148 Z-12.169 
N366 X-134.235 Y-26.237 Z-12.293 
N367 X-134.240 Y-26.327 Z-12.416 
N368 X-134.245 Y-26.417 Z-12.540 
N369 X-134.250 Y-26.507 Z-12.663 
N370 X-134.255 Y-26.596 Z-12.787 
N371 X-134.260 Y-26.686 Z-12.910 
N372 X-134.265 Y-26.776 Z-13.033 
N373 X-134.270 Y-26.865 Z-13.157 
N374 X-134.275 Y-26.955 Z-13.280 
N375 X-134.280 Y-27.045 Z-13.404 
N376 X-134.285 Y-27.134 Z-13.527 
N377 X-134.290 Y-27.224 Z-13.651 
N378 X-134.295 Y-27.314 Z-13.774 
N379 X-134.300 Y-27.404 Z-13.898 
N380 X-134.305 Y-27.493 Z-14.021 
N381 X-134.310 Y-27.583 Z-14.145 
N382 X-134.315 Y-27.673 Z-14.268 
N383 X-134.320 Y-27.762 Z-14.391 
N384 X-134.325 Y-27.852 Z-14.515 
N385 X-134.330 Y-27.942 Z-14.638 
N386 X-134.335 Y-28.031 Z-14.762 
N387 X-134.340 Y-28.121 Z-14.885 
N388 X-134.345 Y-28.211 Z-15.009 
N389 X-134.350 Y-28.300 Z-15.132 
N390 X-134.355 Y-28.390 Z-15.256 
N391 X-134.360 Y-28.480 Z-15.379 
N392 X-134.365 Y-28.570 Z-15.503 
N393 X-134.370 Y-28.659 Z-15.626 
N394 X-134.375 Y-28.749 Z-15.749 
N395 X-134.380 Y-28.839 Z-15.873 
N396 X-134.385 Y-28.928 Z-15.996 
N397 X-134.390 Y-29.018 Z-16.120 
N398 X-134.395 Y-29.108 Z-16.243 
N399 X-134.400 Y-29.197 Z-16.367 
N400 X-134.405 Y-29.287 Z-16.490 
N401 X-134.410 Y-29.377 Z-16.614 
N402 X-134.415 Y-29.467 Z-16.737 
N403 X-134.420 Y-29.556 Z-16.861 
N404 X-134.425 Y-29.646 Z-16.984 
N405 X-134.430 Y-29.736 Z-17.107 
N406 X-134.435 Y-29.825 Z-17.231 
N407 X-134.440 Y-29.915 Z-17.354 
N408 X-134.445 Y-30.005 Z-17.478 
N409 X-134.450 Y-30.094 Z-17.601 
N410 X-134.455 Y-30.184 Z-17.725 
N411 X-134.460 Y-30.274 Z-17.848 
N412 X-134.465 Y-30.363 Z-17.971 
N413 X-134.470 Y-30.452 Z-18.093 
N414 X-134.475 Y-30.541 Z-18.216 
N415 X-134.480 Y-30.630 Z-18.338 
N416 X-134.485 Y-30.719 Z-18.461 
N417 X-134.490 Y-30.808 Z-18.583 
N418 X-134.495 Y-30.897 Z-18.706 
N419 X-134.500 Y-30.986 Z-18.828 
N420 X-134.504 Y-31.075 Z-18.951 
N421 X-134.509 Y-31.164 Z-19.073 
N422 X-134.514 Y-31.253 Z-19.196 
N423 X-134.519 Y-31.342 Z-19.318 
N424 X-134.524 Y-31.431 Z-19.441 
N425 X-134.529 Y-31.520 Z-19.563 
N426 X-134.534 Y-31.609 Z-19.686 
N427 X-134.539 Y-31.698 Z-19.808 
N428 X-134.544 Y-31.787 Z-19.931 
N429 X-134.549 Y-31.876 Z-20.053 
N430 X-134.554 Y-31.965 Z-20.176 
N431 X-134.559 Y-32.054 Z-20.298 
N432 X-134.564 Y-32.143 Z-20.421 
N433 X-134.569 Y-32.232 Z-20.543 
N434 X-134.574 Y-32.321 Z-20.666 
N435 X-134.579 Y-32.410 Z-20.789 
N436 X-134.584 Y-32.499 Z-20.911 
N437 X-134.589 Y-32.588 Z-21.034 
N438 X-134.594 Y-32.677 Z-21.156 
N439 X-134.599 Y-32.766 Z-21.279 
N440 X-134.604 Y-32.855 Z-21.401 
N441 X-134.609 Y-32.944 Z-21.524 
N442 X-134.613 Y-33.033 Z-21.646 
N443 X-134.618 Y-33.122 Z-21.769 
N444 X-134.623 Y-33.211 Z-21.891 
N445 G40 X-134.656 Y-33.799 Z-22.700 F458
N446 X-134.656 Y-33.799 Z-22.700 
N447 G00 X-134.656 Y-74.249 Z6.690 
;RAPORT("TC999999","Side Milling:141 End")
;trailer : concat=None
; points cnt = 403
N449 M9 ; chlodziwo wyl.
N450 MSG (" --- KONIEC PODPROGRAMU --- ")
N451 FGROUP()
N452 TRAFOOF
N453 STOPRE
N454 G0 G53 D0 Z550.0 M9 M5
N455 G0 G53 Y150 A0 B0
N456 M17
