; PROGRAM NAME: C99999932
; ORDER       : C999999
; OPER. NAME  : Spiral Finish Transition:111
; OPER. DESCR.: Spiral transition - Semi finish transition root/promienie przejsc pwk
; OPER. TYPE  : finTransRoot
; GEO. OPTION : 7
; MACHINE     : HSTM_500M_SIM840D_Py
;             : HSTM500 Morelia- HAMUEL: 5-axis milling machine-SIM840D Traori PP_Script
; CONTROL     : SINUMERIK 840D
; created:   2022-11-16 12:00:26.610219
;----------------------------------------
;-------DODATKOWE DANE-------------------
; PROGRAMISTA : Mariusz Malec
; PARTID      : 301T002159P1002_-
;  ae         : 1.5
;  lean_angle : 5.0
;  tilt_angle : -28.6
;  airf_offset: 0.05
;  plat_offset: 0.6
;----------------------------------------
;RAPORT("TC999999","Spiral Finish Transition:111")
N10 TRAFOOF
N11 D0
N12 G90 G94
N13 G0 G53 D0 Z550
N14 STOPRE
M9 ; chlodziwo wyl
; --- Spiral Finish Transition:111 - Spiral transition - Semi finish transition root/promienie przejsc pwk ---
N16 ;ToolChange : concat=None ,current_tdmid=None, PP.tdmId=940626
N17 TRAFOOF
N18 G0 G53 D0 X-200 Y150 Z550 B0
N19 T="7740626"
;RAPORT("TC999999","ToolChangeStart 7740626")
N20 M6
;RAPORT("TC999999","ToolChangeEnd")
N21 STOPRE
N22 MSG(" TLID=940626 D=8.391 R=5.0 Ang=10.0 Len=155.0 ")
N23 S6987 M03
N24 STOPRE
N25 TOL(0.001,1,1)
N26 G0 G53 A40.5556 B-28.6000
N27 TRAORI
N28 G54 D1
N29 D1 
N30 TRANS  X=R3 A=R25
STOPRE
E_ZDARZ=400004
;ACS_PREFINISH_UBG_B_CONST_BBK_ROOT=7740626
STOPRE
N31 ; DELTA A > 40.1
N32 TRAFOOF
N33 D1
N34 STOPRE
N35 G00 G54 Z231.000
N36 G01 A40.5556 F10000
N37 TRAORI
N38 G54 D1
N39 STOPRE
N40 TRANS  X=R3 A=R25
N41 G00 X-229.502 Y-69.983 Z26.838 A40.5556 B-28.6000 
N42 M342 ; chlodziwo woda
N43 X-205.567 Y-41.441 Z-6.515 
N44 G01 X-205.570 Y-38.895 Z-8.334 F1456 
N45 X-205.686 Y-35.915 Z-9.282 
N46 X-205.903 Y-32.794 Z-9.266 
N47 X-206.201 Y-29.837 Z-8.289 
N48 X-206.549 Y-27.333 Z-6.446 
N49 X-206.561 Y-27.264 Z-6.375 A39.4335 
N50 X-206.568 Y-27.200 Z-6.313 A39.0027 
N51 X-206.574 Y-27.125 Z-6.244 A38.8602 
N52 X-206.581 Y-27.029 Z-6.155 A38.7678 
N53 X-206.591 Y-26.905 Z-6.040 A38.6864 
N54 X-206.603 Y-26.747 Z-5.893 A38.6119 
N55 X-206.618 Y-26.549 Z-5.708 A38.5396 
N56 X-206.637 Y-26.304 Z-5.479 A38.4651 
N57 X-206.660 Y-26.006 Z-5.199 A38.3842 
N58 X-206.688 Y-25.650 Z-4.865 A38.2928 
N59 X-206.721 Y-25.232 Z-4.472 A38.1865 
N60 X-206.759 Y-24.748 Z-4.018 A38.0605 
N61 X-206.804 Y-24.198 Z-3.502 A37.9098 
N62 X-206.854 Y-23.582 Z-2.926 A37.7293 
N63 X-206.910 Y-22.903 Z-2.294 A37.5140 
N64 X-206.972 Y-22.167 Z-1.612 A37.2592 
N65 X-207.040 Y-21.380 Z-0.889 A36.9608 
N66 X-207.113 Y-20.551 Z-0.135 A36.6161 
N67 X-207.191 Y-19.687 Z0.640 A36.1782 
N68 X-207.276 Y-18.799 Z1.424 A35.6461 
N69 X-207.365 Y-17.896 Z2.206 A35.0195 
N70 X-207.458 Y-16.987 Z2.973 A34.2986 
N71 X-207.554 Y-16.083 Z3.716 A33.4841 
N72 X-207.652 Y-15.191 Z4.427 A32.5770 
N73 X-207.753 Y-14.319 Z5.098 A31.6236 
N74 X-207.854 Y-13.473 Z5.725 A30.6265 
N75 X-207.955 Y-12.656 Z6.306 A29.5902 
N76 X-208.056 Y-11.872 Z6.841 A28.5207 
N77 X-208.156 Y-11.121 Z7.330 A27.4245 
N78 X-208.253 Y-10.404 Z7.777 A26.3084 
N79 X-208.349 Y-9.720 Z8.183 A25.1782 
N80 X-208.443 Y-9.068 Z8.552 A24.0388 
N81 X-208.534 Y-8.444 Z8.888 A22.8942 
N82 X-208.623 Y-7.847 Z9.194 A21.7473 
N83 X-208.709 Y-7.274 Z9.472 A20.6004 
N84 X-208.794 Y-6.723 Z9.727 A19.4548 
N85 X-208.877 Y-6.191 Z9.960 A18.3116 
N86 X-208.959 Y-5.675 Z10.173 A17.1711 
N87 X-209.039 Y-5.175 Z10.368 A16.0336 
N88 X-209.117 Y-4.687 Z10.548 A14.8989 
N89 X-209.195 Y-4.212 Z10.712 A13.7667 
N90 X-209.272 Y-3.747 Z10.863 A12.6367 
N91 X-209.349 Y-3.291 Z11.001 A11.5084 
N92 X-209.425 Y-2.844 Z11.127 A10.3815 
N93 X-209.500 Y-2.404 Z11.241 A9.2554 
N94 X-209.575 Y-1.972 Z11.345 A8.1297 
N95 X-209.649 Y-1.547 Z11.438 A7.0041 
N96 X-209.724 Y-1.127 Z11.522 A5.8783 
N97 X-209.798 Y-0.714 Z11.596 A4.7519 
N98 X-209.872 Y-0.306 Z11.661 A3.6247 
N99 X-209.945 Y0.097 Z11.717 A2.4964 
N100 X-210.019 Y0.494 Z11.764 A1.3669 
N101 X-210.093 Y0.887 Z11.803 A0.2360 
N102 X-210.167 Y1.275 Z11.834 A359.1036 
N103 X-210.241 Y1.658 Z11.857 A357.9696 
N104 X-210.315 Y2.038 Z11.873 A356.8338 
N105 X-210.389 Y2.412 Z11.881 A355.6963 
N106 X-210.463 Y2.783 Z11.881 A354.5571 
N107 X-210.538 Y3.150 Z11.874 A353.4160 
N108 X-210.612 Y3.513 Z11.861 A352.2731 
N109 X-210.687 Y3.871 Z11.840 A351.1285 
N110 X-210.762 Y4.226 Z11.812 A349.9821 
N111 X-210.838 Y4.578 Z11.778 A348.8340 
N112 X-210.913 Y4.925 Z11.737 A347.6843 
N113 X-210.989 Y5.269 Z11.690 A346.5330 
N114 X-211.065 Y5.610 Z11.636 A345.3802 
N115 X-211.142 Y5.947 Z11.576 A344.2260 
N116 X-211.219 Y6.280 Z11.509 A343.0704 
N117 X-211.296 Y6.610 Z11.436 A341.9136 
N118 X-211.374 Y6.937 Z11.358 A340.7557 
N119 X-211.452 Y7.260 Z11.273 A339.5967 
N120 X-211.531 Y7.580 Z11.181 A338.4368 
N121 X-211.610 Y7.897 Z11.084 A337.2760 
N122 X-211.689 Y8.211 Z10.981 A336.1146 
N123 X-211.769 Y8.522 Z10.872 A334.9525 
N124 X-211.849 Y8.829 Z10.757 A333.7900 
N125 X-211.930 Y9.134 Z10.636 A332.6271 
N126 X-212.011 Y9.435 Z10.509 A331.4640 
N127 X-212.093 Y9.734 Z10.376 A330.3008 
N128 X-212.176 Y10.029 Z10.238 A329.1377 
N129 X-212.259 Y10.322 Z10.093 A327.9748 
N130 X-212.342 Y10.611 Z9.942 A326.8125 
N131 X-212.426 Y10.898 Z9.785 A325.6507 
N132 X-212.511 Y11.182 Z9.623 A324.4899 
N133 X-212.596 Y11.463 Z9.454 A323.3301 
N134 X-212.682 Y11.741 Z9.279 A322.1717 
N135 X-212.768 Y12.016 Z9.098 A321.0150 
N136 X-212.855 Y12.288 Z8.911 A319.8601 
N137 X-212.943 Y12.557 Z8.718 A318.7073 
N138 X-213.031 Y12.823 Z8.519 A317.5568 
N139 X-213.120 Y13.085 Z8.314 A316.4087 
N140 X-213.209 Y13.345 Z8.103 A315.2631 
N141 X-213.298 Y13.601 Z7.886 A314.1199 
N142 X-213.388 Y13.853 Z7.663 A312.9791 
N143 X-213.479 Y14.103 Z7.434 A311.8404 
N144 X-213.569 Y14.348 Z7.199 A310.7039 
N145 X-213.660 Y14.590 Z6.958 A309.5697 
N146 X-213.752 Y14.828 Z6.712 A308.4380 
N147 X-213.843 Y15.061 Z6.460 A307.3096 
N148 X-213.934 Y15.291 Z6.202 A306.1858 
N149 X-214.026 Y15.515 Z5.939 A305.0680 
N150 X-214.117 Y15.734 Z5.672 A303.9582 
N151 X-214.207 Y15.948 Z5.400 A302.8580 
N152 X-214.297 Y16.157 Z5.124 A301.7690 
N153 X-214.387 Y16.359 Z4.846 A300.6923 
N154 X-214.475 Y16.555 Z4.564 A299.6284 
N155 X-214.562 Y16.745 Z4.282 A298.5768 
N156 X-214.648 Y16.928 Z3.998 A297.5365 
N157 X-214.732 Y17.103 Z3.714 A296.5060 
N158 X-214.814 Y17.272 Z3.431 A295.4836 
N159 X-214.894 Y17.433 Z3.150 A294.4679 
N160 X-214.971 Y17.585 Z2.872 A293.4579 
N161 X-215.046 Y17.730 Z2.598 A292.4534 
N162 X-215.117 Y17.866 Z2.329 A291.4548 
N163 X-215.185 Y17.993 Z2.065 A290.4632 
N164 X-215.250 Y18.111 Z1.809 A289.4796 
N165 X-215.311 Y18.221 Z1.560 A288.5051 
N166 X-215.368 Y18.322 Z1.321 A287.5404 
N167 X-215.422 Y18.414 Z1.092 A286.5857 
N168 X-215.471 Y18.498 Z0.873 A285.6412 
N169 X-215.516 Y18.574 Z0.665 A284.7078 
N170 X-215.558 Y18.643 Z0.469 A283.7860 
N171 X-215.595 Y18.704 Z0.285 A282.8745 
N172 X-215.629 Y18.758 Z0.113 A281.9691 
N173 X-215.658 Y18.806 Z-0.047 A281.0628 
N174 X-215.685 Y18.849 Z-0.196 A280.1483 
N175 X-215.708 Y18.887 Z-0.335 A279.2190 
N176 X-215.728 Y18.921 Z-0.463 A278.2680 
N177 X-215.744 Y18.950 Z-0.583 A277.2876 
N178 X-215.758 Y18.976 Z-0.694 A276.2692 
N179 X-215.770 Y18.999 Z-0.799 A275.2048 
N180 X-215.779 Y19.019 Z-0.898 A274.0886 
N181 X-215.786 Y19.036 Z-0.991 A272.9186 
N182 X-215.791 Y19.052 Z-1.081 A271.6972 
N183 X-215.794 Y19.064 Z-1.167 A270.4307 
N184 X-215.796 Y19.075 Z-1.249 A269.1284 
N185 X-215.797 Y19.084 Z-1.329 A267.8010 
N186 X-215.797 Y19.090 Z-1.405 A266.4597 
N187 X-215.795 Y19.095 Z-1.479 A265.1145 
N188 X-215.794 Y19.098 Z-1.550 A263.7735 
N189 X-215.791 Y19.100 Z-1.619 A262.4431 
N190 X-215.788 Y19.100 Z-1.685 A261.1276 
N191 X-215.785 Y19.098 Z-1.750 A259.8295 
N192 X-215.781 Y19.096 Z-1.812 A258.5502 
N193 X-215.778 Y19.092 Z-1.873 A257.2898 
N194 X-215.774 Y19.086 Z-1.932 A256.0480 
N195 X-215.770 Y19.080 Z-1.989 A254.8234 
N196 X-215.765 Y19.073 Z-2.046 A253.6149 
N197 X-215.761 Y19.064 Z-2.101 A252.4212 
N198 X-215.756 Y19.055 Z-2.155 A251.2407 
N199 X-215.752 Y19.044 Z-2.208 A250.0720 
N200 X-215.747 Y19.033 Z-2.260 A248.9140 
N201 X-215.742 Y19.021 Z-2.312 A247.7654 
N202 X-215.737 Y19.008 Z-2.362 A246.6254 
N203 X-215.733 Y18.994 Z-2.412 A245.4928 
N204 X-215.728 Y18.979 Z-2.461 A244.3670 
N205 X-215.722 Y18.963 Z-2.510 A243.2470 
N206 X-215.717 Y18.947 Z-2.558 A242.1322 
N207 X-215.712 Y18.929 Z-2.605 A241.0221 
N208 X-215.707 Y18.911 Z-2.652 A239.9159 
N209 X-215.701 Y18.892 Z-2.698 A238.8132 
N210 X-215.696 Y18.872 Z-2.744 A237.7135 
N211 X-215.690 Y18.852 Z-2.789 A236.6164 
N212 X-215.685 Y18.830 Z-2.833 A235.5213 
N213 X-215.679 Y18.808 Z-2.878 A234.4279 
N214 X-215.674 Y18.785 Z-2.921 A233.3358 
N215 X-215.668 Y18.761 Z-2.964 A232.2445 
N216 X-215.662 Y18.736 Z-3.007 A231.1535 
N217 X-215.656 Y18.711 Z-3.049 A230.0625 
N218 X-215.650 Y18.684 Z-3.091 A228.9709 
N219 X-215.644 Y18.657 Z-3.132 A227.8783 
N220 X-215.638 Y18.629 Z-3.173 A226.7840 
N221 X-215.632 Y18.600 Z-3.214 A225.6874 
N222 X-215.625 Y18.570 Z-3.254 A224.5878 
N223 X-215.619 Y18.540 Z-3.294 A223.4845 
N224 X-215.613 Y18.508 Z-3.333 A222.3766 
N225 X-215.606 Y18.475 Z-3.372 A221.2630 
N226 X-215.599 Y18.442 Z-3.411 A220.1428 
N227 X-215.593 Y18.407 Z-3.450 A219.0146 
N228 X-215.586 Y18.371 Z-3.488 A217.8774 
N229 X-215.579 Y18.334 Z-3.526 A216.7297 
N230 X-215.572 Y18.295 Z-3.564 A215.5703 
N231 X-215.564 Y18.255 Z-3.601 A214.3976 
N232 X-215.557 Y18.213 Z-3.639 A213.2105 
N233 X-215.549 Y18.170 Z-3.676 A212.0078 
N234 X-215.541 Y18.125 Z-3.714 A210.7888 
N235 X-215.533 Y18.078 Z-3.752 A209.5532 
N236 X-215.525 Y18.028 Z-3.789 A208.3018 
N237 X-215.516 Y17.976 Z-3.827 A207.0362 
N238 X-215.507 Y17.922 Z-3.864 A205.7592 
N239 X-215.497 Y17.864 Z-3.902 A204.4755 
N240 X-215.487 Y17.803 Z-3.940 A203.1909 
N241 X-215.477 Y17.738 Z-3.977 A201.9130 
N242 X-215.466 Y17.670 Z-4.015 A200.6502 
N243 X-215.454 Y17.597 Z-4.052 A199.4107 
N244 X-215.441 Y17.520 Z-4.089 A198.2013 
N245 X-215.427 Y17.436 Z-4.127 A197.0261 
N246 X-215.412 Y17.346 Z-4.165 A195.8850 
N247 X-215.395 Y17.248 Z-4.203 A194.7739 
N248 X-215.377 Y17.140 Z-4.243 A193.6855 
N249 X-215.356 Y17.020 Z-4.284 A192.6110 
N250 X-215.332 Y16.887 Z-4.327 A191.5437 
N251 X-215.305 Y16.737 Z-4.372 A190.4797 
N252 X-215.273 Y16.569 Z-4.419 A189.4165 
N253 X-215.238 Y16.379 Z-4.468 A188.3515 
N254 X-215.196 Y16.164 Z-4.518 A187.2815 
N255 X-215.149 Y15.920 Z-4.571 A186.2047 
N256 X-215.093 Y15.643 Z-4.624 A185.1232 
N257 X-215.030 Y15.328 Z-4.678 A184.0409 
N258 X-214.956 Y14.970 Z-4.731 A182.9613 
N259 X-214.871 Y14.564 Z-4.783 A181.8859 
N260 X-214.772 Y14.103 Z-4.833 A180.8163 
N261 X-214.659 Y13.583 Z-4.879 A179.7547 
N262 X-214.530 Y12.998 Z-4.919 A178.7033 
N263 X-214.383 Y12.344 Z-4.950 A177.6638 
N264 X-214.217 Y11.615 Z-4.972 A176.6370 
N265 X-214.030 Y10.810 Z-4.981 A175.6242 
N266 X-213.821 Y9.928 Z-4.974 A174.6297 
N267 X-213.591 Y8.972 Z-4.948 A173.6863 
N268 X-213.340 Y7.945 Z-4.901 A172.8112 
N269 X-213.069 Y6.854 Z-4.834 A172.0166 
N270 X-212.780 Y5.711 Z-4.748 A171.3905 
N271 X-212.475 Y4.525 Z-4.647 A170.9430 
N272 X-212.158 Y3.308 Z-4.534 A170.6798 
N273 X-211.833 Y2.074 Z-4.416 A170.5965 
N274 X-211.503 Y0.836 Z-4.297 A170.6860 
N275 X-211.174 Y-0.392 Z-4.181 A170.9494 
N276 X-210.849 Y-1.597 Z-4.073 A171.3936 
N277 X-210.532 Y-2.767 Z-3.978 A172.0221 
N278 X-210.226 Y-3.892 Z-3.900 A172.8292 
N279 X-209.935 Y-4.962 Z-3.842 A173.7969 
N280 X-209.660 Y-5.975 Z-3.806 A174.8996 
N281 X-209.404 Y-6.925 Z-3.791 A176.1129 
N282 X-209.166 Y-7.813 Z-3.796 A177.3731 
N283 X-208.947 Y-8.641 Z-3.819 A178.6522 
N284 X-208.745 Y-9.410 Z-3.858 A179.9449 
N285 X-208.561 Y-10.124 Z-3.911 A181.2456 
N286 X-208.391 Y-10.789 Z-3.975 A182.5493 
N287 X-208.236 Y-11.408 Z-4.049 A183.8515 
N288 X-208.093 Y-11.988 Z-4.132 A185.1487 
N289 X-207.960 Y-12.535 Z-4.222 A186.4379 
N290 X-207.837 Y-13.053 Z-4.320 A187.7171 
N291 X-207.722 Y-13.549 Z-4.425 A188.9850 
N292 X-207.614 Y-14.026 Z-4.537 A190.2407 
N293 X-207.512 Y-14.489 Z-4.656 A191.4835 
N294 X-207.415 Y-14.941 Z-4.783 A192.7127 
N295 X-207.323 Y-15.385 Z-4.919 A193.9276 
N296 X-207.234 Y-15.825 Z-5.064 A195.1271 
N297 X-207.149 Y-16.263 Z-5.218 A196.3098 
N298 X-207.067 Y-16.699 Z-5.383 A197.4737 
N299 X-206.987 Y-17.136 Z-5.559 A198.6168 
N300 X-206.911 Y-17.573 Z-5.747 A199.7365 
N301 X-206.837 Y-18.011 Z-5.945 A200.8298 
N302 X-206.766 Y-18.449 Z-6.154 A201.8932 
N303 X-206.699 Y-18.885 Z-6.374 A202.9222 
N304 X-206.634 Y-19.317 Z-6.603 A203.9123 
N305 X-206.573 Y-19.743 Z-6.838 A204.8593 
N306 X-206.515 Y-20.161 Z-7.078 A205.7158 
N307 X-206.460 Y-20.568 Z-7.321 A206.4777 
N308 X-206.409 Y-20.960 Z-7.562 A207.1436 
N309 X-206.362 Y-21.334 Z-7.798 A207.7155 
N310 X-206.317 Y-21.688 Z-8.026 A208.1985 
N311 X-206.277 Y-22.019 Z-8.241 A208.6002 
N312 X-206.239 Y-22.323 Z-8.442 A208.9296 
N313 X-206.206 Y-22.599 Z-8.626 A209.1956 
N314 X-206.176 Y-22.847 Z-8.792 A209.4064 
N315 X-206.149 Y-23.066 Z-8.939 A209.5686 
N316 X-206.126 Y-23.256 Z-9.068 A209.6872 
N317 X-206.105 Y-23.420 Z-9.178 A209.7650 
N318 X-206.088 Y-23.558 Z-9.272 A209.8023 
N319 X-206.073 Y-23.673 Z-9.349 A209.7964 
N320 X-206.060 Y-23.769 Z-9.414 A209.7409 
N321 X-206.049 Y-23.848 Z-9.468 A209.5700 
N322 X-206.038 Y-23.916 Z-9.514 A209.2551 
N323 X-206.025 Y-23.979 Z-9.557 A208.6018 
N324 X-206.009 Y-24.041 Z-9.602 A207.5307 
N325 X-205.990 Y-24.108 Z-9.649 A205.9847 
N326 X-205.967 Y-24.180 Z-9.699 A203.9835 
N327 X-205.942 Y-24.258 Z-9.749 A201.6483 
N328 X-205.918 Y-24.334 Z-9.794 A199.2768 
N329 X-205.895 Y-24.408 Z-9.835 A196.9206 
N330 X-205.873 Y-24.480 Z-9.870 A194.6092 
N331 X-205.852 Y-24.549 Z-9.901 A192.4041 
N332 X-205.834 Y-24.612 Z-9.926 A190.3882 
N333 X-205.819 Y-24.663 Z-9.945 A188.7597 
N334 X-205.806 Y-24.712 Z-9.961 A187.2211 
N335 X-205.793 Y-24.759 Z-9.974 A185.7659 
N336 X-205.781 Y-24.802 Z-9.986 A184.4068 
N337 X-205.770 Y-24.844 Z-9.996 A183.0868 
N338 X-205.759 Y-24.885 Z-10.005 A181.7985 
N339 X-205.749 Y-24.926 Z-10.012 A180.5382 
N340 X-205.739 Y-24.966 Z-10.019 A179.3052 
N341 X-205.730 Y-25.005 Z-10.025 A178.0928 
N342 X-205.720 Y-25.044 Z-10.029 A176.8963 
N343 X-205.711 Y-25.082 Z-10.033 A175.7126 
N344 X-205.703 Y-25.120 Z-10.036 A174.5398 
N345 X-205.694 Y-25.157 Z-10.039 A173.3759 
N346 X-205.686 Y-25.195 Z-10.040 A172.2191 
N347 X-205.678 Y-25.232 Z-10.041 A171.0679 
N348 X-205.670 Y-25.269 Z-10.041 A169.9210 
N349 X-205.662 Y-25.306 Z-10.040 A168.7774 
N350 X-205.655 Y-25.343 Z-10.039 A167.6373 
N351 X-205.648 Y-25.379 Z-10.037 A166.5002 
N352 X-205.641 Y-25.416 Z-10.034 A165.3652 
N353 X-205.634 Y-25.452 Z-10.030 A164.2311 
N354 X-205.627 Y-25.488 Z-10.026 A163.0988 
N355 X-205.621 Y-25.524 Z-10.021 A161.9687 
N356 X-205.614 Y-25.560 Z-10.016 A160.8400 
N357 X-205.608 Y-25.596 Z-10.009 A159.7114 
N358 X-205.603 Y-25.631 Z-10.003 A158.5838 
N359 X-205.597 Y-25.667 Z-9.995 A157.4578 
N360 X-205.592 Y-25.702 Z-9.987 A156.3328 
N361 X-205.586 Y-25.737 Z-9.978 A155.2071 
N362 X-205.581 Y-25.772 Z-9.968 A154.0820 
N363 X-205.576 Y-25.806 Z-9.958 A152.9578 
N364 X-205.572 Y-25.841 Z-9.947 A151.8336 
N365 X-205.567 Y-25.875 Z-9.936 A150.7087 
N366 X-205.563 Y-25.909 Z-9.923 A149.5838 
N367 X-205.559 Y-25.942 Z-9.911 A148.4589 
N368 X-205.555 Y-25.976 Z-9.897 A147.3329 
N369 X-205.551 Y-26.009 Z-9.883 A146.2061 
N370 X-205.548 Y-26.042 Z-9.868 A145.0788 
N371 X-205.545 Y-26.075 Z-9.853 A143.9504 
N372 X-205.542 Y-26.107 Z-9.837 A142.8205 
N373 X-205.539 Y-26.139 Z-9.821 A141.6897 
N374 X-205.536 Y-26.171 Z-9.803 A140.5577 
N375 X-205.534 Y-26.203 Z-9.786 A139.4239 
N376 X-205.532 Y-26.234 Z-9.767 A138.2891 
N377 X-205.530 Y-26.265 Z-9.748 A137.1532 
N378 X-205.528 Y-26.295 Z-9.728 A136.0158 
N379 X-205.527 Y-26.326 Z-9.708 A134.8773 
N380 X-205.525 Y-26.355 Z-9.688 A133.7379 
N381 X-205.524 Y-26.385 Z-9.666 A132.5973 
N382 X-205.523 Y-26.414 Z-9.644 A131.4558 
N383 X-205.523 Y-26.443 Z-9.622 A130.3137 
N384 X-205.522 Y-26.471 Z-9.599 A129.1707 
N385 X-205.522 Y-26.498 Z-9.575 A128.0272 
N386 X-205.522 Y-26.526 Z-9.551 A126.8833 
N387 X-205.522 Y-26.553 Z-9.527 A125.7390 
N388 X-205.523 Y-26.579 Z-9.502 A124.5945 
N389 X-205.524 Y-26.605 Z-9.476 A123.4499 
N390 X-205.525 Y-26.630 Z-9.450 A122.3053 
N391 X-205.526 Y-26.655 Z-9.424 A121.1608 
N392 X-205.527 Y-26.679 Z-9.397 A120.0166 
N393 X-205.529 Y-26.703 Z-9.369 A118.8727 
N394 X-205.531 Y-26.726 Z-9.342 A117.7293 
N395 X-205.533 Y-26.748 Z-9.313 A116.5863 
N396 X-205.535 Y-26.770 Z-9.285 A115.4441 
N397 X-205.538 Y-26.792 Z-9.256 A114.3025 
N398 X-205.541 Y-26.812 Z-9.227 A113.1616 
N399 X-205.544 Y-26.833 Z-9.197 A112.0216 
N400 X-205.547 Y-26.852 Z-9.167 A110.8823 
N401 X-205.550 Y-26.871 Z-9.137 A109.7437 
N402 X-205.554 Y-26.890 Z-9.106 A108.6061 
N403 X-205.558 Y-26.907 Z-9.076 A107.4693 
N404 X-205.562 Y-26.924 Z-9.044 A106.3329 
N405 X-205.566 Y-26.941 Z-9.013 A105.1973 
N406 X-205.570 Y-26.957 Z-8.982 A104.0624 
N407 X-205.575 Y-26.972 Z-8.950 A102.9276 
N408 X-205.580 Y-26.986 Z-8.918 A101.7930 
N409 X-205.585 Y-27.000 Z-8.885 A100.6591 
N410 X-205.590 Y-27.013 Z-8.853 A99.5248 
N411 X-205.596 Y-27.026 Z-8.820 A98.3898 
N412 X-205.602 Y-27.038 Z-8.787 A97.2550 
N413 X-205.607 Y-27.049 Z-8.754 A96.1196 
N414 X-205.614 Y-27.060 Z-8.721 A94.9830 
N415 X-205.620 Y-27.070 Z-8.688 A93.8453 
N416 X-205.626 Y-27.079 Z-8.654 A92.7077 
N417 X-205.633 Y-27.088 Z-8.621 A91.5687 
N418 X-205.640 Y-27.096 Z-8.587 A90.4278 
N419 X-205.647 Y-27.103 Z-8.553 A89.2859 
N420 X-205.654 Y-27.110 Z-8.519 A88.1432 
N421 X-205.662 Y-27.116 Z-8.485 A86.9987 
N422 X-205.669 Y-27.121 Z-8.450 A85.8519 
N423 X-205.677 Y-27.126 Z-8.416 A84.7034 
N424 X-205.685 Y-27.129 Z-8.382 A83.5535 
N425 X-205.693 Y-27.133 Z-8.347 A82.4010 
N426 X-205.701 Y-27.135 Z-8.313 A81.2452 
N427 X-205.710 Y-27.137 Z-8.278 A80.0860 
N428 X-205.718 Y-27.138 Z-8.243 A78.9235 
N429 X-205.727 Y-27.139 Z-8.208 A77.7563 
N430 X-205.736 Y-27.139 Z-8.173 A76.5829 
N431 X-205.746 Y-27.138 Z-8.138 A75.4021 
N432 X-205.755 Y-27.136 Z-8.103 A74.2121 
N433 X-205.765 Y-27.134 Z-8.067 A73.0113 
N434 X-205.775 Y-27.130 Z-8.031 A71.7973 
N435 X-205.785 Y-27.126 Z-7.995 A70.5669 
N436 X-205.795 Y-27.122 Z-7.958 A69.3151 
N437 X-205.806 Y-27.116 Z-7.920 A68.0173 
N438 X-205.818 Y-27.109 Z-7.881 A66.6717 
N439 X-205.830 Y-27.101 Z-7.840 A65.2680 
N440 X-205.844 Y-27.091 Z-7.795 A63.7056 
N441 X-205.860 Y-27.079 Z-7.745 A61.9929 
N442 X-205.877 Y-27.064 Z-7.692 A60.1247 
N443 X-205.899 Y-27.043 Z-7.626 A57.8299 
N444 X-205.924 Y-27.016 Z-7.551 A55.1777 
N445 X-205.954 Y-26.980 Z-7.464 A52.1428 
N446 X-205.985 Y-26.936 Z-7.373 A48.9553 
N447 X-206.018 Y-26.882 Z-7.279 A45.6811 
N448 X-206.048 Y-26.820 Z-7.187 A42.6347 
N449 X-206.070 Y-26.762 Z-7.113 A40.5556 
N450 X-206.083 Y-26.706 Z-7.053 A39.4335 
N451 X-206.090 Y-26.647 Z-6.995 A39.0027 
N452 X-206.095 Y-26.574 Z-6.928 A38.8602 
N453 X-206.103 Y-26.479 Z-6.840 A38.7678 
N454 X-206.112 Y-26.356 Z-6.726 A38.6864 
N455 X-206.124 Y-26.199 Z-6.579 A38.6119 
N456 X-206.139 Y-26.002 Z-6.395 A38.5396 
N457 X-206.158 Y-25.758 Z-6.166 A38.4651 
N458 X-206.181 Y-25.461 Z-5.887 A38.3842 
N459 X-206.209 Y-25.106 Z-5.554 A38.2928 
N460 X-206.242 Y-24.689 Z-5.162 A38.1865 
N461 X-206.281 Y-24.207 Z-4.709 A38.0605 
N462 X-206.325 Y-23.658 Z-4.194 A37.9098 
N463 X-206.375 Y-23.044 Z-3.620 A37.7293 
N464 X-206.431 Y-22.369 Z-2.990 A37.5140 
N465 X-206.493 Y-21.636 Z-2.311 A37.2592 
N466 X-206.561 Y-20.853 Z-1.591 A36.9608 
N467 X-206.634 Y-20.028 Z-0.840 A36.6161 
N468 X-206.713 Y-19.169 Z-0.069 A36.1782 
N469 X-206.797 Y-18.287 Z0.711 A35.6461 
N470 X-206.886 Y-17.392 Z1.487 A35.0195 
N471 X-206.979 Y-16.492 Z2.248 A34.2986 
N472 X-207.075 Y-15.599 Z2.984 A33.4841 
N473 X-207.174 Y-14.718 Z3.687 A32.5770 
N474 X-207.274 Y-13.859 Z4.350 A31.6236 
N475 X-207.375 Y-13.025 Z4.969 A30.6265 
N476 X-207.477 Y-12.223 Z5.543 A29.5902 
N477 X-207.577 Y-11.453 Z6.070 A28.5207 
N478 X-207.677 Y-10.717 Z6.551 A27.4245 
N479 X-207.775 Y-10.015 Z6.990 A26.3084 
N480 X-207.870 Y-9.347 Z7.388 A25.1782 
N481 X-207.964 Y-8.710 Z7.750 A24.0388 
N482 X-208.055 Y-8.103 Z8.079 A22.8942 
N483 X-208.144 Y-7.522 Z8.378 A21.7473 
N484 X-208.231 Y-6.965 Z8.650 A20.6004 
N485 X-208.315 Y-6.431 Z8.899 A19.4548 
N486 X-208.398 Y-5.915 Z9.126 A18.3116 
N487 X-208.480 Y-5.416 Z9.334 A17.1711 
N488 X-208.560 Y-4.932 Z9.524 A16.0336 
N489 X-208.639 Y-4.462 Z9.699 A14.8989 
N490 X-208.717 Y-4.003 Z9.859 A13.7667 
N491 X-208.794 Y-3.554 Z10.006 A12.6367 
N492 X-208.870 Y-3.116 Z10.140 A11.5084 
N493 X-208.946 Y-2.685 Z10.263 A10.3815 
N494 X-209.021 Y-2.263 Z10.375 A9.2554 
N495 X-209.096 Y-1.848 Z10.476 A8.1297 
N496 X-209.171 Y-1.439 Z10.567 A7.0041 
N497 X-209.245 Y-1.037 Z10.648 A5.8783 
N498 X-209.319 Y-0.641 Z10.721 A4.7519 
N499 X-209.393 Y-0.250 Z10.784 A3.6247 
N500 X-209.467 Y0.135 Z10.839 A2.4964 
N501 X-209.541 Y0.515 Z10.886 A1.3669 
N502 X-209.614 Y0.891 Z10.925 A0.2360 
N503 X-209.688 Y1.261 Z10.956 A359.1036 
N504 X-209.762 Y1.627 Z10.980 A357.9696 
N505 X-209.836 Y1.989 Z10.996 A356.8338 
N506 X-209.910 Y2.347 Z11.005 A355.6963 
N507 X-209.985 Y2.700 Z11.007 A354.5571 
N508 X-210.059 Y3.049 Z11.002 A353.4160 
N509 X-210.134 Y3.395 Z10.991 A352.2731 
N510 X-210.209 Y3.736 Z10.973 A351.1285 
N511 X-210.284 Y4.074 Z10.948 A349.9821 
N512 X-210.359 Y4.408 Z10.917 A348.8340 
N513 X-210.435 Y4.738 Z10.879 A347.6843 
N514 X-210.511 Y5.065 Z10.836 A346.5330 
N515 X-210.587 Y5.388 Z10.786 A345.3802 
N516 X-210.663 Y5.708 Z10.731 A344.2260 
N517 X-210.740 Y6.024 Z10.669 A343.0704 
N518 X-210.818 Y6.338 Z10.602 A341.9136 
N519 X-210.895 Y6.647 Z10.529 A340.7557 
N520 X-210.973 Y6.954 Z10.450 A339.5967 
N521 X-211.052 Y7.258 Z10.365 A338.4368 
N522 X-211.131 Y7.558 Z10.275 A337.2760 
N523 X-211.210 Y7.856 Z10.178 A336.1146 
N524 X-211.290 Y8.150 Z10.077 A334.9525 
N525 X-211.370 Y8.441 Z9.969 A333.7900 
N526 X-211.451 Y8.730 Z9.856 A332.6271 
N527 X-211.533 Y9.016 Z9.738 A331.4640 
N528 X-211.615 Y9.299 Z9.614 A330.3008 
N529 X-211.697 Y9.579 Z9.484 A329.1377 
N530 X-211.780 Y9.856 Z9.348 A327.9748 
N531 X-211.864 Y10.131 Z9.207 A326.8125 
N532 X-211.948 Y10.403 Z9.060 A325.6507 
N533 X-212.032 Y10.672 Z8.908 A324.4899 
N534 X-212.118 Y10.939 Z8.750 A323.3301 
N535 X-212.203 Y11.202 Z8.586 A322.1717 
N536 X-212.290 Y11.464 Z8.416 A321.0150 
N537 X-212.377 Y11.722 Z8.240 A319.8601 
N538 X-212.464 Y11.977 Z8.059 A318.7073 
N539 X-212.552 Y12.230 Z7.872 A317.5568 
N540 X-212.641 Y12.480 Z7.678 A316.4087 
N541 X-212.730 Y12.727 Z7.480 A315.2631 
N542 X-212.820 Y12.970 Z7.275 A314.1199 
N543 X-212.910 Y13.211 Z7.065 A312.9791 
N544 X-213.000 Y13.449 Z6.848 A311.8404 
N545 X-213.091 Y13.683 Z6.627 A310.7039 
N546 X-213.182 Y13.913 Z6.399 A309.5697 
N547 X-213.273 Y14.140 Z6.166 A308.4380 
N548 X-213.364 Y14.363 Z5.927 A307.3096 
N549 X-213.456 Y14.582 Z5.684 A306.1858 
N550 X-213.547 Y14.796 Z5.435 A305.0680 
N551 X-213.638 Y15.006 Z5.181 A303.9582 
N552 X-213.728 Y15.211 Z4.924 A302.8580 
N553 X-213.819 Y15.410 Z4.662 A301.7690 
N554 X-213.908 Y15.604 Z4.397 A300.6923 
N555 X-213.996 Y15.792 Z4.130 A299.6284 
N556 X-214.083 Y15.974 Z3.862 A298.5768 
N557 X-214.169 Y16.149 Z3.592 A297.5365 
N558 X-214.253 Y16.318 Z3.322 A296.5060 
N559 X-214.335 Y16.479 Z3.054 A295.4836 
N560 X-214.415 Y16.633 Z2.787 A294.4679 
N561 X-214.492 Y16.780 Z2.523 A293.4579 
N562 X-214.567 Y16.918 Z2.263 A292.4534 
N563 X-214.639 Y17.049 Z2.007 A291.4548 
N564 X-214.707 Y17.170 Z1.758 A290.4632 
N565 X-214.771 Y17.284 Z1.516 A289.4796 
N566 X-214.832 Y17.389 Z1.282 A288.5051 
N567 X-214.890 Y17.485 Z1.057 A287.5404 
N568 X-214.943 Y17.573 Z0.841 A286.5857 
N569 X-214.992 Y17.653 Z0.636 A285.6412 
N570 X-215.038 Y17.725 Z0.442 A284.7078 
N571 X-215.079 Y17.790 Z0.260 A283.7860 
N572 X-215.116 Y17.848 Z0.090 A282.8745 
N573 X-215.150 Y17.899 Z-0.069 A281.9691 
N574 X-215.180 Y17.945 Z-0.216 A281.0628 
N575 X-215.206 Y17.985 Z-0.351 A280.1483 
N576 X-215.229 Y18.021 Z-0.475 A279.2190 
N577 X-215.249 Y18.052 Z-0.590 A278.2680 
N578 X-215.266 Y18.079 Z-0.694 A277.2876 
N579 X-215.280 Y18.103 Z-0.790 A276.2692 
N580 X-215.291 Y18.125 Z-0.879 A275.2048 
N581 X-215.300 Y18.143 Z-0.960 A274.0886 
N582 X-215.307 Y18.160 Z-1.036 A272.9186 
N583 X-215.312 Y18.174 Z-1.107 A271.6972 
N584 X-215.316 Y18.186 Z-1.173 A270.4307 
N585 X-215.318 Y18.197 Z-1.236 A269.1284 
N586 X-215.318 Y18.206 Z-1.295 A267.8010 
N587 X-215.318 Y18.214 Z-1.351 A266.4597 
N588 X-215.317 Y18.221 Z-1.404 A265.1145 
N589 X-215.315 Y18.226 Z-1.455 A263.7735 
N590 X-215.312 Y18.230 Z-1.503 A262.4431 
N591 X-215.310 Y18.232 Z-1.550 A261.1276 
N592 X-215.306 Y18.234 Z-1.595 A259.8295 
N593 X-215.303 Y18.235 Z-1.638 A258.5502 
N594 X-215.299 Y18.235 Z-1.679 A257.2898 
N595 X-215.295 Y18.234 Z-1.720 A256.0480 
N596 X-215.291 Y18.233 Z-1.760 A254.8234 
N597 X-215.287 Y18.230 Z-1.798 A253.6149 
N598 X-215.282 Y18.227 Z-1.836 A252.4212 
N599 X-215.278 Y18.223 Z-1.873 A251.2407 
N600 X-215.273 Y18.219 Z-1.909 A250.0720 
N601 X-215.268 Y18.214 Z-1.944 A248.9140 
N602 X-215.264 Y18.208 Z-1.979 A247.7654 
N603 X-215.259 Y18.202 Z-2.014 A246.6254 
N604 X-215.254 Y18.195 Z-2.048 A245.4928 
N605 X-215.249 Y18.187 Z-2.081 A244.3670 
N606 X-215.244 Y18.179 Z-2.115 A243.2470 
N607 X-215.239 Y18.171 Z-2.147 A242.1322 
N608 X-215.233 Y18.161 Z-2.180 A241.0221 
N609 X-215.228 Y18.151 Z-2.212 A239.9159 
N610 X-215.223 Y18.141 Z-2.243 A238.8132 
N611 X-215.217 Y18.130 Z-2.275 A237.7135 
N612 X-215.212 Y18.119 Z-2.306 A236.6164 
N613 X-215.206 Y18.106 Z-2.336 A235.5213 
N614 X-215.201 Y18.094 Z-2.367 A234.4279 
N615 X-215.195 Y18.081 Z-2.397 A233.3358 
N616 X-215.189 Y18.067 Z-2.427 A232.2445 
N617 X-215.183 Y18.052 Z-2.456 A231.1535 
N618 X-215.177 Y18.038 Z-2.486 A230.0625 
N619 X-215.171 Y18.022 Z-2.515 A228.9709 
N620 X-215.165 Y18.006 Z-2.544 A227.8783 
N621 X-215.159 Y17.989 Z-2.572 A226.7840 
N622 X-215.153 Y17.972 Z-2.601 A225.6874 
N623 X-215.147 Y17.954 Z-2.629 A224.5878 
N624 X-215.140 Y17.935 Z-2.657 A223.4845 
N625 X-215.134 Y17.916 Z-2.685 A222.3766 
N626 X-215.127 Y17.896 Z-2.712 A221.2630 
N627 X-215.121 Y17.876 Z-2.740 A220.1428 
N628 X-215.114 Y17.854 Z-2.767 A219.0146 
N629 X-215.107 Y17.832 Z-2.795 A217.8774 
N630 X-215.100 Y17.809 Z-2.822 A216.7297 
N631 X-215.093 Y17.784 Z-2.849 A215.5703 
N632 X-215.086 Y17.759 Z-2.877 A214.3976 
N633 X-215.078 Y17.733 Z-2.904 A213.2105 
N634 X-215.071 Y17.705 Z-2.932 A212.0078 
N635 X-215.063 Y17.676 Z-2.960 A210.7888 
N636 X-215.054 Y17.645 Z-2.988 A209.5532 
N637 X-215.046 Y17.612 Z-3.016 A208.3018 
N638 X-215.037 Y17.577 Z-3.045 A207.0362 
N639 X-215.028 Y17.540 Z-3.074 A205.7592 
N640 X-215.019 Y17.500 Z-3.103 A204.4755 
N641 X-215.009 Y17.457 Z-3.133 A203.1909 
N642 X-214.998 Y17.411 Z-3.163 A201.9130 
N643 X-214.987 Y17.360 Z-3.193 A200.6502 
N644 X-214.975 Y17.305 Z-3.224 A199.4107 
N645 X-214.962 Y17.245 Z-3.255 A198.2013 
N646 X-214.949 Y17.179 Z-3.287 A197.0261 
N647 X-214.933 Y17.106 Z-3.320 A195.8850 
N648 X-214.917 Y17.024 Z-3.354 A194.7739 
N649 X-214.898 Y16.932 Z-3.390 A193.6855 
N650 X-214.877 Y16.829 Z-3.427 A192.6110 
N651 X-214.853 Y16.711 Z-3.467 A191.5437 
N652 X-214.826 Y16.578 Z-3.509 A190.4797 
N653 X-214.795 Y16.426 Z-3.553 A189.4165 
N654 X-214.759 Y16.252 Z-3.599 A188.3515 
N655 X-214.718 Y16.053 Z-3.647 A187.2815 
N656 X-214.670 Y15.825 Z-3.698 A186.2047 
N657 X-214.615 Y15.565 Z-3.750 A185.1232 
N658 X-214.551 Y15.266 Z-3.802 A184.0409 
N659 X-214.477 Y14.925 Z-3.854 A182.9613 
N660 X-214.392 Y14.535 Z-3.906 A181.8859 
N661 X-214.294 Y14.091 Z-3.955 A180.8163 
N662 X-214.181 Y13.587 Z-4.001 A179.7547 
N663 X-214.052 Y13.018 Z-4.041 A178.7033 
N664 X-213.904 Y12.379 Z-4.073 A177.6638 
N665 X-213.738 Y11.666 Z-4.096 A176.6370 
N666 X-213.551 Y10.877 Z-4.106 A175.6242 
N667 X-213.343 Y10.010 Z-4.100 A174.6297 
N668 X-213.113 Y9.068 Z-4.075 A173.6863 
N669 X-212.862 Y8.055 Z-4.030 A172.8112 
N670 X-212.591 Y6.976 Z-3.965 A172.0166 
N671 X-212.301 Y5.842 Z-3.880 A171.3905 
N672 X-211.996 Y4.663 Z-3.780 A170.9430 
N673 X-211.679 Y3.451 Z-3.668 A170.6798 
N674 X-211.354 Y2.218 Z-3.550 A170.5965 
N675 X-211.025 Y0.978 Z-3.430 A170.6860 
N676 X-210.696 Y-0.254 Z-3.314 A170.9494 
N677 X-210.371 Y-1.466 Z-3.205 A171.3936 
N678 X-210.054 Y-2.645 Z-3.108 A172.0221 
N679 X-209.748 Y-3.782 Z-3.028 A172.8292 
N680 X-209.456 Y-4.868 Z-2.969 A173.7969 
N681 X-209.182 Y-5.897 Z-2.931 A174.8996 
N682 X-208.925 Y-6.865 Z-2.915 A176.1129 
N683 X-208.687 Y-7.773 Z-2.919 A177.3731 
N684 X-208.468 Y-8.620 Z-2.942 A178.6522 
N685 X-208.267 Y-9.409 Z-2.980 A179.9449 
N686 X-208.082 Y-10.143 Z-3.033 A181.2456 
N687 X-207.913 Y-10.828 Z-3.098 A182.5493 
N688 X-207.757 Y-11.467 Z-3.173 A183.8515 
N689 X-207.614 Y-12.067 Z-3.257 A185.1487 
N690 X-207.482 Y-12.633 Z-3.350 A186.4379 
N691 X-207.359 Y-13.171 Z-3.450 A187.7171 
N692 X-207.244 Y-13.686 Z-3.558 A188.9850 
N693 X-207.136 Y-14.182 Z-3.673 A190.2407 
N694 X-207.034 Y-14.663 Z-3.796 A191.4835 
N695 X-206.937 Y-15.134 Z-3.927 A192.7127 
N696 X-206.844 Y-15.597 Z-4.067 A193.9276 
N697 X-206.755 Y-16.054 Z-4.216 A195.1271 
N698 X-206.670 Y-16.509 Z-4.376 A196.3098 
N699 X-206.588 Y-16.963 Z-4.546 A197.4737 
N700 X-206.509 Y-17.416 Z-4.727 A198.6168 
N701 X-206.432 Y-17.870 Z-4.920 A199.7365 
N702 X-206.359 Y-18.323 Z-5.124 A200.8298 
N703 X-206.288 Y-18.776 Z-5.340 A201.8932 
N704 X-206.220 Y-19.227 Z-5.565 A202.9222 
N705 X-206.155 Y-19.673 Z-5.800 A203.9123 
N706 X-206.094 Y-20.112 Z-6.041 A204.8593 
N707 X-206.036 Y-20.542 Z-6.287 A205.7158 
N708 X-205.982 Y-20.959 Z-6.535 A206.4777 
N709 X-205.931 Y-21.360 Z-6.781 A207.1436 
N710 X-205.883 Y-21.743 Z-7.021 A207.7155 
N711 X-205.839 Y-22.103 Z-7.252 A208.1985 
N712 X-205.798 Y-22.439 Z-7.470 A208.6002 
N713 X-205.761 Y-22.748 Z-7.674 A208.9296 
N714 X-205.727 Y-23.028 Z-7.860 A209.1956 
N715 X-205.697 Y-23.278 Z-8.027 A209.4064 
N716 X-205.670 Y-23.499 Z-8.176 A209.5686 
N717 X-205.647 Y-23.691 Z-8.305 A209.6872 
N718 X-205.627 Y-23.856 Z-8.416 A209.7650 
N719 X-205.609 Y-23.994 Z-8.510 A209.8023 
N720 X-205.594 Y-24.109 Z-8.588 A209.7964 
N721 X-205.582 Y-24.204 Z-8.651 A209.7409 
N722 X-205.570 Y-24.282 Z-8.704 A209.5700 
N723 X-205.559 Y-24.345 Z-8.748 A209.2551 
N724 X-205.546 Y-24.399 Z-8.786 A208.6018 
N725 X-205.530 Y-24.447 Z-8.823 A207.5307 
N726 X-205.511 Y-24.493 Z-8.860 A205.9847 
N727 X-205.488 Y-24.537 Z-8.897 A203.9835 
N728 X-205.464 Y-24.582 Z-8.933 A201.6483 
N729 X-205.439 Y-24.624 Z-8.966 A199.2768 
N730 X-205.416 Y-24.664 Z-8.995 A196.9206 
N731 X-205.394 Y-24.702 Z-9.021 A194.6092 
N732 X-205.374 Y-24.737 Z-9.044 A192.4041 
N733 X-205.355 Y-24.770 Z-9.063 A190.3882 
N734 X-205.341 Y-24.797 Z-9.077 A188.7597 
N735 X-205.327 Y-24.822 Z-9.090 A187.2211 
N736 X-205.314 Y-24.847 Z-9.101 A185.7659 
N737 X-205.303 Y-24.869 Z-9.110 A184.4068 
N738 X-205.291 Y-24.891 Z-9.119 A183.0868 
N739 X-205.281 Y-24.913 Z-9.127 A181.7985 
N740 X-205.270 Y-24.934 Z-9.135 A180.5382 
N741 X-205.260 Y-24.955 Z-9.141 A179.3052 
N742 X-205.251 Y-24.976 Z-9.147 A178.0928 
N743 X-205.242 Y-24.996 Z-9.153 A176.8963 
N744 X-205.233 Y-25.016 Z-9.158 A175.7126 
N745 X-205.224 Y-25.036 Z-9.162 A174.5398 
N746 X-205.215 Y-25.056 Z-9.167 A173.3759 
N747 X-205.207 Y-25.076 Z-9.170 A172.2191 
N748 X-205.199 Y-25.096 Z-9.174 A171.0679 
N749 X-205.191 Y-25.115 Z-9.177 A169.9210 
N750 X-205.184 Y-25.135 Z-9.179 A168.7774 
N751 X-205.176 Y-25.155 Z-9.181 A167.6373 
N752 X-205.169 Y-25.174 Z-9.183 A166.5002 
N753 X-205.162 Y-25.194 Z-9.184 A165.3652 
N754 X-205.155 Y-25.214 Z-9.185 A164.2311 
N755 X-205.148 Y-25.233 Z-9.186 A163.0988 
N756 X-205.142 Y-25.253 Z-9.186 A161.9687 
N757 X-205.136 Y-25.272 Z-9.186 A160.8400 
N758 X-205.130 Y-25.291 Z-9.186 A159.7114 
N759 X-205.124 Y-25.311 Z-9.185 A158.5838 
N760 X-205.118 Y-25.330 Z-9.184 A157.4578 
N761 X-205.113 Y-25.349 Z-9.183 A156.3328 
N762 X-205.108 Y-25.369 Z-9.181 A155.2071 
N763 X-205.102 Y-25.388 Z-9.179 A154.0820 
N764 X-205.098 Y-25.407 Z-9.176 A152.9578 
N765 X-205.093 Y-25.426 Z-9.173 A151.8336 
N766 X-205.089 Y-25.445 Z-9.170 A150.7087 
N767 X-205.084 Y-25.464 Z-9.166 A149.5838 
N768 X-205.080 Y-25.483 Z-9.162 A148.4589 
N769 X-205.076 Y-25.502 Z-9.158 A147.3329 
N770 X-205.073 Y-25.521 Z-9.153 A146.2061 
N771 X-205.069 Y-25.539 Z-9.149 A145.0788 
N772 X-205.066 Y-25.558 Z-9.143 A143.9504 
N773 X-205.063 Y-25.577 Z-9.138 A142.8205 
N774 X-205.060 Y-25.595 Z-9.132 A141.6897 
N775 X-205.058 Y-25.613 Z-9.125 A140.5577 
N776 X-205.055 Y-25.632 Z-9.119 A139.4239 
N777 X-205.053 Y-25.650 Z-9.112 A138.2891 
N778 X-205.051 Y-25.668 Z-9.104 A137.1532 
N779 X-205.049 Y-25.686 Z-9.097 A136.0158 
N780 X-205.048 Y-25.703 Z-9.089 A134.8773 
N781 X-205.047 Y-25.721 Z-9.081 A133.7379 
N782 X-205.045 Y-25.739 Z-9.072 A132.5973 
N783 X-205.045 Y-25.756 Z-9.063 A131.4558 
N784 X-205.044 Y-25.773 Z-9.054 A130.3137 
N785 X-205.044 Y-25.790 Z-9.044 A129.1707 
N786 X-205.043 Y-25.807 Z-9.034 A128.0272 
N787 X-205.044 Y-25.823 Z-9.024 A126.8833 
N788 X-205.044 Y-25.840 Z-9.014 A125.7390 
N789 X-205.044 Y-25.856 Z-9.003 A124.5945 
N790 X-205.045 Y-25.872 Z-8.992 A123.4499 
N791 X-205.046 Y-25.888 Z-8.981 A122.3053 
N792 X-205.047 Y-25.903 Z-8.969 A121.1608 
N793 X-205.049 Y-25.919 Z-8.957 A120.0166 
N794 X-205.050 Y-25.934 Z-8.945 A118.8727 
N795 X-205.052 Y-25.949 Z-8.933 A117.7293 
N796 X-205.054 Y-25.963 Z-8.920 A116.5863 
N797 X-205.057 Y-25.977 Z-8.908 A115.4441 
N798 X-205.059 Y-25.991 Z-8.895 A114.3025 
N799 X-205.062 Y-26.005 Z-8.881 A113.1616 
N800 X-205.065 Y-26.019 Z-8.868 A112.0216 
N801 X-205.068 Y-26.032 Z-8.854 A110.8823 
N802 X-205.071 Y-26.045 Z-8.840 A109.7437 
N803 X-205.075 Y-26.057 Z-8.826 A108.6061 
N804 X-205.079 Y-26.070 Z-8.812 A107.4693 
N805 X-205.083 Y-26.082 Z-8.798 A106.3329 
N806 X-205.087 Y-26.093 Z-8.783 A105.1973 
N807 X-205.092 Y-26.105 Z-8.768 A104.0624 
N808 X-205.096 Y-26.116 Z-8.753 A102.9276 
N809 X-205.101 Y-26.127 Z-8.738 A101.7930 
N810 X-205.106 Y-26.137 Z-8.723 A100.6591 
N811 X-205.112 Y-26.148 Z-8.708 A99.5248 
N812 X-205.117 Y-26.157 Z-8.692 A98.3898 
N813 X-205.123 Y-26.167 Z-8.677 A97.2550 
N814 X-205.129 Y-26.176 Z-8.661 A96.1196 
N815 X-205.135 Y-26.185 Z-8.645 A94.9830 
N816 X-205.141 Y-26.194 Z-8.629 A93.8453 
N817 X-205.148 Y-26.202 Z-8.613 A92.7077 
N818 X-205.154 Y-26.210 Z-8.597 A91.5687 
N819 X-205.161 Y-26.218 Z-8.580 A90.4278 
N820 X-205.168 Y-26.225 Z-8.564 A89.2859 
N821 X-205.175 Y-26.232 Z-8.547 A88.1432 
N822 X-205.183 Y-26.239 Z-8.531 A86.9987 
N823 X-205.190 Y-26.245 Z-8.514 A85.8519 
N824 X-205.198 Y-26.251 Z-8.497 A84.7034 
N825 X-205.206 Y-26.257 Z-8.480 A83.5535 
N826 X-205.214 Y-26.262 Z-8.463 A82.4010 
N827 X-205.223 Y-26.268 Z-8.446 A81.2452 
N828 X-205.231 Y-26.272 Z-8.429 A80.0860 
N829 X-205.240 Y-26.277 Z-8.412 A78.9235 
N830 X-205.249 Y-26.281 Z-8.395 A77.7563 
N831 X-205.258 Y-26.285 Z-8.377 A76.5829 
N832 X-205.267 Y-26.288 Z-8.360 A75.4021 
N833 X-205.276 Y-26.291 Z-8.342 A74.2121 
N834 X-205.286 Y-26.294 Z-8.324 A73.0113 
N835 X-205.296 Y-26.296 Z-8.306 A71.7973 
N836 X-205.306 Y-26.298 Z-8.287 A70.5669 
N837 X-205.317 Y-26.300 Z-8.269 A69.3151 
N838 X-205.328 Y-26.302 Z-8.249 A68.0173 
N839 X-205.339 Y-26.303 Z-8.229 A66.6717 
N840 X-205.352 Y-26.303 Z-8.208 A65.2680 
N841 X-205.366 Y-26.304 Z-8.184 A63.7056 
N842 X-205.381 Y-26.303 Z-8.158 A61.9929 
N843 X-205.398 Y-26.303 Z-8.129 A60.1247 
N844 X-205.420 Y-26.300 Z-8.094 A57.8299 
N845 X-205.446 Y-26.295 Z-8.052 A55.1777 
N846 X-205.475 Y-26.287 Z-8.003 A52.1428 
N847 X-205.507 Y-26.274 Z-7.950 A48.9553 
N848 X-205.539 Y-26.254 Z-7.892 A45.6811 
N849 X-205.570 Y-26.226 Z-7.833 A42.6347 
N850 X-205.591 Y-26.191 Z-7.780 A40.5556 
N851 X-205.605 Y-26.150 Z-7.729 A39.4335 
N852 X-205.613 Y-26.097 Z-7.674 A39.0027 
N853 X-205.620 Y-26.027 Z-7.606 A38.8602 
N854 X-205.629 Y-25.935 Z-7.518 A38.7678 
N855 X-205.639 Y-25.814 Z-7.402 A38.6864 
N856 X-205.652 Y-25.659 Z-7.255 A38.6119 
N857 X-205.669 Y-25.464 Z-7.069 A38.5396 
N858 X-205.689 Y-25.223 Z-6.840 A38.4651 
N859 X-205.713 Y-24.928 Z-6.560 A38.3842 
N860 X-205.742 Y-24.576 Z-6.226 A38.2928 
N861 X-205.776 Y-24.161 Z-5.833 A38.1865 
N862 X-205.816 Y-23.682 Z-5.379 A38.0605 
N863 X-205.862 Y-23.136 Z-4.865 A37.9098 
N864 X-205.913 Y-22.526 Z-4.290 A37.7293 
N865 X-205.970 Y-21.854 Z-3.661 A37.5140 
N866 X-206.034 Y-21.125 Z-2.982 A37.2592 
N867 X-206.102 Y-20.347 Z-2.263 A36.9608 
N868 X-206.177 Y-19.527 Z-1.513 A36.6161 
N869 X-206.257 Y-18.675 Z-0.744 A36.1782 
N870 X-206.342 Y-17.801 Z0.033 A35.6461 
N871 X-206.432 Y-16.914 Z0.805 A35.0195 
N872 X-206.526 Y-16.025 Z1.562 A34.2986 
N873 X-206.624 Y-15.142 Z2.293 A33.4841 
N874 X-206.724 Y-14.274 Z2.991 A32.5770 
N875 X-206.825 Y-13.427 Z3.649 A31.6236 
N876 X-206.928 Y-12.607 Z4.263 A30.6265 
N877 X-207.030 Y-11.818 Z4.831 A29.5902 
N878 X-207.132 Y-11.063 Z5.352 A28.5207 
N879 X-207.233 Y-10.342 Z5.828 A27.4245 
N880 X-207.332 Y-9.655 Z6.262 A26.3084 
N881 X-207.429 Y-9.002 Z6.655 A25.1782 
N882 X-207.523 Y-8.381 Z7.012 A24.0388 
N883 X-207.616 Y-7.789 Z7.337 A22.8942 
N884 X-207.706 Y-7.224 Z7.632 A21.7473 
N885 X-207.794 Y-6.683 Z7.900 A20.6004 
N886 X-207.880 Y-6.164 Z8.145 A19.4548 
N887 X-207.964 Y-5.664 Z8.369 A18.3116 
N888 X-208.047 Y-5.181 Z8.575 A17.1711 
N889 X-208.128 Y-4.713 Z8.763 A16.0336 
N890 X-208.208 Y-4.258 Z8.935 A14.8989 
N891 X-208.287 Y-3.815 Z9.094 A13.7667 
N892 X-208.365 Y-3.383 Z9.239 A12.6367 
N893 X-208.443 Y-2.959 Z9.372 A11.5084 
N894 X-208.520 Y-2.545 Z9.494 A10.3815 
N895 X-208.596 Y-2.138 Z9.605 A9.2554 
N896 X-208.672 Y-1.738 Z9.706 A8.1297 
N897 X-208.748 Y-1.345 Z9.797 A7.0041 
N898 X-208.823 Y-0.958 Z9.880 A5.8783 
N899 X-208.899 Y-0.577 Z9.953 A4.7519 
N900 X-208.974 Y-0.202 Z10.017 A3.6247 
N901 X-209.049 Y0.168 Z10.074 A2.4964 
N902 X-209.124 Y0.533 Z10.122 A1.3669 
N903 X-209.199 Y0.894 Z10.163 A0.2360 
N904 X-209.274 Y1.249 Z10.197 A359.1036 
N905 X-209.349 Y1.601 Z10.223 A357.9696 
N906 X-209.424 Y1.947 Z10.242 A356.8338 
N907 X-209.500 Y2.290 Z10.254 A355.6963 
N908 X-209.575 Y2.629 Z10.260 A354.5571 
N909 X-209.651 Y2.963 Z10.258 A353.4160 
N910 X-209.727 Y3.294 Z10.251 A352.2731 
N911 X-209.803 Y3.621 Z10.237 A351.1285 
N912 X-209.879 Y3.945 Z10.217 A349.9821 
N913 X-209.956 Y4.264 Z10.191 A348.8340 
N914 X-210.032 Y4.581 Z10.159 A347.6843 
N915 X-210.109 Y4.894 Z10.121 A346.5330 
N916 X-210.187 Y5.203 Z10.077 A345.3802 
N917 X-210.265 Y5.509 Z10.027 A344.2260 
N918 X-210.343 Y5.812 Z9.972 A343.0704 
N919 X-210.421 Y6.112 Z9.911 A341.9136 
N920 X-210.500 Y6.409 Z9.844 A340.7557 
N921 X-210.579 Y6.702 Z9.772 A339.5967 
N922 X-210.659 Y6.993 Z9.695 A338.4368 
N923 X-210.739 Y7.281 Z9.612 A337.2760 
N924 X-210.820 Y7.566 Z9.524 A336.1146 
N925 X-210.901 Y7.848 Z9.430 A334.9525 
N926 X-210.983 Y8.127 Z9.331 A333.7900 
N927 X-211.065 Y8.404 Z9.226 A332.6271 
N928 X-211.147 Y8.678 Z9.117 A331.4640 
N929 X-211.230 Y8.949 Z9.001 A330.3008 
N930 X-211.314 Y9.218 Z8.881 A329.1377 
N931 X-211.398 Y9.485 Z8.754 A327.9748 
N932 X-211.483 Y9.749 Z8.623 A326.8125 
N933 X-211.568 Y10.010 Z8.486 A325.6507 
N934 X-211.654 Y10.269 Z8.343 A324.4899 
N935 X-211.740 Y10.525 Z8.195 A323.3301 
N936 X-211.827 Y10.780 Z8.041 A322.1717 
N937 X-211.915 Y11.031 Z7.881 A321.0150 
N938 X-212.003 Y11.280 Z7.716 A319.8601 
N939 X-212.092 Y11.527 Z7.545 A318.7073 
N940 X-212.181 Y11.771 Z7.369 A317.5568 
N941 X-212.271 Y12.012 Z7.187 A316.4087 
N942 X-212.361 Y12.250 Z6.999 A315.2631 
N943 X-212.452 Y12.486 Z6.806 A314.1199 
N944 X-212.543 Y12.719 Z6.606 A312.9791 
N945 X-212.635 Y12.949 Z6.402 A311.8404 
N946 X-212.727 Y13.176 Z6.191 A310.7039 
N947 X-212.819 Y13.400 Z5.975 A309.5697 
N948 X-212.911 Y13.620 Z5.754 A308.4380 
N949 X-213.004 Y13.837 Z5.527 A307.3096 
N950 X-213.096 Y14.050 Z5.295 A306.1858 
N951 X-213.189 Y14.259 Z5.057 A305.0680 
N952 X-213.281 Y14.463 Z4.816 A303.9582 
N953 X-213.373 Y14.663 Z4.570 A302.8580 
N954 X-213.464 Y14.857 Z4.320 A301.7690 
N955 X-213.555 Y15.047 Z4.067 A300.6923 
N956 X-213.644 Y15.231 Z3.811 A299.6284 
N957 X-213.732 Y15.409 Z3.554 A298.5768 
N958 X-213.819 Y15.580 Z3.295 A297.5365 
N959 X-213.905 Y15.746 Z3.037 A296.5060 
N960 X-213.988 Y15.904 Z2.780 A295.4836 
N961 X-214.069 Y16.056 Z2.524 A294.4679 
N962 X-214.147 Y16.200 Z2.271 A293.4579 
N963 X-214.223 Y16.336 Z2.022 A292.4534 
N964 X-214.296 Y16.464 Z1.778 A291.4548 
N965 X-214.365 Y16.584 Z1.539 A290.4632 
N966 X-214.431 Y16.695 Z1.308 A289.4796 
N967 X-214.493 Y16.799 Z1.084 A288.5051 
N968 X-214.552 Y16.894 Z0.870 A287.5404 
N969 X-214.606 Y16.981 Z0.665 A286.5857 
N970 X-214.657 Y17.060 Z0.470 A285.6412 
N971 X-214.703 Y17.132 Z0.287 A284.7078 
N972 X-214.746 Y17.197 Z0.114 A283.7860 
N973 X-214.784 Y17.254 Z-0.046 A282.8745 
N974 X-214.819 Y17.306 Z-0.195 A281.9691 
N975 X-214.850 Y17.352 Z-0.332 A281.0628 
N976 X-214.878 Y17.392 Z-0.457 A280.1483 
N977 X-214.902 Y17.428 Z-0.571 A279.2190 
N978 X-214.923 Y17.460 Z-0.675 A278.2680 
N979 X-214.941 Y17.488 Z-0.770 A277.2876 
N980 X-214.956 Y17.513 Z-0.855 A276.2692 
N981 X-214.969 Y17.536 Z-0.932 A275.2048 
N982 X-214.979 Y17.556 Z-1.002 A274.0886 
N983 X-214.987 Y17.574 Z-1.066 A272.9186 
N984 X-214.993 Y17.590 Z-1.124 A271.6972 
N985 X-214.998 Y17.604 Z-1.178 A270.4307 
N986 X-215.001 Y17.617 Z-1.227 A269.1284 
N987 X-215.003 Y17.629 Z-1.273 A267.8010 
N988 X-215.004 Y17.639 Z-1.315 A266.4597 
N989 X-215.004 Y17.649 Z-1.355 A265.1145 
N990 X-215.003 Y17.658 Z-1.393 A263.7735 
N991 X-215.002 Y17.665 Z-1.428 A262.4431 
N992 X-215.000 Y17.672 Z-1.462 A261.1276 
N993 X-214.998 Y17.678 Z-1.495 A259.8295 
N994 X-214.996 Y17.684 Z-1.526 A258.5502 
N995 X-214.993 Y17.688 Z-1.556 A257.2898 
N996 X-214.991 Y17.692 Z-1.585 A256.0480 
N997 X-214.988 Y17.696 Z-1.614 A254.8234 
N998 X-214.985 Y17.699 Z-1.642 A253.6149 
N999 X-214.981 Y17.701 Z-1.669 A252.4212 
N1000 X-214.978 Y17.703 Z-1.696 A251.2407 
N1001 X-214.975 Y17.704 Z-1.722 A250.0720 
N1002 X-214.971 Y17.705 Z-1.748 A248.9140 
N1003 X-214.968 Y17.706 Z-1.774 A247.7654 
N1004 X-214.964 Y17.705 Z-1.799 A246.6254 
N1005 X-214.960 Y17.705 Z-1.824 A245.4928 
N1006 X-214.956 Y17.704 Z-1.849 A244.3670 
N1007 X-214.952 Y17.702 Z-1.874 A243.2470 
N1008 X-214.948 Y17.700 Z-1.899 A242.1322 
N1009 X-214.944 Y17.698 Z-1.923 A241.0221 
N1010 X-214.940 Y17.695 Z-1.947 A239.9159 
N1011 X-214.936 Y17.691 Z-1.971 A238.8132 
N1012 X-214.932 Y17.688 Z-1.995 A237.7135 
N1013 X-214.928 Y17.683 Z-2.019 A236.6164 
N1014 X-214.923 Y17.679 Z-2.043 A235.5213 
N1015 X-214.919 Y17.673 Z-2.066 A234.4279 
N1016 X-214.914 Y17.668 Z-2.090 A233.3358 
N1017 X-214.910 Y17.662 Z-2.113 A232.2445 
N1018 X-214.905 Y17.655 Z-2.136 A231.1535 
N1019 X-214.900 Y17.648 Z-2.160 A230.0625 
N1020 X-214.896 Y17.640 Z-2.183 A228.9709 
N1021 X-214.891 Y17.632 Z-2.206 A227.8783 
N1022 X-214.886 Y17.624 Z-2.229 A226.7840 
N1023 X-214.881 Y17.615 Z-2.252 A225.6874 
N1024 X-214.876 Y17.605 Z-2.275 A224.5878 
N1025 X-214.871 Y17.595 Z-2.298 A223.4845 
N1026 X-214.865 Y17.584 Z-2.321 A222.3766 
N1027 X-214.860 Y17.573 Z-2.344 A221.2630 
N1028 X-214.855 Y17.561 Z-2.367 A220.1428 
N1029 X-214.849 Y17.548 Z-2.390 A219.0146 
N1030 X-214.843 Y17.535 Z-2.413 A217.8774 
N1031 X-214.838 Y17.520 Z-2.436 A216.7297 
N1032 X-214.832 Y17.505 Z-2.459 A215.5703 
N1033 X-214.825 Y17.489 Z-2.483 A214.3976 
N1034 X-214.819 Y17.472 Z-2.507 A213.2105 
N1035 X-214.813 Y17.454 Z-2.531 A212.0078 
N1036 X-214.806 Y17.435 Z-2.555 A210.7888 
N1037 X-214.799 Y17.414 Z-2.580 A209.5532 
N1038 X-214.792 Y17.391 Z-2.605 A208.3018 
N1039 X-214.784 Y17.366 Z-2.631 A207.0362 
N1040 X-214.776 Y17.339 Z-2.658 A205.7592 
N1041 X-214.768 Y17.310 Z-2.684 A204.4755 
N1042 X-214.759 Y17.277 Z-2.712 A203.1909 
N1043 X-214.750 Y17.241 Z-2.740 A201.9130 
N1044 X-214.740 Y17.201 Z-2.769 A200.6502 
N1045 X-214.729 Y17.156 Z-2.798 A199.4107 
N1046 X-214.718 Y17.105 Z-2.829 A198.2013 
N1047 X-214.705 Y17.048 Z-2.860 A197.0261 
N1048 X-214.691 Y16.984 Z-2.893 A195.8850 
N1049 X-214.676 Y16.911 Z-2.927 A194.7739 
N1050 X-214.658 Y16.828 Z-2.962 A193.6855 
N1051 X-214.638 Y16.733 Z-3.000 A192.6110 
N1052 X-214.615 Y16.624 Z-3.040 A191.5437 
N1053 X-214.589 Y16.499 Z-3.082 A190.4797 
N1054 X-214.559 Y16.355 Z-3.127 A189.4165 
N1055 X-214.525 Y16.189 Z-3.174 A188.3515 
N1056 X-214.485 Y15.999 Z-3.224 A187.2815 
N1057 X-214.438 Y15.779 Z-3.276 A186.2047 
N1058 X-214.384 Y15.527 Z-3.329 A185.1232 
N1059 X-214.322 Y15.236 Z-3.383 A184.0409 
N1060 X-214.249 Y14.903 Z-3.437 A182.9613 
N1061 X-214.165 Y14.521 Z-3.490 A181.8859 
N1062 X-214.068 Y14.085 Z-3.541 A180.8163 
N1063 X-213.956 Y13.589 Z-3.589 A179.7547 
N1064 X-213.828 Y13.028 Z-3.631 A178.7033 
N1065 X-213.682 Y12.396 Z-3.666 A177.6638 
N1066 X-213.517 Y11.690 Z-3.691 A176.6370 
N1067 X-213.331 Y10.908 Z-3.704 A175.6242 
N1068 X-213.124 Y10.048 Z-3.701 A174.6297 
N1069 X-212.895 Y9.112 Z-3.679 A173.6863 
N1070 X-212.646 Y8.104 Z-3.637 A172.8112 
N1071 X-212.376 Y7.031 Z-3.574 A172.0166 
N1072 X-212.087 Y5.901 Z-3.493 A171.3905 
N1073 X-211.784 Y4.724 Z-3.395 A170.9430 
N1074 X-211.468 Y3.513 Z-3.285 A170.6798 
N1075 X-211.144 Y2.281 Z-3.169 A170.5965 
N1076 X-210.816 Y1.040 Z-3.052 A170.6860 
N1077 X-210.488 Y-0.194 Z-2.937 A170.9494 
N1078 X-210.164 Y-1.409 Z-2.830 A171.3936 
N1079 X-209.848 Y-2.593 Z-2.735 A172.0221 
N1080 X-209.544 Y-3.735 Z-2.657 A172.8292 
N1081 X-209.253 Y-4.827 Z-2.599 A173.7969 
N1082 X-208.980 Y-5.864 Z-2.563 A174.8996 
N1083 X-208.724 Y-6.840 Z-2.548 A176.1129 
N1084 X-208.488 Y-7.756 Z-2.554 A177.3731 
N1085 X-208.270 Y-8.612 Z-2.578 A178.6522 
N1086 X-208.070 Y-9.409 Z-2.619 A179.9449 
N1087 X-207.886 Y-10.151 Z-2.674 A181.2456 
N1088 X-207.718 Y-10.843 Z-2.741 A182.5493 
N1089 X-207.564 Y-11.491 Z-2.819 A183.8515 
N1090 X-207.422 Y-12.099 Z-2.906 A185.1487 
N1091 X-207.291 Y-12.673 Z-3.002 A186.4379 
N1092 X-207.169 Y-13.218 Z-3.105 A187.7171 
N1093 X-207.055 Y-13.740 Z-3.216 A188.9850 
N1094 X-206.948 Y-14.243 Z-3.334 A190.2407 
N1095 X-206.847 Y-14.731 Z-3.461 A191.4835 
N1096 X-206.752 Y-15.209 Z-3.596 A192.7127 
N1097 X-206.660 Y-15.678 Z-3.739 A193.9276 
N1098 X-206.573 Y-16.142 Z-3.893 A195.1271 
N1099 X-206.489 Y-16.603 Z-4.056 A196.3098 
N1100 X-206.408 Y-17.062 Z-4.230 A197.4737 
N1101 X-206.330 Y-17.521 Z-4.416 A198.6168 
N1102 X-206.254 Y-17.980 Z-4.613 A199.7365 
N1103 X-206.182 Y-18.439 Z-4.822 A200.8298 
N1104 X-206.112 Y-18.896 Z-5.041 A201.8932 
N1105 X-206.046 Y-19.351 Z-5.271 A202.9222 
N1106 X-205.982 Y-19.802 Z-5.510 A203.9123 
N1107 X-205.922 Y-20.245 Z-5.755 A204.8593 
N1108 X-205.865 Y-20.678 Z-6.005 A205.7158 
N1109 X-205.812 Y-21.098 Z-6.257 A206.4777 
N1110 X-205.762 Y-21.501 Z-6.506 A207.1436 
N1111 X-205.716 Y-21.885 Z-6.750 A207.7155 
N1112 X-205.673 Y-22.247 Z-6.984 A208.1985 
N1113 X-205.633 Y-22.584 Z-7.205 A208.6002 
N1114 X-205.597 Y-22.893 Z-7.411 A208.9296 
N1115 X-205.565 Y-23.173 Z-7.600 A209.1956 
N1116 X-205.536 Y-23.423 Z-7.770 A209.4064 
N1117 X-205.510 Y-23.644 Z-7.921 A209.5686 
N1118 X-205.488 Y-23.836 Z-8.052 A209.6872 
N1119 X-205.469 Y-23.999 Z-8.165 A209.7650 
N1120 X-205.453 Y-24.137 Z-8.261 A209.8023 
N1121 X-205.439 Y-24.251 Z-8.341 A209.7964 
N1122 X-205.428 Y-24.344 Z-8.406 A209.7409 
N1123 X-205.417 Y-24.420 Z-8.460 A209.5700 
N1124 X-205.407 Y-24.481 Z-8.505 A209.2551 
N1125 X-205.396 Y-24.531 Z-8.544 A208.6018 
N1126 X-205.381 Y-24.574 Z-8.581 A207.5307 
N1127 X-205.363 Y-24.612 Z-8.616 A205.9847 
N1128 X-205.342 Y-24.647 Z-8.651 A203.9835 
N1129 X-205.318 Y-24.680 Z-8.685 A201.6483 
N1130 X-205.295 Y-24.711 Z-8.716 A199.2768 
N1131 X-205.273 Y-24.740 Z-8.743 A196.9206 
N1132 X-205.252 Y-24.767 Z-8.769 A194.6092 
N1133 X-205.233 Y-24.793 Z-8.791 A192.4041 
N1134 X-205.216 Y-24.816 Z-8.811 A190.3882 
N1135 X-205.202 Y-24.836 Z-8.826 A188.7597 
N1136 X-205.190 Y-24.854 Z-8.840 A187.2211 
N1137 X-205.178 Y-24.872 Z-8.852 A185.7659 
N1138 X-205.168 Y-24.888 Z-8.864 A184.4068 
N1139 X-205.158 Y-24.905 Z-8.874 A183.0868 
N1140 X-205.148 Y-24.921 Z-8.884 A181.7985 
N1141 X-205.139 Y-24.937 Z-8.894 A180.5382 
N1142 X-205.130 Y-24.952 Z-8.903 A179.3052 
N1143 X-205.122 Y-24.968 Z-8.911 A178.0928 
N1144 X-205.114 Y-24.983 Z-8.919 A176.8963 
N1145 X-205.106 Y-24.999 Z-8.926 A175.7126 
N1146 X-205.099 Y-25.014 Z-8.934 A174.5398 
N1147 X-205.091 Y-25.030 Z-8.940 A173.3759 
N1148 X-205.084 Y-25.045 Z-8.947 A172.2191 
N1149 X-205.077 Y-25.061 Z-8.953 A171.0679 
N1150 X-205.071 Y-25.077 Z-8.959 A169.9210 
N1151 X-205.064 Y-25.093 Z-8.964 A168.7774 
N1152 X-205.058 Y-25.108 Z-8.970 A167.6373 
N1153 X-205.052 Y-25.124 Z-8.974 A166.5002 
N1154 X-205.046 Y-25.140 Z-8.979 A165.3652 
N1155 X-205.040 Y-25.156 Z-8.983 A164.2311 
N1156 X-205.035 Y-25.173 Z-8.987 A163.0988 
N1157 X-205.030 Y-25.189 Z-8.991 A161.9687 
N1158 X-205.025 Y-25.205 Z-8.994 A160.8400 
N1159 X-205.020 Y-25.222 Z-8.997 A159.7114 
N1160 X-205.015 Y-25.238 Z-9.000 A158.5838 
N1161 X-205.011 Y-25.255 Z-9.002 A157.4578 
N1162 X-205.007 Y-25.271 Z-9.004 A156.3328 
N1163 X-205.003 Y-25.288 Z-9.006 A155.2071 
N1164 X-204.999 Y-25.305 Z-9.007 A154.0820 
N1165 X-204.995 Y-25.321 Z-9.008 A152.9578 
N1166 X-204.992 Y-25.338 Z-9.009 A151.8336 
N1167 X-204.988 Y-25.355 Z-9.009 A150.7087 
N1168 X-204.985 Y-25.372 Z-9.010 A149.5838 
N1169 X-204.982 Y-25.389 Z-9.009 A148.4589 
N1170 X-204.980 Y-25.406 Z-9.009 A147.3329 
N1171 X-204.977 Y-25.423 Z-9.008 A146.2061 
N1172 X-204.975 Y-25.440 Z-9.007 A145.0788 
N1173 X-204.973 Y-25.458 Z-9.005 A143.9504 
N1174 X-204.971 Y-25.475 Z-9.003 A142.8205 
N1175 X-204.969 Y-25.492 Z-9.001 A141.6897 
N1176 X-204.968 Y-25.509 Z-8.999 A140.5577 
N1177 X-204.967 Y-25.526 Z-8.996 A139.4239 
N1178 X-204.966 Y-25.543 Z-8.992 A138.2891 
N1179 X-204.965 Y-25.561 Z-8.989 A137.1532 
N1180 X-204.965 Y-25.578 Z-8.985 A136.0158 
N1181 X-204.964 Y-25.595 Z-8.981 A134.8773 
N1182 X-204.964 Y-25.612 Z-8.976 A133.7379 
N1183 X-204.964 Y-25.629 Z-8.971 A132.5973 
N1184 X-204.965 Y-25.646 Z-8.966 A131.4558 
N1185 X-204.965 Y-25.663 Z-8.960 A130.3137 
N1186 X-204.966 Y-25.680 Z-8.954 A129.1707 
N1187 X-204.967 Y-25.696 Z-8.948 A128.0272 
N1188 X-204.968 Y-25.713 Z-8.941 A126.8833 
N1189 X-204.970 Y-25.730 Z-8.934 A125.7390 
N1190 X-204.971 Y-25.746 Z-8.927 A124.5945 
N1191 X-204.973 Y-25.762 Z-8.920 A123.4499 
N1192 X-204.976 Y-25.779 Z-8.912 A122.3053 
N1193 X-204.978 Y-25.795 Z-8.903 A121.1608 
N1194 X-204.981 Y-25.811 Z-8.895 A120.0166 
N1195 X-204.983 Y-25.826 Z-8.886 A118.8727 
N1196 X-204.987 Y-25.842 Z-8.877 A117.7293 
N1197 X-204.990 Y-25.857 Z-8.868 A116.5863 
N1198 X-204.993 Y-25.873 Z-8.858 A115.4441 
N1199 X-204.997 Y-25.888 Z-8.848 A114.3025 
N1200 X-205.001 Y-25.903 Z-8.837 A113.1616 
N1201 X-205.005 Y-25.917 Z-8.827 A112.0216 
N1202 X-205.010 Y-25.932 Z-8.816 A110.8823 
N1203 X-205.014 Y-25.946 Z-8.805 A109.7437 
N1204 X-205.019 Y-25.960 Z-8.793 A108.6061 
N1205 X-205.024 Y-25.974 Z-8.782 A107.4693 
N1206 X-205.029 Y-25.987 Z-8.770 A106.3329 
N1207 X-205.035 Y-26.001 Z-8.758 A105.1973 
N1208 X-205.040 Y-26.014 Z-8.745 A104.0624 
N1209 X-205.046 Y-26.026 Z-8.733 A102.9276 
N1210 X-205.052 Y-26.039 Z-8.720 A101.7930 
N1211 X-205.059 Y-26.051 Z-8.707 A100.6591 
N1212 X-205.065 Y-26.063 Z-8.694 A99.5248 
N1213 X-205.072 Y-26.075 Z-8.680 A98.3898 
N1214 X-205.079 Y-26.087 Z-8.666 A97.2550 
N1215 X-205.086 Y-26.098 Z-8.652 A96.1196 
N1216 X-205.093 Y-26.109 Z-8.638 A94.9830 
N1217 X-205.101 Y-26.120 Z-8.624 A93.8453 
N1218 X-205.108 Y-26.130 Z-8.609 A92.7077 
N1219 X-205.116 Y-26.140 Z-8.595 A91.5687 
N1220 X-205.124 Y-26.150 Z-8.580 A90.4278 
N1221 X-205.132 Y-26.159 Z-8.565 A89.2859 
N1222 X-205.141 Y-26.169 Z-8.549 A88.1432 
N1223 X-205.149 Y-26.178 Z-8.534 A86.9987 
N1224 X-205.158 Y-26.186 Z-8.518 A85.8519 
N1225 X-205.167 Y-26.195 Z-8.502 A84.7034 
N1226 X-205.176 Y-26.203 Z-8.486 A83.5535 
N1227 X-205.186 Y-26.210 Z-8.470 A82.4010 
N1228 X-205.195 Y-26.218 Z-8.454 A81.2452 
N1229 X-205.205 Y-26.225 Z-8.437 A80.0860 
N1230 X-205.215 Y-26.232 Z-8.421 A78.9235 
N1231 X-205.225 Y-26.238 Z-8.404 A77.7563 
N1232 X-205.235 Y-26.244 Z-8.387 A76.5829 
N1233 X-205.245 Y-26.250 Z-8.369 A75.4021 
N1234 X-205.256 Y-26.255 Z-8.352 A74.2121 
N1235 X-205.267 Y-26.260 Z-8.334 A73.0113 
N1236 X-205.278 Y-26.265 Z-8.316 A71.7973 
N1237 X-205.289 Y-26.270 Z-8.298 A70.5669 
N1238 X-205.301 Y-26.274 Z-8.279 A69.3151 
N1239 X-205.313 Y-26.277 Z-8.259 A68.0173 
N1240 X-205.326 Y-26.281 Z-8.238 A66.6717 
N1241 X-205.340 Y-26.284 Z-8.217 A65.2680 
N1242 X-205.355 Y-26.286 Z-8.193 A63.7056 
N1243 X-205.372 Y-26.288 Z-8.166 A61.9929 
N1244 X-205.390 Y-26.289 Z-8.137 A60.1247 
N1245 X-205.413 Y-26.289 Z-8.100 A57.8299 
N1246 X-205.440 Y-26.286 Z-8.058 A55.1777 
N1247 X-205.470 Y-26.280 Z-8.009 A52.1428 
N1248 X-205.503 Y-26.269 Z-7.954 A48.9553 
N1249 X-205.537 Y-26.250 Z-7.895 A45.6811 
N1250 X-205.569 Y-26.224 Z-7.835 A42.6347 
N1251 X-205.591 Y-26.191 Z-7.780 A40.5569 
N1252 X-205.601 Y-26.165 Z-7.747 A39.7382 
N1253 X-205.608 Y-26.132 Z-7.710 A39.2770 
N1254 X-205.614 Y-26.086 Z-7.665 A39.0843 
N1255 X-205.620 Y-26.025 Z-7.605 A38.9554 
N1256 X-205.628 Y-25.942 Z-7.526 A38.8441 
N1257 X-205.637 Y-25.834 Z-7.422 A38.7474 
N1258 X-205.649 Y-25.694 Z-7.288 A38.6608 
N1259 X-205.665 Y-25.515 Z-7.118 A38.5793 
N1260 X-205.683 Y-25.291 Z-6.905 A38.4981 
N1261 X-205.706 Y-25.017 Z-6.644 A38.4129 
N1262 X-205.733 Y-24.685 Z-6.329 A38.3194 
N1263 X-205.766 Y-24.291 Z-5.956 A38.2135 
N1264 X-205.804 Y-23.831 Z-5.521 A38.0905 
N1265 X-205.847 Y-23.305 Z-5.023 A37.9458 
N1266 X-205.897 Y-22.710 Z-4.464 A37.7746 
N1267 X-205.952 Y-22.051 Z-3.845 A37.5723 
N1268 X-206.012 Y-21.331 Z-3.173 A37.3346 
N1269 X-206.078 Y-20.556 Z-2.455 A37.0582 
N1270 X-206.149 Y-19.735 Z-1.702 A36.7003 
N1271 X-206.224 Y-18.876 Z-0.923 A36.2563 
N1272 X-206.302 Y-17.990 Z-0.132 A35.7223 
N1273 X-206.382 Y-17.087 Z0.659 A35.0960 
N1274 X-206.463 Y-16.176 Z1.438 A34.3765 
N1275 X-206.543 Y-15.268 Z2.194 A33.5645 
N1276 X-206.623 Y-14.372 Z2.918 A32.6613 
N1277 X-206.703 Y-13.496 Z3.603 A31.6692 
N1278 X-206.782 Y-12.645 Z4.243 A30.6338 
N1279 X-206.862 Y-11.826 Z4.836 A29.5587 
N1280 X-206.942 Y-11.040 Z5.380 A28.4492 
N1281 X-207.023 Y-10.290 Z5.875 A27.3119 
N1282 X-207.104 Y-9.576 Z6.325 A26.1533 
N1283 X-207.185 Y-8.899 Z6.733 A24.9795 
N1284 X-207.266 Y-8.255 Z7.101 A23.7959 
N1285 X-207.347 Y-7.643 Z7.434 A22.6066 
N1286 X-207.426 Y-7.060 Z7.735 A21.4149 
N1287 X-207.505 Y-6.504 Z8.007 A20.2233 
N1288 X-207.582 Y-5.971 Z8.255 A19.0335 
N1289 X-207.659 Y-5.458 Z8.480 A17.8465 
N1290 X-207.734 Y-4.964 Z8.685 A16.6630 
N1291 X-207.809 Y-4.486 Z8.873 A15.4829 
N1292 X-207.884 Y-4.022 Z9.044 A14.3063 
N1293 X-207.958 Y-3.570 Z9.200 A13.1327 
N1294 X-208.031 Y-3.129 Z9.343 A11.9617 
N1295 X-208.104 Y-2.697 Z9.473 A10.7928 
N1296 X-208.177 Y-2.275 Z9.592 A9.6253 
N1297 X-208.251 Y-1.860 Z9.699 A8.4589 
N1298 X-208.324 Y-1.452 Z9.796 A7.2929 
N1299 X-208.397 Y-1.051 Z9.883 A6.1270 
N1300 X-208.470 Y-0.656 Z9.961 A4.9607 
N1301 X-208.543 Y-0.267 Z10.029 A3.7936 
N1302 X-208.616 Y0.116 Z10.088 A2.6255 
N1303 X-208.690 Y0.494 Z10.139 A1.4560 
N1304 X-208.764 Y0.867 Z10.182 A0.2850 
N1305 X-208.838 Y1.236 Z10.216 A359.1123 
N1306 X-208.912 Y1.600 Z10.243 A357.9376 
N1307 X-208.987 Y1.959 Z10.263 A356.7609 
N1308 X-209.062 Y2.315 Z10.274 A355.5822 
N1309 X-209.137 Y2.666 Z10.279 A354.4013 
N1310 X-209.213 Y3.013 Z10.277 A353.2181 
N1311 X-209.290 Y3.356 Z10.267 A352.0328 
N1312 X-209.366 Y3.695 Z10.251 A350.8452 
N1313 X-209.443 Y4.031 Z10.228 A349.6554 
N1314 X-209.521 Y4.363 Z10.199 A348.4634 
N1315 X-209.599 Y4.691 Z10.163 A347.2693 
N1316 X-209.677 Y5.016 Z10.121 A346.0732 
N1317 X-209.756 Y5.338 Z10.072 A344.8751 
N1318 X-209.835 Y5.656 Z10.017 A343.6752 
N1319 X-209.915 Y5.971 Z9.956 A342.4735 
N1320 X-209.996 Y6.282 Z9.889 A341.2701 
N1321 X-210.076 Y6.590 Z9.816 A340.0652 
N1322 X-210.158 Y6.895 Z9.737 A338.8589 
N1323 X-210.240 Y7.198 Z9.651 A337.6514 
N1324 X-210.322 Y7.497 Z9.560 A336.4428 
N1325 X-210.405 Y7.793 Z9.463 A335.2332 
N1326 X-210.489 Y8.086 Z9.360 A334.0229 
N1327 X-210.573 Y8.376 Z9.252 A332.8119 
N1328 X-210.658 Y8.663 Z9.137 A331.6005 
N1329 X-210.743 Y8.948 Z9.016 A330.3889 
N1330 X-210.829 Y9.230 Z8.890 A329.1773 
N1331 X-210.916 Y9.509 Z8.757 A327.9660 
N1332 X-211.003 Y9.785 Z8.618 A326.7551 
N1333 X-211.091 Y10.059 Z8.474 A325.5450 
N1334 X-211.179 Y10.329 Z8.323 A324.3359 
N1335 X-211.268 Y10.597 Z8.167 A323.1283 
N1336 X-211.358 Y10.863 Z8.004 A321.9222 
N1337 X-211.448 Y11.125 Z7.835 A320.7182 
N1338 X-211.539 Y11.385 Z7.661 A319.5165 
N1339 X-211.630 Y11.642 Z7.480 A318.3174 
N1340 X-211.722 Y11.895 Z7.293 A317.1210 
N1341 X-211.813 Y12.146 Z7.100 A315.9276 
N1342 X-211.905 Y12.394 Z6.900 A314.7372 
N1343 X-211.997 Y12.639 Z6.695 A313.5499 
N1344 X-212.089 Y12.880 Z6.484 A312.3655 
N1345 X-212.181 Y13.118 Z6.266 A311.1841 
N1346 X-212.273 Y13.352 Z6.043 A310.0058 
N1347 X-212.365 Y13.583 Z5.814 A308.8309 
N1348 X-212.457 Y13.809 Z5.580 A307.6603 
N1349 X-212.549 Y14.032 Z5.340 A306.4950 
N1350 X-212.640 Y14.249 Z5.094 A305.3368 
N1351 X-212.730 Y14.462 Z4.844 A304.1873 
N1352 X-212.820 Y14.669 Z4.590 A303.0484 
N1353 X-212.908 Y14.871 Z4.332 A301.9216 
N1354 X-212.996 Y15.068 Z4.070 A300.8081 
N1355 X-213.082 Y15.258 Z3.807 A299.7081 
N1356 X-213.166 Y15.441 Z3.541 A298.6213 
N1357 X-213.249 Y15.618 Z3.275 A297.5464 
N1358 X-213.329 Y15.788 Z3.010 A296.4819 
N1359 X-213.408 Y15.950 Z2.745 A295.4262 
N1360 X-213.484 Y16.105 Z2.483 A294.3777 
N1361 X-213.557 Y16.252 Z2.224 A293.3357 
N1362 X-213.627 Y16.390 Z1.970 A292.2999 
N1363 X-213.693 Y16.519 Z1.721 A291.2708 
N1364 X-213.757 Y16.640 Z1.479 A290.2493 
N1365 X-213.817 Y16.752 Z1.245 A289.2364 
N1366 X-213.873 Y16.856 Z1.020 A288.2329 
N1367 X-213.925 Y16.950 Z0.804 A287.2389 
N1368 X-213.973 Y17.036 Z0.599 A286.2544 
N1369 X-214.018 Y17.114 Z0.405 A285.2796 
N1370 X-214.058 Y17.185 Z0.223 A284.3149 
N1371 X-214.095 Y17.247 Z0.052 A283.3597 
N1372 X-214.128 Y17.303 Z-0.105 A282.4109 
N1373 X-214.158 Y17.353 Z-0.251 A281.4621 
N1374 X-214.184 Y17.398 Z-0.385 A280.5053 
N1375 X-214.207 Y17.437 Z-0.506 A279.5330 
N1376 X-214.227 Y17.471 Z-0.617 A278.5379 
N1377 X-214.244 Y17.502 Z-0.718 A277.5118 
N1378 X-214.258 Y17.529 Z-0.809 A276.4457 
N1379 X-214.270 Y17.553 Z-0.891 A275.3303 
N1380 X-214.280 Y17.574 Z-0.966 A274.1584 
N1381 X-214.288 Y17.593 Z-1.033 A272.9267 
N1382 X-214.295 Y17.611 Z-1.095 A271.6366 
N1383 X-214.299 Y17.626 Z-1.152 A270.2938 
N1384 X-214.303 Y17.640 Z-1.204 A268.9081 
N1385 X-214.305 Y17.652 Z-1.253 A267.4910 
N1386 X-214.306 Y17.663 Z-1.298 A266.0548 
N1387 X-214.306 Y17.673 Z-1.341 A264.6109 
N1388 X-214.305 Y17.682 Z-1.381 A263.1684 
N1389 X-214.304 Y17.690 Z-1.419 A261.7351 
N1390 X-214.303 Y17.697 Z-1.455 A260.3161 
N1391 X-214.301 Y17.703 Z-1.490 A258.9148 
N1392 X-214.299 Y17.708 Z-1.523 A257.5329 
N1393 X-214.296 Y17.713 Z-1.555 A256.1712 
N1394 X-214.294 Y17.716 Z-1.586 A254.8295 
N1395 X-214.291 Y17.720 Z-1.617 A253.5071 
N1396 X-214.288 Y17.722 Z-1.647 A252.2027 
N1397 X-214.285 Y17.724 Z-1.676 A250.9155 
N1398 X-214.282 Y17.725 Z-1.704 A249.6440 
N1399 X-214.278 Y17.726 Z-1.733 A248.3869 
N1400 X-214.275 Y17.726 Z-1.760 A247.1430 
N1401 X-214.272 Y17.725 Z-1.788 A245.9113 
N1402 X-214.268 Y17.724 Z-1.815 A244.6907 
N1403 X-214.265 Y17.723 Z-1.841 A243.4804 
N1404 X-214.261 Y17.721 Z-1.868 A242.2795 
N1405 X-214.257 Y17.718 Z-1.894 A241.0871 
N1406 X-214.253 Y17.715 Z-1.920 A239.9027 
N1407 X-214.249 Y17.712 Z-1.945 A238.7254 
N1408 X-214.246 Y17.707 Z-1.971 A237.5548 
N1409 X-214.242 Y17.703 Z-1.996 A236.3902 
N1410 X-214.238 Y17.698 Z-2.021 A235.2312 
N1411 X-214.233 Y17.692 Z-2.046 A234.0772 
N1412 X-214.229 Y17.686 Z-2.071 A232.9278 
N1413 X-214.225 Y17.679 Z-2.095 A231.7823 
N1414 X-214.221 Y17.672 Z-2.120 A230.6403 
N1415 X-214.216 Y17.664 Z-2.144 A229.5012 
N1416 X-214.212 Y17.656 Z-2.168 A228.3645 
N1417 X-214.208 Y17.648 Z-2.192 A227.2294 
N1418 X-214.203 Y17.638 Z-2.216 A226.0954 
N1419 X-214.198 Y17.629 Z-2.239 A224.9617 
N1420 X-214.194 Y17.618 Z-2.263 A223.8276 
N1421 X-214.189 Y17.608 Z-2.286 A222.6920 
N1422 X-214.184 Y17.596 Z-2.310 A221.5541 
N1423 X-214.179 Y17.584 Z-2.333 A220.4126 
N1424 X-214.174 Y17.571 Z-2.357 A219.2663 
N1425 X-214.169 Y17.558 Z-2.380 A218.1141 
N1426 X-214.164 Y17.544 Z-2.404 A216.9545 
N1427 X-214.158 Y17.529 Z-2.427 A215.7861 
N1428 X-214.153 Y17.513 Z-2.451 A214.6073 
N1429 X-214.147 Y17.496 Z-2.475 A213.4168 
N1430 X-214.141 Y17.478 Z-2.499 A212.2133 
N1431 X-214.135 Y17.459 Z-2.523 A210.9958 
N1432 X-214.129 Y17.438 Z-2.548 A209.7634 
N1433 X-214.122 Y17.416 Z-2.573 A208.5167 
N1434 X-214.115 Y17.391 Z-2.599 A207.2565 
N1435 X-214.108 Y17.365 Z-2.625 A205.9848 
N1436 X-214.101 Y17.336 Z-2.651 A204.7053 
N1437 X-214.093 Y17.304 Z-2.679 A203.4231 
N1438 X-214.084 Y17.268 Z-2.707 A202.1446 
N1439 X-214.075 Y17.229 Z-2.735 A200.8774 
N1440 X-214.065 Y17.185 Z-2.765 A199.6292 
N1441 X-214.054 Y17.135 Z-2.795 A198.4066 
N1442 X-214.042 Y17.078 Z-2.827 A197.2139 
N1443 X-214.028 Y17.014 Z-2.860 A196.0516 
N1444 X-214.013 Y16.941 Z-2.894 A194.9164 
N1445 X-213.995 Y16.857 Z-2.931 A193.8017 
N1446 X-213.975 Y16.761 Z-2.969 A192.6995 
N1447 X-213.952 Y16.649 Z-3.010 A191.6036 
N1448 X-213.926 Y16.521 Z-3.054 A190.5103 
N1449 X-213.895 Y16.372 Z-3.100 A189.4178 
N1450 X-213.860 Y16.200 Z-3.149 A188.3239 
N1451 X-213.819 Y16.001 Z-3.200 A187.2257 
N1452 X-213.770 Y15.770 Z-3.254 A186.1225 
N1453 X-213.714 Y15.504 Z-3.309 A185.0168 
N1454 X-213.649 Y15.196 Z-3.365 A183.9128 
N1455 X-213.573 Y14.842 Z-3.421 A182.8134 
N1456 X-213.484 Y14.436 Z-3.475 A181.7200 
N1457 X-213.382 Y13.972 Z-3.528 A180.6346 
N1458 X-213.264 Y13.443 Z-3.576 A179.5591 
N1459 X-213.129 Y12.846 Z-3.617 A178.4957 
N1460 X-212.974 Y12.175 Z-3.651 A177.4454 
N1461 X-212.799 Y11.427 Z-3.673 A176.4089 
N1462 X-212.603 Y10.599 Z-3.681 A175.3886 
N1463 X-212.384 Y9.693 Z-3.672 A174.3896 
N1464 X-212.142 Y8.712 Z-3.642 A173.4478 
N1465 X-211.878 Y7.659 Z-3.592 A172.5769 
N1466 X-211.594 Y6.544 Z-3.520 A171.8607 
N1467 X-211.290 Y5.376 Z-3.430 A171.3137 
N1468 X-210.970 Y4.165 Z-3.325 A170.9484 
N1469 X-210.638 Y2.926 Z-3.210 A170.7681 
N1470 X-210.298 Y1.670 Z-3.091 A170.7666 
N1471 X-209.954 Y0.413 Z-2.973 A170.9410 
N1472 X-209.611 Y-0.832 Z-2.859 A171.2964 
N1473 X-209.275 Y-2.053 Z-2.755 A171.8396 
N1474 X-208.949 Y-3.237 Z-2.666 A172.5721 
N1475 X-208.638 Y-4.376 Z-2.596 A173.4835 
N1476 X-208.343 Y-5.462 Z-2.548 A174.5529 
N1477 X-208.068 Y-6.489 Z-2.522 A175.7572 
N1478 X-207.812 Y-7.456 Z-2.519 A177.0206 
N1479 X-207.576 Y-8.362 Z-2.537 A178.3323 
N1480 X-207.360 Y-9.207 Z-2.573 A179.6635 
N1481 X-207.161 Y-9.996 Z-2.625 A181.0086 
N1482 X-206.980 Y-10.731 Z-2.692 A182.3620 
N1483 X-206.814 Y-11.417 Z-2.771 A183.7186 
N1484 X-206.661 Y-12.061 Z-2.860 A185.0739 
N1485 X-206.521 Y-12.669 Z-2.960 A186.4240 
N1486 X-206.391 Y-13.245 Z-3.068 A187.7660 
N1487 X-206.270 Y-13.795 Z-3.185 A189.0976 
N1488 X-206.156 Y-14.324 Z-3.311 A190.4169 
N1489 X-206.049 Y-14.837 Z-3.445 A191.7224 
N1490 X-205.948 Y-15.338 Z-3.589 A193.0128 
N1491 X-205.852 Y-15.830 Z-3.742 A194.2866 
N1492 X-205.759 Y-16.315 Z-3.907 A195.5421 
N1493 X-205.671 Y-16.797 Z-4.082 A196.7772 
N1494 X-205.586 Y-17.276 Z-4.269 A197.9898 
N1495 X-205.504 Y-17.753 Z-4.467 A199.1775 
N1496 X-205.425 Y-18.229 Z-4.678 A200.3376 
N1497 X-205.349 Y-18.702 Z-4.900 A201.4672 
N1498 X-205.276 Y-19.171 Z-5.132 A202.5629 
N1499 X-205.207 Y-19.635 Z-5.373 A203.6211 
N1500 X-205.141 Y-20.090 Z-5.622 A204.5985 
N1501 X-205.079 Y-20.534 Z-5.876 A205.4879 
N1502 X-205.021 Y-20.964 Z-6.132 A206.2832 
N1503 X-204.967 Y-21.377 Z-6.385 A206.9814 
N1504 X-204.916 Y-21.770 Z-6.633 A207.5833 
N1505 X-204.869 Y-22.139 Z-6.870 A208.0934 
N1506 X-204.827 Y-22.482 Z-7.096 A208.5186 
N1507 X-204.788 Y-22.797 Z-7.305 A208.8678 
N1508 X-204.753 Y-23.082 Z-7.497 A209.1500 
N1509 X-204.721 Y-23.337 Z-7.670 A209.3734 
N1510 X-204.694 Y-23.562 Z-7.823 A209.5448 
N1511 X-204.670 Y-23.756 Z-7.957 A209.6694 
N1512 X-204.650 Y-23.923 Z-8.072 A209.7499 
N1513 X-204.632 Y-24.063 Z-8.169 A209.7867 
N1514 X-204.618 Y-24.179 Z-8.250 A209.7768 
N1515 X-204.605 Y-24.274 Z-8.317 A209.7136 
N1516 X-204.594 Y-24.351 Z-8.372 A209.5873 
N1517 X-204.584 Y-24.413 Z-8.417 A209.3143 
N1518 X-204.574 Y-24.462 Z-8.454 A208.8691 
N1519 X-204.562 Y-24.504 Z-8.488 A208.0582 
N1520 X-204.548 Y-24.540 Z-8.520 A206.8604 
N1521 X-204.531 Y-24.571 Z-8.551 A205.3001 
N1522 X-204.514 Y-24.600 Z-8.579 A203.6021 
N1523 X-204.497 Y-24.624 Z-8.604 A201.8837 
N1524 X-204.480 Y-24.647 Z-8.626 A200.1832 
N1525 X-204.464 Y-24.667 Z-8.646 A198.5255 
N1526 X-204.448 Y-24.685 Z-8.664 A196.9266 
N1527 X-204.435 Y-24.701 Z-8.679 A195.5336 
N1528 X-204.424 Y-24.715 Z-8.691 A194.3614 
N1529 X-204.414 Y-24.726 Z-8.701 A193.3810 
N1530 X-204.406 Y-24.736 Z-8.710 A192.4776 
N1531 X-204.398 Y-24.746 Z-8.718 A191.6461 
N1532 X-204.391 Y-24.755 Z-8.725 A190.8949 
N1533 X-204.385 Y-24.762 Z-8.732 A190.2248 
N1534 X-204.379 Y-24.770 Z-8.737 A189.5856 
N1535 X-204.373 Y-24.777 Z-8.743 A188.9705 
N1536 X-204.368 Y-24.784 Z-8.748 A188.3745 
N1537 X-204.362 Y-24.791 Z-8.753 A187.7943 
N1538 X-204.357 Y-24.797 Z-8.758 A187.2279 
N1539 X-204.352 Y-24.804 Z-8.763 A186.6749 
N1540 X-204.347 Y-24.810 Z-8.768 A186.1356 
N1541 X-204.343 Y-24.817 Z-8.772 A185.6077 
N1542 X-204.338 Y-24.823 Z-8.776 A185.0878 
N1543 X-204.333 Y-24.829 Z-8.780 A184.5730 
N1544 X-204.329 Y-24.835 Z-8.784 A184.0609 
N1545 X-204.324 Y-24.842 Z-8.788 A183.5493 
N1546 X-204.320 Y-24.848 Z-8.792 A183.0362 
N1547 X-204.315 Y-24.854 Z-8.796 A182.5194 
N1548 X-204.311 Y-24.861 Z-8.800 A181.9965 
N1549 X-204.306 Y-24.867 Z-8.804 A181.4645 
N1550 X-204.301 Y-24.874 Z-8.808 A180.9219 
N1551 X-204.296 Y-24.881 Z-8.812 A180.3696 
N1552 X-204.291 Y-24.888 Z-8.816 A179.8074 
N1553 X-204.286 Y-24.895 Z-8.820 A179.2345 
N1554 X-204.281 Y-24.903 Z-8.824 A178.6493 
N1555 X-204.276 Y-24.910 Z-8.828 A178.0491 
N1556 X-204.271 Y-24.918 Z-8.832 A177.4299 
N1557 X-204.266 Y-24.926 Z-8.836 A176.7865 
N1558 X-204.260 Y-24.935 Z-8.840 A176.1168 
N1559 X-204.254 Y-24.944 Z-8.844 A175.4232 
N1560 X-204.248 Y-24.954 Z-8.848 A174.7060 
N1561 X-204.242 Y-24.963 Z-8.853 A173.9636 
N1562 X-204.236 Y-24.973 Z-8.857 A173.1919 
N1563 X-204.229 Y-24.984 Z-8.861 A172.3849 
N1564 X-204.223 Y-24.995 Z-8.866 A171.5413 
N1565 X-204.216 Y-25.007 Z-8.870 A170.6636 
N1566 X-204.208 Y-25.019 Z-8.874 A169.7505 
N1567 X-204.201 Y-25.032 Z-8.879 A168.7980 
N1568 X-204.193 Y-25.046 Z-8.883 A167.8012 
N1569 X-204.185 Y-25.060 Z-8.887 A166.7633 
N1570 X-204.177 Y-25.074 Z-8.891 A165.6832 
N1571 X-204.169 Y-25.090 Z-8.895 A164.5558 
N1572 X-204.160 Y-25.107 Z-8.899 A163.3832 
N1573 X-204.151 Y-25.124 Z-8.903 A162.1657 
N1574 X-204.142 Y-25.141 Z-8.906 A160.8998 
N1575 X-204.133 Y-25.160 Z-8.909 A159.5884 
N1576 X-204.123 Y-25.179 Z-8.912 A158.2291 
N1577 X-204.114 Y-25.200 Z-8.914 A156.8243 
N1578 X-204.104 Y-25.221 Z-8.916 A155.3728 
N1579 X-204.094 Y-25.242 Z-8.918 A153.8770 
N1580 X-204.085 Y-25.265 Z-8.919 A152.3362 
N1581 X-204.075 Y-25.288 Z-8.919 A150.7525 
N1582 X-204.065 Y-25.312 Z-8.918 A149.1265 
N1583 X-204.055 Y-25.336 Z-8.917 A147.4579 
N1584 X-204.045 Y-25.362 Z-8.915 A145.7479 
N1585 X-204.036 Y-25.388 Z-8.913 A143.9976 
N1586 X-204.026 Y-25.414 Z-8.909 A142.2078 
N1587 X-204.017 Y-25.441 Z-8.904 A140.3790 
N1588 X-204.008 Y-25.469 Z-8.899 A138.5120 
N1589 X-204.000 Y-25.497 Z-8.892 A136.6075 
N1590 X-203.991 Y-25.525 Z-8.884 A134.6668 
N1591 X-203.984 Y-25.554 Z-8.876 A132.6911 
N1592 X-203.976 Y-25.583 Z-8.866 A130.6815 
N1593 X-203.969 Y-25.612 Z-8.854 A128.6393 
N1594 X-203.963 Y-25.642 Z-8.842 A126.5655 
N1595 X-203.957 Y-25.671 Z-8.828 A124.4609 
N1596 X-203.952 Y-25.701 Z-8.813 A122.3262 
N1597 X-203.947 Y-25.730 Z-8.796 A120.1626 
N1598 X-203.943 Y-25.759 Z-8.779 A117.9708 
N1599 X-203.940 Y-25.789 Z-8.759 A115.7516 
N1600 X-203.938 Y-25.817 Z-8.739 A113.5057 
N1601 X-203.936 Y-25.846 Z-8.717 A111.2341 
N1602 X-203.935 Y-25.874 Z-8.693 A108.9380 
N1603 X-203.935 Y-25.901 Z-8.668 A106.6190 
N1604 X-203.936 Y-25.928 Z-8.642 A104.2792 
N1605 X-203.938 Y-25.954 Z-8.614 A101.9217 
N1606 X-203.940 Y-25.978 Z-8.586 A99.5501 
N1607 X-203.944 Y-26.002 Z-8.556 A97.1688 
N1608 X-203.948 Y-26.025 Z-8.525 A94.7828 
N1609 X-203.953 Y-26.046 Z-8.493 A92.3975 
N1610 X-203.959 Y-26.066 Z-8.461 A90.0189 
N1611 X-203.966 Y-26.085 Z-8.427 A87.6529 
N1612 X-203.973 Y-26.102 Z-8.394 A85.3046 
N1613 X-203.981 Y-26.117 Z-8.360 A82.9792 
N1614 X-203.990 Y-26.131 Z-8.326 A80.6811 
N1615 X-204.000 Y-26.144 Z-8.292 A78.4152 
N1616 X-204.010 Y-26.155 Z-8.258 A76.1854 
N1617 X-204.021 Y-26.164 Z-8.224 A73.9956 
N1618 X-204.033 Y-26.172 Z-8.191 A71.8895 
N1619 X-204.044 Y-26.178 Z-8.159 A69.8714 
N1620 X-204.055 Y-26.183 Z-8.129 A67.9471 
N1621 X-204.067 Y-26.187 Z-8.099 A66.1225 
N1622 X-204.078 Y-26.190 Z-8.072 A64.4023 
N1623 X-204.089 Y-26.191 Z-8.046 A62.7897 
N1624 X-204.099 Y-26.192 Z-8.021 A61.2854 
N1625 X-204.109 Y-26.192 Z-7.998 A59.8886 
N1626 X-204.118 Y-26.191 Z-7.977 A58.5979 
N1627 X-204.127 Y-26.190 Z-7.957 A57.4123 
N1628 X-204.135 Y-26.189 Z-7.939 A56.3250 
N1629 X-204.143 Y-26.187 Z-7.923 A55.3318 
N1630 X-204.150 Y-26.185 Z-7.908 A54.4295 
N1631 X-204.156 Y-26.184 Z-7.894 A53.6127 
N1632 X-204.161 Y-26.182 Z-7.882 A52.8801 
N1633 X-204.167 Y-26.180 Z-7.870 A52.1883 
N1634 X-204.172 Y-26.177 Z-7.859 A51.5357 
N1635 X-204.177 Y-26.175 Z-7.849 A50.9205 
N1636 X-204.182 Y-26.173 Z-7.839 A50.3384 
N1637 X-204.186 Y-26.171 Z-7.829 A49.7861 
N1638 X-204.191 Y-26.169 Z-7.820 A49.2602 
N1639 X-204.195 Y-26.167 Z-7.812 A48.7551 
N1640 X-204.199 Y-26.165 Z-7.803 A48.2663 
N1641 X-204.203 Y-26.163 Z-7.795 A47.7898 
N1642 X-204.207 Y-26.160 Z-7.787 A47.3194 
N1643 X-204.212 Y-26.158 Z-7.779 A46.8493 
N1644 X-204.216 Y-26.155 Z-7.771 A46.3729 
N1645 X-204.220 Y-26.153 Z-7.762 A45.8844 
N1646 X-204.225 Y-26.150 Z-7.753 A45.3787 
N1647 X-204.230 Y-26.146 Z-7.744 A44.8489 
N1648 X-204.234 Y-26.142 Z-7.733 A44.2894 
N1649 X-204.239 Y-26.137 Z-7.721 A43.7005 
N1650 X-204.244 Y-26.130 Z-7.708 A43.0835 
N1651 X-204.249 Y-26.120 Z-7.690 A42.3851 
N1652 X-204.257 Y-26.107 Z-7.667 A41.4889 
N1653 X-204.266 Y-26.087 Z-7.638 A40.5187 
N1654 X-204.273 Y-26.068 Z-7.613 A39.8855 
N1655 X-204.277 Y-26.042 Z-7.584 A39.4500 
N1656 X-204.281 Y-26.008 Z-7.548 A39.2394 
N1657 X-204.285 Y-25.960 Z-7.502 A39.0944 
N1658 X-204.290 Y-25.896 Z-7.439 A38.9700 
N1659 X-204.296 Y-25.810 Z-7.357 A38.8644 
N1660 X-204.303 Y-25.697 Z-7.249 A38.7732 
N1661 X-204.313 Y-25.552 Z-7.110 A38.6910 
N1662 X-204.324 Y-25.367 Z-6.933 A38.6128 
N1663 X-204.338 Y-25.136 Z-6.713 A38.5337 
N1664 X-204.355 Y-24.852 Z-6.444 A38.4491 
N1665 X-204.376 Y-24.511 Z-6.119 A38.3545 
N1666 X-204.400 Y-24.106 Z-5.735 A38.2450 
N1667 X-204.428 Y-23.635 Z-5.289 A38.1158 
N1668 X-204.461 Y-23.097 Z-4.779 A37.9611 
N1669 X-204.498 Y-22.490 Z-4.207 A37.7754 
N1670 X-204.541 Y-21.819 Z-3.576 A37.5528 
N1671 X-204.588 Y-21.088 Z-2.892 A37.2875 
N1672 X-204.640 Y-20.302 Z-2.164 A36.9742 
N1673 X-204.697 Y-19.471 Z-1.401 A36.6085 
N1674 X-204.758 Y-18.604 Z-0.615 A36.1879 
N1675 X-204.826 Y-17.711 Z0.182 A35.6586 
N1676 X-204.899 Y-16.801 Z0.977 A35.0210 
N1677 X-204.977 Y-15.886 Z1.759 A34.2756 
N1678 X-205.059 Y-14.975 Z2.515 A33.4231 
N1679 X-205.145 Y-14.076 Z3.238 A32.4638 
N1680 X-205.234 Y-13.198 Z3.920 A31.4510 
N1681 X-205.326 Y-12.346 Z4.555 A30.3874 
N1682 X-205.419 Y-11.525 Z5.142 A29.2781 
N1683 X-205.513 Y-10.738 Z5.679 A28.1301 
N1684 X-205.607 Y-9.987 Z6.168 A26.9510 
N1685 X-205.700 Y-9.272 Z6.611 A25.7484 
N1686 X-205.793 Y-8.592 Z7.011 A24.5292 
N1687 X-205.885 Y-7.946 Z7.372 A23.2990 
N1688 X-205.975 Y-7.331 Z7.698 A22.0626 
N1689 X-206.063 Y-6.744 Z7.992 A20.8235 
N1690 X-206.150 Y-6.184 Z8.258 A19.5844 
N1691 X-206.236 Y-5.647 Z8.499 A18.3472 
N1692 X-206.320 Y-5.130 Z8.717 A17.1131 
N1693 X-206.404 Y-4.630 Z8.916 A15.8828 
N1694 X-206.486 Y-4.147 Z9.096 A14.6564 
N1695 X-206.568 Y-3.677 Z9.260 A13.4337 
N1696 X-206.649 Y-3.219 Z9.409 A12.2145 
N1697 X-206.730 Y-2.772 Z9.545 A10.9983 
N1698 X-206.811 Y-2.335 Z9.667 A9.7845 
N1699 X-206.891 Y-1.906 Z9.778 A8.5724 
N1700 X-206.972 Y-1.484 Z9.877 A7.3615 
N1701 X-207.053 Y-1.070 Z9.966 A6.1512 
N1702 X-207.133 Y-0.662 Z10.044 A4.9409 
N1703 X-207.214 Y-0.260 Z10.113 A3.7303 
N1704 X-207.296 Y0.136 Z10.172 A2.5187 
N1705 X-207.377 Y0.527 Z10.223 A1.3059 
N1706 X-207.459 Y0.914 Z10.264 A0.0915 
N1707 X-207.542 Y1.295 Z10.297 A358.8751 
N1708 X-207.624 Y1.673 Z10.322 A357.6565 
N1709 X-207.708 Y2.046 Z10.338 A356.4355 
N1710 X-207.792 Y2.414 Z10.347 A355.2120 
N1711 X-207.876 Y2.779 Z10.347 A353.9857 
N1712 X-207.961 Y3.140 Z10.341 A352.7566 
N1713 X-208.046 Y3.498 Z10.326 A351.5246 
N1714 X-208.132 Y3.851 Z10.304 A350.2897 
N1715 X-208.218 Y4.201 Z10.276 A349.0518 
N1716 X-208.306 Y4.548 Z10.239 A347.8110 
N1717 X-208.393 Y4.890 Z10.196 A346.5673 
N1718 X-208.481 Y5.230 Z10.146 A345.3208 
N1719 X-208.570 Y5.566 Z10.089 A344.0716 
N1720 X-208.660 Y5.899 Z10.025 A342.8197 
N1721 X-208.750 Y6.228 Z9.954 A341.5655 
N1722 X-208.841 Y6.554 Z9.877 A340.3089 
N1723 X-208.932 Y6.877 Z9.793 A339.0502 
N1724 X-209.024 Y7.196 Z9.702 A337.7896 
N1725 X-209.116 Y7.512 Z9.605 A336.5273 
N1726 X-209.210 Y7.826 Z9.501 A335.2636 
N1727 X-209.304 Y8.135 Z9.390 A333.9986 
N1728 X-209.398 Y8.442 Z9.273 A332.7328 
N1729 X-209.493 Y8.746 Z9.150 A331.4664 
N1730 X-209.589 Y9.046 Z9.019 A330.1997 
N1731 X-209.685 Y9.343 Z8.883 A328.9331 
N1732 X-209.782 Y9.637 Z8.740 A327.6670 
N1733 X-209.880 Y9.928 Z8.590 A326.4019 
N1734 X-209.978 Y10.215 Z8.434 A325.1381 
N1735 X-210.077 Y10.499 Z8.271 A323.8760 
N1736 X-210.176 Y10.780 Z8.102 A322.6162 
N1737 X-210.276 Y11.057 Z7.927 A321.3590 
N1738 X-210.375 Y11.331 Z7.745 A320.1049 
N1739 X-210.475 Y11.602 Z7.557 A318.8542 
N1740 X-210.574 Y11.869 Z7.362 A317.6072 
N1741 X-210.673 Y12.133 Z7.161 A316.3641 
N1742 X-210.771 Y12.393 Z6.953 A315.1251 
N1743 X-210.869 Y12.649 Z6.739 A313.8902 
N1744 X-210.966 Y12.901 Z6.519 A312.6593 
N1745 X-211.062 Y13.150 Z6.293 A311.4325 
N1746 X-211.158 Y13.394 Z6.061 A310.2099 
N1747 X-211.252 Y13.634 Z5.823 A308.9919 
N1748 X-211.346 Y13.869 Z5.579 A307.7793 
N1749 X-211.438 Y14.099 Z5.330 A306.5737 
N1750 X-211.529 Y14.323 Z5.076 A305.3767 
N1751 X-211.619 Y14.543 Z4.817 A304.1903 
N1752 X-211.707 Y14.756 Z4.554 A303.0165 
N1753 X-211.794 Y14.963 Z4.288 A301.8568 
N1754 X-211.878 Y15.164 Z4.019 A300.7121 
N1755 X-211.960 Y15.357 Z3.747 A299.5823 
N1756 X-212.040 Y15.544 Z3.475 A298.4667 
N1757 X-212.118 Y15.724 Z3.203 A297.3636 
N1758 X-212.193 Y15.895 Z2.932 A296.2711 
N1759 X-212.266 Y16.059 Z2.663 A295.1874 
N1760 X-212.335 Y16.214 Z2.398 A294.1112 
N1761 X-212.401 Y16.360 Z2.136 A293.0419 
N1762 X-212.464 Y16.497 Z1.880 A291.9798 
N1763 X-212.523 Y16.625 Z1.631 A290.9255 
N1764 X-212.579 Y16.744 Z1.389 A289.8805 
N1765 X-212.631 Y16.853 Z1.157 A288.8456 
N1766 X-212.679 Y16.954 Z0.934 A287.8216 
N1767 X-212.724 Y17.045 Z0.722 A286.8086 
N1768 X-212.765 Y17.128 Z0.521 A285.8070 
N1769 X-212.802 Y17.202 Z0.333 A284.8177 
N1770 X-212.836 Y17.268 Z0.157 A283.8408 
N1771 X-212.866 Y17.327 Z-0.006 A282.8744 
N1772 X-212.893 Y17.380 Z-0.156 A281.9130 
N1773 X-212.917 Y17.426 Z-0.294 A280.9486 
N1774 X-212.937 Y17.467 Z-0.419 A279.9731 
N1775 X-212.956 Y17.503 Z-0.533 A278.9792 
N1776 X-212.971 Y17.535 Z-0.636 A277.9587 
N1777 X-212.985 Y17.563 Z-0.729 A276.9024 
N1778 X-212.996 Y17.588 Z-0.813 A275.8003 
N1779 X-213.005 Y17.610 Z-0.889 A274.6439 
N1780 X-213.013 Y17.629 Z-0.958 A273.4282 
N1781 X-213.020 Y17.647 Z-1.020 A272.1528 
N1782 X-213.025 Y17.663 Z-1.078 A270.8223 
N1783 X-213.029 Y17.677 Z-1.130 A269.4450 
N1784 X-213.032 Y17.690 Z-1.179 A268.0316 
N1785 X-213.034 Y17.701 Z-1.225 A266.5936 
N1786 X-213.036 Y17.712 Z-1.268 A265.1416 
N1787 X-213.036 Y17.721 Z-1.309 A263.6846 
N1788 X-213.037 Y17.729 Z-1.347 A262.2293 
N1789 X-213.036 Y17.737 Z-1.385 A260.7807 
N1790 X-213.036 Y17.743 Z-1.420 A259.3419 
N1791 X-213.035 Y17.749 Z-1.455 A257.9146 
N1792 X-213.034 Y17.754 Z-1.489 A256.4993 
N1793 X-213.032 Y17.758 Z-1.521 A255.0963 
N1794 X-213.030 Y17.761 Z-1.554 A253.7053 
N1795 X-213.029 Y17.764 Z-1.585 A252.3259 
N1796 X-213.026 Y17.766 Z-1.617 A250.9576 
N1797 X-213.024 Y17.767 Z-1.647 A249.6001 
N1798 X-213.022 Y17.768 Z-1.678 A248.2529 
N1799 X-213.020 Y17.768 Z-1.708 A246.9159 
N1800 X-213.017 Y17.767 Z-1.737 A245.5889 
N1801 X-213.015 Y17.766 Z-1.767 A244.2719 
N1802 X-213.012 Y17.764 Z-1.796 A242.9650 
N1803 X-213.009 Y17.761 Z-1.824 A241.6681 
N1804 X-213.007 Y17.758 Z-1.853 A240.3813 
N1805 X-213.004 Y17.754 Z-1.881 A239.1047 
N1806 X-213.001 Y17.750 Z-1.908 A237.8384 
N1807 X-212.998 Y17.745 Z-1.936 A236.5825 
N1808 X-212.995 Y17.739 Z-1.963 A235.3369 
N1809 X-212.992 Y17.733 Z-1.989 A234.1016 
N1810 X-212.988 Y17.727 Z-2.016 A232.8767 
N1811 X-212.985 Y17.719 Z-2.042 A231.6620 
N1812 X-212.982 Y17.712 Z-2.068 A230.4574 
N1813 X-212.978 Y17.703 Z-2.093 A229.2626 
N1814 X-212.975 Y17.695 Z-2.118 A228.0774 
N1815 X-212.972 Y17.686 Z-2.143 A226.9015 
N1816 X-212.968 Y17.676 Z-2.168 A225.7344 
N1817 X-212.964 Y17.666 Z-2.192 A224.5757 
N1818 X-212.961 Y17.655 Z-2.216 A223.4246 
N1819 X-212.957 Y17.644 Z-2.240 A222.2805 
N1820 X-212.953 Y17.632 Z-2.263 A221.1426 
N1821 X-212.950 Y17.620 Z-2.286 A220.0098 
N1822 X-212.946 Y17.607 Z-2.309 A218.8812 
N1823 X-212.942 Y17.593 Z-2.332 A217.7555 
N1824 X-212.938 Y17.579 Z-2.355 A216.6314 
N1825 X-212.933 Y17.565 Z-2.378 A215.5076 
N1826 X-212.929 Y17.549 Z-2.400 A214.3823 
N1827 X-212.925 Y17.533 Z-2.423 A213.2538 
N1828 X-212.920 Y17.516 Z-2.445 A212.1205 
N1829 X-212.916 Y17.498 Z-2.468 A210.9807 
N1830 X-212.911 Y17.479 Z-2.491 A209.8328 
N1831 X-212.906 Y17.459 Z-2.514 A208.6754 
N1832 X-212.901 Y17.437 Z-2.538 A207.5080 
N1833 X-212.896 Y17.413 Z-2.561 A206.3305 
N1834 X-212.890 Y17.387 Z-2.586 A205.1438 
N1835 X-212.884 Y17.359 Z-2.611 A203.9501 
N1836 X-212.878 Y17.328 Z-2.636 A202.7532 
N1837 X-212.871 Y17.294 Z-2.663 A201.5580 
N1838 X-212.864 Y17.255 Z-2.690 A200.3703 
N1839 X-212.856 Y17.212 Z-2.718 A199.1964 
N1840 X-212.847 Y17.164 Z-2.747 A198.0415 
N1841 X-212.836 Y17.108 Z-2.778 A196.9085 
N1842 X-212.825 Y17.045 Z-2.809 A195.7973 
N1843 X-212.811 Y16.972 Z-2.843 A194.7044 
N1844 X-212.796 Y16.888 Z-2.879 A193.6232 
N1845 X-212.779 Y16.791 Z-2.918 A192.5465 
N1846 X-212.758 Y16.678 Z-2.959 A191.4695 
N1847 X-212.735 Y16.548 Z-3.003 A190.3901 
N1848 X-212.707 Y16.396 Z-3.050 A189.3076 
N1849 X-212.675 Y16.219 Z-3.099 A188.2207 
N1850 X-212.638 Y16.014 Z-3.152 A187.1275 
N1851 X-212.594 Y15.776 Z-3.206 A186.0284 
N1852 X-212.543 Y15.500 Z-3.262 A184.9271 
N1853 X-212.484 Y15.182 Z-3.319 A183.8281 
N1854 X-212.414 Y14.816 Z-3.376 A182.7342 
N1855 X-212.333 Y14.396 Z-3.432 A181.6467 
N1856 X-212.239 Y13.917 Z-3.485 A180.5673 
N1857 X-212.130 Y13.373 Z-3.534 A179.4979 
N1858 X-212.004 Y12.758 Z-3.576 A178.4400 
N1859 X-211.861 Y12.069 Z-3.609 A177.3944 
N1860 X-211.697 Y11.303 Z-3.631 A176.3615 
N1861 X-211.512 Y10.458 Z-3.639 A175.3444 
N1862 X-211.305 Y9.536 Z-3.628 A174.3492 
N1863 X-211.075 Y8.539 Z-3.596 A173.4137 
N1864 X-210.822 Y7.473 Z-3.544 A172.5515 
N1865 X-210.547 Y6.346 Z-3.471 A171.8479 
N1866 X-210.252 Y5.167 Z-3.379 A171.3179 
N1867 X-209.939 Y3.950 Z-3.272 A170.9734 
N1868 X-209.612 Y2.705 Z-3.157 A170.8151 
N1869 X-209.274 Y1.446 Z-3.037 A170.8353 
N1870 X-208.931 Y0.187 Z-2.919 A171.0318 
N1871 X-208.589 Y-1.060 Z-2.805 A171.4113 
N1872 X-208.255 Y-2.281 Z-2.702 A171.9830 
N1873 X-207.932 Y-3.467 Z-2.614 A172.7495 
N1874 X-207.625 Y-4.608 Z-2.546 A173.7001 
N1875 X-207.335 Y-5.696 Z-2.500 A174.8139 
N1876 X-207.065 Y-6.727 Z-2.477 A176.0698 
N1877 X-206.814 Y-7.698 Z-2.478 A177.3906 
N1878 X-206.584 Y-8.608 Z-2.499 A178.7403 
N1879 X-206.373 Y-9.460 Z-2.539 A180.1136 
N1880 X-206.180 Y-10.255 Z-2.597 A181.5044 
N1881 X-206.003 Y-10.998 Z-2.669 A182.9065 
N1882 X-205.842 Y-11.693 Z-2.754 A184.3142 
N1883 X-205.694 Y-12.347 Z-2.851 A185.7220 
N1884 X-205.558 Y-12.965 Z-2.959 A187.1255 
N1885 X-205.432 Y-13.553 Z-3.076 A188.5209 
N1886 X-205.314 Y-14.116 Z-3.203 A189.9051 
N1887 X-205.204 Y-14.659 Z-3.340 A191.2755 
N1888 X-205.101 Y-15.186 Z-3.486 A192.6297 
N1889 X-205.003 Y-15.702 Z-3.643 A193.9652 
N1890 X-204.909 Y-16.209 Z-3.811 A195.2796 
N1891 X-204.820 Y-16.710 Z-3.991 A196.5700 
N1892 X-204.735 Y-17.206 Z-4.183 A197.8334 
N1893 X-204.653 Y-17.698 Z-4.386 A199.0668 
N1894 X-204.574 Y-18.187 Z-4.602 A200.2665 
N1895 X-204.499 Y-18.672 Z-4.828 A201.4289 
N1896 X-204.427 Y-19.150 Z-5.065 A202.5494 
N1897 X-204.358 Y-19.621 Z-5.311 A203.6233 
N1898 X-204.294 Y-20.082 Z-5.564 A204.6465 
N1899 X-204.233 Y-20.529 Z-5.820 A205.5646 
N1900 X-204.176 Y-20.961 Z-6.077 A206.3735 
N1901 X-204.123 Y-21.373 Z-6.332 A207.0718 
N1902 X-204.074 Y-21.764 Z-6.579 A207.6612 
N1903 X-204.029 Y-22.130 Z-6.815 A208.1461 
N1904 X-203.988 Y-22.468 Z-7.039 A208.5321 
N1905 X-203.951 Y-22.778 Z-7.245 A208.8248 
N1906 X-203.917 Y-23.057 Z-7.434 A209.0724 
N1907 X-203.888 Y-23.306 Z-7.603 A209.2777 
N1908 X-203.862 Y-23.524 Z-7.752 A209.4434 
N1909 X-203.840 Y-23.712 Z-7.881 A209.5724 
N1910 X-203.821 Y-23.872 Z-7.992 A209.6669 
N1911 X-203.805 Y-24.007 Z-8.085 A209.7281 
N1912 X-203.792 Y-24.118 Z-8.163 A209.7564 
N1913 X-203.781 Y-24.208 Z-8.226 A209.7169 
N1914 X-203.771 Y-24.282 Z-8.278 A209.6021 
N1915 X-203.762 Y-24.340 Z-8.321 A209.4008 
N1916 X-203.752 Y-24.388 Z-8.356 A209.0081 
N1917 X-203.742 Y-24.427 Z-8.387 A208.4009 
N1918 X-203.732 Y-24.459 Z-8.415 A207.5675 
N1919 X-203.721 Y-24.486 Z-8.440 A206.5214 
N1920 X-203.710 Y-24.510 Z-8.462 A205.3892 
N1921 X-203.699 Y-24.530 Z-8.482 A204.2328 
N1922 X-203.687 Y-24.548 Z-8.499 A203.0788 
N1923 X-203.676 Y-24.563 Z-8.515 A201.9499 
N1924 X-203.665 Y-24.577 Z-8.529 A200.8651 
N1925 X-203.655 Y-24.590 Z-8.542 A199.8330 
N1926 X-203.645 Y-24.601 Z-8.553 A198.8585 
N1927 X-203.636 Y-24.612 Z-8.564 A197.9397 
N1928 X-203.628 Y-24.621 Z-8.572 A197.1473 
N1929 X-203.620 Y-24.629 Z-8.580 A196.4077 
N1930 X-203.613 Y-24.637 Z-8.588 A195.7141 
N1931 X-203.606 Y-24.645 Z-8.594 A195.0648 
N1932 X-203.600 Y-24.652 Z-8.601 A194.4629 
N1933 X-203.594 Y-24.658 Z-8.606 A193.9101 
N1934 X-203.589 Y-24.663 Z-8.611 A193.3945 
N1935 X-203.584 Y-24.669 Z-8.616 A192.9073 
N1936 X-203.579 Y-24.674 Z-8.620 A192.4425 
N1937 X-203.575 Y-24.679 Z-8.625 A191.9959 
N1938 X-203.571 Y-24.684 Z-8.629 A191.5650 
N1939 X-203.566 Y-24.689 Z-8.633 A191.1491 
N1940 X-203.562 Y-24.694 Z-8.637 A190.7490 
N1941 X-203.558 Y-24.698 Z-8.640 A190.3669 
N1942 X-203.555 Y-24.702 Z-8.643 A190.0048 
N1943 X-203.551 Y-24.706 Z-8.646 A189.6579 
N1944 X-203.548 Y-24.710 Z-8.649 A189.3221 
N1945 X-203.544 Y-24.714 Z-8.652 A188.9946 
N1946 X-203.541 Y-24.718 Z-8.655 A188.6731 
N1947 X-203.538 Y-24.721 Z-8.658 A188.3558 
N1948 X-203.535 Y-24.725 Z-8.661 A188.0415 
N1949 X-203.531 Y-24.729 Z-8.663 A187.7292 
N1950 X-203.528 Y-24.733 Z-8.666 A187.4179 
N1951 X-203.525 Y-24.736 Z-8.669 A187.1071 
N1952 X-203.522 Y-24.740 Z-8.671 A186.7960 
N1953 X-203.519 Y-24.744 Z-8.674 A186.4842 
N1954 X-203.515 Y-24.747 Z-8.676 A186.1708 
N1955 X-203.512 Y-24.751 Z-8.679 A185.8553 
N1956 X-203.509 Y-24.755 Z-8.681 A185.5367 
N1957 X-203.506 Y-24.759 Z-8.684 A185.2158 
N1958 X-203.502 Y-24.763 Z-8.687 A184.8928 
N1959 X-203.499 Y-24.767 Z-8.689 A184.5678 
N1960 X-203.496 Y-24.771 Z-8.692 A184.2408 
N1961 X-203.492 Y-24.775 Z-8.694 A183.9113 
N1962 X-203.489 Y-24.779 Z-8.697 A183.5786 
N1963 X-203.485 Y-24.783 Z-8.699 A183.2416 
N1964 X-203.482 Y-24.787 Z-8.702 A182.8986 
N1965 X-203.478 Y-24.791 Z-8.704 A182.5476 
N1966 X-203.475 Y-24.796 Z-8.707 A182.1855 
N1967 X-203.471 Y-24.800 Z-8.710 A181.8086 
N1968 X-203.467 Y-24.805 Z-8.712 A181.4116 
N1969 X-203.462 Y-24.810 Z-8.715 A180.9905 
N1970 X-203.458 Y-24.816 Z-8.718 A180.5490 
N1971 X-203.453 Y-24.821 Z-8.721 A180.0891 
N1972 X-203.448 Y-24.827 Z-8.725 A179.6108 
N1973 X-203.443 Y-24.833 Z-8.728 A179.1127 
N1974 X-203.438 Y-24.840 Z-8.731 A178.5913 
N1975 X-203.432 Y-24.847 Z-8.735 A178.0408 
N1976 X-203.426 Y-24.854 Z-8.738 A177.4534 
N1977 X-203.420 Y-24.862 Z-8.742 A176.8217 
N1978 X-203.413 Y-24.870 Z-8.746 A176.1499 
N1979 X-203.406 Y-24.879 Z-8.750 A175.4385 
N1980 X-203.398 Y-24.889 Z-8.754 A174.6840 
N1981 X-203.390 Y-24.899 Z-8.759 A173.8788 
N1982 X-203.381 Y-24.911 Z-8.763 A173.0194 
N1983 X-203.372 Y-24.922 Z-8.768 A172.1099 
N1984 X-203.362 Y-24.935 Z-8.772 A171.1489 
N1985 X-203.351 Y-24.949 Z-8.777 A170.0807 
N1986 X-203.339 Y-24.964 Z-8.782 A168.9156 
N1987 X-203.326 Y-24.981 Z-8.787 A167.6444 
N1988 X-203.312 Y-25.000 Z-8.792 A166.2726 
N1989 X-203.297 Y-25.020 Z-8.797 A164.7915 
N1990 X-203.282 Y-25.041 Z-8.801 A163.2037 
N1991 X-203.265 Y-25.064 Z-8.806 A161.5071 
N1992 X-203.247 Y-25.089 Z-8.809 A159.6982 
N1993 X-203.228 Y-25.116 Z-8.813 A157.7764 
N1994 X-203.208 Y-25.144 Z-8.815 A155.7417 
N1995 X-203.187 Y-25.174 Z-8.816 A153.5959 
N1996 X-203.166 Y-25.206 Z-8.816 A151.3408 
N1997 X-203.144 Y-25.240 Z-8.815 A148.9753 
N1998 X-203.121 Y-25.275 Z-8.812 A146.5010 
N1999 X-203.098 Y-25.312 Z-8.807 A143.9172 
N2000 X-203.074 Y-25.350 Z-8.800 A141.2243 
N2001 X-203.050 Y-25.390 Z-8.791 A138.4233 
N2002 X-203.026 Y-25.431 Z-8.779 A135.5165 
N2003 X-203.002 Y-25.473 Z-8.765 A132.5067 
N2004 X-202.978 Y-25.517 Z-8.748 A129.3972 
N2005 X-202.955 Y-25.560 Z-8.727 A126.1914 
N2006 X-202.933 Y-25.605 Z-8.704 A122.8920 
N2007 X-202.912 Y-25.649 Z-8.677 A119.5479 
N2008 X-202.892 Y-25.692 Z-8.647 A116.1624 
N2009 X-202.873 Y-25.735 Z-8.613 A112.7405 
N2010 X-202.855 Y-25.776 Z-8.577 A109.2888 
N2011 X-202.839 Y-25.815 Z-8.537 A105.8157 
N2012 X-202.825 Y-25.853 Z-8.495 A102.3313 
N2013 X-202.813 Y-25.888 Z-8.450 A98.8468 
N2014 X-202.802 Y-25.920 Z-8.404 A95.3744 
N2015 X-202.794 Y-25.950 Z-8.355 A91.9254 
N2016 X-202.788 Y-25.976 Z-8.306 A88.5095 
N2017 X-202.784 Y-26.000 Z-8.256 A85.1333 
N2018 X-202.782 Y-26.020 Z-8.205 A81.8374 
N2019 X-202.783 Y-26.037 Z-8.155 A78.6259 
N2020 X-202.786 Y-26.051 Z-8.105 A75.5025 
N2021 X-202.791 Y-26.062 Z-8.055 A72.4693 
N2022 X-202.797 Y-26.070 Z-8.008 A69.6101 
N2023 X-202.805 Y-26.076 Z-7.963 A66.9296 
N2024 X-202.813 Y-26.078 Z-7.921 A64.4358 
N2025 X-202.822 Y-26.079 Z-7.882 A62.1373 
N2026 X-202.830 Y-26.079 Z-7.846 A60.0397 
N2027 X-202.839 Y-26.077 Z-7.813 A58.1448 
N2028 X-202.847 Y-26.074 Z-7.784 A56.4502 
N2029 X-202.854 Y-26.071 Z-7.758 A54.9480 
N2030 X-202.861 Y-26.067 Z-7.735 A53.6330 
N2031 X-202.866 Y-26.064 Z-7.714 A52.4957 
N2032 X-202.871 Y-26.060 Z-7.697 A51.5349 
N2033 X-202.876 Y-26.056 Z-7.681 A50.6657 
N2034 X-202.880 Y-26.053 Z-7.667 A49.8864 
N2035 X-202.884 Y-26.049 Z-7.655 A49.1924 
N2036 X-202.888 Y-26.046 Z-7.644 A48.5790 
N2037 X-202.891 Y-26.043 Z-7.634 A48.0446 
N2038 X-202.894 Y-26.040 Z-7.625 A47.5473 
N2039 X-202.897 Y-26.038 Z-7.616 A47.0858 
N2040 X-202.900 Y-26.035 Z-7.608 A46.6563 
N2041 X-202.903 Y-26.032 Z-7.601 A46.2566 
N2042 X-202.906 Y-26.030 Z-7.594 A45.8822 
N2043 X-202.908 Y-26.027 Z-7.587 A45.5296 
N2044 X-202.911 Y-26.025 Z-7.581 A45.1957 
N2045 X-202.914 Y-26.023 Z-7.575 A44.8763 
N2046 X-202.916 Y-26.020 Z-7.569 A44.5676 
N2047 X-202.919 Y-26.018 Z-7.563 A44.2663 
N2048 X-202.921 Y-26.015 Z-7.557 A43.9685 
N2049 X-202.924 Y-26.013 Z-7.552 A43.6700 
N2050 X-202.926 Y-26.010 Z-7.546 A43.3664 
N2051 X-202.929 Y-26.007 Z-7.539 A43.0551 
N2052 X-202.931 Y-26.004 Z-7.533 A42.7329 
N2053 X-202.933 Y-26.000 Z-7.525 A42.3961 
N2054 X-202.936 Y-25.995 Z-7.516 A42.0465 
N2055 X-202.938 Y-25.988 Z-7.505 A41.6558 
N2056 X-202.942 Y-25.978 Z-7.490 A41.1314 
N2057 X-202.947 Y-25.964 Z-7.470 A40.5004 
N2058 X-202.951 Y-25.949 Z-7.450 A39.9999 
N2059 X-202.955 Y-25.928 Z-7.426 A39.5970 
N2060 X-202.957 Y-25.901 Z-7.397 A39.3762 
N2061 X-202.960 Y-25.863 Z-7.360 A39.2190 
N2062 X-202.963 Y-25.812 Z-7.309 A39.0841 
N2063 X-202.968 Y-25.742 Z-7.242 A38.9713 
N2064 X-202.975 Y-25.650 Z-7.154 A38.8767 
N2065 X-202.982 Y-25.530 Z-7.038 A38.7951 
N2066 X-202.991 Y-25.375 Z-6.891 A38.7210 
N2067 X-203.002 Y-25.180 Z-6.704 A38.6492 
N2068 X-203.016 Y-24.937 Z-6.472 A38.5747 
N2069 X-203.032 Y-24.640 Z-6.190 A38.4930 
N2070 X-203.052 Y-24.284 Z-5.851 A38.3992 
N2071 X-203.075 Y-23.863 Z-5.451 A38.2884 
N2072 X-203.102 Y-23.376 Z-4.989 A38.1548 
N2073 X-203.134 Y-22.821 Z-4.463 A37.9923 
N2074 X-203.170 Y-22.198 Z-3.875 A37.7942 
N2075 X-203.211 Y-21.511 Z-3.229 A37.5537 
N2076 X-203.257 Y-20.764 Z-2.531 A37.2637 
N2077 X-203.308 Y-19.965 Z-1.790 A36.9169 
N2078 X-203.364 Y-19.123 Z-1.017 A36.5072 
N2079 X-203.425 Y-18.245 Z-0.223 A36.0300 
N2080 X-203.491 Y-17.343 Z0.579 A35.4835 
N2081 X-203.563 Y-16.427 Z1.377 A34.8012 
N2082 X-203.641 Y-15.507 Z2.159 A33.9819 
N2083 X-203.724 Y-14.592 Z2.913 A33.0916 
N2084 X-203.810 Y-13.691 Z3.631 A32.1309 
N2085 X-203.900 Y-12.812 Z4.306 A31.1032 
N2086 X-203.993 Y-11.959 Z4.934 A30.0142 
N2087 X-204.087 Y-11.138 Z5.512 A28.8720 
N2088 X-204.183 Y-10.351 Z6.039 A27.6856 
N2089 X-204.280 Y-9.600 Z6.518 A26.4645 
N2090 X-204.376 Y-8.885 Z6.951 A25.2178 
N2091 X-204.472 Y-8.205 Z7.341 A23.9532 
N2092 X-204.567 Y-7.559 Z7.692 A22.6771 
N2093 X-204.661 Y-6.944 Z8.008 A21.3945 
N2094 X-204.754 Y-6.357 Z8.292 A20.1095 
N2095 X-204.845 Y-5.795 Z8.549 A18.8249 
N2096 X-204.936 Y-5.256 Z8.780 A17.5429 
N2097 X-205.025 Y-4.737 Z8.989 A16.2646 
N2098 X-205.114 Y-4.236 Z9.178 A14.9906 
N2099 X-205.202 Y-3.750 Z9.349 A13.7210 
N2100 X-205.289 Y-3.277 Z9.504 A12.4556 
N2101 X-205.377 Y-2.816 Z9.644 A11.1939 
N2102 X-205.464 Y-2.365 Z9.770 A9.9352 
N2103 X-205.551 Y-1.923 Z9.883 A8.6790 
N2104 X-205.639 Y-1.490 Z9.984 A7.4243 
N2105 X-205.727 Y-1.063 Z10.074 A6.1705 
N2106 X-205.815 Y-0.643 Z10.153 A4.9169 
N2107 X-205.903 Y-0.229 Z10.222 A3.6629 
N2108 X-205.992 Y0.179 Z10.280 A2.4078 
N2109 X-206.081 Y0.583 Z10.329 A1.1510 
N2110 X-206.171 Y0.982 Z10.369 A359.8922 
N2111 X-206.262 Y1.376 Z10.400 A358.6308 
N2112 X-206.354 Y1.767 Z10.421 A357.3665 
N2113 X-206.446 Y2.153 Z10.434 A356.0989 
N2114 X-206.539 Y2.536 Z10.439 A354.8279 
N2115 X-206.632 Y2.915 Z10.435 A353.5531 
N2116 X-206.727 Y3.290 Z10.423 A352.2745 
N2117 X-206.822 Y3.662 Z10.403 A350.9919 
N2118 X-206.918 Y4.031 Z10.374 A349.7051 
N2119 X-207.015 Y4.396 Z10.338 A348.4143 
N2120 X-207.113 Y4.758 Z10.294 A347.1193 
N2121 X-207.211 Y5.117 Z10.242 A345.8204 
N2122 X-207.310 Y5.472 Z10.183 A344.5174 
N2123 X-207.410 Y5.824 Z10.115 A343.2107 
N2124 X-207.511 Y6.173 Z10.041 A341.9004 
N2125 X-207.613 Y6.518 Z9.958 A340.5866 
N2126 X-207.715 Y6.860 Z9.869 A339.2697 
N2127 X-207.818 Y7.199 Z9.772 A337.9500 
N2128 X-207.922 Y7.534 Z9.667 A336.6279 
N2129 X-208.026 Y7.866 Z9.555 A335.3036 
N2130 X-208.132 Y8.194 Z9.436 A333.9777 
N2131 X-208.238 Y8.519 Z9.309 A332.6506 
N2132 X-208.344 Y8.840 Z9.175 A331.3229 
N2133 X-208.451 Y9.158 Z9.034 A329.9950 
N2134 X-208.559 Y9.472 Z8.886 A328.6676 
N2135 X-208.667 Y9.782 Z8.731 A327.3413 
N2136 X-208.776 Y10.088 Z8.569 A326.0167 
N2137 X-208.886 Y10.391 Z8.399 A324.6945 
N2138 X-208.996 Y10.689 Z8.223 A323.3752 
N2139 X-209.106 Y10.982 Z8.040 A322.0596 
N2140 X-209.216 Y11.272 Z7.850 A320.7480 
N2141 X-209.325 Y11.558 Z7.654 A319.4409 
N2142 X-209.433 Y11.840 Z7.450 A318.1389 
N2143 X-209.540 Y12.117 Z7.240 A316.8420 
N2144 X-209.645 Y12.390 Z7.023 A315.5506 
N2145 X-209.749 Y12.659 Z6.800 A314.2646 
N2146 X-209.851 Y12.923 Z6.571 A312.9841 
N2147 X-209.951 Y13.183 Z6.335 A311.7089 
N2148 X-210.050 Y13.437 Z6.093 A310.4392 
N2149 X-210.147 Y13.687 Z5.846 A309.1754 
N2150 X-210.242 Y13.931 Z5.593 A307.9185 
N2151 X-210.336 Y14.169 Z5.334 A306.6701 
N2152 X-210.427 Y14.401 Z5.071 A305.4323 
N2153 X-210.516 Y14.627 Z4.803 A304.2072 
N2154 X-210.602 Y14.847 Z4.531 A302.9968 
N2155 X-210.686 Y15.059 Z4.256 A301.8026 
N2156 X-210.766 Y15.265 Z3.979 A300.6254 
N2157 X-210.845 Y15.462 Z3.700 A299.4646 
N2158 X-210.920 Y15.652 Z3.421 A298.3190 
N2159 X-210.992 Y15.834 Z3.143 A297.1865 
N2160 X-211.061 Y16.008 Z2.867 A296.0650 
N2161 X-211.127 Y16.172 Z2.593 A294.9525 
N2162 X-211.189 Y16.328 Z2.324 A293.8481 
N2163 X-211.248 Y16.473 Z2.060 A292.7517 
N2164 X-211.304 Y16.609 Z1.803 A291.6640 
N2165 X-211.355 Y16.736 Z1.554 A290.5865 
N2166 X-211.403 Y16.852 Z1.313 A289.5208 
N2167 X-211.447 Y16.958 Z1.083 A288.4681 
N2168 X-211.488 Y17.055 Z0.864 A287.4291 
N2169 X-211.525 Y17.143 Z0.657 A286.4048 
N2170 X-211.559 Y17.221 Z0.463 A285.3965 
N2171 X-211.589 Y17.291 Z0.281 A284.4059 
N2172 X-211.616 Y17.354 Z0.113 A283.4329 
N2173 X-211.640 Y17.408 Z-0.041 A282.4739 
N2174 X-211.661 Y17.457 Z-0.182 A281.5217 
N2175 X-211.679 Y17.499 Z-0.310 A280.5687 
N2176 X-211.695 Y17.537 Z-0.426 A279.6082 
N2177 X-211.709 Y17.569 Z-0.530 A278.6334 
N2178 X-211.721 Y17.598 Z-0.624 A277.6363 
N2179 X-211.730 Y17.623 Z-0.708 A276.6080 
N2180 X-211.739 Y17.645 Z-0.783 A275.5396 
N2181 X-211.746 Y17.665 Z-0.851 A274.4247 
N2182 X-211.753 Y17.683 Z-0.912 A273.2608 
N2183 X-211.758 Y17.699 Z-0.968 A272.0496 
N2184 X-211.763 Y17.713 Z-1.019 A270.7961 
N2185 X-211.766 Y17.726 Z-1.066 A269.5075 
N2186 X-211.769 Y17.738 Z-1.110 A268.1919 
N2187 X-211.772 Y17.748 Z-1.151 A266.8568 
N2188 X-211.774 Y17.758 Z-1.190 A265.5086 
N2189 X-211.775 Y17.767 Z-1.228 A264.1515 
N2190 X-211.776 Y17.775 Z-1.264 A262.7882 
N2191 X-211.776 Y17.783 Z-1.299 A261.4203 
N2192 X-211.777 Y17.789 Z-1.333 A260.0481 
N2193 X-211.777 Y17.795 Z-1.367 A258.6714 
N2194 X-211.776 Y17.800 Z-1.400 A257.2897 
N2195 X-211.776 Y17.805 Z-1.433 A255.9027 
N2196 X-211.775 Y17.809 Z-1.465 A254.5100 
N2197 X-211.775 Y17.812 Z-1.498 A253.1116 
N2198 X-211.774 Y17.814 Z-1.530 A251.7082 
N2199 X-211.773 Y17.816 Z-1.563 A250.3004 
N2200 X-211.772 Y17.817 Z-1.595 A248.8894 
N2201 X-211.770 Y17.817 Z-1.627 A247.4766 
N2202 X-211.769 Y17.816 Z-1.659 A246.0635 
N2203 X-211.767 Y17.815 Z-1.691 A244.6521 
N2204 X-211.766 Y17.813 Z-1.722 A243.2439 
N2205 X-211.764 Y17.810 Z-1.754 A241.8410 
N2206 X-211.762 Y17.806 Z-1.785 A240.4448 
N2207 X-211.760 Y17.802 Z-1.815 A239.0574 
N2208 X-211.758 Y17.797 Z-1.846 A237.6801 
N2209 X-211.756 Y17.792 Z-1.876 A236.3145 
N2210 X-211.754 Y17.785 Z-1.905 A234.9619 
N2211 X-211.752 Y17.778 Z-1.934 A233.6235 
N2212 X-211.749 Y17.771 Z-1.963 A232.3004 
N2213 X-211.747 Y17.762 Z-1.991 A230.9933 
N2214 X-211.744 Y17.754 Z-2.019 A229.7030 
N2215 X-211.742 Y17.744 Z-2.046 A228.4300 
N2216 X-211.739 Y17.735 Z-2.073 A227.1744 
N2217 X-211.736 Y17.724 Z-2.099 A225.9366 
N2218 X-211.734 Y17.713 Z-2.125 A224.7165 
N2219 X-211.731 Y17.702 Z-2.150 A223.5137 
N2220 X-211.728 Y17.690 Z-2.174 A222.3279 
N2221 X-211.725 Y17.678 Z-2.199 A221.1585 
N2222 X-211.722 Y17.666 Z-2.222 A220.0048 
N2223 X-211.719 Y17.653 Z-2.246 A218.8657 
N2224 X-211.716 Y17.639 Z-2.269 A217.7403 
N2225 X-211.713 Y17.625 Z-2.291 A216.6273 
N2226 X-211.709 Y17.610 Z-2.314 A215.5253 
N2227 X-211.706 Y17.595 Z-2.335 A214.4326 
N2228 X-211.703 Y17.580 Z-2.357 A213.3475 
N2229 X-211.699 Y17.564 Z-2.379 A212.2679 
N2230 X-211.696 Y17.547 Z-2.400 A211.1918 
N2231 X-211.692 Y17.529 Z-2.422 A210.1167 
N2232 X-211.689 Y17.511 Z-2.443 A209.0405 
N2233 X-211.685 Y17.491 Z-2.465 A207.9609 
N2234 X-211.681 Y17.470 Z-2.486 A206.8764 
N2235 X-211.677 Y17.448 Z-2.508 A205.7849 
N2236 X-211.672 Y17.423 Z-2.531 A204.6863 
N2237 X-211.668 Y17.397 Z-2.554 A203.5810 
N2238 X-211.663 Y17.368 Z-2.577 A202.4703 
N2239 X-211.658 Y17.336 Z-2.602 A201.3575 
N2240 X-211.652 Y17.300 Z-2.627 A200.2463 
N2241 X-211.646 Y17.260 Z-2.654 A199.1414 
N2242 X-211.639 Y17.214 Z-2.681 A198.0471 
N2243 X-211.631 Y17.162 Z-2.710 A196.9662 
N2244 X-211.621 Y17.102 Z-2.741 A195.8987 
N2245 X-211.610 Y17.033 Z-2.773 A194.8419 
N2246 X-211.597 Y16.952 Z-2.808 A193.7900 
N2247 X-211.583 Y16.859 Z-2.846 A192.7367 
N2248 X-211.566 Y16.750 Z-2.886 A191.6774 
N2249 X-211.546 Y16.623 Z-2.930 A190.6109 
N2250 X-211.523 Y16.475 Z-2.976 A189.5378 
N2251 X-211.496 Y16.301 Z-3.026 A188.4581 
N2252 X-211.465 Y16.100 Z-3.078 A187.3706 
N2253 X-211.428 Y15.865 Z-3.133 A186.2759 
N2254 X-211.384 Y15.592 Z-3.190 A185.1783 
N2255 X-211.334 Y15.277 Z-3.248 A184.0828 
N2256 X-211.274 Y14.915 Z-3.306 A182.9926 
N2257 X-211.205 Y14.498 Z-3.364 A181.9091 
N2258 X-211.123 Y14.022 Z-3.419 A180.8334 
N2259 X-211.028 Y13.482 Z-3.470 A179.7673 
N2260 X-210.918 Y12.873 Z-3.514 A178.7122 
N2261 X-210.791 Y12.189 Z-3.551 A177.6684 
N2262 X-210.645 Y11.429 Z-3.577 A176.6360 
N2263 X-210.478 Y10.591 Z-3.588 A175.6177 
N2264 X-210.290 Y9.675 Z-3.582 A174.6203 
N2265 X-210.078 Y8.685 Z-3.556 A173.6528 
N2266 X-209.843 Y7.625 Z-3.508 A172.7578 
N2267 X-209.585 Y6.504 Z-3.439 A172.0189 
N2268 X-209.304 Y5.330 Z-3.350 A171.4520 
N2269 X-209.003 Y4.116 Z-3.246 A171.0715 
N2270 X-208.685 Y2.872 Z-3.132 A170.8795 
N2271 X-208.352 Y1.612 Z-3.012 A170.8672 
N2272 X-208.009 Y0.350 Z-2.893 A171.0303 
N2273 X-207.667 Y-0.904 Z-2.777 A171.3756 
N2274 X-207.332 Y-2.136 Z-2.671 A171.9156 
N2275 X-207.009 Y-3.335 Z-2.579 A172.6581 
N2276 X-206.701 Y-4.493 Z-2.506 A173.5966 
N2277 X-206.411 Y-5.601 Z-2.455 A174.7129 
N2278 X-206.139 Y-6.653 Z-2.428 A175.9881 
N2279 X-205.889 Y-7.647 Z-2.425 A177.3389 
N2280 X-205.658 Y-8.583 Z-2.443 A178.7249 
N2281 X-205.447 Y-9.459 Z-2.483 A180.1408 
N2282 X-205.254 Y-10.280 Z-2.541 A181.5805 
N2283 X-205.078 Y-11.048 Z-2.615 A183.0371 
N2284 X-204.917 Y-11.768 Z-2.703 A184.5037 
N2285 X-204.769 Y-12.446 Z-2.805 A185.9739 
N2286 X-204.634 Y-13.088 Z-2.918 A187.4420 
N2287 X-204.509 Y-13.698 Z-3.043 A188.9031 
N2288 X-204.393 Y-14.283 Z-3.179 A190.3529 
N2289 X-204.284 Y-14.848 Z-3.325 A191.7876 
N2290 X-204.182 Y-15.397 Z-3.483 A193.2036 
N2291 X-204.086 Y-15.933 Z-3.653 A194.5971 
N2292 X-203.995 Y-16.459 Z-3.834 A195.9644 
N2293 X-203.907 Y-16.979 Z-4.028 A197.3016 
N2294 X-203.824 Y-17.492 Z-4.234 A198.6045 
N2295 X-203.744 Y-18.000 Z-4.453 A199.8687 
N2296 X-203.668 Y-18.501 Z-4.683 A201.0895 
N2297 X-203.596 Y-18.995 Z-4.924 A202.2614 
N2298 X-203.527 Y-19.479 Z-5.174 A203.3785 
N2299 X-203.463 Y-19.952 Z-5.431 A204.4350 
N2300 X-203.402 Y-20.409 Z-5.691 A205.4272 
N2301 X-203.345 Y-20.850 Z-5.952 A206.2907 
N2302 X-203.293 Y-21.270 Z-6.210 A207.0262 
N2303 X-203.244 Y-21.667 Z-6.461 A207.6365 
N2304 X-203.200 Y-22.038 Z-6.701 A208.1260 
N2305 X-203.159 Y-22.381 Z-6.927 A208.4992 
N2306 X-203.123 Y-22.693 Z-7.136 A208.8155 
N2307 X-203.090 Y-22.975 Z-7.326 A209.0779 
N2308 X-203.062 Y-23.225 Z-7.495 A209.2903 
N2309 X-203.037 Y-23.443 Z-7.645 A209.4563 
N2310 X-203.015 Y-23.631 Z-7.775 A209.5788 
N2311 X-202.997 Y-23.791 Z-7.885 A209.6597 
N2312 X-202.981 Y-23.925 Z-7.978 A209.6996 
N2313 X-202.968 Y-24.036 Z-8.056 A209.6969 
N2314 X-202.957 Y-24.126 Z-8.119 A209.6484 
N2315 X-202.947 Y-24.198 Z-8.170 A209.5486 
N2316 X-202.939 Y-24.256 Z-8.212 A209.3912 
N2317 X-202.931 Y-24.302 Z-8.246 A209.1086 
N2318 X-202.923 Y-24.339 Z-8.275 A208.6908 
N2319 X-202.916 Y-24.369 Z-8.299 A208.1335 
N2320 X-202.908 Y-24.394 Z-8.320 A207.4425 
N2321 X-202.901 Y-24.415 Z-8.339 A206.6918 
N2322 X-202.894 Y-24.433 Z-8.356 A205.8954 
N2323 X-202.886 Y-24.448 Z-8.370 A205.0725 
N2324 X-202.878 Y-24.462 Z-8.384 A204.2401 
N2325 X-202.870 Y-24.474 Z-8.396 A203.4114 
N2326 X-202.862 Y-24.485 Z-8.407 A202.5942 
N2327 X-202.854 Y-24.495 Z-8.418 A201.7963 
N2328 X-202.846 Y-24.505 Z-8.428 A201.0221 
N2329 X-202.838 Y-24.514 Z-8.437 A200.2759 
N2330 X-202.831 Y-24.523 Z-8.446 A199.5577 
N2331 X-202.823 Y-24.531 Z-8.454 A198.8741 
N2332 X-202.817 Y-24.539 Z-8.461 A198.2220 
N2333 X-202.810 Y-24.546 Z-8.468 A197.5994 
N2334 X-202.804 Y-24.553 Z-8.475 A197.0093 
N2335 X-202.798 Y-24.559 Z-8.481 A196.4600 
N2336 X-202.792 Y-24.565 Z-8.486 A195.9426 
N2337 X-202.787 Y-24.571 Z-8.491 A195.4504 
N2338 X-202.782 Y-24.576 Z-8.496 A194.9803 
N2339 X-202.777 Y-24.581 Z-8.501 A194.5317 
N2340 X-202.772 Y-24.587 Z-8.505 A194.1071 
N2341 X-202.768 Y-24.591 Z-8.509 A193.7117 
N2342 X-202.764 Y-24.595 Z-8.512 A193.3496 
N2343 X-202.760 Y-24.599 Z-8.516 A193.0121 
N2344 X-202.757 Y-24.602 Z-8.519 A192.6924 
N2345 X-202.753 Y-24.606 Z-8.522 A192.3859 
N2346 X-202.750 Y-24.609 Z-8.524 A192.0887 
N2347 X-202.747 Y-24.613 Z-8.527 A191.7983 
N2348 X-202.744 Y-24.616 Z-8.530 A191.5127 
N2349 X-202.741 Y-24.619 Z-8.532 A191.2309 
N2350 X-202.737 Y-24.622 Z-8.535 A190.9520 
N2351 X-202.734 Y-24.626 Z-8.537 A190.6759 
N2352 X-202.731 Y-24.629 Z-8.540 A190.4028 
N2353 X-202.728 Y-24.632 Z-8.542 A190.1334 
N2354 X-202.725 Y-24.635 Z-8.545 A189.8687 
N2355 X-202.722 Y-24.638 Z-8.547 A189.6106 
N2356 X-202.720 Y-24.641 Z-8.549 A189.3611 
