; PROGRAM NAME: C99999985
; ORDER       : C999999
; OPER. NAME  : Side Milling:101
; OPER. DESCR.: FEEEND : POMA D1
; OPER. TYPE  : sideMill
; GEO. OPTION : 1
; MACHINE     : HSTM_500M_SIM840D_Py
;             : HSTM500 Morelia- HAMUEL: 5-axis milling machine-SIM840D Traori PP_Script
; CONTROL     : SINUMERIK 840D
; created:   2022-11-16 10:57:18.689768
;----------------------------------------
;-------DODATKOWE DANE-------------------
; PROGRAMISTA : Mariusz Malec
; PARTID      : 301T002159P1002_-
;  ap         : 5.0
;  ae         : 5.0
;  lean_angle : 0.0
;  fin_offset : 0.0
;----------------------------------------
;RAPORT("TC999999","Side Milling:101")
N10 TRAFOOF
N11 D0
N12 G90 G94
N13 G0 G53 D0 Z550
N14 STOPRE
M9 ; chlodziwo wyl
; --- Side Milling:101 - FEEEND : POMA D1 ---
N16 ;ToolChange : concat=None ,current_tdmid=None, PP.tdmId=940983
N17 TRAFOOF
N18 G0 G53 D0 X-200 Y150 Z550 B0
N19 T="7740983"
;RAPORT("TC999999","ToolChangeStart 7740983")
N20 M6
;RAPORT("TC999999","ToolChangeEnd")
N21 STOPRE
N22 MSG(" TLID=940983 D=10.0 R=0.0 Ang=0.0 Len=116.0 ")
N23 S5411 M03
N24 STOPRE
N25 TOL(0.1,1,1)
N26 G0 G53 A324.0000 B-1.0832
N27 TRAORI
N28 G54 D1
N29 D1 
N30 TRANS  X=R20
N31 X-201.481 Y106.155 Z6.608 A324.0000 B-1.0832 
N32 M342 ; chlodziwo woda
N33 X-200.535 Y76.771 Z-33.836 
N34 D1 
N35 G01 G41 X-200.535 Y68.681 Z-27.958 F670
N36 G01 X-200.535 Y68.681 Z-27.958 F670 
N37 X-200.535 Y68.277 Z-27.664 
N38 X-200.535 Y68.007 Z-27.468 
N39 X-200.535 Y67.737 Z-27.272 
N40 X-200.535 Y67.468 Z-27.076 
N41 X-200.535 Y67.198 Z-26.880 
N42 X-200.535 Y66.928 Z-26.684 
N43 X-200.535 Y66.659 Z-26.488 
N44 X-200.535 Y66.389 Z-26.292 
N45 X-200.535 Y66.119 Z-26.097 
N46 X-200.535 Y65.849 Z-25.901 
N47 X-200.535 Y65.580 Z-25.705 
N48 X-200.535 Y65.310 Z-25.509 
N49 X-200.535 Y65.040 Z-25.313 
N50 X-200.535 Y64.771 Z-25.117 
N51 X-200.535 Y64.501 Z-24.921 
N52 X-200.535 Y64.231 Z-24.725 
N53 X-200.535 Y63.960 Z-24.528 
N54 X-200.535 Y63.689 Z-24.331 
N55 X-200.535 Y63.418 Z-24.134 
N56 X-200.535 Y63.147 Z-23.937 
N57 X-200.535 Y62.876 Z-23.740 
N58 X-200.535 Y62.605 Z-23.543 
N59 X-200.535 Y62.333 Z-23.346 
N60 X-200.535 Y62.062 Z-23.149 
N61 X-200.535 Y61.791 Z-22.952 
N62 X-200.535 Y61.520 Z-22.755 
N63 X-200.535 Y61.249 Z-22.558 
N64 X-200.535 Y60.978 Z-22.361 
N65 X-200.535 Y60.706 Z-22.164 
N66 X-200.535 Y60.435 Z-21.967 
N67 X-200.535 Y60.164 Z-21.770 
N68 X-200.535 Y59.893 Z-21.573 
N69 X-200.535 Y59.622 Z-21.376 
N70 X-200.535 Y59.351 Z-21.179 
N71 X-200.535 Y59.079 Z-20.982 
N72 X-200.535 Y58.808 Z-20.785 
N73 X-200.535 Y58.537 Z-20.588 
N74 X-200.535 Y58.266 Z-20.391 
N75 X-200.535 Y57.995 Z-20.194 
N76 X-200.535 Y57.724 Z-19.997 
N77 X-200.535 Y57.453 Z-19.800 
N78 X-200.535 Y57.181 Z-19.603 
N79 X-200.535 Y56.910 Z-19.406 
N80 X-200.535 Y56.639 Z-19.209 
N81 X-200.535 Y56.368 Z-19.012 
N82 X-200.535 Y56.097 Z-18.815 
N83 X-200.535 Y55.826 Z-18.618 
N84 X-200.535 Y55.554 Z-18.421 
N85 X-200.535 Y55.283 Z-18.224 
N86 X-200.535 Y55.012 Z-18.027 
N87 X-200.535 Y54.741 Z-17.830 
N88 X-200.535 Y54.470 Z-17.633 
N89 X-200.535 Y54.199 Z-17.436 
N90 X-200.535 Y53.928 Z-17.239 
N91 X-200.535 Y53.656 Z-17.042 
N92 X-200.535 Y53.385 Z-16.845 
N93 X-200.535 Y53.114 Z-16.648 
N94 X-200.535 Y52.843 Z-16.451 
N95 X-200.535 Y52.572 Z-16.254 
N96 X-200.535 Y52.301 Z-16.057 
N97 X-200.535 Y52.029 Z-15.860 
N98 X-200.535 Y51.758 Z-15.663 
N99 X-200.535 Y51.487 Z-15.466 
N100 X-200.535 Y51.216 Z-15.269 
N101 X-200.535 Y50.945 Z-15.072 
N102 X-200.535 Y50.674 Z-14.875 
N103 X-200.535 Y50.402 Z-14.678 
N104 X-200.535 Y50.131 Z-14.481 
N105 X-200.535 Y49.860 Z-14.284 
N106 X-200.535 Y49.589 Z-14.087 
N107 X-200.535 Y49.318 Z-13.890 
N108 X-200.535 Y49.047 Z-13.693 
N109 X-200.535 Y48.776 Z-13.496 
N110 X-200.535 Y48.504 Z-13.299 
N111 X-200.535 Y48.233 Z-13.102 
N112 X-200.535 Y47.962 Z-12.905 
N113 X-200.535 Y47.691 Z-12.708 
N114 X-200.535 Y47.420 Z-12.511 
N115 X-200.535 Y47.149 Z-12.314 
N116 X-200.535 Y46.877 Z-12.117 
N117 X-200.535 Y46.606 Z-11.920 
N118 X-200.535 Y46.335 Z-11.723 
N119 X-200.535 Y46.064 Z-11.526 
N120 X-200.535 Y45.793 Z-11.329 
N121 X-200.535 Y45.522 Z-11.132 
N122 X-200.535 Y45.251 Z-10.935 
N123 X-200.535 Y44.979 Z-10.738 
N124 X-200.535 Y44.708 Z-10.541 
N125 X-200.535 Y44.437 Z-10.344 
N126 X-200.535 Y44.166 Z-10.147 
N127 X-200.535 Y43.895 Z-9.950 
N128 X-200.535 Y43.624 Z-9.753 
N129 X-200.535 Y43.352 Z-9.556 
N130 X-200.535 Y43.081 Z-9.359 
N131 X-200.535 Y42.810 Z-9.162 
N132 X-200.535 Y42.539 Z-8.965 
N133 X-200.535 Y42.268 Z-8.768 
N134 X-200.535 Y41.997 Z-8.571 
N135 X-200.535 Y41.725 Z-8.374 
N136 X-200.535 Y41.454 Z-8.177 
N137 X-200.535 Y41.183 Z-7.979 
N138 X-200.535 Y40.912 Z-7.782 
N139 X-200.535 Y40.641 Z-7.585 
N140 X-200.535 Y40.370 Z-7.388 
N141 X-200.535 Y40.099 Z-7.191 
N142 X-200.535 Y39.827 Z-6.994 
N143 X-200.535 Y39.556 Z-6.797 
N144 X-200.535 Y39.285 Z-6.600 
N145 X-200.535 Y39.014 Z-6.403 
N146 X-200.535 Y38.743 Z-6.206 
N147 X-200.535 Y38.472 Z-6.009 
N148 X-200.535 Y38.200 Z-5.812 
N149 X-200.535 Y37.929 Z-5.615 
N150 X-200.535 Y37.658 Z-5.418 
N151 X-200.535 Y37.387 Z-5.221 
N152 X-200.535 Y37.116 Z-5.024 
N153 X-200.535 Y36.845 Z-4.827 
N154 X-200.535 Y36.574 Z-4.630 
N155 X-200.535 Y36.302 Z-4.433 
N156 X-200.535 Y36.031 Z-4.236 
N157 X-200.535 Y35.760 Z-4.039 
N158 X-200.535 Y35.489 Z-3.842 
N159 X-200.535 Y35.218 Z-3.645 
N160 X-200.535 Y34.947 Z-3.448 
N161 X-200.535 Y34.675 Z-3.251 
N162 X-200.535 Y34.404 Z-3.054 
N163 X-200.535 Y34.133 Z-2.857 
N164 X-200.535 Y33.862 Z-2.660 
N165 X-200.535 Y33.591 Z-2.463 
N166 X-200.535 Y33.320 Z-2.266 
N167 X-200.535 Y33.048 Z-2.069 
N168 X-200.535 Y32.777 Z-1.872 
N169 X-200.535 Y32.506 Z-1.675 
N170 X-200.535 Y32.235 Z-1.478 
N171 X-200.535 Y31.964 Z-1.281 
N172 X-200.535 Y31.693 Z-1.084 
N173 X-200.534 Y31.422 Z-0.887 
N174 X-200.517 Y31.151 Z-0.690 
N175 X-200.473 Y30.883 Z-0.494 
N176 X-200.402 Y30.619 Z-0.301 
N177 X-200.305 Y30.360 Z-0.111 
N178 X-200.183 Y30.109 Z0.074 
N179 X-200.036 Y29.867 Z0.254 
N180 X-199.866 Y29.635 Z0.426 
N181 X-199.674 Y29.416 Z0.590 
N182 X-199.460 Y29.209 Z0.745 
N183 X-199.227 Y29.017 Z0.890 
N184 X-198.975 Y28.842 Z1.024 
N185 X-198.706 Y28.683 Z1.145 
N186 X-198.422 Y28.542 Z1.254 
N187 X-198.125 Y28.420 Z1.350 
N188 X-197.816 Y28.318 Z1.431 
N189 X-197.498 Y28.236 Z1.498 
N190 X-197.173 Y28.175 Z1.550 
N191 X-196.842 Y28.136 Z1.586 
N192 X-196.508 Y28.117 Z1.608 
N193 X-196.173 Y28.118 Z1.615 
N194 X-195.838 Y28.122 Z1.620 
N195 X-195.503 Y28.126 Z1.625 
N196 X-195.168 Y28.129 Z1.630 
N197 X-194.833 Y28.133 Z1.635 
N198 X-194.498 Y28.137 Z1.640 
N199 X-194.163 Y28.140 Z1.646 
N200 X-193.828 Y28.144 Z1.651 
N201 X-193.492 Y28.148 Z1.656 
N202 X-193.157 Y28.152 Z1.661 
N203 X-192.822 Y28.155 Z1.666 
N204 X-192.487 Y28.159 Z1.671 
N205 X-192.152 Y28.163 Z1.676 
N206 X-191.817 Y28.167 Z1.681 
N207 X-191.482 Y28.170 Z1.687 
N208 X-191.147 Y28.174 Z1.692 
N209 X-190.812 Y28.178 Z1.697 
N210 X-190.476 Y28.181 Z1.702 
N211 X-190.141 Y28.185 Z1.707 
N212 X-189.806 Y28.189 Z1.712 
N213 X-189.471 Y28.193 Z1.717 
N214 X-189.136 Y28.196 Z1.722 
N215 X-188.801 Y28.200 Z1.728 
N216 X-188.466 Y28.204 Z1.733 
N217 X-188.131 Y28.208 Z1.738 
N218 X-187.796 Y28.211 Z1.743 
N219 X-187.460 Y28.215 Z1.748 
N220 X-187.125 Y28.219 Z1.753 
N221 X-186.790 Y28.222 Z1.758 
N222 X-186.455 Y28.226 Z1.763 
N223 X-186.120 Y28.230 Z1.769 
N224 X-185.785 Y28.234 Z1.774 
N225 X-185.450 Y28.237 Z1.779 
N226 X-185.115 Y28.241 Z1.784 
N227 X-184.780 Y28.245 Z1.789 
N228 X-184.445 Y28.248 Z1.794 
N229 X-184.109 Y28.252 Z1.799 
N230 X-183.774 Y28.256 Z1.804 
N231 X-183.439 Y28.260 Z1.810 
N232 X-183.104 Y28.263 Z1.815 
N233 X-182.769 Y28.267 Z1.820 
N234 X-182.434 Y28.271 Z1.825 
N235 X-182.099 Y28.275 Z1.830 
N236 X-181.764 Y28.278 Z1.835 
N237 X-181.429 Y28.282 Z1.840 
N238 X-181.093 Y28.286 Z1.845 
N239 X-180.758 Y28.289 Z1.851 
N240 X-180.423 Y28.293 Z1.856 
N241 X-180.088 Y28.297 Z1.861 
N242 X-179.753 Y28.301 Z1.866 
N243 X-179.418 Y28.304 Z1.871 
N244 X-179.083 Y28.308 Z1.876 
N245 X-178.748 Y28.312 Z1.881 
N246 X-178.413 Y28.316 Z1.886 
N247 X-178.077 Y28.319 Z1.892 
N248 X-177.742 Y28.323 Z1.897 
N249 X-177.407 Y28.327 Z1.902 
N250 X-177.072 Y28.330 Z1.907 
N251 X-176.737 Y28.334 Z1.912 
N252 X-176.402 Y28.338 Z1.917 
N253 X-176.067 Y28.342 Z1.922 
N254 X-175.732 Y28.345 Z1.927 
N255 X-175.397 Y28.349 Z1.933 
N256 X-175.062 Y28.353 Z1.938 
N257 X-174.726 Y28.356 Z1.943 
N258 X-174.391 Y28.360 Z1.948 
N259 X-174.056 Y28.364 Z1.953 
N260 X-173.721 Y28.368 Z1.958 
N261 X-173.386 Y28.371 Z1.963 
N262 X-173.051 Y28.375 Z1.968 
N263 X-172.716 Y28.379 Z1.974 
N264 X-172.381 Y28.383 Z1.979 
N265 X-172.046 Y28.386 Z1.984 
N266 X-171.710 Y28.390 Z1.989 
N267 X-171.375 Y28.394 Z1.994 
N268 X-171.040 Y28.397 Z1.999 
N269 X-170.705 Y28.401 Z2.004 
N270 X-170.370 Y28.405 Z2.009 
N271 X-170.035 Y28.409 Z2.015 
N272 X-169.700 Y28.412 Z2.020 
N273 X-169.365 Y28.416 Z2.025 
N274 X-169.030 Y28.420 Z2.030 
N275 X-168.694 Y28.424 Z2.035 
N276 X-168.359 Y28.427 Z2.040 
N277 X-168.024 Y28.431 Z2.045 
N278 X-167.689 Y28.435 Z2.050 
N279 X-167.354 Y28.438 Z2.056 
N280 X-167.019 Y28.442 Z2.061 
N281 X-166.684 Y28.446 Z2.066 
N282 X-166.349 Y28.450 Z2.071 
N283 X-166.014 Y28.453 Z2.076 
N284 X-165.678 Y28.457 Z2.081 
N285 X-165.343 Y28.461 Z2.086 
N286 X-165.008 Y28.464 Z2.091 
N287 X-164.673 Y28.468 Z2.097 
N288 X-164.338 Y28.472 Z2.102 
N289 X-164.003 Y28.476 Z2.107 
N290 X-163.668 Y28.479 Z2.112 
N291 X-163.333 Y28.483 Z2.117 
N292 X-162.998 Y28.487 Z2.122 
N293 X-162.663 Y28.491 Z2.127 
N294 X-162.327 Y28.494 Z2.132 
N295 X-161.992 Y28.498 Z2.138 
N296 X-161.657 Y28.502 Z2.143 
N297 X-161.322 Y28.505 Z2.148 
N298 X-160.987 Y28.509 Z2.153 
N299 X-160.652 Y28.513 Z2.158 
N300 X-160.317 Y28.517 Z2.163 
N301 X-159.982 Y28.520 Z2.168 
N302 X-159.647 Y28.524 Z2.173 
N303 X-159.311 Y28.528 Z2.179 
N304 X-158.976 Y28.532 Z2.184 
N305 X-158.641 Y28.535 Z2.189 
N306 X-158.306 Y28.539 Z2.194 
N307 X-157.971 Y28.543 Z2.199 
N308 X-157.636 Y28.546 Z2.204 
N309 X-157.301 Y28.550 Z2.209 
N310 X-156.966 Y28.554 Z2.214 
N311 X-156.631 Y28.558 Z2.220 
N312 X-156.295 Y28.561 Z2.225 
N313 X-155.960 Y28.565 Z2.230 
N314 X-155.625 Y28.569 Z2.235 
N315 X-155.290 Y28.572 Z2.240 
N316 X-154.955 Y28.576 Z2.245 
N317 X-154.620 Y28.580 Z2.250 
N318 X-154.285 Y28.584 Z2.256 
N319 X-153.950 Y28.587 Z2.261 
N320 X-153.615 Y28.591 Z2.266 
N321 X-153.279 Y28.595 Z2.271 
N322 X-152.944 Y28.599 Z2.276 
N323 X-152.609 Y28.602 Z2.281 
N324 X-152.274 Y28.606 Z2.286 
N325 X-151.939 Y28.610 Z2.291 
N326 X-151.604 Y28.613 Z2.297 
N327 X-151.269 Y28.617 Z2.302 
N328 X-150.934 Y28.621 Z2.307 
N329 X-150.599 Y28.625 Z2.312 
N330 X-150.264 Y28.628 Z2.317 
N331 X-149.928 Y28.632 Z2.322 
N332 X-149.593 Y28.636 Z2.327 
N333 X-149.258 Y28.640 Z2.332 
N334 X-148.923 Y28.643 Z2.338 
N335 X-148.588 Y28.647 Z2.343 
N336 X-148.253 Y28.651 Z2.348 
N337 X-147.918 Y28.654 Z2.353 
N338 X-147.583 Y28.658 Z2.358 
N339 X-147.248 Y28.662 Z2.363 
N340 X-146.912 Y28.666 Z2.368 
N341 X-146.577 Y28.669 Z2.373 
N342 X-146.242 Y28.673 Z2.379 
N343 X-145.907 Y28.677 Z2.384 
N344 X-145.572 Y28.680 Z2.389 
N345 X-145.237 Y28.684 Z2.394 
N346 X-144.902 Y28.688 Z2.399 
N347 X-144.567 Y28.692 Z2.404 
N348 X-144.232 Y28.695 Z2.409 
N349 X-143.896 Y28.699 Z2.414 
N350 X-143.561 Y28.703 Z2.420 
N351 X-143.226 Y28.707 Z2.425 
N352 X-142.891 Y28.710 Z2.430 
N353 X-142.556 Y28.714 Z2.435 
N354 X-142.221 Y28.718 Z2.440 
N355 X-141.886 Y28.721 Z2.445 
N356 X-141.551 Y28.725 Z2.450 
N357 X-141.216 Y28.729 Z2.455 
N358 X-140.881 Y28.733 Z2.461 
N359 X-140.545 Y28.736 Z2.466 
N360 X-140.210 Y28.740 Z2.471 
N361 X-139.875 Y28.744 Z2.476 
N362 X-139.540 Y28.748 Z2.481 
N363 X-139.205 Y28.751 Z2.486 
N364 X-138.870 Y28.755 Z2.491 
N365 X-138.535 Y28.759 Z2.497 
N366 X-138.200 Y28.762 Z2.502 
N367 X-137.865 Y28.774 Z2.501 
N368 X-137.532 Y28.807 Z2.485 
N369 X-137.203 Y28.862 Z2.453 
N370 X-136.880 Y28.937 Z2.406 
N371 X-136.565 Y29.033 Z2.343 
N372 X-136.260 Y29.149 Z2.266 
N373 X-135.967 Y29.284 Z2.175 
N374 X-135.688 Y29.437 Z2.070 
N375 X-135.425 Y29.607 Z1.952 
N376 X-135.179 Y29.794 Z1.822 
N377 X-134.952 Y29.996 Z1.681 
N378 X-134.745 Y30.212 Z1.529 
N379 X-134.561 Y30.440 Z1.368 
N380 X-134.399 Y30.679 Z1.198 
N381 X-134.261 Y30.928 Z1.020 
N382 X-134.147 Y31.184 Z0.837 
N383 X-134.059 Y31.447 Z0.648 
N384 X-133.998 Y31.714 Z0.455 
N385 X-133.962 Y31.984 Z0.260 
N386 X-133.953 Y32.255 Z0.063 
N387 X-133.953 Y32.526 Z-0.134 
N388 X-133.953 Y32.797 Z-0.331 
N389 X-133.953 Y33.068 Z-0.528 
N390 X-133.953 Y33.339 Z-0.725 
N391 X-133.953 Y33.611 Z-0.922 
N392 X-133.953 Y33.882 Z-1.119 
N393 X-133.953 Y34.153 Z-1.316 
N394 X-133.953 Y34.424 Z-1.513 
N395 X-133.953 Y34.695 Z-1.710 
N396 X-133.953 Y34.966 Z-1.907 
N397 X-133.953 Y35.238 Z-2.104 
N398 X-133.953 Y35.509 Z-2.301 
N399 X-133.953 Y35.780 Z-2.498 
N400 X-133.953 Y36.051 Z-2.695 
N401 X-133.953 Y36.322 Z-2.892 
N402 X-133.953 Y36.593 Z-3.089 
N403 X-133.953 Y36.864 Z-3.286 
N404 X-133.953 Y37.136 Z-3.483 
N405 X-133.953 Y37.407 Z-3.680 
N406 X-133.953 Y37.678 Z-3.877 
N407 X-133.953 Y37.949 Z-4.074 
N408 X-133.953 Y38.220 Z-4.271 
N409 X-133.953 Y38.491 Z-4.468 
N410 X-133.953 Y38.763 Z-4.665 
N411 X-133.953 Y39.034 Z-4.862 
N412 X-133.953 Y39.305 Z-5.059 
N413 X-133.953 Y39.576 Z-5.256 
N414 X-133.953 Y39.847 Z-5.453 
N415 X-133.953 Y40.118 Z-5.650 
N416 X-133.953 Y40.390 Z-5.847 
N417 X-133.953 Y40.661 Z-6.044 
N418 X-133.953 Y40.932 Z-6.241 
N419 X-133.953 Y41.203 Z-6.438 
N420 X-133.953 Y41.474 Z-6.635 
N421 X-133.953 Y41.745 Z-6.832 
N422 X-133.953 Y42.016 Z-7.029 
N423 X-133.953 Y42.288 Z-7.226 
N424 X-133.953 Y42.559 Z-7.423 
N425 X-133.953 Y42.830 Z-7.620 
N426 X-133.953 Y43.101 Z-7.817 
N427 X-133.953 Y43.372 Z-8.014 
N428 X-133.953 Y43.643 Z-8.211 
N429 X-133.953 Y43.915 Z-8.408 
N430 X-133.953 Y44.186 Z-8.605 
N431 X-133.953 Y44.457 Z-8.802 
N432 X-133.953 Y44.728 Z-8.999 
N433 X-133.953 Y44.999 Z-9.196 
N434 X-133.953 Y45.270 Z-9.393 
N435 X-133.953 Y45.541 Z-9.590 
N436 X-133.953 Y45.813 Z-9.787 
N437 X-133.953 Y46.084 Z-9.984 
N438 X-133.953 Y46.355 Z-10.181 
N439 X-133.953 Y46.626 Z-10.378 
N440 X-133.953 Y46.897 Z-10.575 
N441 X-133.953 Y47.168 Z-10.772 
N442 X-133.953 Y47.440 Z-10.969 
N443 X-133.953 Y47.711 Z-11.166 
N444 X-133.953 Y47.982 Z-11.363 
N445 X-133.953 Y48.252 Z-11.559 
N446 X-133.953 Y48.521 Z-11.755 
N447 X-133.953 Y48.791 Z-11.951 
N448 X-133.953 Y49.061 Z-12.147 
N449 X-133.953 Y49.330 Z-12.343 
N450 X-133.953 Y49.600 Z-12.539 
N451 X-133.953 Y49.870 Z-12.734 
N452 X-133.953 Y50.139 Z-12.930 
N453 X-133.953 Y50.409 Z-13.126 
N454 X-133.953 Y50.679 Z-13.322 
N455 X-133.953 Y50.948 Z-13.518 
N456 X-133.953 Y51.218 Z-13.714 
N457 X-133.953 Y51.488 Z-13.910 
N458 X-133.953 Y51.757 Z-14.106 
N459 X-133.953 Y52.027 Z-14.302 
N460 G40 X-133.953 Y60.117 Z-20.180 F670
N461 X-133.953 Y60.117 Z-20.180 
N462 G00 X-134.898 Y89.501 Z20.264 
;RAPORT("TC999999","Side Milling:101 End")
;trailer : concat=None
; points cnt = 425
N464 MSG (" --- GROUPED OF SUBPROGRAM --- ")
N465 FGROUP()
N466 TRAFOOF
