; PROGRAM NAME: C99999934
; ORDER       : C999999
; OPER. NAME  : Spiral Finish Airfoil:139
; OPER. DESCR.: Spiral Finishing Airfoil/pioro wk
; OPER. TYPE  : finAirfoil
; GEO. OPTION : 5
; MACHINE     : HSTM_500M_SIM840D_Py
;             : HSTM500 Morelia- HAMUEL: 5-axis milling machine-SIM840D Traori PP_Script
; CONTROL     : SINUMERIK 840D
; created:   2022-11-16 12:02:21.307384
;----------------------------------------
;-------DODATKOWE DANE-------------------
; PROGRAMISTA : Mariusz Malec
; PARTID      : 301T002159P1002_-
;  ae         : 1.5
;  lean_angle : 20.0
;  airf_offset: 0.05
;----------------------------------------
;RAPORT("TC999999","Spiral Finish Airfoil:139")
N10 TRAFOOF
N11 D0
N12 G90 G94
N13 G0 G53 D0 Z550
N14 STOPRE
M9 ; chlodziwo wyl
; --- Spiral Finish Airfoil:139 - Spiral Finishing Airfoil/pioro wk ---
N16 ;ToolChange : concat=None ,current_tdmid=None, PP.tdmId=941084
N17 TRAFOOF
N18 G0 G53 D0 X-200 Y150 Z550 B0
N19 T="7741084"
;RAPORT("TC999999","ToolChangeStart 7741084")
N20 M6
;RAPORT("TC999999","ToolChangeEnd")
N21 STOPRE
N22 MSG(" TLID=941084 D=12.0 R=3.0 Ang=0.0 Len=130.0 ")
N23 S7427 M03
N24 STOPRE
N25 TOL(0.01,1,1)
N26 G0 G53 A21.9471 B0.9358
N27 TRAORI
N28 G54 D1
N29 D1 
N30 TRANS  A=R25
STOPRE
E_ZDARZ=300001
;ACS_FINISH_AIRFOIL=7741084
STOPRE
N31 X-310.628 Y-62.750 Z39.261 A21.9471 B0.9358 
N32 M342 ; chlodziwo woda
N33 X-311.445 Y-44.065 Z-7.110 
N34 G01 X-311.540 Y-41.636 Z-9.080 F2079 
N35 X-311.650 Y-38.718 Z-10.203 
N36 X-311.765 Y-35.596 Z-10.369 
N37 X-311.873 Y-32.575 Z-9.561 
N38 X-311.965 Y-29.952 Z-7.858 
N39 X-311.953 Y-29.910 Z-7.750 A20.9378 B1.0166 
N40 X-311.950 Y-29.860 Z-7.680 A20.5067 B1.0485 
N41 X-311.950 Y-29.801 Z-7.623 A20.3637 B1.0570 
N42 X-311.952 Y-29.730 Z-7.560 A20.2896 B1.0592 
N43 X-311.954 Y-29.645 Z-7.487 A20.2343 B1.0622 
N44 X-311.958 Y-29.543 Z-7.402 A20.1947 B1.0626 
N45 X-311.962 Y-29.424 Z-7.302 A20.1668 B1.0618 
N46 X-311.968 Y-29.286 Z-7.187 A20.1470 B1.0605 
N47 X-311.974 Y-29.128 Z-7.056 A20.1327 B1.0574 
N48 X-311.981 Y-28.949 Z-6.907 A20.1219 B1.0537 
N49 X-311.989 Y-28.750 Z-6.742 A20.1133 B1.0497 
N50 X-311.997 Y-28.530 Z-6.558 A20.1058 B1.0442 
N51 X-312.006 Y-28.289 Z-6.358 A20.0987 B1.0391 
N52 X-312.016 Y-28.030 Z-6.142 A20.0914 B1.0333 
N53 X-312.027 Y-27.752 Z-5.910 A20.0832 B1.0268 
N54 X-312.039 Y-27.458 Z-5.664 A20.0737 B1.0207 
N55 X-312.051 Y-27.149 Z-5.406 A20.0623 B1.0143 
N56 X-312.063 Y-26.827 Z-5.137 A20.0483 B1.0077 
N57 X-312.076 Y-26.495 Z-4.859 A20.0313 B1.0012 
N58 X-312.089 Y-26.153 Z-4.572 A20.0105 B0.9955 
N59 X-312.102 Y-25.803 Z-4.279 A19.9852 B0.9895 
N60 X-312.116 Y-25.448 Z-3.981 A19.9548 B0.9842 
N61 X-312.129 Y-25.088 Z-3.680 A19.9186 B0.9798 
N62 X-312.143 Y-24.725 Z-3.375 A19.8761 B0.9758 
N63 X-312.157 Y-24.359 Z-3.068 A19.8265 B0.9728 
N64 X-312.170 Y-23.993 Z-2.761 A19.7691 B0.9707 
N65 X-312.184 Y-23.625 Z-2.453 A19.7030 B0.9696 
N66 X-312.197 Y-23.258 Z-2.144 A19.6273 B0.9697 
N67 X-312.211 Y-22.892 Z-1.837 A19.5406 B0.9710 
N68 X-312.224 Y-22.526 Z-1.530 A19.4417 B0.9738 
N69 X-312.237 Y-22.161 Z-1.224 A19.3291 B0.9780 
N70 X-312.250 Y-21.797 Z-0.919 A19.2016 B0.9838 
N71 X-312.262 Y-21.435 Z-0.615 A19.0581 B0.9913 
N72 X-312.275 Y-21.074 Z-0.313 A18.8978 B1.0006 
N73 X-312.287 Y-20.715 Z-0.012 A18.7201 B1.0116 
N74 X-312.299 Y-20.357 Z0.286 A18.5247 B1.0245 
N75 X-312.311 Y-20.000 Z0.583 A18.3115 B1.0391 
N76 X-312.323 Y-19.645 Z0.878 A18.0805 B1.0556 
N77 X-312.334 Y-19.290 Z1.170 A17.8320 B1.0739 
N78 X-312.346 Y-18.938 Z1.460 A17.5664 B1.0940 
N79 X-312.357 Y-18.586 Z1.748 A17.2840 B1.1158 
N80 X-312.368 Y-18.235 Z2.033 A16.9854 B1.1392 
N81 X-312.379 Y-17.885 Z2.315 A16.6712 B1.1644 
N82 X-312.390 Y-17.536 Z2.595 A16.3418 B1.1912 
N83 X-312.401 Y-17.187 Z2.872 A15.9979 B1.2195 
N84 X-312.412 Y-16.840 Z3.146 A15.6399 B1.2495 
N85 X-312.423 Y-16.492 Z3.417 A15.2685 B1.2812 
N86 X-312.434 Y-16.146 Z3.685 A14.8839 B1.3144 
N87 X-312.445 Y-15.799 Z3.950 A14.4866 B1.3492 
N88 X-312.456 Y-15.453 Z4.212 A14.0770 B1.3858 
N89 X-312.467 Y-15.107 Z4.471 A13.6554 B1.4240 
N90 X-312.478 Y-14.760 Z4.727 A13.2219 B1.4640 
N91 X-312.489 Y-14.414 Z4.980 A12.7771 B1.5057 
N92 X-312.501 Y-14.068 Z5.229 A12.3211 B1.5493 
N93 X-312.512 Y-13.722 Z5.475 A11.8544 B1.5948 
N94 X-312.523 Y-13.375 Z5.718 A11.3773 B1.6422 
N95 X-312.534 Y-13.029 Z5.958 A10.8902 B1.6915 
N96 X-312.546 Y-12.682 Z6.194 A10.3934 B1.7428 
N97 X-312.557 Y-12.334 Z6.426 A9.8874 B1.7961 
N98 X-312.569 Y-11.986 Z6.655 A9.3724 B1.8516 
N99 X-312.580 Y-11.638 Z6.881 A8.8485 B1.9091 
N100 X-312.592 Y-11.290 Z7.103 A8.3158 B1.9688 
N101 X-312.604 Y-10.941 Z7.321 A7.7743 B2.0307 
N102 X-312.616 Y-10.592 Z7.536 A7.2240 B2.0949 
N103 X-312.627 Y-10.243 Z7.747 A6.6648 B2.1615 
N104 X-312.639 Y-9.893 Z7.955 A6.0964 B2.2304 
N105 X-312.651 Y-9.543 Z8.158 A5.5187 B2.3018 
N106 X-312.664 Y-9.192 Z8.358 A4.9315 B2.3757 
N107 X-312.676 Y-8.841 Z8.554 A4.3346 B2.4522 
N108 X-312.688 Y-8.490 Z8.746 A3.7277 B2.5313 
N109 X-312.700 Y-8.139 Z8.934 A3.1106 B2.6130 
N110 X-312.713 Y-7.788 Z9.119 A2.4830 B2.6974 
N111 X-312.725 Y-7.436 Z9.299 A1.8447 B2.7845 
N112 X-312.737 Y-7.085 Z9.475 A1.1955 B2.8744 
N113 X-312.750 Y-6.733 Z9.648 A0.5350 B2.9669 
N114 X-312.762 Y-6.382 Z9.816 A359.8631 B3.0621 
N115 X-312.775 Y-6.030 Z9.980 A359.1795 B3.1601 
N116 X-312.787 Y-5.679 Z10.139 A358.4839 B3.2607 
N117 X-312.800 Y-5.328 Z10.295 A357.7760 B3.3639 
N118 X-312.812 Y-4.977 Z10.446 A357.0558 B3.4698 
N119 X-312.825 Y-4.627 Z10.593 A356.3228 B3.5782 
N120 X-312.837 Y-4.276 Z10.735 A355.5770 B3.6891 
N121 X-312.850 Y-3.927 Z10.873 A354.8180 B3.8024 
N122 X-312.863 Y-3.577 Z11.007 A354.0456 B3.9180 
N123 X-312.875 Y-3.229 Z11.136 A353.2597 B4.0359 
N124 X-312.888 Y-2.881 Z11.260 A352.4601 B4.1559 
N125 X-312.901 Y-2.533 Z11.380 A351.6464 B4.2778 
N126 X-312.913 Y-2.187 Z11.495 A350.8185 B4.4016 
N127 X-312.926 Y-1.841 Z11.605 A349.9762 B4.5271 
N128 X-312.939 Y-1.497 Z11.711 A349.1192 B4.6542 
N129 X-312.951 Y-1.153 Z11.812 A348.2475 B4.7826 
N130 X-312.964 Y-0.810 Z11.909 A347.3606 B4.9123 
N131 X-312.977 Y-0.469 Z12.000 A346.4584 B5.0429 
N132 X-312.990 Y-0.128 Z12.087 A345.5407 B5.1743 
N133 X-313.003 Y0.211 Z12.169 A344.6072 B5.3064 
N134 X-313.016 Y0.549 Z12.247 A343.6576 B5.4388 
N135 X-313.029 Y0.885 Z12.319 A342.6917 B5.5713 
N136 X-313.042 Y1.220 Z12.387 A341.7092 B5.7038 
N137 X-313.056 Y1.553 Z12.449 A340.7101 B5.8361 
N138 X-313.069 Y1.885 Z12.507 A339.6942 B5.9679 
N139 X-313.082 Y2.216 Z12.560 A338.6614 B6.0988 
N140 X-313.096 Y2.545 Z12.608 A337.6118 B6.2287 
N141 X-313.110 Y2.872 Z12.651 A336.5454 B6.3574 
N142 X-313.123 Y3.197 Z12.689 A335.4625 B6.4845 
N143 X-313.137 Y3.521 Z12.723 A334.3631 B6.6098 
N144 X-313.152 Y3.843 Z12.751 A333.2476 B6.7329 
N145 X-313.166 Y4.163 Z12.774 A332.1162 B6.8537 
N146 X-313.181 Y4.481 Z12.792 A330.9693 B6.9719 
N147 X-313.195 Y4.797 Z12.805 A329.8072 B7.0872 
N148 X-313.210 Y5.111 Z12.813 A328.6303 B7.1992 
N149 X-313.226 Y5.424 Z12.816 A327.4391 B7.3077 
N150 X-313.241 Y5.734 Z12.813 A326.2341 B7.4126 
N151 X-313.257 Y6.043 Z12.806 A325.0157 B7.5135 
N152 X-313.273 Y6.349 Z12.793 A323.7846 B7.6102 
N153 X-313.290 Y6.653 Z12.775 A322.5411 B7.7024 
N154 X-313.307 Y6.955 Z12.752 A321.2858 B7.7898 
N155 X-313.324 Y7.256 Z12.723 A320.0193 B7.8726 
N156 X-313.342 Y7.553 Z12.689 A318.7421 B7.9503 
N157 X-313.360 Y7.849 Z12.650 A317.4548 B8.0227 
N158 X-313.378 Y8.142 Z12.606 A316.1580 B8.0897 
N159 X-313.397 Y8.434 Z12.556 A314.8523 B8.1511 
N160 X-313.416 Y8.722 Z12.501 A313.5383 B8.2070 
N161 X-313.436 Y9.009 Z12.440 A312.2167 B8.2570 
N162 X-313.456 Y9.293 Z12.374 A310.8882 B8.3012 
N163 X-313.476 Y9.575 Z12.302 A309.5535 B8.3392 
N164 X-313.498 Y9.854 Z12.225 A308.2132 B8.3711 
N165 X-313.519 Y10.130 Z12.142 A306.8682 B8.3969 
N166 X-313.541 Y10.404 Z12.053 A305.5190 B8.4165 
N167 X-313.564 Y10.675 Z11.959 A304.1665 B8.4298 
N168 X-313.587 Y10.944 Z11.860 A302.8113 B8.4368 
N169 X-313.610 Y11.209 Z11.754 A301.4542 B8.4375 
N170 X-313.634 Y11.472 Z11.643 A300.0957 B8.4319 
N171 X-313.659 Y11.732 Z11.527 A298.7367 B8.4201 
N172 X-313.684 Y11.989 Z11.404 A297.3778 B8.4020 
N173 X-313.709 Y12.242 Z11.276 A296.0198 B8.3778 
N174 X-313.735 Y12.492 Z11.142 A294.6635 B8.3476 
N175 X-313.762 Y12.739 Z11.002 A293.3096 B8.3113 
N176 X-313.788 Y12.983 Z10.857 A291.9589 B8.2689 
N177 X-313.816 Y13.223 Z10.706 A290.6121 B8.2207 
N178 X-313.844 Y13.459 Z10.549 A289.2698 B8.1667 
N179 X-313.872 Y13.691 Z10.386 A287.9325 B8.1070 
N180 X-313.900 Y13.919 Z10.218 A286.6005 B8.0418 
N181 X-313.929 Y14.144 Z10.044 A285.2742 B7.9713 
N182 X-313.959 Y14.364 Z9.864 A283.9537 B7.8955 
N183 X-313.988 Y14.580 Z9.679 A282.6390 B7.8146 
N184 X-314.018 Y14.793 Z9.488 A281.3300 B7.7288 
N185 X-314.049 Y15.000 Z9.292 A280.0267 B7.6384 
N186 X-314.079 Y15.204 Z9.090 A278.7288 B7.5435 
N187 X-314.110 Y15.403 Z8.883 A277.4364 B7.4445 
N188 X-314.142 Y15.597 Z8.671 A276.1496 B7.3415 
N189 X-314.173 Y15.786 Z8.453 A274.8688 B7.2346 
N190 X-314.205 Y15.971 Z8.230 A273.5949 B7.1241 
N191 X-314.237 Y16.151 Z8.002 A272.3287 B7.0100 
N192 X-314.269 Y16.325 Z7.768 A271.0713 B6.8927 
N193 X-314.301 Y16.495 Z7.530 A269.8241 B6.7726 
N194 X-314.334 Y16.658 Z7.287 A268.5883 B6.6496 
N195 X-314.366 Y16.816 Z7.039 A267.3653 B6.5239 
N196 X-314.399 Y16.968 Z6.787 A266.1559 B6.3954 
N197 X-314.431 Y17.114 Z6.530 A264.9609 B6.2644 
N198 X-314.463 Y17.254 Z6.270 A263.7803 B6.1315 
N199 X-314.495 Y17.387 Z6.005 A262.6137 B5.9966 
N200 X-314.527 Y17.515 Z5.737 A261.4599 B5.8601 
N201 X-314.559 Y17.637 Z5.466 A260.3172 B5.7222 
N202 X-314.591 Y17.753 Z5.192 A259.1835 B5.5828 
N203 X-314.622 Y17.863 Z4.914 A258.0566 B5.4419 
N204 X-314.654 Y17.968 Z4.634 A256.9341 B5.3001 
N205 X-314.685 Y18.067 Z4.351 A255.8140 B5.1584 
N206 X-314.716 Y18.160 Z4.066 A254.6948 B5.0169 
N207 X-314.747 Y18.248 Z3.779 A253.5760 B4.8740 
N208 X-314.777 Y18.330 Z3.490 A252.4576 B4.7305 
N209 X-314.808 Y18.405 Z3.200 A251.3401 B4.5876 
N210 X-314.838 Y18.475 Z2.909 A250.2245 B4.4452 
N211 X-314.867 Y18.539 Z2.618 A249.1121 B4.3019 
N212 X-314.897 Y18.597 Z2.327 A248.0035 B4.1583 
N213 X-314.925 Y18.649 Z2.036 A246.8984 B4.0153 
N214 X-314.953 Y18.695 Z1.747 A245.7962 B3.8728 
N215 X-314.981 Y18.736 Z1.459 A244.6966 B3.7312 
N216 X-315.008 Y18.771 Z1.174 A243.6006 B3.5912 
N217 X-315.035 Y18.800 Z0.893 A242.5108 B3.4531 
N218 X-315.061 Y18.824 Z0.616 A241.4313 B3.3151 
N219 X-315.086 Y18.843 Z0.344 A240.3648 B3.1791 
N220 X-315.109 Y18.857 Z0.078 A239.3122 B3.0424 
N221 X-315.132 Y18.867 Z-0.180 A238.2714 B2.9077 
N222 X-315.155 Y18.873 Z-0.431 A237.2387 B2.7739 
N223 X-315.176 Y18.876 Z-0.673 A236.2103 B2.6420 
N224 X-315.197 Y18.877 Z-0.907 A235.1835 B2.5104 
N225 X-315.217 Y18.877 Z-1.131 A234.1548 B2.3777 
N226 X-315.236 Y18.876 Z-1.347 A233.1168 B2.2408 
N227 X-315.254 Y18.875 Z-1.555 A232.0526 B2.0979 
N228 X-315.271 Y18.876 Z-1.756 A230.9323 B1.9448 
N229 X-315.289 Y18.882 Z-1.953 A229.7157 B1.7836 
N230 X-315.310 Y18.892 Z-2.151 A228.3604 B1.6153 
N231 X-315.332 Y18.907 Z-2.350 A226.8299 B1.4320 
N232 X-315.357 Y18.927 Z-2.555 A225.0983 B1.2340 
N233 X-315.386 Y18.952 Z-2.767 A223.1560 B1.0248 
N234 X-315.418 Y18.977 Z-2.986 A221.0099 B0.8009 
N235 X-315.452 Y19.003 Z-3.212 A218.6805 B0.5617 
N236 X-315.488 Y19.025 Z-3.443 A216.1970 B0.3075 
N237 X-315.525 Y19.042 Z-3.680 A213.5924 B0.0389 
N238 X-315.562 Y19.053 Z-3.919 A210.9001 B-0.2401 
N239 X-315.598 Y19.054 Z-4.159 A208.1513 B-0.5250 
N240 X-315.635 Y19.046 Z-4.399 A205.3731 B-0.8115 
N241 X-315.671 Y19.028 Z-4.636 A202.5881 B-1.0957 
N242 X-315.706 Y19.000 Z-4.870 A199.8141 B-1.3759 
N243 X-315.740 Y18.960 Z-5.100 A197.0643 B-1.6543 
N244 X-315.771 Y18.911 Z-5.324 A194.3485 B-1.9285 
N245 X-315.802 Y18.851 Z-5.542 A191.6734 B-2.1963 
N246 X-315.831 Y18.780 Z-5.755 A189.0438 B-2.4562 
N247 X-315.858 Y18.700 Z-5.960 A186.4638 B-2.7068 
N248 X-315.884 Y18.610 Z-6.159 A183.9366 B-2.9469 
N249 X-315.909 Y18.511 Z-6.350 A181.4655 B-3.1762 
N250 X-315.931 Y18.403 Z-6.533 A179.0537 B-3.3961 
N251 X-315.952 Y18.285 Z-6.709 A176.7041 B-3.6067 
N252 X-315.971 Y18.160 Z-6.876 A174.4193 B-3.8077 
N253 X-315.988 Y18.025 Z-7.034 A172.2011 B-3.9995 
N254 X-316.004 Y17.883 Z-7.184 A170.0498 B-4.1828 
N255 X-316.017 Y17.732 Z-7.325 A167.9645 B-4.3574 
N256 X-316.028 Y17.573 Z-7.458 A165.9437 B-4.5213 
N257 X-316.038 Y17.406 Z-7.581 A163.9851 B-4.6763 
N258 X-316.046 Y17.230 Z-7.696 A162.0868 B-4.8251 
N259 X-316.052 Y17.045 Z-7.802 A160.2479 B-4.9686 
N260 X-316.056 Y16.851 Z-7.899 A158.4687 B-5.1036 
N261 X-316.057 Y16.648 Z-7.986 A156.7500 B-5.2314 
N262 X-316.057 Y16.436 Z-8.063 A155.0928 B-5.3533 
N263 X-316.055 Y16.214 Z-8.130 A153.4981 B-5.4679 
N264 X-316.050 Y15.982 Z-8.187 A151.9665 B-5.5767 
N265 X-316.044 Y15.741 Z-8.232 A150.4994 B-5.6790 
N266 X-316.035 Y15.489 Z-8.266 A149.0992 B-5.7765 
N267 X-316.023 Y15.227 Z-8.288 A147.7712 B-5.8683 
N268 X-316.010 Y14.956 Z-8.298 A146.5219 B-5.9549 
N269 X-315.994 Y14.675 Z-8.294 A145.3576 B-6.0353 
N270 X-315.976 Y14.384 Z-8.277 A144.2814 B-6.1101 
N271 X-315.955 Y14.084 Z-8.247 A143.2930 B-6.1804 
N272 X-315.933 Y13.774 Z-8.204 A142.3907 B-6.2467 
N273 X-315.908 Y13.455 Z-8.148 A141.5737 B-6.3115 
N274 X-315.880 Y13.127 Z-8.079 A140.8448 B-6.3729 
N275 X-315.851 Y12.791 Z-7.998 A140.2081 B-6.4320 
N276 X-315.820 Y12.447 Z-7.904 A139.6670 B-6.4876 
N277 X-315.787 Y12.097 Z-7.799 A139.2217 B-6.5384 
N278 X-315.752 Y11.741 Z-7.683 A138.8681 B-6.5870 
N279 X-315.717 Y11.379 Z-7.558 A138.6000 B-6.6310 
N280 X-315.679 Y11.013 Z-7.426 A138.4086 B-6.6753 
N281 X-315.641 Y10.642 Z-7.287 A138.2868 B-6.7154 
N282 X-315.601 Y10.269 Z-7.143 A138.2274 B-6.7553 
N283 X-315.560 Y9.893 Z-6.994 A138.2258 B-6.7940 
N284 X-315.519 Y9.517 Z-6.842 A138.2794 B-6.8299 
N285 X-315.477 Y9.142 Z-6.688 A138.3868 B-6.8631 
N286 X-315.434 Y8.768 Z-6.532 A138.5480 B-6.8947 
N287 X-315.392 Y8.397 Z-6.376 A138.7640 B-6.9223 
N288 X-315.349 Y8.030 Z-6.220 A139.0353 B-6.9451 
N289 X-315.307 Y7.668 Z-6.064 A139.3607 B-6.9647 
N290 X-315.265 Y7.312 Z-5.910 A139.7387 B-6.9792 
N291 X-315.223 Y6.961 Z-5.758 A140.1658 B-6.9888 
N292 X-315.181 Y6.615 Z-5.608 A140.6374 B-6.9941 
N293 X-315.139 Y6.275 Z-5.462 A141.1484 B-6.9953 
N294 X-315.098 Y5.940 Z-5.319 A141.6939 B-6.9924 
N295 X-315.057 Y5.610 Z-5.180 A142.2691 B-6.9858 
N296 X-315.016 Y5.284 Z-5.045 A142.8699 B-6.9756 
N297 X-314.976 Y4.963 Z-4.913 A143.4932 B-6.9620 
N298 X-314.936 Y4.646 Z-4.786 A144.1361 B-6.9451 
N299 X-314.896 Y4.332 Z-4.662 A144.7968 B-6.9249 
N300 X-314.857 Y4.022 Z-4.543 A145.4737 B-6.9015 
N301 X-314.818 Y3.714 Z-4.427 A146.1654 B-6.8748 
N302 X-314.779 Y3.409 Z-4.316 A146.8709 B-6.8448 
N303 X-314.740 Y3.106 Z-4.208 A147.5895 B-6.8116 
N304 X-314.701 Y2.806 Z-4.104 A148.3202 B-6.7752 
N305 X-314.663 Y2.507 Z-4.004 A149.0624 B-6.7354 
N306 X-314.625 Y2.210 Z-3.907 A149.8155 B-6.6924 
N307 X-314.587 Y1.914 Z-3.815 A150.5787 B-6.6461 
N308 X-314.549 Y1.619 Z-3.726 A151.3515 B-6.5965 
N309 X-314.511 Y1.326 Z-3.640 A152.1331 B-6.5436 
N310 X-314.474 Y1.033 Z-3.559 A152.9228 B-6.4874 
N311 X-314.436 Y0.741 Z-3.482 A153.7199 B-6.4280 
N312 X-314.399 Y0.450 Z-3.408 A154.5235 B-6.3655 
N313 X-314.362 Y0.159 Z-3.338 A155.3330 B-6.2997 
N314 X-314.325 Y-0.132 Z-3.272 A156.1475 B-6.2309 
N315 X-314.288 Y-0.423 Z-3.210 A156.9664 B-6.1590 
N316 X-314.251 Y-0.713 Z-3.152 A157.7888 B-6.0842 
N317 X-314.214 Y-1.004 Z-3.097 A158.6141 B-6.0065 
N318 X-314.177 Y-1.295 Z-3.047 A159.4415 B-5.9259 
N319 X-314.141 Y-1.586 Z-3.001 A160.2702 B-5.8427 
N320 X-314.104 Y-1.878 Z-2.959 A161.0996 B-5.7568 
N321 X-314.068 Y-2.170 Z-2.921 A161.9291 B-5.6685 
N322 X-314.031 Y-2.464 Z-2.888 A162.7578 B-5.5777 
N323 X-313.995 Y-2.757 Z-2.858 A163.5852 B-5.4847 
N324 X-313.959 Y-3.052 Z-2.833 A164.4106 B-5.3895 
N325 X-313.923 Y-3.348 Z-2.813 A165.2333 B-5.2923 
N326 X-313.888 Y-3.645 Z-2.796 A166.0527 B-5.1932 
N327 X-313.852 Y-3.943 Z-2.785 A166.8681 B-5.0925 
N328 X-313.817 Y-4.242 Z-2.777 A167.6789 B-4.9902 
N329 X-313.781 Y-4.542 Z-2.775 A168.4845 B-4.8865 
N330 X-313.746 Y-4.844 Z-2.777 A169.2842 B-4.7816 
N331 X-313.711 Y-5.148 Z-2.784 A170.0774 B-4.6757 
N332 X-313.676 Y-5.453 Z-2.795 A170.8635 B-4.5690 
N333 X-313.642 Y-5.759 Z-2.812 A171.6419 B-4.4616 
N334 X-313.607 Y-6.067 Z-2.833 A172.4119 B-4.3537 
N335 X-313.573 Y-6.377 Z-2.860 A173.1730 B-4.2457 
N336 X-313.539 Y-6.689 Z-2.891 A173.9245 B-4.1375 
N337 X-313.506 Y-7.003 Z-2.928 A174.6657 B-4.0295 
N338 X-313.472 Y-7.318 Z-2.970 A175.3962 B-3.9218 
N339 X-313.439 Y-7.636 Z-3.017 A176.1152 B-3.8147 
N340 X-313.406 Y-7.955 Z-3.070 A176.8223 B-3.7084 
N341 X-313.373 Y-8.277 Z-3.128 A177.5169 B-3.6030 
N342 X-313.341 Y-8.601 Z-3.191 A178.1985 B-3.4988 
N343 X-313.309 Y-8.927 Z-3.261 A178.8666 B-3.3959 
N344 X-313.277 Y-9.256 Z-3.335 A179.5208 B-3.2945 
N345 X-313.245 Y-9.587 Z-3.416 A180.1603 B-3.1948 
N346 X-313.214 Y-9.921 Z-3.502 A180.7847 B-3.0971 
N347 X-313.183 Y-10.257 Z-3.594 A181.3932 B-3.0014 
N348 X-313.152 Y-10.596 Z-3.693 A181.9848 B-2.9081 
N349 X-313.122 Y-10.938 Z-3.797 A182.5584 B-2.8174 
N350 X-313.092 Y-11.283 Z-3.907 A183.1128 B-2.7296 
N351 X-313.063 Y-11.631 Z-4.024 A183.6466 B-2.6449 
N352 X-313.033 Y-11.982 Z-4.148 A184.1584 B-2.5637 
N353 X-313.005 Y-12.336 Z-4.278 A184.6470 B-2.4862 
N354 X-312.976 Y-12.694 Z-4.414 A185.1111 B-2.4129 
N355 X-312.948 Y-13.055 Z-4.557 A185.5499 B-2.3440 
N356 X-312.921 Y-13.419 Z-4.706 A185.9627 B-2.2797 
N357 X-312.893 Y-13.786 Z-4.862 A186.3488 B-2.2203 
N358 X-312.867 Y-14.156 Z-5.024 A186.7080 B-2.1660 
N359 X-312.840 Y-14.529 Z-5.191 A187.0399 B-2.1169 
N360 X-312.815 Y-14.904 Z-5.364 A187.3445 B-2.0731 
N361 X-312.789 Y-15.280 Z-5.542 A187.6217 B-2.0345 
N362 X-312.765 Y-15.658 Z-5.724 A187.8717 B-2.0014 
N363 X-312.741 Y-16.034 Z-5.910 A188.0948 B-1.9733 
N364 X-312.717 Y-16.410 Z-6.098 A188.2920 B-1.9496 
N365 X-312.694 Y-16.783 Z-6.288 A188.4643 B-1.9313 
N366 X-312.672 Y-17.151 Z-6.478 A188.6134 B-1.9171 
N367 X-312.651 Y-17.513 Z-6.667 A188.7413 B-1.9059 
N368 X-312.630 Y-17.866 Z-6.853 A188.8502 B-1.8988 
N369 X-312.610 Y-18.209 Z-7.035 A188.9424 B-1.8944 
N370 X-312.592 Y-18.538 Z-7.212 A189.0198 B-1.8918 
N371 X-312.574 Y-18.853 Z-7.381 A189.0842 B-1.8910 
N372 X-312.557 Y-19.151 Z-7.542 A189.1367 B-1.8927 
N373 X-312.542 Y-19.429 Z-7.693 A189.1781 B-1.8946 
N374 X-312.528 Y-19.687 Z-7.834 A189.2081 B-1.8974 
N375 X-312.514 Y-19.924 Z-7.964 A189.2257 B-1.9025 
N376 X-312.503 Y-20.139 Z-8.082 A189.2291 B-1.9070 
N377 X-312.493 Y-20.331 Z-8.189 A189.2148 B-1.9136 
N378 X-312.484 Y-20.500 Z-8.285 A189.1777 B-1.9217 
N379 X-312.476 Y-20.649 Z-8.371 A189.1100 B-1.9311 
N380 X-312.470 Y-20.777 Z-8.448 A189.0004 B-1.9446 
N381 X-312.466 Y-20.887 Z-8.519 A188.8328 B-1.9625 
N382 X-312.463 Y-20.979 Z-8.586 A188.5853 B-1.9847 
N383 X-312.462 Y-21.057 Z-8.651 A188.2297 B-2.0168 
N384 X-312.463 Y-21.123 Z-8.719 A187.7340 B-2.0559 
N385 X-312.469 Y-21.181 Z-8.803 A186.9005 B-2.1173 
N386 X-312.482 Y-21.239 Z-8.938 A185.2776 B-2.2311 
N387 X-312.505 Y-21.305 Z-9.136 A182.6686 B-2.4018 
N388 X-312.540 Y-21.395 Z-9.407 A178.9111 B-2.6277 
N389 X-312.578 Y-21.511 Z-9.709 A174.5658 B-2.8747 
N390 X-312.615 Y-21.655 Z-10.025 A169.8315 B-3.1364 
N391 X-312.648 Y-21.822 Z-10.329 A165.0651 B-3.3955 
N392 X-312.677 Y-22.004 Z-10.609 A160.4388 B-3.6333 
N393 X-312.700 Y-22.195 Z-10.860 A156.0700 B-3.8485 
N394 X-312.720 Y-22.387 Z-11.079 A152.0148 B-4.0324 
N395 X-312.736 Y-22.576 Z-11.268 A148.2817 B-4.1838 
N396 X-312.751 Y-22.760 Z-11.431 A144.8531 B-4.3025 
N397 X-312.763 Y-22.938 Z-11.571 A141.6858 B-4.3959 
N398 X-312.773 Y-23.111 Z-11.693 A138.7397 B-4.4681 
N399 X-312.781 Y-23.278 Z-11.800 A135.9749 B-4.5241 
N400 X-312.786 Y-23.441 Z-11.893 A133.3541 B-4.5673 
N401 X-312.791 Y-23.601 Z-11.975 A130.8477 B-4.5988 
N402 X-312.793 Y-23.758 Z-12.048 A128.4297 B-4.6204 
N403 X-312.795 Y-23.914 Z-12.113 A126.0792 B-4.6330 
N404 X-312.795 Y-24.069 Z-12.170 A123.7798 B-4.6373 
N405 X-312.794 Y-24.224 Z-12.221 A121.5182 B-4.6341 
N406 X-312.792 Y-24.378 Z-12.265 A119.2843 B-4.6236 
N407 X-312.788 Y-24.533 Z-12.303 A117.0706 B-4.6058 
N408 X-312.784 Y-24.689 Z-12.335 A114.8706 B-4.5813 
N409 X-312.779 Y-24.845 Z-12.361 A112.6802 B-4.5500 
N410 X-312.773 Y-25.002 Z-12.381 A110.4958 B-4.5123 
N411 X-312.766 Y-25.159 Z-12.395 A108.3149 B-4.4682 
N412 X-312.758 Y-25.316 Z-12.404 A106.1357 B-4.4179 
N413 X-312.749 Y-25.474 Z-12.406 A103.9566 B-4.3613 
N414 X-312.739 Y-25.632 Z-12.403 A101.7765 B-4.2986 
N415 X-312.728 Y-25.790 Z-12.394 A99.5944 B-4.2292 
N416 X-312.716 Y-25.948 Z-12.380 A97.4090 B-4.1536 
N417 X-312.704 Y-26.106 Z-12.359 A95.2188 B-4.0713 
N418 X-312.690 Y-26.263 Z-12.332 A93.0220 B-3.9823 
N419 X-312.676 Y-26.420 Z-12.300 A90.8156 B-3.8866 
N420 X-312.661 Y-26.576 Z-12.261 A88.5964 B-3.7831 
N421 X-312.646 Y-26.733 Z-12.216 A86.3583 B-3.6725 
N422 X-312.629 Y-26.889 Z-12.164 A84.0957 B-3.5527 
N423 X-312.612 Y-27.046 Z-12.106 A81.7979 B-3.4244 
N424 X-312.594 Y-27.203 Z-12.040 A79.4534 B-3.2853 
N425 X-312.574 Y-27.362 Z-11.965 A77.0459 B-3.1352 
N426 X-312.554 Y-27.523 Z-11.882 A74.5558 B-2.9716 
N427 X-312.532 Y-27.687 Z-11.787 A71.9581 B-2.7940 
N428 X-312.508 Y-27.855 Z-11.680 A69.2247 B-2.5994 
N429 X-312.482 Y-28.028 Z-11.557 A66.3203 B-2.3895 
N430 X-312.453 Y-28.205 Z-11.417 A63.2136 B-2.1564 
N431 X-312.419 Y-28.388 Z-11.254 A59.8617 B-1.9105 
N432 X-312.380 Y-28.575 Z-11.067 A56.2460 B-1.6486 
N433 X-312.334 Y-28.773 Z-10.839 A52.1010 B-1.3350 
N434 X-312.280 Y-28.976 Z-10.563 A47.4291 B-0.9789 
N435 X-312.218 Y-29.164 Z-10.256 A42.5163 B-0.6273 
N436 X-312.154 Y-29.326 Z-9.921 A37.4470 B-0.2732 
N437 X-312.093 Y-29.456 Z-9.568 A32.3472 B0.0961 
N438 X-312.040 Y-29.545 Z-9.217 A27.4724 B0.4801 
N439 X-312.002 Y-29.582 Z-8.949 A23.9248 B0.7735 
N440 X-311.981 Y-29.578 Z-8.786 A21.9471 B0.9358 
N441 X-311.971 Y-29.552 Z-8.684 A20.9378 B1.0166 
N442 X-311.968 Y-29.510 Z-8.616 A20.5067 B1.0485 
N443 X-311.968 Y-29.454 Z-8.560 A20.3637 B1.0570 
N444 X-311.970 Y-29.384 Z-8.498 A20.2896 B1.0592 
N445 X-311.973 Y-29.299 Z-8.425 A20.2343 B1.0622 
N446 X-311.977 Y-29.198 Z-8.340 A20.1947 B1.0626 
N447 X-311.981 Y-29.079 Z-8.241 A20.1668 B1.0618 
N448 X-311.986 Y-28.942 Z-8.126 A20.1470 B1.0605 
N449 X-311.992 Y-28.784 Z-7.995 A20.1327 B1.0574 
N450 X-311.999 Y-28.605 Z-7.846 A20.1219 B1.0537 
N451 X-312.007 Y-28.406 Z-7.680 A20.1133 B1.0497 
N452 X-312.015 Y-28.186 Z-7.497 A20.1058 B1.0442 
N453 X-312.025 Y-27.946 Z-7.297 A20.0987 B1.0391 
N454 X-312.035 Y-27.686 Z-7.081 A20.0914 B1.0333 
N455 X-312.045 Y-27.409 Z-6.849 A20.0832 B1.0268 
N456 X-312.056 Y-27.115 Z-6.603 A20.0737 B1.0207 
N457 X-312.068 Y-26.806 Z-6.345 A20.0623 B1.0143 
N458 X-312.081 Y-26.485 Z-6.076 A20.0483 B1.0077 
N459 X-312.093 Y-26.152 Z-5.798 A20.0313 B1.0012 
N460 X-312.106 Y-25.810 Z-5.512 A20.0105 B0.9955 
N461 X-312.119 Y-25.461 Z-5.219 A19.9852 B0.9895 
N462 X-312.133 Y-25.106 Z-4.921 A19.9548 B0.9842 
N463 X-312.146 Y-24.747 Z-4.620 A19.9186 B0.9798 
N464 X-312.160 Y-24.385 Z-4.315 A19.8761 B0.9758 
N465 X-312.174 Y-24.020 Z-4.009 A19.8265 B0.9728 
N466 X-312.187 Y-23.654 Z-3.702 A19.7691 B0.9707 
N467 X-312.201 Y-23.288 Z-3.394 A19.7030 B0.9696 
N468 X-312.214 Y-22.922 Z-3.086 A19.6273 B0.9697 
N469 X-312.228 Y-22.557 Z-2.779 A19.5406 B0.9710 
N470 X-312.241 Y-22.193 Z-2.472 A19.4417 B0.9738 
N471 X-312.254 Y-21.830 Z-2.167 A19.3291 B0.9780 
N472 X-312.267 Y-21.468 Z-1.863 A19.2016 B0.9838 
N473 X-312.280 Y-21.108 Z-1.560 A19.0581 B0.9913 
N474 X-312.292 Y-20.750 Z-1.259 A18.8978 B1.0006 
N475 X-312.305 Y-20.394 Z-0.959 A18.7201 B1.0116 
N476 X-312.317 Y-20.039 Z-0.662 A18.5247 B1.0245 
N477 X-312.329 Y-19.686 Z-0.366 A18.3115 B1.0391 
N478 X-312.341 Y-19.334 Z-0.073 A18.0805 B1.0556 
N479 X-312.353 Y-18.984 Z0.218 A17.8320 B1.0739 
N480 X-312.365 Y-18.636 Z0.507 A17.5664 B1.0940 
N481 X-312.376 Y-18.289 Z0.793 A17.2840 B1.1158 
N482 X-312.388 Y-17.943 Z1.077 A16.9854 B1.1392 
N483 X-312.400 Y-17.598 Z1.358 A16.6712 B1.1644 
N484 X-312.411 Y-17.255 Z1.636 A16.3418 B1.1912 
N485 X-312.423 Y-16.912 Z1.911 A15.9979 B1.2195 
N486 X-312.434 Y-16.570 Z2.183 A15.6399 B1.2495 
N487 X-312.446 Y-16.229 Z2.453 A15.2685 B1.2812 
N488 X-312.457 Y-15.889 Z2.719 A14.8839 B1.3144 
N489 X-312.469 Y-15.549 Z2.982 A14.4866 B1.3492 
N490 X-312.480 Y-15.210 Z3.243 A14.0770 B1.3858 
N491 X-312.492 Y-14.871 Z3.500 A13.6554 B1.4240 
N492 X-312.504 Y-14.532 Z3.754 A13.2219 B1.4640 
N493 X-312.516 Y-14.193 Z4.005 A12.7771 B1.5057 
N494 X-312.528 Y-13.855 Z4.252 A12.3211 B1.5493 
N495 X-312.540 Y-13.517 Z4.497 A11.8544 B1.5948 
N496 X-312.552 Y-13.178 Z4.738 A11.3773 B1.6422 
N497 X-312.564 Y-12.840 Z4.976 A10.8902 B1.6915 
N498 X-312.576 Y-12.501 Z5.211 A10.3934 B1.7428 
N499 X-312.588 Y-12.163 Z5.442 A9.8874 B1.7961 
N500 X-312.601 Y-11.824 Z5.669 A9.3724 B1.8516 
N501 X-312.614 Y-11.485 Z5.893 A8.8485 B1.9091 
N502 X-312.626 Y-11.145 Z6.114 A8.3158 B1.9688 
N503 X-312.639 Y-10.806 Z6.331 A7.7743 B2.0307 
N504 X-312.652 Y-10.466 Z6.545 A7.2240 B2.0949 
N505 X-312.665 Y-10.127 Z6.755 A6.6648 B2.1615 
N506 X-312.678 Y-9.787 Z6.961 A6.0964 B2.2304 
N507 X-312.692 Y-9.446 Z7.164 A5.5187 B2.3018 
N508 X-312.705 Y-9.106 Z7.363 A4.9315 B2.3757 
N509 X-312.719 Y-8.766 Z7.558 A4.3346 B2.4522 
N510 X-312.732 Y-8.425 Z7.749 A3.7277 B2.5313 
N511 X-312.746 Y-8.085 Z7.937 A3.1106 B2.6130 
N512 X-312.760 Y-7.745 Z8.121 A2.4830 B2.6974 
N513 X-312.773 Y-7.404 Z8.301 A1.8447 B2.7845 
N514 X-312.787 Y-7.064 Z8.477 A1.1955 B2.8744 
N515 X-312.801 Y-6.724 Z8.649 A0.5350 B2.9669 
N516 X-312.816 Y-6.384 Z8.817 A359.8631 B3.0621 
N517 X-312.830 Y-6.045 Z8.981 A359.1795 B3.1601 
N518 X-312.844 Y-5.705 Z9.141 A358.4839 B3.2607 
N519 X-312.858 Y-5.367 Z9.297 A357.7760 B3.3639 
N520 X-312.873 Y-5.028 Z9.449 A357.0558 B3.4698 
N521 X-312.887 Y-4.691 Z9.597 A356.3228 B3.5782 
N522 X-312.902 Y-4.353 Z9.740 A355.5770 B3.6891 
N523 X-312.916 Y-4.017 Z9.879 A354.8180 B3.8024 
N524 X-312.931 Y-3.681 Z10.014 A354.0456 B3.9180 
N525 X-312.946 Y-3.346 Z10.145 A353.2597 B4.0359 
N526 X-312.960 Y-3.012 Z10.271 A352.4601 B4.1559 
N527 X-312.975 Y-2.678 Z10.393 A351.6464 B4.2778 
N528 X-312.990 Y-2.346 Z10.511 A350.8185 B4.4016 
N529 X-313.005 Y-2.015 Z10.624 A349.9762 B4.5271 
N530 X-313.020 Y-1.685 Z10.733 A349.1192 B4.6542 
N531 X-313.035 Y-1.356 Z10.837 A348.2475 B4.7826 
N532 X-313.050 Y-1.028 Z10.937 A347.3606 B4.9123 
N533 X-313.065 Y-0.702 Z11.032 A346.4584 B5.0429 
N534 X-313.080 Y-0.377 Z11.123 A345.5407 B5.1743 
N535 X-313.096 Y-0.053 Z11.209 A344.6072 B5.3064 
N536 X-313.111 Y0.268 Z11.291 A343.6576 B5.4388 
N537 X-313.126 Y0.589 Z11.369 A342.6917 B5.5713 
N538 X-313.142 Y0.908 Z11.442 A341.7092 B5.7038 
N539 X-313.157 Y1.225 Z11.510 A340.7101 B5.8361 
N540 X-313.173 Y1.540 Z11.574 A339.6942 B5.9679 
N541 X-313.189 Y1.854 Z11.634 A338.6614 B6.0988 
N542 X-313.204 Y2.166 Z11.689 A337.6118 B6.2287 
N543 X-313.220 Y2.476 Z11.739 A336.5454 B6.3574 
N544 X-313.236 Y2.784 Z11.785 A335.4625 B6.4845 
N545 X-313.253 Y3.091 Z11.827 A334.3631 B6.6098 
N546 X-313.269 Y3.396 Z11.864 A333.2476 B6.7329 
N547 X-313.285 Y3.698 Z11.896 A332.1162 B6.8537 
N548 X-313.302 Y3.999 Z11.924 A330.9693 B6.9719 
N549 X-313.319 Y4.298 Z11.947 A329.8072 B7.0872 
N550 X-313.336 Y4.595 Z11.966 A328.6303 B7.1992 
N551 X-313.353 Y4.890 Z11.980 A327.4391 B7.3077 
N552 X-313.370 Y5.183 Z11.989 A326.2341 B7.4126 
N553 X-313.388 Y5.474 Z11.993 A325.0157 B7.5135 
N554 X-313.406 Y5.763 Z11.993 A323.7846 B7.6102 
N555 X-313.424 Y6.051 Z11.988 A322.5411 B7.7024 
N556 X-313.442 Y6.336 Z11.979 A321.2858 B7.7898 
N557 X-313.461 Y6.619 Z11.964 A320.0193 B7.8726 
N558 X-313.480 Y6.900 Z11.945 A318.7421 B7.9503 
N559 X-313.499 Y7.179 Z11.921 A317.4548 B8.0227 
N560 X-313.519 Y7.457 Z11.892 A316.1580 B8.0897 
N561 X-313.539 Y7.732 Z11.858 A314.8523 B8.1511 
N562 X-313.559 Y8.005 Z11.819 A313.5383 B8.2070 
N563 X-313.579 Y8.276 Z11.775 A312.2167 B8.2570 
N564 X-313.600 Y8.545 Z11.726 A310.8882 B8.3012 
N565 X-313.622 Y8.812 Z11.672 A309.5535 B8.3392 
N566 X-313.643 Y9.076 Z11.613 A308.2132 B8.3711 
N567 X-313.665 Y9.339 Z11.548 A306.8682 B8.3969 
N568 X-313.688 Y9.599 Z11.479 A305.5190 B8.4165 
N569 X-313.710 Y9.857 Z11.404 A304.1665 B8.4298 
N570 X-313.733 Y10.112 Z11.324 A302.8113 B8.4368 
N571 X-313.757 Y10.366 Z11.238 A301.4542 B8.4375 
N572 X-313.781 Y10.616 Z11.147 A300.0957 B8.4319 
N573 X-313.805 Y10.865 Z11.051 A298.7367 B8.4201 
N574 X-313.830 Y11.110 Z10.949 A297.3778 B8.4020 
N575 X-313.855 Y11.353 Z10.842 A296.0198 B8.3778 
N576 X-313.880 Y11.593 Z10.729 A294.6635 B8.3476 
N577 X-313.906 Y11.831 Z10.611 A293.3096 B8.3113 
N578 X-313.932 Y12.065 Z10.487 A291.9589 B8.2689 
N579 X-313.959 Y12.296 Z10.357 A290.6121 B8.2207 
N580 X-313.986 Y12.524 Z10.222 A289.2698 B8.1667 
N581 X-314.013 Y12.749 Z10.081 A287.9325 B8.1070 
N582 X-314.040 Y12.970 Z9.935 A286.6005 B8.0418 
N583 X-314.068 Y13.188 Z9.783 A285.2742 B7.9713 
N584 X-314.096 Y13.403 Z9.625 A283.9537 B7.8955 
N585 X-314.124 Y13.614 Z9.462 A282.6390 B7.8146 
N586 X-314.153 Y13.821 Z9.293 A281.3300 B7.7288 
N587 X-314.182 Y14.024 Z9.119 A280.0267 B7.6384 
N588 X-314.211 Y14.224 Z8.940 A278.7288 B7.5435 
N589 X-314.240 Y14.419 Z8.755 A277.4364 B7.4445 
N590 X-314.269 Y14.611 Z8.564 A276.1496 B7.3415 
N591 X-314.299 Y14.798 Z8.369 A274.8688 B7.2346 
N592 X-314.329 Y14.981 Z8.168 A273.5949 B7.1241 
N593 X-314.359 Y15.159 Z7.961 A272.3287 B7.0100 
N594 X-314.389 Y15.333 Z7.750 A271.0713 B6.8927 
N595 X-314.419 Y15.502 Z7.533 A269.8241 B6.7726 
N596 X-314.450 Y15.665 Z7.311 A268.5883 B6.6496 
N597 X-314.480 Y15.823 Z7.084 A267.3653 B6.5239 
N598 X-314.510 Y15.976 Z6.853 A266.1559 B6.3954 
N599 X-314.540 Y16.124 Z6.617 A264.9609 B6.2644 
N600 X-314.570 Y16.265 Z6.377 A263.7803 B6.1315 
N601 X-314.600 Y16.401 Z6.133 A262.6137 B5.9966 
N602 X-314.629 Y16.532 Z5.885 A261.4599 B5.8601 
N603 X-314.659 Y16.656 Z5.633 A260.3172 B5.7222 
N604 X-314.688 Y16.776 Z5.378 A259.1835 B5.5828 
N605 X-314.717 Y16.890 Z5.120 A258.0566 B5.4419 
N606 X-314.746 Y16.998 Z4.859 A256.9341 B5.3001 
N607 X-314.775 Y17.101 Z4.595 A255.8140 B5.1584 
N608 X-314.804 Y17.199 Z4.329 A254.6948 B5.0169 
N609 X-314.832 Y17.292 Z4.061 A253.5760 B4.8740 
N610 X-314.860 Y17.379 Z3.791 A252.4576 B4.7305 
N611 X-314.888 Y17.461 Z3.519 A251.3401 B4.5876 
N612 X-314.915 Y17.537 Z3.246 A250.2245 B4.4452 
N613 X-314.943 Y17.608 Z2.973 A249.1121 B4.3019 
N614 X-314.969 Y17.672 Z2.700 A248.0035 B4.1583 
N615 X-314.995 Y17.732 Z2.427 A246.8984 B4.0153 
N616 X-315.021 Y17.785 Z2.156 A245.7962 B3.8728 
N617 X-315.046 Y17.834 Z1.886 A244.6966 B3.7312 
N618 X-315.071 Y17.877 Z1.618 A243.6006 B3.5912 
N619 X-315.095 Y17.915 Z1.353 A242.5108 B3.4531 
N620 X-315.118 Y17.948 Z1.093 A241.4313 B3.3151 
N621 X-315.141 Y17.975 Z0.838 A240.3648 B3.1791 
N622 X-315.162 Y17.998 Z0.588 A239.3122 B3.0424 
N623 X-315.183 Y18.017 Z0.345 A238.2714 B2.9077 
N624 X-315.203 Y18.033 Z0.110 A237.2387 B2.7739 
N625 X-315.222 Y18.046 Z-0.117 A236.2103 B2.6420 
N626 X-315.241 Y18.057 Z-0.336 A235.1835 B2.5104 
N627 X-315.259 Y18.067 Z-0.546 A234.1548 B2.3777 
N628 X-315.275 Y18.076 Z-0.747 A233.1168 B2.2408 
N629 X-315.291 Y18.087 Z-0.940 A232.0526 B2.0979 
N630 X-315.305 Y18.100 Z-1.126 A230.9323 B1.9448 
N631 X-315.320 Y18.119 Z-1.307 A229.7157 B1.7836 
N632 X-315.338 Y18.145 Z-1.487 A228.3604 B1.6153 
N633 X-315.357 Y18.178 Z-1.667 A226.8299 B1.4320 
N634 X-315.379 Y18.219 Z-1.850 A225.0983 B1.2340 
N635 X-315.404 Y18.268 Z-2.037 A223.1560 B1.0248 
N636 X-315.432 Y18.321 Z-2.231 A221.0099 B0.8009 
N637 X-315.462 Y18.378 Z-2.431 A218.6805 B0.5617 
N638 X-315.494 Y18.435 Z-2.636 A216.1970 B0.3075 
N639 X-315.526 Y18.489 Z-2.847 A213.5924 B0.0389 
N640 X-315.557 Y18.539 Z-3.061 A210.9001 B-0.2401 
N641 X-315.589 Y18.582 Z-3.278 A208.1513 B-0.5250 
N642 X-315.621 Y18.618 Z-3.495 A205.3731 B-0.8115 
N643 X-315.652 Y18.644 Z-3.713 A202.5881 B-1.0957 
N644 X-315.682 Y18.661 Z-3.930 A199.8141 B-1.3759 
N645 X-315.711 Y18.667 Z-4.144 A197.0643 B-1.6543 
N646 X-315.738 Y18.663 Z-4.356 A194.3485 B-1.9285 
N647 X-315.764 Y18.648 Z-4.564 A191.6734 B-2.1963 
N648 X-315.788 Y18.623 Z-4.768 A189.0438 B-2.4562 
N649 X-315.811 Y18.588 Z-4.968 A186.4638 B-2.7068 
N650 X-315.833 Y18.542 Z-5.162 A183.9366 B-2.9469 
N651 X-315.853 Y18.486 Z-5.352 A181.4655 B-3.1762 
N652 X-315.872 Y18.419 Z-5.535 A179.0537 B-3.3961 
N653 X-315.889 Y18.343 Z-5.712 A176.7041 B-3.6067 
N654 X-315.905 Y18.257 Z-5.883 A174.4193 B-3.8077 
N655 X-315.919 Y18.161 Z-6.046 A172.2011 B-3.9995 
N656 X-315.931 Y18.055 Z-6.202 A170.0498 B-4.1828 
N657 X-315.941 Y17.940 Z-6.350 A167.9645 B-4.3574 
N658 X-315.950 Y17.815 Z-6.491 A165.9437 B-4.5213 
N659 X-315.957 Y17.681 Z-6.623 A163.9851 B-4.6763 
N660 X-315.962 Y17.536 Z-6.748 A162.0868 B-4.8251 
N661 X-315.965 Y17.382 Z-6.864 A160.2479 B-4.9686 
N662 X-315.967 Y17.217 Z-6.972 A158.4687 B-5.1036 
N663 X-315.966 Y17.041 Z-7.071 A156.7500 B-5.2314 
N664 X-315.964 Y16.855 Z-7.160 A155.0928 B-5.3533 
N665 X-315.960 Y16.658 Z-7.239 A153.4981 B-5.4679 
N666 X-315.953 Y16.450 Z-7.308 A151.9665 B-5.5767 
N667 X-315.945 Y16.231 Z-7.366 A150.4994 B-5.6790 
N668 X-315.934 Y16.000 Z-7.413 A149.0992 B-5.7765 
N669 X-315.921 Y15.758 Z-7.447 A147.7712 B-5.8683 
N670 X-315.906 Y15.504 Z-7.468 A146.5219 B-5.9549 
N671 X-315.889 Y15.240 Z-7.476 A145.3576 B-6.0353 
N672 X-315.869 Y14.964 Z-7.470 A144.2814 B-6.1101 
N673 X-315.848 Y14.678 Z-7.450 A143.2930 B-6.1804 
N674 X-315.824 Y14.381 Z-7.416 A142.3907 B-6.2467 
N675 X-315.798 Y14.073 Z-7.369 A141.5737 B-6.3115 
N676 X-315.769 Y13.754 Z-7.309 A140.8448 B-6.3729 
N677 X-315.739 Y13.427 Z-7.234 A140.2081 B-6.4320 
N678 X-315.707 Y13.090 Z-7.146 A139.6670 B-6.4876 
N679 X-315.673 Y12.746 Z-7.046 A139.2217 B-6.5384 
N680 X-315.638 Y12.395 Z-6.935 A138.8681 B-6.5870 
N681 X-315.601 Y12.036 Z-6.813 A138.6000 B-6.6310 
N682 X-315.563 Y11.672 Z-6.683 A138.4086 B-6.6753 
N683 X-315.524 Y11.303 Z-6.545 A138.2868 B-6.7154 
N684 X-315.483 Y10.930 Z-6.402 A138.2274 B-6.7553 
N685 X-315.442 Y10.555 Z-6.254 A138.2258 B-6.7940 
N686 X-315.400 Y10.178 Z-6.101 A138.2794 B-6.8299 
N687 X-315.357 Y9.801 Z-5.946 A138.3868 B-6.8631 
N688 X-315.314 Y9.425 Z-5.788 A138.5480 B-6.8947 
N689 X-315.271 Y9.051 Z-5.629 A138.7640 B-6.9223 
N690 X-315.228 Y8.681 Z-5.470 A139.0353 B-6.9451 
N691 X-315.186 Y8.315 Z-5.311 A139.3607 B-6.9647 
N692 X-315.143 Y7.953 Z-5.152 A139.7387 B-6.9792 
N693 X-315.101 Y7.596 Z-4.995 A140.1658 B-6.9888 
N694 X-315.059 Y7.245 Z-4.841 A140.6374 B-6.9941 
N695 X-315.017 Y6.897 Z-4.689 A141.1484 B-6.9953 
N696 X-314.976 Y6.555 Z-4.540 A141.6939 B-6.9924 
N697 X-314.935 Y6.217 Z-4.395 A142.2691 B-6.9858 
N698 X-314.895 Y5.884 Z-4.253 A142.8699 B-6.9756 
N699 X-314.855 Y5.554 Z-4.115 A143.4932 B-6.9620 
N700 X-314.815 Y5.227 Z-3.981 A144.1361 B-6.9451 
N701 X-314.776 Y4.904 Z-3.851 A144.7968 B-6.9249 
N702 X-314.737 Y4.584 Z-3.725 A145.4737 B-6.9015 
N703 X-314.698 Y4.267 Z-3.603 A146.1654 B-6.8748 
N704 X-314.660 Y3.952 Z-3.484 A146.8709 B-6.8448 
N705 X-314.621 Y3.639 Z-3.370 A147.5895 B-6.8116 
N706 X-314.583 Y3.327 Z-3.259 A148.3202 B-6.7752 
N707 X-314.546 Y3.017 Z-3.152 A149.0624 B-6.7354 
N708 X-314.508 Y2.709 Z-3.049 A149.8155 B-6.6924 
N709 X-314.471 Y2.402 Z-2.949 A150.5787 B-6.6461 
N710 X-314.434 Y2.096 Z-2.854 A151.3515 B-6.5965 
N711 X-314.397 Y1.790 Z-2.762 A152.1331 B-6.5436 
N712 X-314.361 Y1.485 Z-2.674 A152.9228 B-6.4874 
N713 X-314.324 Y1.181 Z-2.591 A153.7199 B-6.4280 
N714 X-314.288 Y0.877 Z-2.511 A154.5235 B-6.3655 
N715 X-314.252 Y0.574 Z-2.435 A155.3330 B-6.2997 
N716 X-314.216 Y0.270 Z-2.363 A156.1475 B-6.2309 
N717 X-314.180 Y-0.033 Z-2.295 A156.9664 B-6.1590 
N718 X-314.145 Y-0.337 Z-2.231 A157.7888 B-6.0842 
N719 X-314.109 Y-0.641 Z-2.171 A158.6141 B-6.0065 
N720 X-314.074 Y-0.946 Z-2.116 A159.4415 B-5.9259 
N721 X-314.039 Y-1.250 Z-2.065 A160.2702 B-5.8427 
N722 X-314.004 Y-1.556 Z-2.018 A161.0996 B-5.7568 
N723 X-313.969 Y-1.862 Z-1.975 A161.9291 B-5.6685 
N724 X-313.934 Y-2.169 Z-1.937 A162.7578 B-5.5777 
N725 X-313.900 Y-2.476 Z-1.904 A163.5852 B-5.4847 
N726 X-313.865 Y-2.785 Z-1.874 A164.4106 B-5.3895 
N727 X-313.831 Y-3.094 Z-1.850 A165.2333 B-5.2923 
N728 X-313.797 Y-3.405 Z-1.830 A166.0527 B-5.1932 
N729 X-313.763 Y-3.716 Z-1.815 A166.8681 B-5.0925 
N730 X-313.730 Y-4.029 Z-1.804 A167.6789 B-4.9902 
N731 X-313.696 Y-4.344 Z-1.798 A168.4845 B-4.8865 
N732 X-313.663 Y-4.659 Z-1.798 A169.2842 B-4.7816 
N733 X-313.630 Y-4.976 Z-1.802 A170.0774 B-4.6757 
N734 X-313.597 Y-5.294 Z-1.811 A170.8635 B-4.5690 
N735 X-313.564 Y-5.614 Z-1.825 A171.6419 B-4.4616 
N736 X-313.532 Y-5.936 Z-1.845 A172.4119 B-4.3537 
N737 X-313.499 Y-6.259 Z-1.870 A173.1730 B-4.2457 
N738 X-313.467 Y-6.583 Z-1.899 A173.9245 B-4.1375 
N739 X-313.435 Y-6.910 Z-1.935 A174.6657 B-4.0295 
N740 X-313.404 Y-7.238 Z-1.976 A175.3962 B-3.9218 
N741 X-313.372 Y-7.568 Z-2.022 A176.1152 B-3.8147 
N742 X-313.341 Y-7.900 Z-2.073 A176.8223 B-3.7084 
N743 X-313.310 Y-8.234 Z-2.131 A177.5169 B-3.6030 
N744 X-313.280 Y-8.570 Z-2.194 A178.1985 B-3.4988 
N745 X-313.249 Y-8.908 Z-2.262 A178.8666 B-3.3959 
N746 X-313.219 Y-9.248 Z-2.337 A179.5208 B-3.2945 
N747 X-313.190 Y-9.590 Z-2.417 A180.1603 B-3.1948 
N748 X-313.160 Y-9.935 Z-2.504 A180.7847 B-3.0971 
N749 X-313.131 Y-10.281 Z-2.596 A181.3932 B-3.0014 
N750 X-313.102 Y-10.631 Z-2.694 A181.9848 B-2.9081 
N751 X-313.073 Y-10.983 Z-2.799 A182.5584 B-2.8174 
N752 X-313.045 Y-11.337 Z-2.910 A183.1128 B-2.7296 
N753 X-313.016 Y-11.695 Z-3.028 A183.6466 B-2.6449 
N754 X-312.989 Y-12.055 Z-3.151 A184.1584 B-2.5637 
N755 X-312.961 Y-12.417 Z-3.282 A184.6470 B-2.4862 
N756 X-312.934 Y-12.783 Z-3.419 A185.1111 B-2.4129 
N757 X-312.907 Y-13.151 Z-3.562 A185.5499 B-2.3440 
N758 X-312.881 Y-13.523 Z-3.712 A185.9627 B-2.2797 
N759 X-312.855 Y-13.897 Z-3.869 A186.3488 B-2.2203 
N760 X-312.829 Y-14.273 Z-4.031 A186.7080 B-2.1660 
N761 X-312.804 Y-14.651 Z-4.199 A187.0399 B-2.1169 
N762 X-312.779 Y-15.032 Z-4.373 A187.3445 B-2.0731 
N763 X-312.754 Y-15.413 Z-4.551 A187.6217 B-2.0345 
N764 X-312.730 Y-15.794 Z-4.734 A187.8717 B-2.0014 
N765 X-312.706 Y-16.175 Z-4.920 A188.0948 B-1.9733 
N766 X-312.683 Y-16.554 Z-5.109 A188.2920 B-1.9496 
N767 X-312.661 Y-16.930 Z-5.299 A188.4643 B-1.9313 
N768 X-312.639 Y-17.301 Z-5.490 A188.6134 B-1.9171 
N769 X-312.618 Y-17.665 Z-5.679 A188.7413 B-1.9059 
N770 X-312.597 Y-18.020 Z-5.865 A188.8502 B-1.8988 
N771 X-312.577 Y-18.364 Z-6.048 A188.9424 B-1.8944 
N772 X-312.559 Y-18.695 Z-6.225 A189.0198 B-1.8918 
N773 X-312.541 Y-19.011 Z-6.394 A189.0842 B-1.8910 
N774 X-312.524 Y-19.309 Z-6.555 A189.1367 B-1.8927 
N775 X-312.509 Y-19.589 Z-6.707 A189.1781 B-1.8946 
N776 X-312.494 Y-19.847 Z-6.847 A189.2081 B-1.8974 
N777 X-312.481 Y-20.084 Z-6.977 A189.2257 B-1.9025 
N778 X-312.470 Y-20.299 Z-7.095 A189.2291 B-1.9070 
N779 X-312.459 Y-20.491 Z-7.202 A189.2148 B-1.9136 
N780 X-312.450 Y-20.660 Z-7.298 A189.1777 B-1.9217 
N781 X-312.443 Y-20.807 Z-7.384 A189.1100 B-1.9311 
N782 X-312.436 Y-20.933 Z-7.461 A189.0004 B-1.9446 
N783 X-312.432 Y-21.040 Z-7.532 A188.8328 B-1.9625 
N784 X-312.428 Y-21.129 Z-7.598 A188.5853 B-1.9847 
N785 X-312.427 Y-21.201 Z-7.662 A188.2297 B-2.0168 
N786 X-312.427 Y-21.258 Z-7.728 A187.7340 B-2.0559 
N787 X-312.432 Y-21.301 Z-7.811 A186.9005 B-2.1173 
N788 X-312.443 Y-21.331 Z-7.943 A185.2776 B-2.2311 
N789 X-312.463 Y-21.352 Z-8.138 A182.6686 B-2.4018 
N790 X-312.494 Y-21.376 Z-8.408 A178.9111 B-2.6277 
N791 X-312.528 Y-21.416 Z-8.715 A174.5658 B-2.8747 
N792 X-312.560 Y-21.479 Z-9.042 A169.8315 B-3.1364 
N793 X-312.588 Y-21.564 Z-9.364 A165.0651 B-3.3955 
N794 X-312.613 Y-21.670 Z-9.669 A160.4388 B-3.6333 
N795 X-312.633 Y-21.790 Z-9.948 A156.0700 B-3.8485 
N796 X-312.650 Y-21.919 Z-10.198 A152.0148 B-4.0324 
N797 X-312.663 Y-22.052 Z-10.420 A148.2817 B-4.1838 
N798 X-312.676 Y-22.186 Z-10.616 A144.8531 B-4.3025 
N799 X-312.686 Y-22.320 Z-10.789 A141.6858 B-4.3959 
N800 X-312.695 Y-22.453 Z-10.944 A138.7397 B-4.4681 
N801 X-312.702 Y-22.585 Z-11.083 A135.9749 B-4.5241 
N802 X-312.707 Y-22.716 Z-11.209 A133.3541 B-4.5673 
N803 X-312.710 Y-22.847 Z-11.323 A130.8477 B-4.5988 
N804 X-312.713 Y-22.977 Z-11.429 A128.4297 B-4.6204 
N805 X-312.714 Y-23.108 Z-11.526 A126.0792 B-4.6330 
N806 X-312.714 Y-23.241 Z-11.616 A123.7798 B-4.6373 
N807 X-312.713 Y-23.374 Z-11.700 A121.5182 B-4.6341 
N808 X-312.711 Y-23.509 Z-11.777 A119.2843 B-4.6236 
N809 X-312.708 Y-23.646 Z-11.849 A117.0706 B-4.6058 
N810 X-312.704 Y-23.785 Z-11.915 A114.8706 B-4.5813 
N811 X-312.700 Y-23.925 Z-11.976 A112.6802 B-4.5500 
N812 X-312.694 Y-24.068 Z-12.032 A110.4958 B-4.5123 
N813 X-312.688 Y-24.212 Z-12.082 A108.3149 B-4.4682 
N814 X-312.681 Y-24.358 Z-12.127 A106.1357 B-4.4179 
N815 X-312.672 Y-24.506 Z-12.166 A103.9566 B-4.3613 
N816 X-312.664 Y-24.656 Z-12.200 A101.7765 B-4.2986 
N817 X-312.654 Y-24.807 Z-12.228 A99.5944 B-4.2292 
N818 X-312.644 Y-24.959 Z-12.251 A97.4090 B-4.1536 
N819 X-312.633 Y-25.112 Z-12.268 A95.2188 B-4.0713 
N820 X-312.621 Y-25.267 Z-12.280 A93.0220 B-3.9823 
N821 X-312.608 Y-25.422 Z-12.285 A90.8156 B-3.8866 
N822 X-312.595 Y-25.579 Z-12.285 A88.5964 B-3.7831 
N823 X-312.582 Y-25.737 Z-12.279 A86.3583 B-3.6725 
N824 X-312.567 Y-25.896 Z-12.267 A84.0957 B-3.5527 
N825 X-312.552 Y-26.058 Z-12.248 A81.7979 B-3.4244 
N826 X-312.536 Y-26.222 Z-12.222 A79.4534 B-3.2853 
N827 X-312.520 Y-26.389 Z-12.189 A77.0459 B-3.1352 
N828 X-312.502 Y-26.560 Z-12.148 A74.5558 B-2.9716 
N829 X-312.483 Y-26.737 Z-12.097 A71.9581 B-2.7940 
N830 X-312.463 Y-26.921 Z-12.034 A69.2247 B-2.5994 
N831 X-312.440 Y-27.112 Z-11.959 A66.3203 B-2.3895 
N832 X-312.415 Y-27.313 Z-11.867 A63.2136 B-2.1564 
N833 X-312.385 Y-27.524 Z-11.756 A59.8617 B-1.9105 
N834 X-312.351 Y-27.744 Z-11.623 A56.2460 B-1.6486 
N835 X-312.311 Y-27.984 Z-11.453 A52.1010 B-1.3350 
N836 X-312.263 Y-28.240 Z-11.240 A47.4291 B-0.9789 
N837 X-312.207 Y-28.488 Z-10.993 A42.5163 B-0.6273 
N838 X-312.149 Y-28.718 Z-10.715 A37.4470 B-0.2732 
N839 X-312.095 Y-28.921 Z-10.413 A32.3472 B0.0961 
N840 X-312.048 Y-29.084 Z-10.104 A27.4724 B0.4801 
N841 X-312.015 Y-29.176 Z-9.863 A23.9248 B0.7735 
N842 X-311.997 Y-29.205 Z-9.713 A21.9471 B0.9358 
N843 X-311.989 Y-29.196 Z-9.616 A20.9378 B1.0166 
N844 X-311.986 Y-29.162 Z-9.548 A20.5067 B1.0485 
N845 X-311.987 Y-29.108 Z-9.490 A20.3637 B1.0570 
N846 X-311.988 Y-29.040 Z-9.426 A20.2896 B1.0592 
N847 X-311.991 Y-28.957 Z-9.352 A20.2343 B1.0622 
N848 X-311.995 Y-28.858 Z-9.264 A20.1947 B1.0626 
N849 X-311.999 Y-28.741 Z-9.163 A20.1668 B1.0618 
N850 X-312.004 Y-28.604 Z-9.046 A20.1470 B1.0605 
N851 X-312.010 Y-28.447 Z-8.912 A20.1327 B1.0574 
N852 X-312.017 Y-28.270 Z-8.762 A20.1219 B1.0537 
N853 X-312.025 Y-28.072 Z-8.594 A20.1133 B1.0497 
N854 X-312.033 Y-27.852 Z-8.408 A20.1058 B1.0442 
N855 X-312.042 Y-27.613 Z-8.206 A20.0987 B1.0391 
N856 X-312.052 Y-27.355 Z-7.987 A20.0914 B1.0333 
N857 X-312.062 Y-27.078 Z-7.753 A20.0832 B1.0268 
N858 X-312.074 Y-26.785 Z-7.505 A20.0737 B1.0207 
N859 X-312.085 Y-26.478 Z-7.245 A20.0623 B1.0143 
N860 X-312.097 Y-26.157 Z-6.974 A20.0483 B1.0077 
N861 X-312.110 Y-25.826 Z-6.693 A20.0313 B1.0012 
N862 X-312.123 Y-25.485 Z-6.404 A20.0105 B0.9955 
N863 X-312.136 Y-25.137 Z-6.110 A19.9852 B0.9895 
N864 X-312.149 Y-24.784 Z-5.810 A19.9548 B0.9842 
N865 X-312.163 Y-24.426 Z-5.506 A19.9186 B0.9798 
N866 X-312.176 Y-24.065 Z-5.199 A19.8761 B0.9758 
N867 X-312.190 Y-23.702 Z-4.891 A19.8265 B0.9728 
N868 X-312.203 Y-23.338 Z-4.582 A19.7691 B0.9707 
N869 X-312.217 Y-22.974 Z-4.272 A19.7030 B0.9696 
N870 X-312.230 Y-22.610 Z-3.962 A19.6273 B0.9697 
N871 X-312.243 Y-22.247 Z-3.653 A19.5406 B0.9710 
N872 X-312.257 Y-21.885 Z-3.345 A19.4417 B0.9738 
N873 X-312.270 Y-21.524 Z-3.038 A19.3291 B0.9780 
N874 X-312.283 Y-21.166 Z-2.732 A19.2016 B0.9838 
N875 X-312.296 Y-20.809 Z-2.427 A19.0581 B0.9913 
N876 X-312.308 Y-20.454 Z-2.125 A18.8978 B1.0006 
N877 X-312.321 Y-20.101 Z-1.824 A18.7201 B1.0116 
N878 X-312.333 Y-19.750 Z-1.525 A18.5247 B1.0245 
N879 X-312.346 Y-19.401 Z-1.228 A18.3115 B1.0391 
N880 X-312.358 Y-19.053 Z-0.933 A18.0805 B1.0556 
N881 X-312.370 Y-18.708 Z-0.641 A17.8320 B1.0739 
N882 X-312.382 Y-18.364 Z-0.351 A17.5664 B1.0940 
N883 X-312.394 Y-18.022 Z-0.064 A17.2840 B1.1158 
N884 X-312.406 Y-17.681 Z0.221 A16.9854 B1.1392 
N885 X-312.418 Y-17.342 Z0.502 A16.6712 B1.1644 
N886 X-312.430 Y-17.004 Z0.781 A16.3418 B1.1912 
N887 X-312.442 Y-16.667 Z1.057 A15.9979 B1.2195 
N888 X-312.453 Y-16.331 Z1.331 A15.6399 B1.2495 
N889 X-312.465 Y-15.997 Z1.601 A15.2685 B1.2812 
N890 X-312.477 Y-15.663 Z1.868 A14.8839 B1.3144 
N891 X-312.489 Y-15.329 Z2.132 A14.4866 B1.3492 
N892 X-312.502 Y-14.997 Z2.394 A14.0770 B1.3858 
N893 X-312.514 Y-14.664 Z2.652 A13.6554 B1.4240 
N894 X-312.526 Y-14.333 Z2.907 A13.2219 B1.4640 
N895 X-312.538 Y-14.001 Z3.158 A12.7771 B1.5057 
N896 X-312.551 Y-13.670 Z3.407 A12.3211 B1.5493 
N897 X-312.564 Y-13.339 Z3.653 A11.8544 B1.5948 
N898 X-312.576 Y-13.008 Z3.895 A11.3773 B1.6422 
N899 X-312.589 Y-12.678 Z4.134 A10.8902 B1.6915 
N900 X-312.602 Y-12.347 Z4.369 A10.3934 B1.7428 
N901 X-312.615 Y-12.016 Z4.601 A9.8874 B1.7961 
N902 X-312.628 Y-11.685 Z4.830 A9.3724 B1.8516 
N903 X-312.642 Y-11.354 Z5.056 A8.8485 B1.9091 
N904 X-312.655 Y-11.023 Z5.278 A8.3158 B1.9688 
N905 X-312.669 Y-10.692 Z5.496 A7.7743 B2.0307 
N906 X-312.683 Y-10.361 Z5.711 A7.2240 B2.0949 
N907 X-312.697 Y-10.029 Z5.923 A6.6648 B2.1615 
N908 X-312.711 Y-9.698 Z6.131 A6.0964 B2.2304 
N909 X-312.725 Y-9.366 Z6.335 A5.5187 B2.3018 
N910 X-312.739 Y-9.035 Z6.536 A4.9315 B2.3757 
N911 X-312.754 Y-8.703 Z6.733 A4.3346 B2.4522 
N912 X-312.769 Y-8.372 Z6.926 A3.7277 B2.5313 
N913 X-312.783 Y-8.040 Z7.116 A3.1106 B2.6130 
N914 X-312.798 Y-7.709 Z7.302 A2.4830 B2.6974 
N915 X-312.813 Y-7.378 Z7.484 A1.8447 B2.7845 
N916 X-312.828 Y-7.047 Z7.662 A1.1955 B2.8744 
N917 X-312.844 Y-6.716 Z7.837 A0.5350 B2.9669 
N918 X-312.859 Y-6.386 Z8.007 A359.8631 B3.0621 
N919 X-312.874 Y-6.056 Z8.174 A359.1795 B3.1601 
N920 X-312.890 Y-5.727 Z8.337 A358.4839 B3.2607 
N921 X-312.905 Y-5.398 Z8.496 A357.7760 B3.3639 
N922 X-312.921 Y-5.069 Z8.651 A357.0558 B3.4698 
N923 X-312.937 Y-4.742 Z8.801 A356.3228 B3.5782 
N924 X-312.953 Y-4.415 Z8.948 A355.5770 B3.6891 
N925 X-312.969 Y-4.088 Z9.091 A354.8180 B3.8024 
N926 X-312.985 Y-3.763 Z9.229 A354.0456 B3.9180 
N927 X-313.001 Y-3.438 Z9.364 A353.2597 B4.0359 
N928 X-313.017 Y-3.115 Z9.494 A352.4601 B4.1559 
N929 X-313.034 Y-2.792 Z9.620 A351.6464 B4.2778 
N930 X-313.050 Y-2.470 Z9.742 A350.8185 B4.4016 
N931 X-313.066 Y-2.150 Z9.859 A349.9762 B4.5271 
N932 X-313.083 Y-1.831 Z9.973 A349.1192 B4.6542 
N933 X-313.099 Y-1.513 Z10.082 A348.2475 B4.7826 
N934 X-313.116 Y-1.196 Z10.187 A347.3606 B4.9123 
N935 X-313.133 Y-0.881 Z10.288 A346.4584 B5.0429 
N936 X-313.149 Y-0.567 Z10.384 A345.5407 B5.1743 
N937 X-313.166 Y-0.255 Z10.476 A344.6072 B5.3064 
N938 X-313.183 Y0.055 Z10.564 A343.6576 B5.4388 
N939 X-313.200 Y0.364 Z10.648 A342.6917 B5.5713 
N940 X-313.217 Y0.672 Z10.727 A341.7092 B5.7038 
N941 X-313.234 Y0.977 Z10.803 A340.7101 B5.8361 
N942 X-313.251 Y1.281 Z10.874 A339.6942 B5.9679 
N943 X-313.268 Y1.583 Z10.940 A338.6614 B6.0988 
N944 X-313.285 Y1.883 Z11.003 A337.6118 B6.2287 
N945 X-313.303 Y2.182 Z11.061 A336.5454 B6.3574 
N946 X-313.320 Y2.479 Z11.115 A335.4625 B6.4845 
N947 X-313.338 Y2.773 Z11.165 A334.3631 B6.6098 
N948 X-313.355 Y3.066 Z11.211 A333.2476 B6.7329 
N949 X-313.373 Y3.358 Z11.252 A332.1162 B6.8537 
N950 X-313.391 Y3.647 Z11.289 A330.9693 B6.9719 
N951 X-313.409 Y3.934 Z11.322 A329.8072 B7.0872 
N952 X-313.427 Y4.220 Z11.350 A328.6303 B7.1992 
N953 X-313.445 Y4.504 Z11.374 A327.4391 B7.3077 
N954 X-313.463 Y4.786 Z11.394 A326.2341 B7.4126 
N955 X-313.482 Y5.066 Z11.409 A325.0157 B7.5135 
N956 X-313.501 Y5.344 Z11.420 A323.7846 B7.6102 
N957 X-313.520 Y5.620 Z11.427 A322.5411 B7.7024 
N958 X-313.539 Y5.895 Z11.429 A321.2858 B7.7898 
N959 X-313.558 Y6.168 Z11.426 A320.0193 B7.8726 
N960 X-313.578 Y6.439 Z11.419 A318.7421 B7.9503 
N961 X-313.597 Y6.708 Z11.407 A317.4548 B8.0227 
N962 X-313.617 Y6.976 Z11.391 A316.1580 B8.0897 
N963 X-313.638 Y7.241 Z11.370 A314.8523 B8.1511 
N964 X-313.658 Y7.505 Z11.344 A313.5383 B8.2070 
N965 X-313.679 Y7.767 Z11.313 A312.2167 B8.2570 
N966 X-313.700 Y8.028 Z11.278 A310.8882 B8.3012 
N967 X-313.721 Y8.286 Z11.238 A309.5535 B8.3392 
N968 X-313.743 Y8.543 Z11.193 A308.2132 B8.3711 
N969 X-313.765 Y8.797 Z11.142 A306.8682 B8.3969 
N970 X-313.787 Y9.050 Z11.087 A305.5190 B8.4165 
N971 X-313.810 Y9.301 Z11.027 A304.1665 B8.4298 
N972 X-313.833 Y9.550 Z10.961 A302.8113 B8.4368 
N973 X-313.856 Y9.797 Z10.890 A301.4542 B8.4375 
N974 X-313.879 Y10.042 Z10.814 A300.0957 B8.4319 
N975 X-313.903 Y10.284 Z10.733 A298.7367 B8.4201 
N976 X-313.927 Y10.525 Z10.646 A297.3778 B8.4020 
N977 X-313.952 Y10.763 Z10.554 A296.0198 B8.3778 
N978 X-313.976 Y10.998 Z10.456 A294.6635 B8.3476 
N979 X-314.001 Y11.232 Z10.353 A293.3096 B8.3113 
N980 X-314.027 Y11.462 Z10.244 A291.9589 B8.2689 
N981 X-314.052 Y11.690 Z10.129 A290.6121 B8.2207 
N982 X-314.078 Y11.915 Z10.009 A289.2698 B8.1667 
N983 X-314.104 Y12.137 Z9.883 A287.9325 B8.1070 
N984 X-314.131 Y12.357 Z9.752 A286.6005 B8.0418 
N985 X-314.157 Y12.573 Z9.615 A285.2742 B7.9713 
N986 X-314.184 Y12.786 Z9.472 A283.9537 B7.8955 
N987 X-314.211 Y12.996 Z9.323 A282.6390 B7.8146 
N988 X-314.238 Y13.202 Z9.169 A281.3300 B7.7288 
N989 X-314.266 Y13.405 Z9.010 A280.0267 B7.6384 
N990 X-314.294 Y13.605 Z8.845 A278.7288 B7.5435 
N991 X-314.321 Y13.800 Z8.674 A277.4364 B7.4445 
N992 X-314.349 Y13.993 Z8.498 A276.1496 B7.3415 
N993 X-314.378 Y14.181 Z8.316 A274.8688 B7.2346 
N994 X-314.406 Y14.365 Z8.129 A273.5949 B7.1241 
N995 X-314.434 Y14.545 Z7.936 A272.3287 B7.0100 
N996 X-314.463 Y14.721 Z7.738 A271.0713 B6.8927 
N997 X-314.492 Y14.891 Z7.535 A269.8241 B6.7726 
N998 X-314.520 Y15.058 Z7.326 A268.5883 B6.6496 
N999 X-314.549 Y15.219 Z7.112 A267.3653 B6.5239 
N1000 X-314.578 Y15.374 Z6.894 A266.1559 B6.3954 
N1001 X-314.606 Y15.525 Z6.670 A264.9609 B6.2644 
N1002 X-314.634 Y15.670 Z6.442 A263.7803 B6.1315 
N1003 X-314.662 Y15.810 Z6.210 A262.6137 B5.9966 
N1004 X-314.690 Y15.944 Z5.973 A261.4599 B5.8601 
N1005 X-314.718 Y16.073 Z5.733 A260.3172 B5.7222 
N1006 X-314.746 Y16.197 Z5.489 A259.1835 B5.5828 
N1007 X-314.773 Y16.315 Z5.242 A258.0566 B5.4419 
N1008 X-314.800 Y16.429 Z4.991 A256.9341 B5.3001 
N1009 X-314.827 Y16.537 Z4.738 A255.8140 B5.1584 
N1010 X-314.854 Y16.640 Z4.482 A254.6948 B5.0169 
N1011 X-314.881 Y16.738 Z4.224 A253.5760 B4.8740 
N1012 X-314.907 Y16.831 Z3.964 A252.4576 B4.7305 
N1013 X-314.934 Y16.918 Z3.702 A251.3401 B4.5876 
N1014 X-314.960 Y17.000 Z3.439 A250.2245 B4.4452 
N1015 X-314.985 Y17.077 Z3.176 A249.1121 B4.3019 
N1016 X-315.010 Y17.148 Z2.912 A248.0035 B4.1583 
N1017 X-315.035 Y17.214 Z2.649 A246.8984 B4.0153 
N1018 X-315.059 Y17.274 Z2.386 A245.7962 B3.8728 
N1019 X-315.082 Y17.329 Z2.124 A244.6966 B3.7312 
N1020 X-315.106 Y17.379 Z1.865 A243.6006 B3.5912 
N1021 X-315.128 Y17.424 Z1.609 A242.5108 B3.4531 
N1022 X-315.150 Y17.463 Z1.357 A241.4313 B3.3151 
N1023 X-315.171 Y17.498 Z1.109 A240.3648 B3.1791 
N1024 X-315.191 Y17.528 Z0.867 A239.3122 B3.0424 
N1025 X-315.211 Y17.554 Z0.631 A238.2714 B2.9077 
N1026 X-315.229 Y17.577 Z0.403 A237.2387 B2.7739 
N1027 X-315.247 Y17.598 Z0.182 A236.2103 B2.6420 
N1028 X-315.265 Y17.616 Z-0.030 A235.1835 B2.5104 
N1029 X-315.281 Y17.634 Z-0.233 A234.1548 B2.3777 
N1030 X-315.296 Y17.651 Z-0.428 A233.1168 B2.2408 
N1031 X-315.310 Y17.669 Z-0.614 A232.0526 B2.0979 
N1032 X-315.323 Y17.691 Z-0.794 A230.9323 B1.9448 
N1033 X-315.337 Y17.719 Z-0.968 A229.7157 B1.7836 
N1034 X-315.352 Y17.754 Z-1.140 A228.3604 B1.6153 
N1035 X-315.370 Y17.799 Z-1.311 A226.8299 B1.4320 
N1036 X-315.390 Y17.853 Z-1.484 A225.0983 B1.2340 
N1037 X-315.413 Y17.916 Z-1.662 A223.1560 B1.0248 
N1038 X-315.439 Y17.985 Z-1.845 A221.0099 B0.8009 
N1039 X-315.467 Y18.059 Z-2.033 A218.6805 B0.5617 
N1040 X-315.496 Y18.135 Z-2.227 A216.1970 B0.3075 
N1041 X-315.526 Y18.210 Z-2.426 A213.5924 B0.0389 
N1042 X-315.555 Y18.281 Z-2.630 A210.9001 B-0.2401 
N1043 X-315.585 Y18.347 Z-2.837 A208.1513 B-0.5250 
N1044 X-315.614 Y18.405 Z-3.046 A205.3731 B-0.8115 
N1045 X-315.642 Y18.454 Z-3.256 A202.5881 B-1.0957 
N1046 X-315.670 Y18.494 Z-3.466 A199.8141 B-1.3759 
N1047 X-315.697 Y18.523 Z-3.676 A197.0643 B-1.6543 
N1048 X-315.721 Y18.542 Z-3.883 A194.3485 B-1.9285 
N1049 X-315.745 Y18.550 Z-4.089 A191.6734 B-2.1963 
N1050 X-315.767 Y18.548 Z-4.292 A189.0438 B-2.4562 
N1051 X-315.788 Y18.534 Z-4.491 A186.4638 B-2.7068 
N1052 X-315.808 Y18.509 Z-4.687 A183.9366 B-2.9469 
N1053 X-315.827 Y18.473 Z-4.878 A181.4655 B-3.1762 
N1054 X-315.844 Y18.427 Z-5.063 A179.0537 B-3.3961 
N1055 X-315.860 Y18.370 Z-5.244 A176.7041 B-3.6067 
N1056 X-315.874 Y18.302 Z-5.418 A174.4193 B-3.8077 
N1057 X-315.886 Y18.224 Z-5.586 A172.2011 B-3.9995 
N1058 X-315.897 Y18.135 Z-5.747 A170.0498 B-4.1828 
N1059 X-315.906 Y18.036 Z-5.901 A167.9645 B-4.3574 
N1060 X-315.913 Y17.926 Z-6.048 A165.9437 B-4.5213 
N1061 X-315.920 Y17.806 Z-6.187 A163.9851 B-4.6763 
N1062 X-315.924 Y17.675 Z-6.319 A162.0868 B-4.8251 
N1063 X-315.926 Y17.533 Z-6.442 A160.2479 B-4.9686 
N1064 X-315.927 Y17.380 Z-6.557 A158.4687 B-5.1036 
N1065 X-315.926 Y17.216 Z-6.664 A156.7500 B-5.2314 
N1066 X-315.923 Y17.041 Z-6.760 A155.0928 B-5.3533 
N1067 X-315.918 Y16.854 Z-6.847 A153.4981 B-5.4679 
N1068 X-315.911 Y16.655 Z-6.924 A151.9665 B-5.5767 
N1069 X-315.902 Y16.444 Z-6.989 A150.4994 B-5.6790 
N1070 X-315.891 Y16.221 Z-7.043 A149.0992 B-5.7765 
N1071 X-315.877 Y15.986 Z-7.085 A147.7712 B-5.8683 
N1072 X-315.862 Y15.739 Z-7.113 A146.5219 B-5.9549 
N1073 X-315.844 Y15.480 Z-7.128 A145.3576 B-6.0353 
N1074 X-315.824 Y15.210 Z-7.128 A144.2814 B-6.1101 
N1075 X-315.802 Y14.928 Z-7.115 A143.2930 B-6.1804 
N1076 X-315.778 Y14.634 Z-7.087 A142.3907 B-6.2467 
N1077 X-315.752 Y14.329 Z-7.046 A141.5737 B-6.3115 
N1078 X-315.723 Y14.014 Z-6.990 A140.8448 B-6.3729 
N1079 X-315.693 Y13.688 Z-6.921 A140.2081 B-6.4320 
N1080 X-315.661 Y13.353 Z-6.837 A139.6670 B-6.4876 
N1081 X-315.627 Y13.009 Z-6.741 A139.2217 B-6.5384 
N1082 X-315.591 Y12.658 Z-6.633 A138.8681 B-6.5870 
N1083 X-315.555 Y12.299 Z-6.515 A138.6000 B-6.6310 
N1084 X-315.516 Y11.935 Z-6.387 A138.4086 B-6.6753 
N1085 X-315.477 Y11.565 Z-6.252 A138.2868 B-6.7154 
N1086 X-315.437 Y11.190 Z-6.111 A138.2274 B-6.7553 
N1087 X-315.396 Y10.813 Z-5.964 A138.2258 B-6.7940 
N1088 X-315.354 Y10.434 Z-5.814 A138.2794 B-6.8299 
N1089 X-315.311 Y10.055 Z-5.660 A138.3868 B-6.8631 
N1090 X-315.268 Y9.677 Z-5.503 A138.5480 B-6.8947 
N1091 X-315.225 Y9.301 Z-5.345 A138.7640 B-6.9223 
N1092 X-315.183 Y8.927 Z-5.187 A139.0353 B-6.9451 
N1093 X-315.140 Y8.558 Z-5.028 A139.3607 B-6.9647 
N1094 X-315.098 Y8.193 Z-4.870 A139.7387 B-6.9792 
N1095 X-315.056 Y7.832 Z-4.713 A140.1658 B-6.9888 
N1096 X-315.014 Y7.476 Z-4.558 A140.6374 B-6.9941 
N1097 X-314.973 Y7.125 Z-4.406 A141.1484 B-6.9953 
N1098 X-314.932 Y6.779 Z-4.257 A141.6939 B-6.9924 
N1099 X-314.892 Y6.436 Z-4.112 A142.2691 B-6.9858 
N1100 X-314.852 Y6.098 Z-3.970 A142.8699 B-6.9756 
N1101 X-314.812 Y5.764 Z-3.832 A143.4932 B-6.9620 
N1102 X-314.772 Y5.433 Z-3.697 A144.1361 B-6.9451 
N1103 X-314.734 Y5.105 Z-3.567 A144.7968 B-6.9249 
N1104 X-314.695 Y4.780 Z-3.440 A145.4737 B-6.9015 
N1105 X-314.657 Y4.458 Z-3.318 A146.1654 B-6.8748 
N1106 X-314.619 Y4.138 Z-3.199 A146.8709 B-6.8448 
N1107 X-314.581 Y3.820 Z-3.084 A147.5895 B-6.8116 
N1108 X-314.544 Y3.504 Z-2.973 A148.3202 B-6.7752 
N1109 X-314.506 Y3.189 Z-2.866 A149.0624 B-6.7354 
N1110 X-314.469 Y2.876 Z-2.763 A149.8155 B-6.6924 
N1111 X-314.433 Y2.563 Z-2.663 A150.5787 B-6.6461 
N1112 X-314.396 Y2.252 Z-2.568 A151.3515 B-6.5965 
N1113 X-314.360 Y1.942 Z-2.476 A152.1331 B-6.5436 
N1114 X-314.324 Y1.632 Z-2.388 A152.9228 B-6.4874 
N1115 X-314.288 Y1.322 Z-2.305 A153.7199 B-6.4280 
N1116 X-314.253 Y1.013 Z-2.225 A154.5235 B-6.3655 
N1117 X-314.217 Y0.705 Z-2.149 A155.3330 B-6.2997 
N1118 X-314.182 Y0.396 Z-2.078 A156.1475 B-6.2309 
N1119 X-314.147 Y0.087 Z-2.010 A156.9664 B-6.1590 
N1120 X-314.112 Y-0.221 Z-1.947 A157.7888 B-6.0842 
N1121 X-314.077 Y-0.530 Z-1.888 A158.6141 B-6.0065 
N1122 X-314.043 Y-0.840 Z-1.833 A159.4415 B-5.9259 
N1123 X-314.008 Y-1.149 Z-1.783 A160.2702 B-5.8427 
N1124 X-313.974 Y-1.460 Z-1.737 A161.0996 B-5.7568 
N1125 X-313.940 Y-1.770 Z-1.695 A161.9291 B-5.6685 
N1126 X-313.906 Y-2.082 Z-1.658 A162.7578 B-5.5777 
N1127 X-313.872 Y-2.394 Z-1.626 A163.5852 B-5.4847 
N1128 X-313.838 Y-2.707 Z-1.598 A164.4106 B-5.3895 
N1129 X-313.805 Y-3.022 Z-1.574 A165.2333 B-5.2923 
N1130 X-313.771 Y-3.337 Z-1.556 A166.0527 B-5.1932 
N1131 X-313.738 Y-3.653 Z-1.542 A166.8681 B-5.0925 
N1132 X-313.705 Y-3.970 Z-1.533 A167.6789 B-4.9902 
N1133 X-313.673 Y-4.289 Z-1.529 A168.4845 B-4.8865 
N1134 X-313.640 Y-4.608 Z-1.530 A169.2842 B-4.7816 
N1135 X-313.608 Y-4.929 Z-1.536 A170.0774 B-4.6757 
N1136 X-313.575 Y-5.252 Z-1.547 A170.8635 B-4.5690 
N1137 X-313.543 Y-5.576 Z-1.563 A171.6419 B-4.4616 
N1138 X-313.511 Y-5.901 Z-1.584 A172.4119 B-4.3537 
N1139 X-313.480 Y-6.228 Z-1.611 A173.1730 B-4.2457 
N1140 X-313.448 Y-6.556 Z-1.643 A173.9245 B-4.1375 
N1141 X-313.417 Y-6.886 Z-1.680 A174.6657 B-4.0295 
N1142 X-313.386 Y-7.218 Z-1.723 A175.3962 B-3.9218 
N1143 X-313.356 Y-7.551 Z-1.772 A176.1152 B-3.8147 
N1144 X-313.325 Y-7.886 Z-1.826 A176.8223 B-3.7084 
N1145 X-313.295 Y-8.223 Z-1.885 A177.5169 B-3.6030 
N1146 X-313.265 Y-8.562 Z-1.951 A178.1985 B-3.4988 
N1147 X-313.235 Y-8.903 Z-2.022 A178.8666 B-3.3959 
N1148 X-313.206 Y-9.246 Z-2.099 A179.5208 B-3.2945 
N1149 X-313.176 Y-9.591 Z-2.181 A180.1603 B-3.1948 
N1150 X-313.147 Y-9.938 Z-2.270 A180.7847 B-3.0971 
N1151 X-313.119 Y-10.287 Z-2.365 A181.3932 B-3.0014 
N1152 X-313.090 Y-10.639 Z-2.466 A181.9848 B-2.9081 
N1153 X-313.062 Y-10.993 Z-2.573 A182.5584 B-2.8174 
N1154 X-313.034 Y-11.349 Z-2.687 A183.1128 B-2.7296 
N1155 X-313.006 Y-11.709 Z-2.807 A183.6466 B-2.6449 
N1156 X-312.979 Y-12.070 Z-2.933 A184.1584 B-2.5637 
N1157 X-312.952 Y-12.435 Z-3.066 A184.6470 B-2.4862 
N1158 X-312.925 Y-12.802 Z-3.206 A185.1111 B-2.4129 
N1159 X-312.899 Y-13.172 Z-3.352 A185.5499 B-2.3440 
N1160 X-312.872 Y-13.544 Z-3.505 A185.9627 B-2.2797 
N1161 X-312.847 Y-13.919 Z-3.664 A186.3488 B-2.2203 
N1162 X-312.821 Y-14.297 Z-3.829 A186.7080 B-2.1660 
N1163 X-312.796 Y-14.676 Z-3.999 A187.0399 B-2.1169 
N1164 X-312.771 Y-15.057 Z-4.176 A187.3445 B-2.0731 
N1165 X-312.747 Y-15.439 Z-4.357 A187.6217 B-2.0345 
N1166 X-312.723 Y-15.821 Z-4.542 A187.8717 B-2.0014 
N1167 X-312.700 Y-16.202 Z-4.731 A188.0948 B-1.9733 
N1168 X-312.677 Y-16.581 Z-4.922 A188.2920 B-1.9496 
N1169 X-312.654 Y-16.957 Z-5.115 A188.4643 B-1.9313 
N1170 X-312.632 Y-17.328 Z-5.308 A188.6134 B-1.9171 
N1171 X-312.611 Y-17.692 Z-5.500 A188.7413 B-1.9059 
N1172 X-312.591 Y-18.047 Z-5.689 A188.8502 B-1.8988 
N1173 X-312.571 Y-18.391 Z-5.873 A188.9424 B-1.8944 
N1174 X-312.553 Y-18.722 Z-6.053 A189.0198 B-1.8918 
N1175 X-312.535 Y-19.038 Z-6.225 A189.0842 B-1.8910 
N1176 X-312.519 Y-19.336 Z-6.388 A189.1367 B-1.8927 
N1177 X-312.503 Y-19.615 Z-6.542 A189.1781 B-1.8946 
N1178 X-312.489 Y-19.874 Z-6.685 A189.2081 B-1.8974 
N1179 X-312.476 Y-20.110 Z-6.818 A189.2257 B-1.9025 
N1180 X-312.464 Y-20.324 Z-6.938 A189.2291 B-1.9070 
N1181 X-312.454 Y-20.516 Z-7.048 A189.2148 B-1.9136 
N1182 X-312.445 Y-20.684 Z-7.146 A189.1777 B-1.9217 
N1183 X-312.438 Y-20.831 Z-7.234 A189.1100 B-1.9311 
N1184 X-312.431 Y-20.957 Z-7.314 A189.0004 B-1.9446 
N1185 X-312.426 Y-21.063 Z-7.387 A188.8328 B-1.9625 
N1186 X-312.423 Y-21.150 Z-7.455 A188.5853 B-1.9847 
N1187 X-312.422 Y-21.221 Z-7.522 A188.2297 B-2.0168 
N1188 X-312.422 Y-21.277 Z-7.590 A187.7340 B-2.0559 
N1189 X-312.427 Y-21.318 Z-7.676 A186.9005 B-2.1173 
N1190 X-312.438 Y-21.343 Z-7.809 A185.2776 B-2.2311 
N1191 X-312.458 Y-21.358 Z-8.006 A182.6686 B-2.4018 
N1192 X-312.488 Y-21.374 Z-8.279 A178.9111 B-2.6277 
N1193 X-312.521 Y-21.404 Z-8.589 A174.5658 B-2.8747 
N1194 X-312.553 Y-21.457 Z-8.920 A169.8315 B-3.1364 
N1195 X-312.581 Y-21.533 Z-9.247 A165.0651 B-3.3955 
N1196 X-312.606 Y-21.630 Z-9.557 A160.4388 B-3.6333 
N1197 X-312.625 Y-21.743 Z-9.841 A156.0700 B-3.8485 
N1198 X-312.642 Y-21.865 Z-10.097 A152.0148 B-4.0324 
N1199 X-312.655 Y-21.993 Z-10.325 A148.2817 B-4.1838 
N1200 X-312.668 Y-22.123 Z-10.526 A144.8531 B-4.3025 
N1201 X-312.678 Y-22.254 Z-10.705 A141.6858 B-4.3959 
N1202 X-312.687 Y-22.385 Z-10.866 A138.7397 B-4.4681 
N1203 X-312.694 Y-22.514 Z-11.010 A135.9749 B-4.5241 
N1204 X-312.699 Y-22.644 Z-11.141 A133.3541 B-4.5673 
N1205 X-312.703 Y-22.773 Z-11.260 A130.8477 B-4.5988 
N1206 X-312.705 Y-22.903 Z-11.370 A128.4297 B-4.6204 
N1207 X-312.706 Y-23.034 Z-11.472 A126.0792 B-4.6330 
N1208 X-312.707 Y-23.166 Z-11.567 A123.7798 B-4.6373 
N1209 X-312.706 Y-23.300 Z-11.655 A121.5182 B-4.6341 
N1210 X-312.704 Y-23.436 Z-11.736 A119.2843 B-4.6236 
N1211 X-312.701 Y-23.573 Z-11.812 A117.0706 B-4.6058 
N1212 X-312.698 Y-23.713 Z-11.882 A114.8706 B-4.5813 
N1213 X-312.694 Y-23.854 Z-11.947 A112.6802 B-4.5500 
N1214 X-312.688 Y-23.998 Z-12.006 A110.4958 B-4.5123 
N1215 X-312.682 Y-24.144 Z-12.059 A108.3149 B-4.4682 
N1216 X-312.675 Y-24.292 Z-12.107 A106.1357 B-4.4179 
N1217 X-312.667 Y-24.441 Z-12.150 A103.9566 B-4.3613 
N1218 X-312.659 Y-24.593 Z-12.187 A101.7765 B-4.2986 
N1219 X-312.649 Y-24.745 Z-12.218 A99.5944 B-4.2292 
N1220 X-312.639 Y-24.900 Z-12.243 A97.4090 B-4.1536 
N1221 X-312.629 Y-25.055 Z-12.263 A95.2188 B-4.0713 
N1222 X-312.617 Y-25.212 Z-12.277 A93.0220 B-3.9823 
N1223 X-312.605 Y-25.370 Z-12.285 A90.8156 B-3.8866 
N1224 X-312.592 Y-25.529 Z-12.287 A88.5964 B-3.7831 
N1225 X-312.579 Y-25.690 Z-12.282 A86.3583 B-3.6725 
N1226 X-312.565 Y-25.852 Z-12.271 A84.0957 B-3.5527 
N1227 X-312.550 Y-26.016 Z-12.254 A81.7979 B-3.4244 
N1228 X-312.534 Y-26.183 Z-12.230 A79.4534 B-3.2853 
N1229 X-312.518 Y-26.353 Z-12.198 A77.0459 B-3.1352 
N1230 X-312.500 Y-26.527 Z-12.157 A74.5558 B-2.9716 
N1231 X-312.482 Y-26.706 Z-12.107 A71.9581 B-2.7940 
N1232 X-312.462 Y-26.893 Z-12.045 A69.2247 B-2.5994 
N1233 X-312.439 Y-27.087 Z-11.970 A66.3203 B-2.3895 
N1234 X-312.414 Y-27.291 Z-11.878 A63.2136 B-2.1564 
N1235 X-312.385 Y-27.505 Z-11.768 A59.8617 B-1.9105 
N1236 X-312.351 Y-27.727 Z-11.634 A56.2460 B-1.6486 
N1237 X-312.311 Y-27.971 Z-11.463 A52.1010 B-1.3350 
N1238 X-312.262 Y-28.229 Z-11.250 A47.4291 B-0.9789 
N1239 X-312.207 Y-28.479 Z-11.002 A42.5163 B-0.6273 
N1240 X-312.149 Y-28.712 Z-10.723 A37.4470 B-0.2732 
N1241 X-312.095 Y-28.917 Z-10.419 A32.3472 B0.0961 
N1242 X-312.048 Y-29.081 Z-10.109 A27.4724 B0.4801 
N1243 X-312.015 Y-29.175 Z-9.865 A23.9248 B0.7735 
N1244 X-311.997 Y-29.205 Z-9.713 A21.9471 B0.9358 
N1245 X-311.989 Y-29.196 Z-9.616 A20.9401 B1.0165 
N1246 X-311.986 Y-29.162 Z-9.549 A20.5091 B1.0485 
N1247 X-311.987 Y-29.109 Z-9.491 A20.3659 B1.0571 
N1248 X-311.988 Y-29.041 Z-9.427 A20.2915 B1.0594 
N1249 X-311.991 Y-28.958 Z-9.353 A20.2358 B1.0626 
N1250 X-311.995 Y-28.859 Z-9.265 A20.1959 B1.0633 
N1251 X-311.999 Y-28.742 Z-9.164 A20.1677 B1.0627 
N1252 X-312.005 Y-28.606 Z-9.048 A20.1477 B1.0617 
N1253 X-312.011 Y-28.450 Z-8.914 A20.1332 B1.0591 
N1254 X-312.017 Y-28.273 Z-8.764 A20.1223 B1.0558 
N1255 X-312.025 Y-28.075 Z-8.596 A20.1135 B1.0524 
N1256 X-312.033 Y-27.856 Z-8.411 A20.1060 B1.0476 
N1257 X-312.043 Y-27.618 Z-8.209 A20.0988 B1.0434 
N1258 X-312.053 Y-27.360 Z-7.991 A20.0913 B1.0387 
N1259 X-312.063 Y-27.084 Z-7.758 A20.0831 B1.0334 
N1260 X-312.074 Y-26.791 Z-7.510 A20.0735 B1.0288 
N1261 X-312.086 Y-26.484 Z-7.251 A20.0621 B1.0242 
N1262 X-312.098 Y-26.165 Z-6.980 A20.0481 B1.0197 
N1263 X-312.111 Y-25.834 Z-6.700 A20.0311 B1.0159 
N1264 X-312.124 Y-25.494 Z-6.412 A20.0102 B1.0133 
N1265 X-312.138 Y-25.147 Z-6.118 A19.9850 B1.0111 
N1266 X-312.151 Y-24.795 Z-5.819 A19.9546 B1.0103 
N1267 X-312.165 Y-24.438 Z-5.516 A19.9185 B1.0112 
N1268 X-312.179 Y-24.078 Z-5.210 A19.8760 B1.0135 
N1269 X-312.193 Y-23.716 Z-4.902 A19.8264 B1.0177 
N1270 X-312.207 Y-23.353 Z-4.594 A19.7691 B1.0240 
N1271 X-312.221 Y-22.989 Z-4.285 A19.7032 B1.0327 
N1272 X-312.235 Y-22.627 Z-3.976 A19.6277 B1.0438 
N1273 X-312.249 Y-22.265 Z-3.668 A19.5412 B1.0578 
N1274 X-312.263 Y-21.904 Z-3.361 A19.4426 B1.0747 
N1275 X-312.276 Y-21.545 Z-3.055 A19.3304 B1.0948 
N1276 X-312.290 Y-21.187 Z-2.750 A19.2034 B1.1181 
N1277 X-312.303 Y-20.831 Z-2.446 A19.0604 B1.1448 
N1278 X-312.316 Y-20.478 Z-2.144 A18.9006 B1.1749 
N1279 X-312.329 Y-20.126 Z-1.844 A18.7236 B1.2083 
N1280 X-312.341 Y-19.776 Z-1.546 A18.5288 B1.2447 
N1281 X-312.353 Y-19.428 Z-1.250 A18.3162 B1.2842 
N1282 X-312.364 Y-19.082 Z-0.957 A18.0858 B1.3262 
N1283 X-312.375 Y-18.738 Z-0.665 A17.8378 B1.3704 
N1284 X-312.385 Y-18.395 Z-0.376 A17.5727 B1.4166 
N1285 X-312.395 Y-18.054 Z-0.090 A17.2907 B1.4638 
N1286 X-312.404 Y-17.714 Z0.194 A16.9925 B1.5117 
N1287 X-312.412 Y-17.376 Z0.475 A16.6785 B1.5602 
N1288 X-312.419 Y-17.039 Z0.753 A16.3493 B1.6081 
N1289 X-312.425 Y-16.703 Z1.029 A16.0055 B1.6554 
N1290 X-312.431 Y-16.368 Z1.302 A15.6475 B1.7016 
N1291 X-312.435 Y-16.034 Z1.571 A15.2759 B1.7464 
N1292 X-312.439 Y-15.700 Z1.838 A14.8912 B1.7896 
N1293 X-312.442 Y-15.368 Z2.102 A14.4937 B1.8311 
N1294 X-312.445 Y-15.036 Z2.362 A14.0837 B1.8709 
N1295 X-312.447 Y-14.704 Z2.620 A13.6617 B1.9090 
N1296 X-312.448 Y-14.373 Z2.874 A13.2278 B1.9458 
N1297 X-312.449 Y-14.043 Z3.125 A12.7825 B1.9814 
N1298 X-312.450 Y-13.712 Z3.373 A12.3260 B2.0160 
N1299 X-312.450 Y-13.382 Z3.618 A11.8587 B2.0502 
N1300 X-312.451 Y-13.052 Z3.860 A11.3810 B2.0841 
N1301 X-312.451 Y-12.722 Z4.098 A10.8933 B2.1180 
N1302 X-312.452 Y-12.392 Z4.333 A10.3960 B2.1527 
N1303 X-312.453 Y-12.062 Z4.565 A9.8893 B2.1881 
N1304 X-312.454 Y-11.731 Z4.793 A9.3737 B2.2245 
N1305 X-312.455 Y-11.401 Z5.017 A8.8492 B2.2625 
N1306 X-312.457 Y-11.071 Z5.239 A8.3158 B2.3023 
N1307 X-312.459 Y-10.741 Z5.456 A7.7738 B2.3439 
N1308 X-312.462 Y-10.410 Z5.671 A7.2228 B2.3877 
N1309 X-312.465 Y-10.080 Z5.881 A6.6629 B2.4340 
N1310 X-312.469 Y-9.749 Z6.089 A6.0939 B2.4828 
N1311 X-312.473 Y-9.418 Z6.292 A5.5155 B2.5343 
N1312 X-312.478 Y-9.088 Z6.492 A4.9276 B2.5886 
N1313 X-312.483 Y-8.757 Z6.689 A4.3300 B2.6457 
N1314 X-312.488 Y-8.427 Z6.881 A3.7223 B2.7059 
N1315 X-312.494 Y-8.096 Z7.070 A3.1044 B2.7691 
N1316 X-312.500 Y-7.766 Z7.256 A2.4761 B2.8354 
N1317 X-312.507 Y-7.436 Z7.437 A1.8370 B2.9047 
N1318 X-312.514 Y-7.106 Z7.615 A1.1869 B2.9772 
N1319 X-312.522 Y-6.776 Z7.789 A0.5256 B3.0527 
N1320 X-312.530 Y-6.446 Z7.959 A359.8529 B3.1313 
N1321 X-312.538 Y-6.117 Z8.125 A359.1684 B3.2130 
N1322 X-312.547 Y-5.789 Z8.287 A358.4719 B3.2976 
N1323 X-312.555 Y-5.461 Z8.446 A357.7633 B3.3853 
N1324 X-312.565 Y-5.133 Z8.600 A357.0422 B3.4758 
N1325 X-312.574 Y-4.806 Z8.750 A356.3085 B3.5691 
N1326 X-312.584 Y-4.480 Z8.896 A355.5620 B3.6651 
N1327 X-312.594 Y-4.155 Z9.038 A354.8023 B3.7638 
N1328 X-312.604 Y-3.830 Z9.176 A354.0294 B3.8651 
N1329 X-312.615 Y-3.506 Z9.310 A353.2430 B3.9688 
N1330 X-312.625 Y-3.183 Z9.440 A352.4429 B4.0748 
N1331 X-312.636 Y-2.862 Z9.566 A351.6289 B4.1829 
N1332 X-312.647 Y-2.541 Z9.687 A350.8008 B4.2931 
N1333 X-312.659 Y-2.221 Z9.804 A349.9584 B4.4052 
N1334 X-312.670 Y-1.903 Z9.917 A349.1016 B4.5187 
N1335 X-312.682 Y-1.585 Z10.026 A348.2303 B4.6326 
N1336 X-312.693 Y-1.269 Z10.130 A347.3441 B4.7468 
N1337 X-312.704 Y-0.955 Z10.230 A346.4430 B4.8610 
N1338 X-312.716 Y-0.642 Z10.326 A345.5266 B4.9762 
N1339 X-312.728 Y-0.330 Z10.418 A344.5945 B5.0935 
N1340 X-312.741 Y-0.020 Z10.505 A343.6464 B5.2127 
N1341 X-312.754 Y0.288 Z10.588 A342.6821 B5.3336 
N1342 X-312.767 Y0.595 Z10.667 A341.7014 B5.4552 
N1343 X-312.780 Y0.900 Z10.742 A340.7043 B5.5766 
N1344 X-312.793 Y1.204 Z10.813 A339.6906 B5.6977 
N1345 X-312.807 Y1.505 Z10.879 A338.6603 B5.8181 
N1346 X-312.821 Y1.805 Z10.941 A337.6134 B5.9375 
N1347 X-312.834 Y2.103 Z10.999 A336.5499 B6.0559 
N1348 X-312.848 Y2.400 Z11.053 A335.4701 B6.1730 
N1349 X-312.862 Y2.694 Z11.102 A334.3741 B6.2883 
N1350 X-312.876 Y2.987 Z11.147 A333.2621 B6.4017 
N1351 X-312.891 Y3.278 Z11.188 A332.1345 B6.5130 
N1352 X-312.905 Y3.567 Z11.224 A330.9915 B6.6219 
N1353 X-312.920 Y3.854 Z11.257 A329.8335 B6.7281 
N1354 X-312.935 Y4.140 Z11.285 A328.6610 B6.8313 
N1355 X-312.950 Y4.423 Z11.308 A327.4742 B6.9313 
N1356 X-312.965 Y4.705 Z11.327 A326.2738 B7.0280 
N1357 X-312.981 Y4.985 Z11.342 A325.0602 B7.1211 
N1358 X-312.996 Y5.263 Z11.352 A323.8339 B7.2102 
N1359 X-313.012 Y5.540 Z11.358 A322.5953 B7.2951 
N1360 X-313.028 Y5.814 Z11.360 A321.3451 B7.3757 
N1361 X-313.045 Y6.087 Z11.356 A320.0836 B7.4520 
N1362 X-313.061 Y6.358 Z11.349 A318.8115 B7.5236 
N1363 X-313.078 Y6.627 Z11.336 A317.5292 B7.5903 
N1364 X-313.095 Y6.895 Z11.319 A316.2375 B7.6520 
N1365 X-313.113 Y7.161 Z11.298 A314.9368 B7.7085 
N1366 X-313.130 Y7.425 Z11.271 A313.6279 B7.7599 
N1367 X-313.148 Y7.687 Z11.240 A312.3112 B7.8059 
N1368 X-313.167 Y7.947 Z11.204 A310.9876 B7.8464 
N1369 X-313.185 Y8.206 Z11.164 A309.6576 B7.8813 
N1370 X-313.204 Y8.463 Z11.118 A308.3221 B7.9104 
N1371 X-313.223 Y8.717 Z11.067 A306.9816 B7.9339 
N1372 X-313.243 Y8.970 Z11.011 A305.6369 B7.9516 
N1373 X-313.262 Y9.221 Z10.950 A304.2886 B7.9635 
N1374 X-313.282 Y9.470 Z10.884 A302.9375 B7.9696 
N1375 X-313.303 Y9.717 Z10.812 A301.5843 B7.9699 
N1376 X-313.324 Y9.962 Z10.736 A300.2296 B7.9643 
N1377 X-313.345 Y10.205 Z10.654 A298.8741 B7.9529 
N1378 X-313.366 Y10.446 Z10.566 A297.5187 B7.9357 
N1379 X-313.388 Y10.684 Z10.473 A296.1639 B7.9128 
N1380 X-313.409 Y10.920 Z10.375 A294.8106 B7.8843 
N1381 X-313.432 Y11.153 Z10.271 A293.4596 B7.8502 
N1382 X-313.454 Y11.384 Z10.161 A292.1116 B7.8105 
N1383 X-313.477 Y11.612 Z10.046 A290.7672 B7.7653 
N1384 X-313.500 Y11.837 Z9.925 A289.4272 B7.7147 
N1385 X-313.523 Y12.059 Z9.799 A288.0919 B7.6589 
N1386 X-313.547 Y12.279 Z9.667 A286.7618 B7.5980 
N1387 X-313.571 Y12.495 Z9.529 A285.4371 B7.5321 
N1388 X-313.594 Y12.708 Z9.386 A284.1179 B7.4613 
N1389 X-313.619 Y12.918 Z9.237 A282.8042 B7.3857 
N1390 X-313.643 Y13.124 Z9.082 A281.4959 B7.3057 
N1391 X-313.667 Y13.327 Z8.922 A280.1930 B7.2214 
N1392 X-313.692 Y13.527 Z8.757 A278.8953 B7.1331 
N1393 X-313.717 Y13.723 Z8.586 A277.6028 B7.0408 
N1394 X-313.742 Y13.915 Z8.409 A276.3158 B6.9449 
N1395 X-313.767 Y14.103 Z8.227 A275.0348 B6.8454 
N1396 X-313.793 Y14.288 Z8.039 A273.7604 B6.7426 
N1397 X-313.818 Y14.468 Z7.846 A272.4937 B6.6366 
N1398 X-313.843 Y14.643 Z7.647 A271.2358 B6.5276 
N1399 X-313.869 Y14.814 Z7.443 A269.9882 B6.4159 
N1400 X-313.894 Y14.980 Z7.234 A268.7519 B6.3016 
N1401 X-313.920 Y15.141 Z7.020 A267.5284 B6.1847 
N1402 X-313.945 Y15.297 Z6.801 A266.3185 B6.0652 
N1403 X-313.970 Y15.448 Z6.577 A265.1229 B5.9436 
N1404 X-313.995 Y15.593 Z6.349 A263.9415 B5.8201 
N1405 X-314.020 Y15.733 Z6.116 A262.7737 B5.6947 
N1406 X-314.045 Y15.867 Z5.880 A261.6185 B5.5679 
N1407 X-314.069 Y15.996 Z5.639 A260.4739 B5.4398 
N1408 X-314.093 Y16.120 Z5.395 A259.3379 B5.3103 
N1409 X-314.117 Y16.238 Z5.148 A258.2083 B5.1795 
N1410 X-314.141 Y16.352 Z4.897 A257.0827 B5.0481 
N1411 X-314.165 Y16.460 Z4.644 A255.9591 B4.9169 
N1412 X-314.189 Y16.564 Z4.388 A254.8364 B4.7857 
N1413 X-314.212 Y16.662 Z4.129 A253.7140 B4.6534 
N1414 X-314.235 Y16.755 Z3.869 A252.5920 B4.5208 
N1415 X-314.258 Y16.842 Z3.608 A251.4710 B4.3889 
N1416 X-314.280 Y16.925 Z3.345 A250.3522 B4.2573 
N1417 X-314.302 Y17.001 Z3.081 A249.2367 B4.1251 
N1418 X-314.324 Y17.072 Z2.817 A248.1250 B3.9927 
N1419 X-314.345 Y17.138 Z2.554 A247.0169 B3.8609 
N1420 X-314.366 Y17.199 Z2.291 A245.9116 B3.7299 
N1421 X-314.386 Y17.254 Z2.030 A244.8090 B3.5999 
N1422 X-314.406 Y17.304 Z1.771 A243.7104 B3.4716 
N1423 X-314.425 Y17.349 Z1.514 A242.6186 B3.3451 
N1424 X-314.444 Y17.388 Z1.262 A241.5376 B3.2189 
N1425 X-314.462 Y17.423 Z1.015 A240.4700 B3.0944 
N1426 X-314.479 Y17.453 Z0.773 A239.4166 B2.9695 
N1427 X-314.495 Y17.480 Z0.538 A238.3749 B2.8466 
N1428 X-314.511 Y17.503 Z0.309 A237.3412 B2.7248 
N1429 X-314.526 Y17.523 Z0.089 A236.3120 B2.6050 
N1430 X-314.541 Y17.542 Z-0.123 A235.2844 B2.4857 
N1431 X-314.554 Y17.560 Z-0.326 A234.2550 B2.3653 
N1432 X-314.567 Y17.577 Z-0.520 A233.2154 B2.2411 
N1433 X-314.579 Y17.596 Z-0.707 A232.1476 B2.1113 
N1434 X-314.590 Y17.618 Z-0.886 A231.0206 B1.9721 
N1435 X-314.602 Y17.647 Z-1.060 A229.7939 B1.8275 
N1436 X-314.615 Y17.683 Z-1.232 A228.4254 B1.6771 
N1437 X-314.631 Y17.728 Z-1.404 A226.8795 B1.5143 
N1438 X-314.650 Y17.783 Z-1.578 A225.1317 B1.3412 
N1439 X-314.671 Y17.846 Z-1.756 A223.1738 B1.1600 
N1440 X-314.696 Y17.916 Z-1.939 A221.0141 B0.9676 
N1441 X-314.722 Y17.991 Z-2.128 A218.6737 B0.7630 
N1442 X-314.750 Y18.066 Z-2.322 A216.1821 B0.5462 
N1443 X-314.778 Y18.141 Z-2.522 A213.5724 B0.3179 
N1444 X-314.806 Y18.212 Z-2.726 A210.8777 B0.0815 
N1445 X-314.834 Y18.277 Z-2.933 A208.1288 B-0.1595 
N1446 X-314.861 Y18.335 Z-3.142 A205.3527 B-0.4014 
N1447 X-314.888 Y18.383 Z-3.352 A202.5713 B-0.6409 
N1448 X-314.915 Y18.423 Z-3.563 A199.8022 B-0.8772 
N1449 X-314.940 Y18.451 Z-3.772 A197.0584 B-1.1126 
N1450 X-314.963 Y18.470 Z-3.980 A194.3492 B-1.3448 
N1451 X-314.985 Y18.477 Z-4.185 A191.6816 B-1.5718 
N1452 X-315.006 Y18.474 Z-4.388 A189.0602 B-1.7920 
N1453 X-315.025 Y18.459 Z-4.587 A186.4891 B-2.0041 
N1454 X-315.044 Y18.434 Z-4.782 A183.9718 B-2.2070 
N1455 X-315.061 Y18.398 Z-4.972 A181.5114 B-2.4004 
N1456 X-315.077 Y18.351 Z-5.158 A179.1111 B-2.5863 
N1457 X-315.091 Y18.293 Z-5.338 A176.7739 B-2.7645 
N1458 X-315.104 Y18.224 Z-5.512 A174.5021 B-2.9350 
N1459 X-315.114 Y18.145 Z-5.679 A172.2973 B-3.0978 
N1460 X-315.123 Y18.056 Z-5.840 A170.1596 B-3.2538 
N1461 X-315.130 Y17.956 Z-5.993 A168.0878 B-3.4022 
N1462 X-315.136 Y17.846 Z-6.140 A166.0800 B-3.5413 
N1463 X-315.141 Y17.725 Z-6.278 A164.1337 B-3.6729 
N1464 X-315.143 Y17.594 Z-6.410 A162.2467 B-3.7999 
N1465 X-315.143 Y17.451 Z-6.533 A160.4178 B-3.9226 
N1466 X-315.142 Y17.298 Z-6.648 A158.6474 B-4.0377 
N1467 X-315.138 Y17.133 Z-6.754 A156.9361 B-4.1470 
N1468 X-315.133 Y16.957 Z-6.851 A155.2850 B-4.2515 
N1469 X-315.125 Y16.769 Z-6.938 A153.6953 B-4.3498 
N1470 X-315.115 Y16.569 Z-7.015 A152.1682 B-4.4435 
N1471 X-315.104 Y16.357 Z-7.080 A150.7055 B-4.5313 
N1472 X-315.089 Y16.134 Z-7.134 A149.3100 B-4.6154 
N1473 X-315.073 Y15.898 Z-7.176 A147.9874 B-4.6944 
N1474 X-315.054 Y15.650 Z-7.205 A146.7444 B-4.7690 
N1475 X-315.032 Y15.391 Z-7.219 A145.5870 B-4.8384 
N1476 X-315.009 Y15.119 Z-7.220 A144.5179 B-4.9030 
N1477 X-314.983 Y14.837 Z-7.207 A143.5368 B-4.9639 
N1478 X-314.954 Y14.542 Z-7.180 A142.6420 B-5.0210 
N1479 X-314.923 Y14.237 Z-7.138 A141.8325 B-5.0772 
N1480 X-314.890 Y13.920 Z-7.083 A141.1112 B-5.1301 
N1481 X-314.854 Y13.594 Z-7.014 A140.4818 B-5.1811 
N1482 X-314.817 Y13.258 Z-6.931 A139.9476 B-5.2290 
N1483 X-314.777 Y12.914 Z-6.836 A139.5086 B-5.2726 
N1484 X-314.736 Y12.562 Z-6.729 A139.1603 B-5.3145 
N1485 X-314.694 Y12.203 Z-6.612 A138.8966 B-5.3518 
N1486 X-314.649 Y11.837 Z-6.486 A138.7086 B-5.3898 
N1487 X-314.604 Y11.467 Z-6.352 A138.5895 B-5.4233 
N1488 X-314.557 Y11.092 Z-6.212 A138.5321 B-5.4569 
N1489 X-314.509 Y10.714 Z-6.067 A138.5318 B-5.4892 
N1490 X-314.460 Y10.334 Z-5.918 A138.5860 B-5.5187 
N1491 X-314.411 Y9.955 Z-5.765 A138.6936 B-5.5455 
N1492 X-314.362 Y9.576 Z-5.611 A138.8544 B-5.5712 
N1493 X-314.312 Y9.199 Z-5.454 A139.0695 B-5.5928 
N1494 X-314.263 Y8.825 Z-5.297 A139.3390 B-5.6101 
N1495 X-314.214 Y8.455 Z-5.140 A139.6621 B-5.6249 
N1496 X-314.165 Y8.089 Z-4.984 A140.0371 B-5.6351 
N1497 X-314.117 Y7.727 Z-4.829 A140.4606 B-5.6409 
N1498 X-314.069 Y7.371 Z-4.676 A140.9280 B-5.6432 
N1499 X-314.021 Y7.019 Z-4.526 A141.4346 B-5.6417 
N1500 X-313.974 Y6.672 Z-4.378 A141.9753 B-5.6367 
N1501 X-313.927 Y6.329 Z-4.234 A142.5455 B-5.6285 
N1502 X-313.881 Y5.990 Z-4.094 A143.1413 B-5.6172 
N1503 X-313.835 Y5.654 Z-3.957 A143.7594 B-5.6029 
N1504 X-313.790 Y5.323 Z-3.824 A144.3973 B-5.5858 
N1505 X-313.745 Y4.994 Z-3.695 A145.0528 B-5.5658 
N1506 X-313.701 Y4.668 Z-3.570 A145.7243 B-5.5431 
N1507 X-313.657 Y4.345 Z-3.449 A146.4106 B-5.5175 
N1508 X-313.613 Y4.024 Z-3.331 A147.1105 B-5.4891 
N1509 X-313.570 Y3.705 Z-3.217 A147.8232 B-5.4580 
N1510 X-313.527 Y3.388 Z-3.108 A148.5479 B-5.4239 
N1511 X-313.484 Y3.073 Z-3.002 A149.2839 B-5.3870 
N1512 X-313.442 Y2.758 Z-2.900 A150.0305 B-5.3472 
N1513 X-313.400 Y2.445 Z-2.801 A150.7871 B-5.3045 
N1514 X-313.358 Y2.133 Z-2.707 A151.5531 B-5.2589 
N1515 X-313.316 Y1.822 Z-2.616 A152.3276 B-5.2103 
N1516 X-313.275 Y1.511 Z-2.530 A153.1101 B-5.1587 
N1517 X-313.234 Y1.201 Z-2.447 A153.8997 B-5.1043 
N1518 X-313.193 Y0.891 Z-2.368 A154.6959 B-5.0469 
N1519 X-313.152 Y0.581 Z-2.294 A155.4977 B-4.9866 
N1520 X-313.111 Y0.272 Z-2.223 A156.3045 B-4.9235 
N1521 X-313.071 Y-0.038 Z-2.157 A157.1155 B-4.8576 
N1522 X-313.031 Y-0.348 Z-2.095 A157.9300 B-4.7889 
N1523 X-312.991 Y-0.657 Z-2.036 A158.7473 B-4.7176 
N1524 X-312.951 Y-0.968 Z-1.983 A159.5667 B-4.6436 
N1525 X-312.911 Y-1.278 Z-1.933 A160.3875 B-4.5670 
N1526 X-312.871 Y-1.589 Z-1.888 A161.2090 B-4.4879 
N1527 X-312.832 Y-1.901 Z-1.847 A162.0305 B-4.4065 
N1528 X-312.793 Y-2.213 Z-1.811 A162.8514 B-4.3228 
N1529 X-312.754 Y-2.526 Z-1.779 A163.6710 B-4.2368 
N1530 X-312.715 Y-2.840 Z-1.752 A164.4887 B-4.1489 
N1531 X-312.676 Y-3.155 Z-1.729 A165.3038 B-4.0589 
N1532 X-312.638 Y-3.471 Z-1.711 A166.1158 B-3.9672 
N1533 X-312.599 Y-3.788 Z-1.698 A166.9240 B-3.8738 
N1534 X-312.561 Y-4.106 Z-1.690 A167.7278 B-3.7789 
N1535 X-312.523 Y-4.425 Z-1.686 A168.5265 B-3.6826 
N1536 X-312.485 Y-4.745 Z-1.687 A169.3196 B-3.5851 
N1537 X-312.447 Y-5.066 Z-1.694 A170.1065 B-3.4866 
N1538 X-312.409 Y-5.389 Z-1.705 A170.8866 B-3.3872 
N1539 X-312.372 Y-5.713 Z-1.722 A171.6592 B-3.2872 
N1540 X-312.335 Y-6.039 Z-1.743 A172.4238 B-3.1867 
N1541 X-312.298 Y-6.366 Z-1.770 A173.1797 B-3.0859 
N1542 X-312.261 Y-6.695 Z-1.802 A173.9264 B-2.9850 
N1543 X-312.224 Y-7.025 Z-1.840 A174.6633 B-2.8842 
N1544 X-312.188 Y-7.356 Z-1.883 A175.3897 B-2.7837 
N1545 X-312.151 Y-7.690 Z-1.931 A176.1050 B-2.6838 
N1546 X-312.115 Y-8.025 Z-1.985 A176.8088 B-2.5846 
N1547 X-312.079 Y-8.362 Z-2.044 A177.5005 B-2.4862 
N1548 X-312.044 Y-8.700 Z-2.109 A178.1796 B-2.3890 
N1549 X-312.008 Y-9.041 Z-2.180 A178.8455 B-2.2931 
N1550 X-311.973 Y-9.383 Z-2.257 A179.4979 B-2.1987 
N1551 X-311.938 Y-9.728 Z-2.339 A180.1360 B-2.1059 
N1552 X-311.903 Y-10.074 Z-2.427 A180.7593 B-2.0150 
N1553 X-311.868 Y-10.423 Z-2.522 A181.3671 B-1.9262 
N1554 X-311.834 Y-10.774 Z-2.622 A181.9584 B-1.8396 
N1555 X-311.799 Y-11.128 Z-2.729 A182.5322 B-1.7555 
N1556 X-311.765 Y-11.483 Z-2.841 A183.0873 B-1.6742 
N1557 X-311.731 Y-11.842 Z-2.960 A183.6223 B-1.5959 
N1558 X-311.698 Y-12.202 Z-3.086 A184.1361 B-1.5208 
N1559 X-311.664 Y-12.566 Z-3.218 A184.6273 B-1.4493 
N1560 X-311.631 Y-12.932 Z-3.356 A185.0950 B-1.3817 
N1561 X-311.598 Y-13.300 Z-3.501 A185.5381 B-1.3181 
N1562 X-311.566 Y-13.672 Z-3.652 A185.9559 B-1.2588 
N1563 X-311.533 Y-14.045 Z-3.810 A186.3478 B-1.2041 
N1564 X-311.501 Y-14.421 Z-3.974 A186.7134 B-1.1540 
N1565 X-311.469 Y-14.799 Z-4.143 A187.0522 B-1.1087 
N1566 X-311.438 Y-15.178 Z-4.318 A187.3641 B-1.0682 
N1567 X-311.406 Y-15.559 Z-4.497 A187.6488 B-1.0325 
N1568 X-311.376 Y-15.939 Z-4.681 A187.9064 B-1.0016 
N1569 X-311.345 Y-16.319 Z-4.869 A188.1371 B-0.9753 
N1570 X-311.316 Y-16.697 Z-5.059 A188.3417 B-0.9527 
N1571 X-311.286 Y-17.071 Z-5.250 A188.5211 B-0.9353 
N1572 X-311.258 Y-17.440 Z-5.442 A188.6768 B-0.9214 
N1573 X-311.230 Y-17.803 Z-5.633 A188.8109 B-0.9098 
N1574 X-311.203 Y-18.156 Z-5.822 A188.9252 B-0.9024 
N1575 X-311.177 Y-18.499 Z-6.006 A189.0219 B-0.8974 
N1576 X-311.152 Y-18.829 Z-6.185 A189.1031 B-0.8937 
N1577 X-311.129 Y-19.144 Z-6.356 A189.1704 B-0.8917 
N1578 X-311.107 Y-19.441 Z-6.520 A189.2248 B-0.8924 
N1579 X-311.086 Y-19.719 Z-6.673 A189.2672 B-0.8929 
N1580 X-311.067 Y-19.977 Z-6.817 A189.2972 B-0.8942 
N1581 X-311.050 Y-20.213 Z-6.949 A189.3136 B-0.8982 
N1582 X-311.034 Y-20.427 Z-7.070 A189.3144 B-0.9010 
N1583 X-311.020 Y-20.618 Z-7.180 A189.2957 B-0.9062 
N1584 X-311.008 Y-20.786 Z-7.279 A189.2518 B-0.9125 
N1585 X-310.998 Y-20.933 Z-7.368 A189.1740 B-0.9197 
N1586 X-310.989 Y-21.058 Z-7.449 A189.0495 B-0.9309 
N1587 X-310.982 Y-21.163 Z-7.523 A188.8604 B-0.9458 
N1588 X-310.977 Y-21.251 Z-7.594 A188.5822 B-0.9633 
N1589 X-310.974 Y-21.321 Z-7.664 A188.1825 B-0.9900 
N1590 X-310.973 Y-21.376 Z-7.738 A187.6238 B-1.0206 
N1591 X-310.976 Y-21.416 Z-7.831 A186.6719 B-1.0687 
N1592 X-310.985 Y-21.444 Z-7.952 A185.2369 B-1.1340 
N1593 X-311.002 Y-21.460 Z-8.143 A182.7322 B-1.2397 
N1594 X-311.030 Y-21.476 Z-8.412 A179.0374 B-1.3798 
N1595 X-311.062 Y-21.506 Z-8.719 A174.7408 B-1.5277 
N1596 X-311.093 Y-21.558 Z-9.049 A170.0410 B-1.6863 
N1597 X-311.121 Y-21.634 Z-9.376 A165.3005 B-1.8453 
N1598 X-311.146 Y-21.731 Z-9.685 A160.6919 B-1.9935 
N1599 X-311.165 Y-21.843 Z-9.970 A156.3333 B-2.1347 
N1600 X-311.180 Y-21.966 Z-10.227 A152.2825 B-2.2594 
N1601 X-311.192 Y-22.094 Z-10.455 A148.5499 B-2.3637 
N1602 X-311.203 Y-22.224 Z-10.657 A145.1194 B-2.4458 
N1603 X-311.212 Y-22.355 Z-10.837 A141.9486 B-2.5099 
N1604 X-311.220 Y-22.486 Z-10.997 A138.9984 B-2.5589 
N1605 X-311.226 Y-22.616 Z-11.142 A136.2290 B-2.5975 
N1606 X-311.230 Y-22.746 Z-11.273 A133.6036 B-2.6277 
N1607 X-311.233 Y-22.875 Z-11.393 A131.0926 B-2.6500 
N1608 X-311.235 Y-23.005 Z-11.504 A128.6701 B-2.6657 
N1609 X-311.236 Y-23.137 Z-11.606 A126.3152 B-2.6754 
N1610 X-311.236 Y-23.269 Z-11.700 A124.0116 B-2.6795 
N1611 X-311.235 Y-23.403 Z-11.788 A121.7459 B-2.6784 
N1612 X-311.233 Y-23.538 Z-11.870 A119.5078 B-2.6726 
N1613 X-311.230 Y-23.676 Z-11.945 A117.2898 B-2.6617 
N1614 X-311.227 Y-23.815 Z-12.015 A115.0854 B-2.6464 
N1615 X-311.222 Y-23.957 Z-12.080 A112.8905 B-2.6266 
N1616 X-311.217 Y-24.101 Z-12.139 A110.7014 B-2.6027 
N1617 X-311.211 Y-24.247 Z-12.192 A108.5156 B-2.5747 
N1618 X-311.204 Y-24.394 Z-12.240 A106.3311 B-2.5427 
N1619 X-311.197 Y-24.544 Z-12.282 A104.1466 B-2.5067 
N1620 X-311.188 Y-24.695 Z-12.319 A101.9608 B-2.4668 
N1621 X-311.179 Y-24.847 Z-12.350 A99.7728 B-2.4225 
N1622 X-311.169 Y-25.001 Z-12.376 A97.5811 B-2.3741 
N1623 X-311.159 Y-25.157 Z-12.395 A95.3845 B-2.3214 
N1624 X-311.148 Y-25.313 Z-12.409 A93.1811 B-2.2640 
N1625 X-311.136 Y-25.471 Z-12.417 A90.9676 B-2.2025 
N1626 X-311.124 Y-25.630 Z-12.418 A88.7413 B-2.1355 
N1627 X-311.111 Y-25.790 Z-12.414 A86.4959 B-2.0638 
N1628 X-311.097 Y-25.952 Z-12.403 A84.2256 B-1.9857 
N1629 X-311.083 Y-26.116 Z-12.386 A81.9200 B-1.9017 
N1630 X-311.068 Y-26.282 Z-12.362 A79.5675 B-1.8103 
N1631 X-311.052 Y-26.452 Z-12.330 A77.1518 B-1.7112 
N1632 X-311.035 Y-26.625 Z-12.289 A74.6534 B-1.6029 
N1633 X-311.017 Y-26.805 Z-12.239 A72.0474 B-1.4854 
N1634 X-310.998 Y-26.991 Z-12.177 A69.3059 B-1.3561 
N1635 X-310.976 Y-27.185 Z-12.102 A66.3934 B-1.2183 
N1636 X-310.952 Y-27.388 Z-12.011 A63.2791 B-1.0649 
N1637 X-310.925 Y-27.601 Z-11.901 A59.9219 B-0.9046 
N1638 X-310.893 Y-27.823 Z-11.768 A56.3015 B-0.7375 
N1639 X-310.855 Y-28.067 Z-11.598 A52.1550 B-0.5360 
N1640 X-310.809 Y-28.324 Z-11.386 A47.4827 B-0.3110 
N1641 X-310.756 Y-28.575 Z-11.139 A42.5701 B-0.1004 
N1642 X-310.701 Y-28.808 Z-10.861 A37.5017 B0.1062 
N1643 X-310.648 Y-29.013 Z-10.558 A32.4033 B0.3252 
N1644 X-310.604 Y-29.179 Z-10.248 A27.5272 B0.5651 
N1645 X-310.572 Y-29.274 Z-10.004 A23.9721 B0.7543 
N1646 X-310.555 Y-29.304 Z-9.851 A21.9898 B0.8583 
N1647 X-310.546 Y-29.296 Z-9.754 A20.9785 B0.9095 
N1648 X-310.542 Y-29.262 Z-9.687 A20.5474 B0.9284 
N1649 X-310.542 Y-29.209 Z-9.629 A20.4046 B0.9321 
N1650 X-310.542 Y-29.141 Z-9.565 A20.3304 B0.9322 
N1651 X-310.544 Y-29.059 Z-9.491 A20.2748 B0.9331 
N1652 X-310.546 Y-28.959 Z-9.403 A20.2349 B0.9324 
N1653 X-310.548 Y-28.842 Z-9.302 A20.2067 B0.9307 
N1654 X-310.550 Y-28.706 Z-9.185 A20.1865 B0.9283 
N1655 X-310.554 Y-28.550 Z-9.052 A20.1719 B0.9246 
N1656 X-310.557 Y-28.373 Z-8.901 A20.1608 B0.9202 
N1657 X-310.561 Y-28.174 Z-8.733 A20.1518 B0.9154 
N1658 X-310.565 Y-27.956 Z-8.548 A20.1441 B0.9095 
N1659 X-310.570 Y-27.717 Z-8.346 A20.1366 B0.9036 
N1660 X-310.575 Y-27.458 Z-8.127 A20.1289 B0.8972 
N1661 X-310.581 Y-27.182 Z-7.893 A20.1203 B0.8902 
N1662 X-310.586 Y-26.889 Z-7.645 A20.1103 B0.8833 
N1663 X-310.592 Y-26.582 Z-7.385 A20.0982 B0.8762 
N1664 X-310.599 Y-26.262 Z-7.114 A20.0836 B0.8690 
N1665 X-310.605 Y-25.930 Z-6.833 A20.0657 B0.8619 
N1666 X-310.612 Y-25.590 Z-6.545 A20.0439 B0.8553 
N1667 X-310.619 Y-25.242 Z-6.250 A20.0176 B0.8488 
N1668 X-310.626 Y-24.889 Z-5.949 A19.9859 B0.8428 
N1669 X-310.632 Y-24.531 Z-5.646 A19.9484 B0.8374 
N1670 X-310.639 Y-24.170 Z-5.339 A19.9043 B0.8326 
N1671 X-310.646 Y-23.807 Z-5.031 A19.8531 B0.8287 
N1672 X-310.653 Y-23.443 Z-4.721 A19.7940 B0.8255 
N1673 X-310.660 Y-23.079 Z-4.411 A19.7262 B0.8233 
N1674 X-310.667 Y-22.715 Z-4.101 A19.6486 B0.8221 
N1675 X-310.674 Y-22.352 Z-3.792 A19.5600 B0.8218 
N1676 X-310.681 Y-21.991 Z-3.484 A19.4591 B0.8228 
N1677 X-310.687 Y-21.630 Z-3.177 A19.3445 B0.8247 
N1678 X-310.694 Y-21.272 Z-2.871 A19.2150 B0.8279 
N1679 X-310.700 Y-20.915 Z-2.566 A19.0695 B0.8322 
N1680 X-310.707 Y-20.560 Z-2.263 A18.9073 B0.8376 
N1681 X-310.713 Y-20.207 Z-1.962 A18.7277 B0.8442 
N1682 X-310.719 Y-19.856 Z-1.664 A18.5306 B0.8519 
N1683 X-310.726 Y-19.507 Z-1.367 A18.3157 B0.8607 
N1684 X-310.732 Y-19.160 Z-1.072 A18.0832 B0.8706 
N1685 X-310.738 Y-18.814 Z-0.780 A17.8333 B0.8813 
N1686 X-310.744 Y-18.471 Z-0.490 A17.5664 B0.8930 
N1687 X-310.750 Y-18.129 Z-0.203 A17.2829 B0.9056 
N1688 X-310.756 Y-17.788 Z0.081 A16.9832 B0.9189 
N1689 X-310.763 Y-17.449 Z0.363 A16.6678 B0.9330 
N1690 X-310.769 Y-17.111 Z0.641 A16.3374 B0.9478 
N1691 X-310.775 Y-16.775 Z0.917 A15.9924 B0.9634 
N1692 X-310.782 Y-16.439 Z1.190 A15.6332 B0.9796 
N1693 X-310.788 Y-16.105 Z1.460 A15.2604 B0.9966 
N1694 X-310.795 Y-15.771 Z1.727 A14.8744 B1.0142 
N1695 X-310.802 Y-15.438 Z1.991 A14.4754 B1.0327 
N1696 X-310.809 Y-15.106 Z2.252 A14.0639 B1.0519 
N1697 X-310.816 Y-14.774 Z2.510 A13.6402 B1.0720 
N1698 X-310.823 Y-14.443 Z2.764 A13.2044 B1.0930 
N1699 X-310.830 Y-14.112 Z3.015 A12.7569 B1.1150 
N1700 X-310.838 Y-13.781 Z3.264 A12.2980 B1.1381 
N1701 X-310.845 Y-13.451 Z3.509 A11.8280 B1.1622 
N1702 X-310.853 Y-13.121 Z3.750 A11.3475 B1.1875 
N1703 X-310.861 Y-12.791 Z3.989 A10.8566 B1.2141 
N1704 X-310.869 Y-12.461 Z4.224 A10.3559 B1.2421 
N1705 X-310.878 Y-12.131 Z4.455 A9.8455 B1.2714 
N1706 X-310.886 Y-11.801 Z4.683 A9.3259 B1.3023 
N1707 X-310.895 Y-11.471 Z4.908 A8.7971 B1.3347 
N1708 X-310.904 Y-11.141 Z5.129 A8.2593 B1.3688 
N1709 X-310.913 Y-10.811 Z5.347 A7.7123 B1.4046 
N1710 X-310.923 Y-10.481 Z5.561 A7.1563 B1.4423 
N1711 X-310.932 Y-10.150 Z5.772 A6.5910 B1.4819 
N1712 X-310.942 Y-9.820 Z5.979 A6.0163 B1.5234 
N1713 X-310.952 Y-9.490 Z6.182 A5.4321 B1.5671 
N1714 X-310.962 Y-9.160 Z6.382 A4.8381 B1.6129 
N1715 X-310.972 Y-8.830 Z6.578 A4.2342 B1.6609 
N1716 X-310.983 Y-8.499 Z6.770 A3.6201 B1.7112 
N1717 X-310.993 Y-8.169 Z6.959 A2.9957 B1.7638 
N1718 X-311.004 Y-7.840 Z7.143 A2.3606 B1.8188 
N1719 X-311.015 Y-7.510 Z7.324 A1.7147 B1.8763 
N1720 X-311.026 Y-7.181 Z7.501 A1.0578 B1.9362 
N1721 X-311.038 Y-6.851 Z7.675 A0.3896 B1.9986 
N1722 X-311.049 Y-6.523 Z7.844 A359.7099 B2.0636 
N1723 X-311.061 Y-6.194 Z8.009 A359.0185 B2.1310 
N1724 X-311.072 Y-5.866 Z8.171 A358.3152 B2.2010 
N1725 X-311.084 Y-5.539 Z8.328 A357.5997 B2.2735 
N1726 X-311.096 Y-5.212 Z8.482 A356.8719 B2.3485 
N1727 X-311.108 Y-4.886 Z8.631 A356.1315 B2.4259 
N1728 X-311.121 Y-4.560 Z8.776 A355.3783 B2.5058 
N1729 X-311.133 Y-4.235 Z8.917 A354.6122 B2.5880 
N1730 X-311.146 Y-3.911 Z9.054 A353.8330 B2.6725 
N1731 X-311.158 Y-3.588 Z9.187 A353.0405 B2.7593 
N1732 X-311.171 Y-3.266 Z9.316 A352.2345 B2.8481 
N1733 X-311.184 Y-2.944 Z9.440 A351.4148 B2.9390 
N1734 X-311.197 Y-2.624 Z9.560 A350.5814 B3.0319 
N1735 X-311.211 Y-2.305 Z9.676 A349.7339 B3.1266 
N1736 X-311.224 Y-1.987 Z9.788 A348.8722 B3.2229 
N1737 X-311.237 Y-1.670 Z9.895 A347.9962 B3.3208 
N1738 X-311.251 Y-1.354 Z9.998 A347.1057 B3.4200 
N1739 X-311.264 Y-1.040 Z10.097 A346.2004 B3.5205 
N1740 X-311.278 Y-0.727 Z10.191 A345.2801 B3.6220 
N1741 X-311.292 Y-0.416 Z10.282 A344.3445 B3.7244 
N1742 X-311.306 Y-0.106 Z10.368 A343.3935 B3.8276 
N1743 X-311.320 Y0.203 Z10.449 A342.4268 B3.9312 
N1744 X-311.335 Y0.509 Z10.527 A341.4441 B4.0352 
N1745 X-311.349 Y0.815 Z10.600 A340.4453 B4.1393 
N1746 X-311.363 Y1.118 Z10.669 A339.4302 B4.2434 
N1747 X-311.378 Y1.420 Z10.734 A338.3990 B4.3472 
N1748 X-311.393 Y1.720 Z10.794 A337.3514 B4.4505 
N1749 X-311.407 Y2.019 Z10.850 A336.2878 B4.5531 
N1750 X-311.422 Y2.315 Z10.902 A335.2081 B4.6548 
N1751 X-311.437 Y2.610 Z10.950 A334.1125 B4.7552 
N1752 X-311.453 Y2.903 Z10.993 A333.0014 B4.8543 
N1753 X-311.468 Y3.195 Z11.032 A331.8750 B4.9518 
N1754 X-311.484 Y3.484 Z11.066 A330.7335 B5.0474 
N1755 X-311.499 Y3.772 Z11.097 A329.5773 B5.1409 
N1756 X-311.515 Y4.058 Z11.123 A328.4069 B5.2320 
N1757 X-311.531 Y4.343 Z11.144 A327.2226 B5.3206 
N1758 X-311.547 Y4.625 Z11.161 A326.0249 B5.4065 
N1759 X-311.564 Y4.906 Z11.174 A324.8142 B5.4895 
N1760 X-311.580 Y5.185 Z11.182 A323.5909 B5.5692 
N1761 X-311.597 Y5.462 Z11.186 A322.3555 B5.6455 
N1762 X-311.614 Y5.737 Z11.185 A321.1085 B5.7183 
N1763 X-311.631 Y6.011 Z11.179 A319.8504 B5.7874 
N1764 X-311.649 Y6.282 Z11.169 A318.5817 B5.8527 
N1765 X-311.667 Y6.552 Z11.155 A317.3029 B5.9140 
N1766 X-311.685 Y6.821 Z11.135 A316.0146 B5.9710 
N1767 X-311.703 Y7.087 Z11.111 A314.7174 B6.0237 
N1768 X-311.721 Y7.352 Z11.082 A313.4117 B6.0722 
N1769 X-311.740 Y7.615 Z11.049 A312.0984 B6.1161 
N1770 X-311.759 Y7.876 Z11.010 A310.7780 B6.1554 
N1771 X-311.778 Y8.135 Z10.967 A309.4512 B6.1899 
N1772 X-311.798 Y8.392 Z10.918 A308.1187 B6.2197 
N1773 X-311.818 Y8.648 Z10.865 A306.7812 B6.2447 
N1774 X-311.838 Y8.901 Z10.807 A305.4393 B6.2649 
N1775 X-311.858 Y9.152 Z10.743 A304.0937 B6.2801 
N1776 X-311.879 Y9.402 Z10.674 A302.7451 B6.2904 
N1777 X-311.900 Y9.649 Z10.600 A301.3941 B6.2957 
N1778 X-311.922 Y9.895 Z10.520 A300.0416 B6.2962 
N1779 X-311.943 Y10.138 Z10.436 A298.6881 B6.2917 
N1780 X-311.965 Y10.378 Z10.345 A297.3345 B6.2823 
N1781 X-311.987 Y10.617 Z10.250 A295.9816 B6.2681 
N1782 X-312.010 Y10.853 Z10.149 A294.6300 B6.2490 
N1783 X-312.032 Y11.086 Z10.042 A293.2807 B6.2252 
N1784 X-312.055 Y11.317 Z9.929 A291.9342 B6.1966 
N1785 X-312.079 Y11.545 Z9.811 A290.5913 B6.1634 
N1786 X-312.102 Y11.770 Z9.688 A289.2525 B6.1255 
N1787 X-312.126 Y11.992 Z9.559 A287.9181 B6.0833 
N1788 X-312.150 Y12.211 Z9.424 A286.5885 B6.0366 
N1789 X-312.174 Y12.427 Z9.284 A285.2639 B5.9857 
N1790 X-312.198 Y12.639 Z9.138 A283.9443 B5.9306 
N1791 X-312.223 Y12.849 Z8.986 A282.6296 B5.8716 
N1792 X-312.247 Y13.055 Z8.829 A281.3198 B5.8087 
N1793 X-312.272 Y13.257 Z8.666 A280.0148 B5.7422 
N1794 X-312.297 Y13.456 Z8.498 A278.7146 B5.6723 
N1795 X-312.322 Y13.652 Z8.325 A277.4193 B5.5991 
N1796 X-312.347 Y13.843 Z8.145 A276.1294 B5.5227 
N1797 X-312.373 Y14.031 Z7.961 A274.8456 B5.4434 
N1798 X-312.398 Y14.214 Z7.771 A273.5689 B5.3611 
N1799 X-312.424 Y14.393 Z7.575 A272.3003 B5.2761 
N1800 X-312.450 Y14.568 Z7.374 A271.0413 B5.1886 
N1801 X-312.475 Y14.737 Z7.168 A269.7931 B5.0987 
N1802 X-312.501 Y14.902 Z6.957 A268.5570 B5.0065 
N1803 X-312.526 Y15.062 Z6.741 A267.3342 B4.9118 
N1804 X-312.552 Y15.216 Z6.520 A266.1252 B4.8150 
N1805 X-312.577 Y15.365 Z6.294 A264.9304 B4.7162 
N1806 X-312.602 Y15.509 Z6.064 A263.7492 B4.6158 
N1807 X-312.626 Y15.647 Z5.830 A262.5807 B4.5137 
N1808 X-312.651 Y15.780 Z5.592 A261.4233 B4.4104 
N1809 X-312.676 Y15.908 Z5.351 A260.2750 B4.3058 
N1810 X-312.700 Y16.030 Z5.105 A259.1335 B4.1998 
N1811 X-312.724 Y16.148 Z4.857 A257.9965 B4.0929 
N1812 X-312.747 Y16.260 Z4.606 A256.8620 B3.9861 
N1813 X-312.771 Y16.368 Z4.352 A255.7286 B3.8796 
N1814 X-312.795 Y16.470 Z4.095 A254.5956 B3.7720 
N1815 X-312.818 Y16.567 Z3.837 A253.4629 B3.6639 
N1816 X-312.841 Y16.659 Z3.576 A252.3312 B3.5562 
N1817 X-312.864 Y16.745 Z3.315 A251.2014 B3.4492 
N1818 X-312.886 Y16.826 Z3.052 A250.0747 B3.3415 
N1819 X-312.908 Y16.901 Z2.789 A248.9520 B3.2335 
N1820 X-312.929 Y16.970 Z2.526 A247.8332 B3.1258 
N1821 X-312.950 Y17.035 Z2.264 A246.7178 B3.0189 
N1822 X-312.970 Y17.094 Z2.002 A245.6052 B2.9128 
N1823 X-312.990 Y17.148 Z1.743 A244.4964 B2.8079 
N1824 X-313.010 Y17.196 Z1.486 A243.3938 B2.7051 
N1825 X-313.029 Y17.240 Z1.232 A242.3013 B2.6022 
N1826 X-313.047 Y17.278 Z0.983 A241.2222 B2.5011 
N1827 X-313.064 Y17.311 Z0.740 A240.1580 B2.3995 
N1828 X-313.081 Y17.340 Z0.502 A239.1071 B2.2994 
N1829 X-313.096 Y17.366 Z0.272 A238.0663 B2.2002 
N1830 X-313.112 Y17.389 Z0.048 A237.0318 B2.1031 
N1831 X-313.126 Y17.409 Z-0.167 A236.0008 B2.0071 
N1832 X-313.140 Y17.428 Z-0.373 A234.9702 B1.9109 
N1833 X-313.153 Y17.447 Z-0.570 A233.9337 B1.8122 
N1834 X-313.165 Y17.466 Z-0.759 A232.8769 B1.7095 
N1835 X-313.176 Y17.488 Z-0.941 A231.7727 B1.6004 
N1836 X-313.187 Y17.515 Z-1.116 A230.5826 B1.4857 
N1837 X-313.200 Y17.549 Z-1.289 A229.2642 B1.3709 
N1838 X-313.214 Y17.592 Z-1.460 A227.7788 B1.2500 
N1839 X-313.231 Y17.645 Z-1.633 A226.0981 B1.1219 
N1840 X-313.251 Y17.707 Z-1.810 A224.2080 B0.9928 
N1841 X-313.274 Y17.776 Z-1.991 A222.1120 B0.8591 
N1842 X-313.299 Y17.850 Z-2.178 A219.8274 B0.7190 
N1843 X-313.325 Y17.927 Z-2.370 A217.3817 B0.5717 
N1844 X-313.352 Y18.003 Z-2.568 A214.8072 B0.4162 
N1845 X-313.378 Y18.077 Z-2.770 A212.1375 B0.2542 
N1846 X-313.405 Y18.145 Z-2.976 A209.4045 B0.0884 
N1847 X-313.432 Y18.207 Z-3.185 A206.6364 B-0.0787 
N1848 X-313.458 Y18.260 Z-3.395 A203.8571 B-0.2444 
N1849 X-313.484 Y18.304 Z-3.605 A201.0857 B-0.4071 
N1850 X-313.508 Y18.337 Z-3.815 A198.3363 B-0.5705 
N1851 X-313.531 Y18.361 Z-4.023 A195.6198 B-0.7333 
N1852 X-313.552 Y18.373 Z-4.230 A192.9435 B-0.8936 
N1853 X-313.572 Y18.374 Z-4.433 A190.3128 B-1.0498 
N1854 X-313.591 Y18.365 Z-4.634 A187.7320 B-1.2009 
N1855 X-313.609 Y18.344 Z-4.831 A185.2045 B-1.3456 
N1856 X-313.626 Y18.313 Z-5.024 A182.7336 B-1.4833 
N1857 X-313.641 Y18.270 Z-5.211 A180.3223 B-1.6159 
N1858 X-313.655 Y18.217 Z-5.394 A177.9735 B-1.7438 
N1859 X-313.667 Y18.153 Z-5.570 A175.6897 B-1.8669 
N1860 X-313.678 Y18.079 Z-5.740 A173.4726 B-1.9852 
N1861 X-313.686 Y17.994 Z-5.904 A171.3223 B-2.0992 
N1862 X-313.693 Y17.898 Z-6.060 A169.2380 B-2.2093 
N1863 X-313.699 Y17.792 Z-6.210 A167.2176 B-2.3123 
N1864 X-313.703 Y17.676 Z-6.352 A165.2584 B-2.4097 
N1865 X-313.705 Y17.549 Z-6.487 A163.3577 B-2.5038 
N1866 X-313.705 Y17.411 Z-6.614 A161.5137 B-2.5965 
N1867 X-313.704 Y17.261 Z-6.734 A159.7263 B-2.6841 
N1868 X-313.700 Y17.101 Z-6.844 A157.9958 B-2.7673 
N1869 X-313.695 Y16.929 Z-6.946 A156.3231 B-2.8479 
N1870 X-313.688 Y16.746 Z-7.038 A154.7100 B-2.9246 
N1871 X-313.678 Y16.550 Z-7.120 A153.1579 B-2.9982 
N1872 X-313.666 Y16.343 Z-7.191 A151.6687 B-3.0687 
N1873 X-313.652 Y16.124 Z-7.251 A150.2454 B-3.1359 
N1874 X-313.636 Y15.892 Z-7.299 A148.8929 B-3.2013 
N1875 X-313.617 Y15.649 Z-7.334 A147.6180 B-3.2630 
N1876 X-313.596 Y15.394 Z-7.355 A146.4270 B-3.3223 
N1877 X-313.572 Y15.127 Z-7.362 A145.3241 B-3.3785 
N1878 X-313.547 Y14.848 Z-7.355 A144.3098 B-3.4318 
N1879 X-313.518 Y14.558 Z-7.335 A143.3823 B-3.4837 
N1880 X-313.488 Y14.256 Z-7.300 A142.5403 B-3.5336 
N1881 X-313.454 Y13.943 Z-7.251 A141.7848 B-3.5829 
N1882 X-313.419 Y13.620 Z-7.188 A141.1196 B-3.6301 
N1883 X-313.381 Y13.287 Z-7.112 A140.5480 B-3.6765 
N1884 X-313.341 Y12.945 Z-7.022 A140.0716 B-3.7186 
N1885 X-313.299 Y12.596 Z-6.921 A139.6871 B-3.7607 
N1886 X-313.256 Y12.238 Z-6.808 A139.3893 B-3.7980 
N1887 X-313.211 Y11.874 Z-6.686 A139.1699 B-3.8363 
N1888 X-313.165 Y11.504 Z-6.557 A139.0216 B-3.8717 
N1889 X-313.117 Y11.129 Z-6.420 A138.9372 B-3.9051 
N1890 X-313.069 Y10.751 Z-6.278 A138.9111 B-3.9386 
N1891 X-313.019 Y10.371 Z-6.131 A138.9402 B-3.9695 
N1892 X-312.969 Y9.990 Z-5.981 A139.0228 B-3.9977 
N1893 X-312.919 Y9.609 Z-5.828 A139.1583 B-4.0246 
N1894 X-312.868 Y9.229 Z-5.673 A139.3473 B-4.0496 
N1895 X-312.817 Y8.853 Z-5.517 A139.5907 B-4.0699 
N1896 X-312.767 Y8.479 Z-5.360 A139.8878 B-4.0882 
N1897 X-312.717 Y8.110 Z-5.204 A140.2373 B-4.1033 
N1898 X-312.667 Y7.745 Z-5.049 A140.6366 B-4.1144 
N1899 X-312.617 Y7.385 Z-4.896 A141.0814 B-4.1225 
N1900 X-312.569 Y7.030 Z-4.745 A141.5673 B-4.1274 
N1901 X-312.520 Y6.679 Z-4.597 A142.0892 B-4.1294 
N1902 X-312.472 Y6.333 Z-4.452 A142.6425 B-4.1286 
N1903 X-312.425 Y5.991 Z-4.311 A143.2231 B-4.1251 
N1904 X-312.378 Y5.653 Z-4.173 A143.8274 B-4.1190 
N1905 X-312.331 Y5.318 Z-4.039 A144.4525 B-4.1106 
N1906 X-312.285 Y4.987 Z-3.909 A145.0962 B-4.0997 
N1907 X-312.240 Y4.659 Z-3.782 A145.7565 B-4.0865 
N1908 X-312.195 Y4.333 Z-3.660 A146.4320 B-4.0708 
N1909 X-312.150 Y4.010 Z-3.541 A147.1214 B-4.0528 
N1910 X-312.106 Y3.689 Z-3.426 A147.8238 B-4.0324 
N1911 X-312.062 Y3.369 Z-3.315 A148.5383 B-4.0096 
N1912 X-312.018 Y3.052 Z-3.208 A149.2641 B-3.9843 
N1913 X-311.975 Y2.735 Z-3.105 A150.0005 B-3.9564 
N1914 X-311.932 Y2.420 Z-3.005 A150.7470 B-3.9260 
N1915 X-311.889 Y2.106 Z-2.910 A151.5028 B-3.8929 
N1916 X-311.846 Y1.793 Z-2.818 A152.2673 B-3.8573 
N1917 X-311.804 Y1.481 Z-2.730 A153.0397 B-3.8190 
N1918 X-311.762 Y1.169 Z-2.646 A153.8195 B-3.7781 
N1919 X-311.720 Y0.857 Z-2.566 A154.6058 B-3.7344 
N1920 X-311.679 Y0.546 Z-2.490 A155.3979 B-3.6881 
N1921 X-311.637 Y0.235 Z-2.418 A156.1952 B-3.6392 
N1922 X-311.596 Y-0.076 Z-2.350 A156.9969 B-3.5876 
N1923 X-311.555 Y-0.387 Z-2.287 A157.8023 B-3.5334 
N1924 X-311.514 Y-0.699 Z-2.227 A158.6107 B-3.4765 
N1925 X-311.474 Y-1.010 Z-2.172 A159.4214 B-3.4172 
N1926 X-311.433 Y-1.322 Z-2.121 A160.2337 B-3.3553 
N1927 X-311.393 Y-1.635 Z-2.075 A161.0471 B-3.2910 
N1928 X-311.353 Y-1.948 Z-2.032 A161.8608 B-3.2243 
N1929 X-311.313 Y-2.261 Z-1.995 A162.6741 B-3.1554 
N1930 X-311.273 Y-2.575 Z-1.961 A163.4866 B-3.0842 
N1931 X-311.233 Y-2.890 Z-1.932 A164.2975 B-3.0110 
N1932 X-311.194 Y-3.206 Z-1.908 A165.1063 B-2.9357 
N1933 X-311.155 Y-3.523 Z-1.889 A165.9123 B-2.8586 
N1934 X-311.116 Y-3.840 Z-1.874 A166.7149 B-2.7798 
N1935 X-311.077 Y-4.159 Z-1.864 A167.5136 B-2.6993 
N1936 X-311.038 Y-4.479 Z-1.858 A168.3078 B-2.6174 
N1937 X-310.999 Y-4.800 Z-1.858 A169.0969 B-2.5342 
N1938 X-310.961 Y-5.122 Z-1.862 A169.8803 B-2.4498 
N1939 X-310.922 Y-5.445 Z-1.872 A170.6574 B-2.3645 
N1940 X-310.884 Y-5.770 Z-1.886 A171.4277 B-2.2784 
N1941 X-310.846 Y-6.096 Z-1.906 A172.1905 B-2.1916 
N1942 X-310.809 Y-6.423 Z-1.931 A172.9453 B-2.1045 
N1943 X-310.771 Y-6.752 Z-1.961 A173.6914 B-2.0171 
N1944 X-310.734 Y-7.082 Z-1.996 A174.4283 B-1.9297 
N1945 X-310.697 Y-7.414 Z-2.037 A175.1554 B-1.8425 
N1946 X-310.660 Y-7.747 Z-2.083 A175.8721 B-1.7557 
N1947 X-310.623 Y-8.082 Z-2.134 A176.5778 B-1.6694 
N1948 X-310.586 Y-8.419 Z-2.191 A177.2721 B-1.5840 
N1949 X-310.550 Y-8.758 Z-2.254 A177.9543 B-1.4995 
N1950 X-310.514 Y-9.098 Z-2.322 A178.6239 B-1.4162 
N1951 X-310.478 Y-9.440 Z-2.396 A179.2805 B-1.3342 
N1952 X-310.442 Y-9.784 Z-2.476 A179.9234 B-1.2538 
N1953 X-310.407 Y-10.130 Z-2.561 A180.5521 B-1.1751 
N1954 X-310.371 Y-10.478 Z-2.653 A181.1658 B-1.0984 
N1955 X-310.336 Y-10.828 Z-2.750 A181.7636 B-1.0238 
N1956 X-310.301 Y-11.181 Z-2.854 A182.3445 B-0.9514 
N1957 X-310.267 Y-11.536 Z-2.964 A182.9074 B-0.8817 
N1958 X-310.232 Y-11.893 Z-3.080 A183.4512 B-0.8147 
N1959 X-310.198 Y-12.253 Z-3.203 A183.9744 B-0.7506 
N1960 X-310.164 Y-12.615 Z-3.331 A184.4761 B-0.6898 
N1961 X-310.130 Y-12.980 Z-3.467 A184.9549 B-0.6324 
N1962 X-310.097 Y-13.348 Z-3.609 A185.4101 B-0.5788 
N1963 X-310.064 Y-13.718 Z-3.757 A185.8406 B-0.5290 
N1964 X-310.031 Y-14.090 Z-3.911 A186.2459 B-0.4832 
N1965 X-309.998 Y-14.465 Z-4.072 A186.6252 B-0.4417 
N1966 X-309.965 Y-14.841 Z-4.238 A186.9780 B-0.4044 
N1967 X-309.933 Y-15.219 Z-4.410 A187.3039 B-0.3714 
N1968 X-309.901 Y-15.599 Z-4.587 A187.6026 B-0.3425 
N1969 X-309.870 Y-15.978 Z-4.769 A187.8739 B-0.3179 
N1970 X-309.839 Y-16.357 Z-4.954 A188.1180 B-0.2974 
N1971 X-309.809 Y-16.734 Z-5.143 A188.3353 B-0.2799 
N1972 X-309.779 Y-17.108 Z-5.333 A188.5267 B-0.2670 
N1973 X-309.750 Y-17.477 Z-5.523 A188.6936 B-0.2573 
N1974 X-309.721 Y-17.839 Z-5.713 A188.8377 B-0.2491 
N1975 X-309.694 Y-18.193 Z-5.901 A188.9608 B-0.2448 
N1976 X-309.667 Y-18.537 Z-6.085 A189.0653 B-0.2425 
N1977 X-309.642 Y-18.868 Z-6.264 A189.1531 B-0.2413 
N1978 X-309.618 Y-19.183 Z-6.436 A189.2260 B-0.2413 
