; ORDER       : C999999
; OPER. NAME  : Flank Milling Transition:137
; OPER. DESCR.: finish flank root/promienie przejsc wk
; OPER. TYPE  : preFinFlank
; GEO. OPTION : 2
; MACHINE     : HSTM_500M_SIM840D_Py
;             : HSTM500 Morelia- HAMUEL: 5-axis milling machine-SIM840D Traori PP_Script
; CONTROL     : SINUMERIK 840D
; created:   2022-11-16 12:01:45.070504
;----------------------------------------
;-------DODATKOWE DANE-------------------
; PROGRAMISTA : Mariusz Malec
; PARTID      : 301T002159P1002_-
;  dec_value  : 0.7
;  lean_angle : 24.0
;  tilt_angle : 0.0
;  airf_offset: 0.05
;  firstoffset: 1.5
;----------------------------------------
;RAPORT("TC999999","Flank Milling Transition:137")
N10 TRAFOOF
N11 D0
N12 G90 G94
N13 G0 G53 D0 Z550
N14 STOPRE
M9 ; chlodziwo wyl
; --- Flank Milling Transition:137 - finish flank root/promienie przejsc wk ---
N16 ;ToolChange : concat=None ,current_tdmid=None, PP.tdmId=940683
N17 TRAFOOF
N18 G0 G53 D0 X-200 Y150 Z550 B0
N19 T="7740683"
;RAPORT("TC999999","ToolChangeStart 7740683")
N20 M6
;RAPORT("TC999999","ToolChangeEnd")
N21 STOPRE
N22 MSG(" TLID=940683 D=5.035 R=3.0 Ang=10.0 Len=150.0 ")
N23 S8619 M03
N24 STOPRE
N25 TOL(0.001,1,1)
N26 G0 G53 A21.7552 B5.0560
N27 TRAORI
N28 G54 D3
N29 D3 
N30 TRANS  X=R9 A=R25
STOPRE
E_ZDARZ=300017
;ACS_FINISH_UBG_PLATFORM_XLB_ROOT=7740683
STOPRE
N31 X-194.156 Y-57.511 Z39.547 A21.7552 B5.0560 
N32 M342 ; chlodziwo woda
N33 X-198.562 Y-39.051 Z-6.712 
N34 G01 X-198.423 Y-36.502 Z-8.520 F861 
N35 X-198.348 Y-33.516 Z-9.454 
N36 X-198.346 Y-30.388 Z-9.422 
N37 X-198.415 Y-27.422 Z-8.428 
N38 M342 ; chlodziwo woda
N39 X-198.551 Y-24.910 Z-6.568 
N40 X-198.553 Y-24.860 Z-6.483 A20.3225 B4.8424 
N41 X-198.563 Y-24.738 Z-6.358 A20.0191 B4.7901 
N42 X-198.575 Y-24.589 Z-6.214 A19.9828 B4.7769 
N43 X-198.588 Y-24.425 Z-6.057 A19.9736 B4.7672 
N44 X-198.602 Y-24.246 Z-5.887 A19.9643 B4.7569 
N45 X-198.615 Y-24.054 Z-5.702 A19.9521 B4.7454 
N46 X-198.628 Y-23.847 Z-5.504 A19.9371 B4.7327 
N47 X-198.642 Y-23.625 Z-5.292 A19.9192 B4.7188 
N48 X-198.655 Y-23.390 Z-5.067 A19.8982 B4.7038 
N49 X-198.666 Y-23.141 Z-4.829 A19.8739 B4.6876 
N50 X-198.678 Y-22.880 Z-4.579 A19.8454 B4.6701 
N51 X-198.691 Y-22.607 Z-4.318 A19.8119 B4.6512 
N52 X-198.705 Y-22.324 Z-4.047 A19.7728 B4.6308 
N53 X-198.718 Y-22.032 Z-3.768 A19.7272 B4.6090 
N54 X-198.733 Y-21.732 Z-3.482 A19.6745 B4.5857 
N55 X-198.748 Y-21.425 Z-3.190 A19.6143 B4.5607 
N56 X-198.764 Y-21.112 Z-2.893 A19.5464 B4.5342 
N57 X-198.780 Y-20.796 Z-2.593 A19.4706 B4.5062 
N58 X-198.797 Y-20.476 Z-2.290 A19.3865 B4.4766 
N59 X-198.814 Y-20.154 Z-1.986 A19.2934 B4.4454 
N60 X-198.832 Y-19.830 Z-1.681 A19.1902 B4.4124 
N61 X-198.850 Y-19.506 Z-1.377 A19.0755 B4.3773 
N62 X-198.868 Y-19.182 Z-1.073 A18.9483 B4.3401 
N63 X-198.887 Y-18.858 Z-0.771 A18.8079 B4.3005 
N64 X-198.907 Y-18.535 Z-0.471 A18.6541 B4.2582 
N65 X-198.926 Y-18.213 Z-0.173 A18.4869 B4.2126 
N66 X-198.946 Y-17.893 Z0.122 A18.3065 B4.1646 
N67 X-198.967 Y-17.574 Z0.414 A18.1131 B4.1141 
N68 X-198.988 Y-17.257 Z0.702 A17.9071 B4.0613 
N69 X-199.009 Y-16.941 Z0.988 A17.6885 B4.0060 
N70 X-199.031 Y-16.628 Z1.270 A17.4577 B3.9483 
N71 X-199.053 Y-16.316 Z1.548 A17.2146 B3.8880 
N72 X-199.075 Y-16.006 Z1.822 A16.9595 B3.8253 
N73 X-199.099 Y-15.698 Z2.093 A16.6923 B3.7600 
N74 X-199.122 Y-15.392 Z2.360 A16.4132 B3.6921 
N75 X-199.146 Y-15.088 Z2.623 A16.1220 B3.6215 
N76 X-199.170 Y-14.786 Z2.882 A15.8188 B3.5482 
N77 X-199.195 Y-14.486 Z3.136 A15.5035 B3.4721 
N78 X-199.221 Y-14.187 Z3.387 A15.1759 B3.3930 
N79 X-199.246 Y-13.891 Z3.634 A14.8360 B3.3110 
N80 X-199.273 Y-13.596 Z3.876 A14.4834 B3.2259 
N81 X-199.299 Y-13.303 Z4.114 A14.1181 B3.1376 
N82 X-199.327 Y-13.013 Z4.348 A13.7398 B3.0459 
N83 X-199.354 Y-12.724 Z4.577 A13.3483 B2.9508 
N84 X-199.383 Y-12.437 Z4.803 A12.9435 B2.8521 
N85 X-199.411 Y-12.152 Z5.023 A12.5254 B2.7498 
N86 X-199.440 Y-11.869 Z5.240 A12.0938 B2.6437 
N87 X-199.470 Y-11.588 Z5.451 A11.6489 B2.5338 
N88 X-199.500 Y-11.309 Z5.659 A11.1906 B2.4201 
N89 X-199.530 Y-11.032 Z5.862 A10.7192 B2.3023 
N90 X-199.561 Y-10.756 Z6.061 A10.2349 B2.1805 
N91 X-199.593 Y-10.482 Z6.255 A9.7381 B2.0547 
N92 X-199.625 Y-10.211 Z6.445 A9.2291 B1.9249 
N93 X-199.657 Y-9.940 Z6.630 A8.7076 B1.7953 
N94 X-199.691 Y-9.672 Z6.811 A8.1741 B1.6654 
N95 X-199.725 Y-9.405 Z6.988 A7.6300 B1.5319 
N96 X-199.759 Y-9.140 Z7.161 A7.0756 B1.3948 
N97 X-199.794 Y-8.876 Z7.329 A6.5112 B1.2542 
N98 X-199.829 Y-8.614 Z7.493 A5.9370 B1.1101 
N99 X-199.865 Y-8.353 Z7.653 A5.3530 B0.9623 
N100 X-199.901 Y-8.094 Z7.809 A4.7593 B0.8110 
N101 X-199.937 Y-7.836 Z7.960 A4.1559 B0.6560 
N102 X-199.975 Y-7.580 Z8.108 A3.5427 B0.4973 
N103 X-200.012 Y-7.325 Z8.251 A2.9197 B0.3349 
N104 X-200.050 Y-7.072 Z8.391 A2.2870 B0.1686 
N105 X-200.089 Y-6.820 Z8.526 A1.6448 B-0.0015 
N106 X-200.127 Y-6.569 Z8.658 A0.9932 B-0.1753 
N107 X-200.167 Y-6.320 Z8.786 A0.3325 B-0.3529 
N108 X-200.207 Y-6.072 Z8.909 A359.6630 B-0.5342 
N109 X-200.247 Y-5.825 Z9.029 A358.9850 B-0.7193 
N110 X-200.287 Y-5.580 Z9.145 A358.2987 B-0.9079 
N111 X-200.329 Y-5.336 Z9.258 A357.6045 B-1.1002 
N112 X-200.370 Y-5.093 Z9.366 A356.9027 B-1.2959 
N113 X-200.412 Y-4.851 Z9.471 A356.1936 B-1.4951 
N114 X-200.454 Y-4.610 Z9.572 A355.4775 B-1.6976 
N115 X-200.497 Y-4.370 Z9.670 A354.7547 B-1.9035 
N116 X-200.540 Y-4.131 Z9.764 A354.0256 B-2.1125 
N117 X-200.584 Y-3.893 Z9.855 A353.2904 B-2.3247 
N118 X-200.628 Y-3.656 Z9.942 A352.5494 B-2.5400 
N119 X-200.673 Y-3.420 Z10.026 A351.8029 B-2.7582 
N120 X-200.718 Y-3.184 Z10.106 A351.0513 B-2.9792 
N121 X-200.763 Y-2.949 Z10.183 A350.2948 B-3.2030 
N122 X-200.809 Y-2.715 Z10.257 A349.5337 B-3.4295 
N123 X-200.856 Y-2.481 Z10.327 A348.7683 B-3.6585 
N124 X-200.902 Y-2.248 Z10.394 A347.9990 B-3.8899 
N125 X-200.950 Y-2.016 Z10.458 A347.2259 B-4.1237 
N126 X-200.998 Y-1.783 Z10.518 A346.4494 B-4.3596 
N127 X-201.046 Y-1.552 Z10.575 A345.6698 B-4.5977 
N128 X-201.095 Y-1.320 Z10.629 A344.8873 B-4.8377 
N129 X-201.144 Y-1.089 Z10.680 A344.1021 B-5.0796 
N130 X-201.194 Y-0.858 Z10.727 A343.3146 B-5.3232 
N131 X-201.245 Y-0.627 Z10.772 A342.5250 B-5.5684 
N132 X-201.296 Y-0.396 Z10.813 A341.7335 B-5.8151 
N133 X-201.347 Y-0.166 Z10.851 A340.9404 B-6.0631 
N134 X-201.399 Y0.064 Z10.885 A340.1459 B-6.3124 
N135 X-201.452 Y0.295 Z10.917 A339.3501 B-6.5628 
N136 X-201.505 Y0.525 Z10.945 A338.5534 B-6.8143 
N137 X-201.559 Y0.756 Z10.970 A337.7559 B-7.0666 
N138 X-201.613 Y0.986 Z10.992 A336.9577 B-7.3197 
N139 X-201.668 Y1.217 Z11.011 A336.1589 B-7.5735 
N140 X-201.723 Y1.447 Z11.027 A335.3598 B-7.8279 
N141 X-201.780 Y1.678 Z11.039 A334.5608 B-8.0827 
N142 X-201.837 Y1.908 Z11.048 A333.7618 B-8.3378 
N143 X-201.895 Y2.139 Z11.053 A332.9627 B-8.5932 
N144 X-201.953 Y2.370 Z11.056 A332.1636 B-8.8489 
N145 X-202.011 Y2.601 Z11.055 A331.3646 B-9.1047 
N146 X-202.070 Y2.833 Z11.050 A330.5659 B-9.3605 
N147 X-202.130 Y3.064 Z11.043 A329.7678 B-9.6162 
N148 X-202.190 Y3.295 Z11.032 A328.9700 B-9.8718 
N149 X-202.251 Y3.527 Z11.018 A328.1728 B-10.1271 
N150 X-202.313 Y3.758 Z11.000 A327.3761 B-10.3821 
N151 X-202.375 Y3.990 Z10.979 A326.5799 B-10.6368 
N152 X-202.437 Y4.221 Z10.954 A325.7843 B-10.8911 
N153 X-202.501 Y4.452 Z10.926 A324.9893 B-11.1448 
N154 X-202.564 Y4.683 Z10.895 A324.1949 B-11.3981 
N155 X-202.629 Y4.914 Z10.860 A323.4010 B-11.6507 
N156 X-202.694 Y5.145 Z10.822 A322.6076 B-11.9028 
N157 X-202.759 Y5.376 Z10.780 A321.8147 B-12.1541 
N158 X-202.825 Y5.606 Z10.735 A321.0223 B-12.4048 
N159 X-202.892 Y5.836 Z10.686 A320.2302 B-12.6547 
N160 X-202.958 Y6.065 Z10.634 A319.4384 B-12.9038 
N161 X-203.026 Y6.294 Z10.579 A318.6469 B-13.1522 
N162 X-203.094 Y6.523 Z10.519 A317.8556 B-13.3997 
N163 X-203.162 Y6.751 Z10.457 A317.0644 B-13.6463 
N164 X-203.231 Y6.978 Z10.391 A316.2732 B-13.8921 
N165 X-203.300 Y7.205 Z10.321 A315.4821 B-14.1369 
N166 X-203.369 Y7.431 Z10.248 A314.6909 B-14.3808 
N167 X-203.439 Y7.656 Z10.171 A313.8996 B-14.6237 
N168 X-203.510 Y7.880 Z10.091 A313.1084 B-14.8656 
N169 X-203.580 Y8.104 Z10.008 A312.3185 B-15.1059 
N170 X-203.651 Y8.326 Z9.921 A311.5340 B-15.3436 
N171 X-203.723 Y8.548 Z9.829 A310.7676 B-15.5750 
N172 X-203.796 Y8.771 Z9.732 A310.0494 B-15.7913 
N173 X-203.870 Y8.995 Z9.628 A309.4366 B-15.9763 
N174 X-203.947 Y9.223 Z9.511 A309.0127 B-16.1058 
N175 X-204.030 Y9.457 Z9.380 A308.8620 B-16.1373 
N176 X-204.118 Y9.698 Z9.231 A309.0407 B-16.0583 
N177 X-204.211 Y9.946 Z9.066 A309.5362 B-15.8830 
N178 X-204.307 Y10.199 Z8.888 A310.2549 B-15.6418 
N179 X-204.405 Y10.452 Z8.703 A311.0532 B-15.3737 
N180 X-204.502 Y10.702 Z8.518 A311.7902 B-15.1145 
N181 X-204.598 Y10.945 Z8.336 A312.3733 B-14.8864 
N182 X-204.692 Y11.180 Z8.157 A312.7761 B-14.6948 
N183 X-204.785 Y11.416 Z7.976 A313.0312 B-14.5459 
N184 X-204.875 Y11.646 Z7.796 A313.1792 B-14.4247 
N185 X-204.963 Y11.871 Z7.615 A313.2625 B-14.3202 
N186 X-205.048 Y12.093 Z7.433 A313.3024 B-14.2266 
N187 X-205.130 Y12.311 Z7.249 A313.2951 B-14.1439 
N188 X-205.210 Y12.524 Z7.065 A313.2164 B-14.0757 
N189 X-205.287 Y12.731 Z6.882 A313.0325 B-14.0267 
N190 X-205.360 Y12.931 Z6.701 A312.7162 B-13.9989 
N191 X-205.431 Y13.124 Z6.523 A312.2602 B-13.9896 
N192 X-205.499 Y13.310 Z6.347 A311.6815 B-13.9918 
N193 X-205.565 Y13.491 Z6.171 A311.0118 B-13.9963 
N194 X-205.629 Y13.667 Z5.995 A310.2832 B-13.9954 
N195 X-205.692 Y13.839 Z5.818 A309.5154 B-13.9839 
N196 X-205.753 Y14.008 Z5.640 A308.7108 B-13.9596 
N197 X-205.813 Y14.172 Z5.462 A307.8535 B-13.9213 
N198 X-205.873 Y14.330 Z5.284 A306.9162 B-13.8673 
N199 X-205.931 Y14.483 Z5.109 A305.8712 B-13.7932 
N200 X-205.989 Y14.630 Z4.937 A304.7057 B-13.6908 
N201 X-206.045 Y14.771 Z4.767 A303.4342 B-13.5814 
N202 X-206.093 Y14.909 Z4.600 A302.1050 B-13.5889 
N203 X-206.139 Y15.044 Z4.434 A300.7288 B-13.5967 
N204 X-206.184 Y15.176 Z4.267 A299.3306 B-13.6024 
N205 X-206.226 Y15.306 Z4.101 A297.9243 B-13.6046 
N206 X-206.267 Y15.434 Z3.934 A296.5151 B-13.6025 
N207 X-206.307 Y15.559 Z3.767 A295.1029 B-13.5960 
N208 X-206.344 Y15.682 Z3.601 A293.6853 B-13.5851 
N209 X-206.380 Y15.801 Z3.436 A292.2592 B-13.5699 
N210 X-206.414 Y15.918 Z3.271 A290.8222 B-13.5505 
N211 X-206.446 Y16.031 Z3.109 A289.3732 B-13.5270 
N212 X-206.477 Y16.142 Z2.948 A287.9119 B-13.4995 
N213 X-206.506 Y16.249 Z2.790 A286.4388 B-13.4681 
N214 X-206.534 Y16.352 Z2.634 A284.9550 B-13.4330 
N215 X-206.560 Y16.452 Z2.481 A283.4622 B-13.3942 
N216 X-206.584 Y16.549 Z2.331 A281.9622 B-13.3521 
N217 X-206.607 Y16.641 Z2.185 A280.4554 B-13.3070 
N218 X-206.629 Y16.731 Z2.043 A278.9378 B-13.2592 
N219 X-206.649 Y16.816 Z1.905 A277.4025 B-13.2094 
N220 X-206.668 Y16.898 Z1.774 A275.8465 B-13.1579 
N221 X-206.685 Y16.976 Z1.648 A274.2744 B-13.1049 
N222 X-206.701 Y17.050 Z1.527 A272.6999 B-13.0505 
N223 X-206.715 Y17.122 Z1.411 A271.1403 B-12.9946 
N224 X-206.729 Y17.189 Z1.299 A269.5972 B-12.9377 
N225 X-206.742 Y17.254 Z1.195 A268.0408 B-12.8807 
N226 X-206.753 Y17.315 Z1.099 A266.4328 B-12.8245 
N227 X-206.764 Y17.375 Z1.012 A264.7725 B-12.7691 
N228 X-206.774 Y17.432 Z0.933 A263.0747 B-12.7142 
N229 X-206.783 Y17.487 Z0.863 A261.3426 B-12.6600 
N230 X-206.791 Y17.540 Z0.801 A259.5516 B-12.6066 
N231 X-206.798 Y17.593 Z0.748 A257.6811 B-12.5540 
N232 X-206.806 Y17.645 Z0.704 A255.7649 B-12.5020 
N233 X-206.812 Y17.697 Z0.663 A253.8532 B-12.4503 
N234 X-206.818 Y17.746 Z0.625 A251.9797 B-12.3990 
N235 X-206.825 Y17.794 Z0.588 A250.1569 B-12.3144 
N236 X-206.831 Y17.839 Z0.552 A248.3800 B-12.2438 
N237 X-206.836 Y17.883 Z0.516 A246.6386 B-12.1860 
N238 X-206.841 Y17.926 Z0.482 A244.9251 B-12.1395 
N239 X-206.844 Y17.967 Z0.448 A243.2347 B-12.1031 
N240 X-206.847 Y18.007 Z0.414 A241.5647 B-12.0759 
N241 X-206.849 Y18.046 Z0.381 A239.9128 B-12.0571 
N242 X-206.850 Y18.084 Z0.348 A238.2759 B-12.0431 
N243 X-206.851 Y18.120 Z0.315 A236.6522 B-12.0280 
N244 X-206.851 Y18.156 Z0.282 A235.0397 B-12.0118 
N245 X-206.850 Y18.191 Z0.248 A233.4360 B-11.9945 
N246 X-206.849 Y18.226 Z0.214 A231.8396 B-11.9761 
N247 X-206.848 Y18.258 Z0.179 A230.2492 B-11.9566 
N248 X-206.846 Y18.289 Z0.143 A228.6639 B-11.9360 
N249 X-206.845 Y18.320 Z0.107 A227.0828 B-11.9143 
N250 X-206.843 Y18.350 Z0.069 A225.5052 B-11.8917 
N251 X-206.841 Y18.378 Z0.031 A223.9305 B-11.8679 
N252 X-206.840 Y18.406 Z-0.008 A222.3581 B-11.8432 
N253 X-206.838 Y18.432 Z-0.048 A220.7874 B-11.8175 
N254 X-206.837 Y18.457 Z-0.088 A219.2179 B-11.7907 
N255 X-206.836 Y18.481 Z-0.130 A217.6493 B-11.7630 
N256 X-206.835 Y18.503 Z-0.172 A216.0811 B-11.7343 
N257 X-206.835 Y18.524 Z-0.216 A214.5130 B-11.7047 
N258 X-206.835 Y18.544 Z-0.260 A212.9447 B-11.6741 
N259 X-206.836 Y18.562 Z-0.305 A211.3755 B-11.6431 
N260 X-206.837 Y18.579 Z-0.350 A209.8057 B-11.6108 
N261 X-206.838 Y18.594 Z-0.397 A208.2346 B-11.5776 
N262 X-206.840 Y18.608 Z-0.444 A206.6615 B-11.5435 
N263 X-206.842 Y18.620 Z-0.492 A205.0859 B-11.5086 
N264 X-206.844 Y18.631 Z-0.540 A203.5068 B-11.4727 
N265 X-206.846 Y18.640 Z-0.590 A201.9233 B-11.4360 
N266 X-206.849 Y18.647 Z-0.640 A200.3344 B-11.3984 
N267 X-206.852 Y18.652 Z-0.691 A198.7391 B-11.3598 
N268 X-206.856 Y18.655 Z-0.743 A197.1361 B-11.3203 
N269 X-206.859 Y18.656 Z-0.796 A195.5241 B-11.2799 
N270 X-206.863 Y18.655 Z-0.849 A193.9015 B-11.2385 
N271 X-206.867 Y18.651 Z-0.904 A192.2664 B-11.1960 
N272 X-206.871 Y18.645 Z-0.960 A190.6169 B-11.1526 
N273 X-206.875 Y18.635 Z-1.017 A188.9517 B-11.1080 
N274 X-206.879 Y18.622 Z-1.075 A187.2711 B-11.0625 
N275 X-206.881 Y18.604 Z-1.134 A185.5775 B-11.0160 
N276 X-206.884 Y18.582 Z-1.195 A183.8775 B-10.9688 
N277 X-206.885 Y18.553 Z-1.258 A182.1838 B-10.9214 
N278 X-206.884 Y18.516 Z-1.321 A180.5128 B-10.8808 
N279 X-206.882 Y18.469 Z-1.386 A178.8858 B-10.8613 
N280 X-206.880 Y18.409 Z-1.452 A177.3432 B-10.8454 
N281 X-206.876 Y18.336 Z-1.518 A175.9008 B-10.8338 
N282 X-206.873 Y18.250 Z-1.584 A174.5389 B-10.8260 
N283 X-206.868 Y18.153 Z-1.650 A173.2117 B-10.8206 
N284 X-206.863 Y18.046 Z-1.717 A171.8973 B-10.8169 
N285 X-206.857 Y17.926 Z-1.783 A170.6053 B-10.8152 
N286 X-206.850 Y17.794 Z-1.850 A169.3564 B-10.8163 
N287 X-206.844 Y17.649 Z-1.916 A168.1468 B-10.8203 
N288 X-206.834 Y17.492 Z-1.982 A166.9594 B-10.8265 
N289 X-206.825 Y17.322 Z-2.048 A165.7971 B-10.8351 
N290 X-206.814 Y17.138 Z-2.112 A164.6745 B-10.8468 
N291 X-206.802 Y16.941 Z-2.176 A163.6024 B-10.8622 
N292 X-206.788 Y16.730 Z-2.238 A162.5797 B-10.8813 
N293 X-206.773 Y16.506 Z-2.298 A161.5983 B-10.9040 
N294 X-206.756 Y16.270 Z-2.357 A160.6529 B-10.9302 
N295 X-206.737 Y16.022 Z-2.414 A159.7516 B-10.9604 
N296 X-206.716 Y15.762 Z-2.468 A158.9171 B-10.9977 
N297 X-206.693 Y15.488 Z-2.519 A158.1788 B-11.0543 
N298 X-206.668 Y15.200 Z-2.565 A157.5662 B-11.1113 
N299 X-206.641 Y14.898 Z-2.606 A157.0905 B-11.1710 
N300 X-206.611 Y14.583 Z-2.643 A156.7399 B-11.2351 
N301 X-206.580 Y14.259 Z-2.675 A156.4838 B-11.3036 
N302 X-206.546 Y13.926 Z-2.704 A156.2860 B-11.3754 
N303 X-206.511 Y13.587 Z-2.729 A156.1147 B-11.4489 
N304 X-206.473 Y13.244 Z-2.752 A155.9451 B-11.5223 
N305 X-206.434 Y12.898 Z-2.772 A155.7556 B-11.5936 
N306 X-206.393 Y12.551 Z-2.791 A155.5257 B-11.6603 
N307 X-206.349 Y12.204 Z-2.807 A155.2371 B-11.7198 
N308 X-206.304 Y11.857 Z-2.822 A154.8800 B-11.7697 
N309 X-206.257 Y11.511 Z-2.836 A154.4574 B-11.8088 
N310 X-206.208 Y11.165 Z-2.848 A153.9841 B-11.8374 
N311 X-206.158 Y10.819 Z-2.858 A153.4806 B-11.8570 
N312 X-206.105 Y10.471 Z-2.865 A152.9661 B-11.8694 
N313 X-206.050 Y10.121 Z-2.870 A152.4538 B-11.8761 
N314 X-205.993 Y9.768 Z-2.872 A151.9504 B-11.8783 
N315 X-205.933 Y9.414 Z-2.872 A151.4579 B-11.8762 
N316 X-205.871 Y9.056 Z-2.868 A150.9767 B-11.8702 
N317 X-205.806 Y8.696 Z-2.862 A150.5068 B-11.8605 
N318 X-205.738 Y8.332 Z-2.854 A150.0482 B-11.8473 
N319 X-205.668 Y7.966 Z-2.843 A149.6015 B-11.8309 
N320 X-205.594 Y7.595 Z-2.829 A149.1679 B-11.8117 
N321 X-205.518 Y7.221 Z-2.813 A148.7489 B-11.7904 
N322 X-205.438 Y6.842 Z-2.795 A148.3466 B-11.7677 
N323 X-205.354 Y6.459 Z-2.774 A147.9626 B-11.7443 
N324 X-205.267 Y6.071 Z-2.751 A147.5980 B-11.7210 
N325 X-205.176 Y5.677 Z-2.725 A147.2532 B-11.6981 
N326 X-205.080 Y5.278 Z-2.698 A146.9277 B-11.6761 
N327 X-204.981 Y4.873 Z-2.668 A146.6201 B-11.6549 
N328 X-204.877 Y4.463 Z-2.637 A146.3277 B-11.6342 
N329 X-204.768 Y4.049 Z-2.603 A146.1103 B-11.6318 
N330 X-204.656 Y3.631 Z-2.565 A146.0395 B-11.6567 
N331 X-204.545 Y3.208 Z-2.525 A145.9874 B-11.6656 
N332 X-204.432 Y2.781 Z-2.485 A145.9487 B-11.6703 
N333 X-204.318 Y2.349 Z-2.443 A145.9205 B-11.6783 
N334 X-204.204 Y1.915 Z-2.401 A145.9029 B-11.6896 
N335 X-204.089 Y1.478 Z-2.359 A145.8967 B-11.7043 
N336 X-203.973 Y1.039 Z-2.317 A145.9036 B-11.7230 
N337 X-203.857 Y0.599 Z-2.274 A145.9262 B-11.7465 
N338 X-203.742 Y0.160 Z-2.232 A145.9682 B-11.7757 
N339 X-203.626 Y-0.279 Z-2.190 A146.0340 B-11.8121 
N340 X-203.512 Y-0.717 Z-2.148 A146.1283 B-11.8568 
N341 X-203.397 Y-1.153 Z-2.107 A146.2543 B-11.9110 
N342 X-203.284 Y-1.587 Z-2.068 A146.4138 B-11.9750 
N343 X-203.171 Y-2.018 Z-2.029 A146.6068 B-12.0488 
N344 X-203.060 Y-2.445 Z-1.992 A146.8322 B-12.1322 
N345 X-202.950 Y-2.869 Z-1.957 A147.0874 B-12.2242 
N346 X-202.842 Y-3.288 Z-1.923 A147.3697 B-12.3240 
N347 X-202.735 Y-3.703 Z-1.893 A147.6768 B-12.4310 
N348 X-202.630 Y-4.113 Z-1.864 A148.0073 B-12.5446 
N349 X-202.527 Y-4.518 Z-1.839 A148.3601 B-12.6646 
N350 X-202.425 Y-4.918 Z-1.816 A148.7351 B-12.7908 
N351 X-202.326 Y-5.313 Z-1.796 A149.1323 B-12.9232 
N352 X-202.228 Y-5.703 Z-1.778 A149.5523 B-13.0620 
N353 X-202.132 Y-6.089 Z-1.764 A149.9953 B-13.2072 
N354 X-202.037 Y-6.469 Z-1.752 A150.4618 B-13.3588 
N355 X-201.945 Y-6.845 Z-1.744 A150.9517 B-13.5168 
N356 X-201.853 Y-7.216 Z-1.738 A151.4649 B-13.6812 
N357 X-201.764 Y-7.583 Z-1.736 A152.0017 B-13.8519 
N358 X-201.676 Y-7.945 Z-1.737 A152.5621 B-14.0289 
N359 X-201.591 Y-8.303 Z-1.741 A153.1455 B-14.2118 
N360 X-201.507 Y-8.656 Z-1.748 A153.7515 B-14.4006 
N361 X-201.425 Y-9.005 Z-1.759 A154.3798 B-14.5951 
N362 X-201.345 Y-9.350 Z-1.772 A155.0301 B-14.7950 
N363 X-201.266 Y-9.691 Z-1.790 A155.7021 B-15.0003 
N364 X-201.189 Y-10.028 Z-1.810 A156.3956 B-15.2106 
N365 X-201.113 Y-10.360 Z-1.834 A157.1104 B-15.4259 
N366 X-201.040 Y-10.690 Z-1.861 A157.8460 B-15.6459 
N367 X-200.967 Y-11.015 Z-1.892 A158.6019 B-15.8703 
N368 X-200.897 Y-11.337 Z-1.927 A159.3776 B-16.0988 
N369 X-200.828 Y-11.656 Z-1.964 A160.1725 B-16.3312 
N370 X-200.760 Y-11.971 Z-2.006 A160.9857 B-16.5670 
N371 X-200.694 Y-12.283 Z-2.051 A161.8166 B-16.8060 
N372 X-200.629 Y-12.592 Z-2.099 A162.6643 B-17.0477 
N373 X-200.566 Y-12.899 Z-2.152 A163.5278 B-17.2917 
N374 X-200.504 Y-13.203 Z-2.208 A164.4064 B-17.5376 
N375 X-200.444 Y-13.504 Z-2.268 A165.2988 B-17.7851 
N376 X-200.385 Y-13.803 Z-2.331 A166.2042 B-18.0336 
N377 X-200.327 Y-14.100 Z-2.399 A167.1212 B-18.2828 
N378 X-200.270 Y-14.396 Z-2.470 A168.0488 B-18.5321 
N379 X-200.215 Y-14.689 Z-2.546 A168.9855 B-18.7811 
N380 X-200.161 Y-14.982 Z-2.626 A169.9305 B-19.0295 
N381 X-200.108 Y-15.273 Z-2.710 A170.8827 B-19.2768 
N382 X-200.056 Y-15.564 Z-2.799 A171.8415 B-19.5228 
N383 X-200.005 Y-15.855 Z-2.892 A172.8061 B-19.7671 
N384 X-199.955 Y-16.145 Z-2.991 A173.7760 B-20.0096 
N385 X-199.906 Y-16.436 Z-3.094 A174.7505 B-20.2500 
N386 X-199.858 Y-16.727 Z-3.203 A175.7287 B-20.4880 
N387 X-199.811 Y-17.020 Z-3.317 A176.7086 B-20.7231 
N388 X-199.764 Y-17.313 Z-3.437 A177.6859 B-20.9541 
N389 X-199.719 Y-17.608 Z-3.564 A178.6537 B-21.1797 
N390 X-199.675 Y-17.904 Z-3.696 A179.6037 B-21.3979 
N391 X-199.632 Y-18.200 Z-3.835 A180.5259 B-21.6069 
N392 X-199.590 Y-18.496 Z-3.980 A181.4096 B-21.8046 
N393 X-199.549 Y-18.792 Z-4.131 A182.2429 B-21.9890 
N394 X-199.510 Y-19.087 Z-4.288 A183.0145 B-22.1580 
N395 X-199.473 Y-19.379 Z-4.449 A183.7163 B-22.3107 
N396 X-199.437 Y-19.669 Z-4.615 A184.3444 B-22.4468 
N397 X-199.403 Y-19.954 Z-4.783 A184.8973 B-22.5665 
N398 X-199.371 Y-20.234 Z-4.953 A185.3754 B-22.6703 
N399 X-199.340 Y-20.507 Z-5.124 A185.7810 B-22.7591 
N400 X-199.311 Y-20.773 Z-5.294 A186.1199 B-22.8343 
N401 X-199.284 Y-21.031 Z-5.461 A186.4010 B-22.8978 
N402 X-199.259 Y-21.278 Z-5.624 A186.6329 B-22.9513 
N403 X-199.235 Y-21.515 Z-5.782 A186.8228 B-22.9963 
N404 X-199.212 Y-21.740 Z-5.934 A186.9776 B-23.0342 
N405 X-199.191 Y-21.952 Z-6.079 A187.1039 B-23.0662 
N406 X-199.172 Y-22.150 Z-6.215 A187.2063 B-23.0931 
N407 X-199.154 Y-22.336 Z-6.343 A187.2893 B-23.1159 
N408 X-199.138 Y-22.507 Z-6.463 A187.3502 B-23.1341 
N409 X-199.125 Y-22.658 Z-6.572 A187.2035 B-23.1133 
N410 X-199.125 Y-22.751 Z-6.671 A185.8736 B-22.8695 
N411 X-199.135 Y-22.791 Z-6.761 A183.4554 B-22.4033 
N412 X-199.146 Y-22.812 Z-6.846 A180.8250 B-21.8696 
N413 X-199.158 Y-22.829 Z-6.924 A178.2555 B-21.3231 
N414 X-199.168 Y-22.844 Z-6.996 A175.8141 B-20.7817 
N415 X-199.177 Y-22.860 Z-7.061 A173.5120 B-20.2519 
N416 X-199.185 Y-22.877 Z-7.121 A171.3411 B-19.7360 
N417 X-199.192 Y-22.894 Z-7.176 A169.2862 B-19.2335 
N418 X-199.198 Y-22.912 Z-7.228 A167.3297 B-18.7429 
N419 X-199.203 Y-22.931 Z-7.276 A165.4546 B-18.2619 
N420 X-199.207 Y-22.950 Z-7.321 A163.6452 B-17.7884 
N421 X-199.211 Y-22.970 Z-7.363 A161.8879 B-17.3200 
N422 X-199.215 Y-22.991 Z-7.404 A160.1715 B-16.8547 
N423 X-199.218 Y-23.012 Z-7.442 A158.4867 B-16.3911 
N424 X-199.220 Y-23.034 Z-7.479 A156.8264 B-15.9279 
N425 X-199.222 Y-23.057 Z-7.515 A155.1849 B-15.4641 
N426 X-199.223 Y-23.081 Z-7.548 A153.5580 B-14.9991 
N427 X-199.224 Y-23.106 Z-7.581 A151.9428 B-14.5326 
N428 X-199.224 Y-23.131 Z-7.612 A150.3370 B-14.0644 
N429 X-199.224 Y-23.157 Z-7.641 A148.7391 B-13.5946 
N430 X-199.224 Y-23.184 Z-7.669 A147.1478 B-13.1233 
N431 X-199.223 Y-23.212 Z-7.696 A145.5625 B-12.6506 
N432 X-199.221 Y-23.240 Z-7.721 A143.9826 B-12.1770 
N433 X-199.220 Y-23.269 Z-7.745 A142.4076 B-11.7027 
N434 X-199.217 Y-23.299 Z-7.768 A140.8375 B-11.2280 
N435 X-199.215 Y-23.329 Z-7.789 A139.2718 B-10.7534 
N436 X-199.212 Y-23.360 Z-7.809 A137.7106 B-10.2793 
N437 X-199.208 Y-23.391 Z-7.827 A136.1537 B-9.8060 
N438 X-199.205 Y-23.423 Z-7.844 A134.6010 B-9.3340 
N439 X-199.201 Y-23.455 Z-7.859 A133.0526 B-8.8636 
N440 X-199.196 Y-23.488 Z-7.873 A131.5084 B-8.3954 
N441 X-199.191 Y-23.521 Z-7.885 A129.9684 B-7.9297 
N442 X-199.186 Y-23.554 Z-7.896 A128.4324 B-7.4668 
N443 X-199.180 Y-23.587 Z-7.906 A126.9005 B-7.0073 
N444 X-199.174 Y-23.621 Z-7.914 A125.3724 B-6.5513 
N445 X-199.167 Y-23.655 Z-7.921 A123.8478 B-6.0993 
N446 X-199.160 Y-23.689 Z-7.926 A122.3264 B-5.6516 
N447 X-199.153 Y-23.723 Z-7.929 A120.8081 B-5.2085 
N448 X-199.145 Y-23.757 Z-7.932 A119.2924 B-4.7702 
N449 X-199.137 Y-23.790 Z-7.932 A117.7792 B-4.3372 
N450 X-199.130 Y-23.824 Z-7.931 A116.2757 B-3.8840 
N451 X-199.122 Y-23.858 Z-7.929 A114.7740 B-3.4372 
N452 X-199.114 Y-23.892 Z-7.925 A113.2736 B-2.9980 
N453 X-199.106 Y-23.926 Z-7.920 A111.7746 B-2.5663 
N454 X-199.098 Y-23.959 Z-7.914 A110.2769 B-2.1423 
N455 X-199.089 Y-23.992 Z-7.906 A108.7805 B-1.7260 
N456 X-199.080 Y-24.025 Z-7.897 A107.2852 B-1.3176 
N457 X-199.070 Y-24.057 Z-7.887 A105.7909 B-0.9170 
N458 X-199.060 Y-24.089 Z-7.875 A104.2976 B-0.5245 
N459 X-199.051 Y-24.120 Z-7.863 A102.8053 B-0.1403 
N460 X-199.040 Y-24.151 Z-7.849 A101.3137 B0.2357 
N461 X-199.030 Y-24.182 Z-7.834 A99.8228 B0.6030 
N462 X-199.020 Y-24.212 Z-7.817 A98.3326 B0.9618 
N463 X-199.009 Y-24.241 Z-7.800 A96.8428 B1.3117 
N464 X-198.998 Y-24.270 Z-7.782 A95.3535 B1.6526 
N465 X-198.987 Y-24.298 Z-7.763 A93.8645 B1.9843 
N466 X-198.976 Y-24.325 Z-7.742 A92.3756 B2.3068 
N467 X-198.965 Y-24.352 Z-7.721 A90.8868 B2.6199 
N468 X-198.954 Y-24.378 Z-7.699 A89.3979 B2.9234 
N469 X-198.943 Y-24.403 Z-7.676 A87.9088 B3.2172 
N470 X-198.932 Y-24.428 Z-7.653 A86.4194 B3.5012 
N471 X-198.921 Y-24.451 Z-7.628 A84.9294 B3.7752 
N472 X-198.910 Y-24.474 Z-7.603 A83.4388 B4.0391 
N473 X-198.899 Y-24.496 Z-7.578 A81.9473 B4.2928 
N474 X-198.888 Y-24.517 Z-7.552 A80.4548 B4.5362 
N475 X-198.877 Y-24.538 Z-7.525 A78.9611 B4.7691 
N476 X-198.866 Y-24.557 Z-7.499 A77.4658 B4.9915 
N477 X-198.855 Y-24.576 Z-7.471 A75.9687 B5.2033 
N478 X-198.845 Y-24.594 Z-7.444 A74.4696 B5.4043 
N479 X-198.834 Y-24.611 Z-7.416 A72.9683 B5.5944 
N480 X-198.824 Y-24.627 Z-7.389 A71.4646 B5.7735 
N481 X-198.814 Y-24.643 Z-7.361 A69.9582 B5.9415 
N482 X-198.804 Y-24.658 Z-7.333 A68.4491 B6.0982 
N483 X-198.794 Y-24.672 Z-7.305 A66.9370 B6.2436 
N484 X-198.785 Y-24.685 Z-7.277 A65.4219 B6.3775 
N485 X-198.775 Y-24.697 Z-7.249 A63.9040 B6.4998 
N486 X-198.766 Y-24.709 Z-7.222 A62.3837 B6.6103 
N487 X-198.757 Y-24.721 Z-7.194 A60.8618 B6.7088 
N488 X-198.747 Y-24.731 Z-7.167 A59.3391 B6.7952 
N489 X-198.738 Y-24.741 Z-7.140 A57.8166 B6.8696 
N490 X-198.727 Y-24.751 Z-7.113 A56.2952 B6.9317 
N491 X-198.717 Y-24.759 Z-7.087 A54.7757 B6.9815 
N492 X-198.706 Y-24.768 Z-7.061 A53.2580 B7.0191 
N493 X-198.695 Y-24.775 Z-7.035 A51.7413 B7.0445 
N494 X-198.684 Y-24.783 Z-7.010 A50.2244 B7.0577 
N495 X-198.672 Y-24.790 Z-6.985 A48.7057 B7.0587 
N496 X-198.661 Y-24.797 Z-6.960 A47.1832 B7.0473 
N497 X-198.650 Y-24.804 Z-6.936 A45.6540 B7.0236 
N498 X-198.640 Y-24.810 Z-6.912 A44.1146 B6.9871 
N499 X-198.629 Y-24.817 Z-6.889 A42.5602 B6.9375 
N500 X-198.619 Y-24.824 Z-6.866 A40.9847 B6.8741 
N501 X-198.610 Y-24.831 Z-6.843 A39.3803 B6.7960 
N502 X-198.601 Y-24.839 Z-6.820 A37.7365 B6.7020 
N503 X-198.592 Y-24.847 Z-6.797 A36.0409 B6.5900 
N504 X-198.583 Y-24.855 Z-6.773 A34.2783 B6.4577 
N505 X-198.576 Y-24.865 Z-6.749 A32.4318 B6.3017 
N506 X-198.568 Y-24.875 Z-6.723 A30.4841 B6.1179 
N507 X-198.562 Y-24.886 Z-6.695 A28.4196 B5.9018 
N508 X-198.556 Y-24.898 Z-6.662 A26.2331 B5.6492 
N509 X-198.552 Y-24.909 Z-6.622 A23.9547 B5.3602 
N510 X-198.551 Y-24.910 Z-6.568 A21.7552 B5.0560 
N511 X-197.669 Y-28.602 Z2.683 
N512 G00 X-195.466 Y-37.832 Z25.812 
N513 X-193.412 Y-57.531 Z39.589 
N514 X-197.818 Y-39.071 Z-6.669 
N515 G01 X-197.679 Y-36.521 Z-8.478 F861 
N516 X-197.604 Y-33.536 Z-9.412 
N517 X-197.602 Y-30.408 Z-9.380 
N518 X-197.672 Y-27.442 Z-8.386 
N519 M342 ; chlodziwo woda
N520 X-197.807 Y-24.929 Z-6.526 
N521 X-197.807 Y-24.875 Z-6.436 A20.3225 B4.8424 
N522 X-197.817 Y-24.752 Z-6.310 A20.0191 B4.7901 
N523 X-197.828 Y-24.603 Z-6.166 A19.9828 B4.7769 
N524 X-197.842 Y-24.438 Z-6.008 A19.9736 B4.7672 
N525 X-197.855 Y-24.260 Z-5.838 A19.9643 B4.7569 
N526 X-197.869 Y-24.067 Z-5.653 A19.9521 B4.7454 
N527 X-197.882 Y-23.860 Z-5.455 A19.9371 B4.7327 
N528 X-197.895 Y-23.639 Z-5.242 A19.9192 B4.7188 
N529 X-197.908 Y-23.403 Z-5.017 A19.8982 B4.7038 
N530 X-197.920 Y-23.154 Z-4.778 A19.8739 B4.6876 
N531 X-197.931 Y-22.893 Z-4.528 A19.8454 B4.6701 
N532 X-197.944 Y-22.620 Z-4.266 A19.8119 B4.6512 
N533 X-197.958 Y-22.337 Z-3.995 A19.7728 B4.6308 
N534 X-197.972 Y-22.044 Z-3.715 A19.7272 B4.6090 
N535 X-197.986 Y-21.744 Z-3.428 A19.6745 B4.5857 
N536 X-198.001 Y-21.437 Z-3.136 A19.6143 B4.5607 
N537 X-198.017 Y-21.124 Z-2.838 A19.5464 B4.5342 
N538 X-198.033 Y-20.808 Z-2.537 A19.4706 B4.5062 
N539 X-198.050 Y-20.487 Z-2.233 A19.3865 B4.4766 
N540 X-198.067 Y-20.165 Z-1.928 A19.2934 B4.4454 
N541 X-198.084 Y-19.841 Z-1.622 A19.1902 B4.4124 
N542 X-198.102 Y-19.517 Z-1.317 A19.0755 B4.3773 
N543 X-198.121 Y-19.192 Z-1.012 A18.9483 B4.3401 
N544 X-198.140 Y-18.868 Z-0.709 A18.8079 B4.3005 
N545 X-198.159 Y-18.544 Z-0.408 A18.6541 B4.2582 
N546 X-198.178 Y-18.222 Z-0.109 A18.4869 B4.2126 
N547 X-198.198 Y-17.901 Z0.187 A18.3065 B4.1646 
N548 X-198.219 Y-17.582 Z0.481 A18.1131 B4.1141 
N549 X-198.239 Y-17.264 Z0.771 A17.9071 B4.0613 
N550 X-198.261 Y-16.948 Z1.058 A17.6885 B4.0060 
N551 X-198.282 Y-16.634 Z1.341 A17.4577 B3.9483 
N552 X-198.304 Y-16.322 Z1.621 A17.2146 B3.8880 
N553 X-198.327 Y-16.011 Z1.897 A16.9595 B3.8253 
N554 X-198.350 Y-15.703 Z2.170 A16.6923 B3.7600 
N555 X-198.373 Y-15.396 Z2.438 A16.4132 B3.6921 
N556 X-198.397 Y-15.091 Z2.703 A16.1220 B3.6215 
N557 X-198.421 Y-14.788 Z2.964 A15.8188 B3.5482 
N558 X-198.446 Y-14.486 Z3.220 A15.5035 B3.4721 
N559 X-198.471 Y-14.187 Z3.473 A15.1759 B3.3930 
N560 X-198.497 Y-13.890 Z3.721 A14.8360 B3.3110 
N561 X-198.523 Y-13.594 Z3.966 A14.4834 B3.2259 
N562 X-198.550 Y-13.300 Z4.206 A14.1181 B3.1376 
N563 X-198.577 Y-13.008 Z4.442 A13.7398 B3.0459 
N564 X-198.604 Y-12.718 Z4.674 A13.3483 B2.9508 
N565 X-198.632 Y-12.430 Z4.901 A12.9435 B2.8521 
N566 X-198.661 Y-12.144 Z5.124 A12.5254 B2.7498 
N567 X-198.690 Y-11.859 Z5.343 A12.0938 B2.6437 
N568 X-198.719 Y-11.577 Z5.557 A11.6489 B2.5338 
N569 X-198.749 Y-11.296 Z5.767 A11.1906 B2.4201 
N570 X-198.780 Y-11.017 Z5.972 A10.7192 B2.3023 
N571 X-198.811 Y-10.740 Z6.173 A10.2349 B2.1805 
N572 X-198.842 Y-10.464 Z6.370 A9.7381 B2.0547 
N573 X-198.874 Y-10.190 Z6.562 A9.2291 B1.9249 
N574 X-198.907 Y-9.918 Z6.750 A8.7076 B1.7953 
N575 X-198.940 Y-9.648 Z6.934 A8.1741 B1.6654 
N576 X-198.974 Y-9.379 Z7.113 A7.6300 B1.5319 
N577 X-199.008 Y-9.111 Z7.288 A7.0756 B1.3948 
N578 X-199.043 Y-8.845 Z7.459 A6.5112 B1.2542 
N579 X-199.079 Y-8.580 Z7.626 A5.9370 B1.1101 
N580 X-199.114 Y-8.317 Z7.788 A5.3530 B0.9623 
N581 X-199.151 Y-8.055 Z7.946 A4.7593 B0.8110 
N582 X-199.188 Y-7.795 Z8.100 A4.1559 B0.6560 
N583 X-199.225 Y-7.536 Z8.250 A3.5427 B0.4973 
N584 X-199.263 Y-7.278 Z8.396 A2.9197 B0.3349 
N585 X-199.301 Y-7.022 Z8.538 A2.2870 B0.1686 
N586 X-199.340 Y-6.767 Z8.676 A1.6448 B-0.0015 
N587 X-199.379 Y-6.513 Z8.809 A0.9932 B-0.1753 
N588 X-199.419 Y-6.261 Z8.939 A0.3325 B-0.3529 
N589 X-199.459 Y-6.009 Z9.065 A359.6630 B-0.5342 
N590 X-199.500 Y-5.759 Z9.187 A358.9850 B-0.7193 
N591 X-199.541 Y-5.510 Z9.305 A358.2987 B-0.9079 
N592 X-199.582 Y-5.263 Z9.419 A357.6045 B-1.1002 
N593 X-199.625 Y-5.016 Z9.529 A356.9027 B-1.2959 
N594 X-199.667 Y-4.770 Z9.636 A356.1936 B-1.4951 
N595 X-199.710 Y-4.525 Z9.738 A355.4775 B-1.6976 
N596 X-199.754 Y-4.282 Z9.837 A354.7547 B-1.9035 
N597 X-199.798 Y-4.039 Z9.933 A354.0256 B-2.1125 
N598 X-199.842 Y-3.797 Z10.025 A353.2904 B-2.3247 
N599 X-199.887 Y-3.555 Z10.113 A352.5494 B-2.5400 
N600 X-199.932 Y-3.315 Z10.197 A351.8029 B-2.7582 
N601 X-199.978 Y-3.075 Z10.278 A351.0513 B-2.9792 
N602 X-200.025 Y-2.836 Z10.356 A350.2948 B-3.2030 
N603 X-200.072 Y-2.597 Z10.430 A349.5337 B-3.4295 
N604 X-200.119 Y-2.359 Z10.500 A348.7683 B-3.6585 
N605 X-200.167 Y-2.122 Z10.567 A347.9990 B-3.8899 
N606 X-200.215 Y-1.885 Z10.631 A347.2259 B-4.1237 
N607 X-200.264 Y-1.648 Z10.691 A346.4494 B-4.3596 
N608 X-200.314 Y-1.412 Z10.748 A345.6698 B-4.5977 
N609 X-200.364 Y-1.176 Z10.801 A344.8873 B-4.8377 
N610 X-200.415 Y-0.941 Z10.851 A344.1021 B-5.0796 
N611 X-200.466 Y-0.705 Z10.898 A343.3146 B-5.3232 
N612 X-200.518 Y-0.470 Z10.941 A342.5250 B-5.5684 
N613 X-200.570 Y-0.235 Z10.981 A341.7335 B-5.8151 
N614 X-200.623 Y-0.001 Z11.018 A340.9404 B-6.0631 
N615 X-200.676 Y0.234 Z11.051 A340.1459 B-6.3124 
N616 X-200.730 Y0.468 Z11.081 A339.3501 B-6.5628 
N617 X-200.785 Y0.703 Z11.107 A338.5534 B-6.8143 
N618 X-200.840 Y0.937 Z11.130 A337.7559 B-7.0666 
N619 X-200.896 Y1.172 Z11.150 A336.9577 B-7.3197 
N620 X-200.952 Y1.406 Z11.166 A336.1589 B-7.5735 
N621 X-201.009 Y1.640 Z11.179 A335.3598 B-7.8279 
N622 X-201.067 Y1.875 Z11.189 A334.5608 B-8.0827 
N623 X-201.125 Y2.109 Z11.195 A333.7618 B-8.3378 
N624 X-201.185 Y2.343 Z11.198 A332.9627 B-8.5932 
N625 X-201.244 Y2.578 Z11.197 A332.1636 B-8.8489 
N626 X-201.304 Y2.812 Z11.193 A331.3646 B-9.1047 
N627 X-201.365 Y3.046 Z11.185 A330.5659 B-9.3605 
N628 X-201.426 Y3.281 Z11.174 A329.7678 B-9.6162 
N629 X-201.488 Y3.515 Z11.160 A328.9700 B-9.8718 
N630 X-201.550 Y3.749 Z11.142 A328.1728 B-10.1271 
N631 X-201.613 Y3.983 Z11.120 A327.3761 B-10.3821 
N632 X-201.676 Y4.217 Z11.095 A326.5799 B-10.6368 
N633 X-201.741 Y4.451 Z11.067 A325.7843 B-10.8911 
N634 X-201.805 Y4.685 Z11.035 A324.9893 B-11.1448 
N635 X-201.870 Y4.918 Z10.999 A324.1949 B-11.3981 
N636 X-201.936 Y5.151 Z10.960 A323.4010 B-11.6507 
N637 X-202.002 Y5.384 Z10.918 A322.6076 B-11.9028 
N638 X-202.069 Y5.616 Z10.871 A321.8147 B-12.1541 
N639 X-202.136 Y5.848 Z10.822 A321.0223 B-12.4048 
N640 X-202.204 Y6.079 Z10.769 A320.2302 B-12.6547 
N641 X-202.272 Y6.310 Z10.712 A319.4384 B-12.9038 
N642 X-202.341 Y6.540 Z10.652 A318.6469 B-13.1522 
N643 X-202.410 Y6.770 Z10.588 A317.8556 B-13.3997 
N644 X-202.479 Y6.999 Z10.521 A317.0644 B-13.6463 
N645 X-202.549 Y7.227 Z10.450 A316.2732 B-13.8921 
N646 X-202.619 Y7.454 Z10.376 A315.4821 B-14.1369 
N647 X-202.690 Y7.681 Z10.298 A314.6909 B-14.3808 
N648 X-202.761 Y7.906 Z10.217 A313.8996 B-14.6237 
N649 X-202.832 Y8.131 Z10.132 A313.1084 B-14.8656 
N650 X-202.903 Y8.355 Z10.044 A312.3185 B-15.1059 
N651 X-202.975 Y8.577 Z9.952 A311.5340 B-15.3436 
N652 X-203.048 Y8.799 Z9.856 A310.7676 B-15.5750 
N653 X-203.121 Y9.022 Z9.755 A310.0494 B-15.7913 
N654 X-203.196 Y9.245 Z9.646 A309.4366 B-15.9763 
N655 X-203.274 Y9.473 Z9.525 A309.0127 B-16.1058 
N656 X-203.357 Y9.706 Z9.389 A308.8620 B-16.1373 
N657 X-203.446 Y9.947 Z9.236 A309.0407 B-16.0583 
N658 X-203.540 Y10.194 Z9.066 A309.5362 B-15.8830 
N659 X-203.637 Y10.446 Z8.884 A310.2549 B-15.6418 
N660 X-203.735 Y10.699 Z8.695 A311.0532 B-15.3737 
N661 X-203.833 Y10.948 Z8.506 A311.7902 B-15.1145 
N662 X-203.930 Y11.189 Z8.319 A312.3733 B-14.8864 
N663 X-204.024 Y11.424 Z8.137 A312.7761 B-14.6948 
N664 X-204.116 Y11.654 Z7.954 A313.0312 B-14.5459 
N665 X-204.205 Y11.880 Z7.773 A313.1792 B-14.4247 
N666 X-204.292 Y12.101 Z7.591 A313.2625 B-14.3202 
N667 X-204.376 Y12.318 Z7.408 A313.3024 B-14.2266 
N668 X-204.457 Y12.531 Z7.223 A313.2951 B-14.1439 
N669 X-204.536 Y12.740 Z7.038 A313.2164 B-14.0757 
N670 X-204.612 Y12.943 Z6.855 A313.0325 B-14.0267 
N671 X-204.684 Y13.138 Z6.674 A312.7162 B-13.9989 
N672 X-204.754 Y13.327 Z6.495 A312.2602 B-13.9896 
N673 X-204.822 Y13.509 Z6.319 A311.6815 B-13.9918 
N674 X-204.887 Y13.685 Z6.143 A311.0118 B-13.9963 
N675 X-204.950 Y13.858 Z5.967 A310.2832 B-13.9954 
N676 X-205.012 Y14.026 Z5.791 A309.5154 B-13.9839 
N677 X-205.072 Y14.190 Z5.613 A308.7108 B-13.9596 
N678 X-205.131 Y14.350 Z5.435 A307.8535 B-13.9213 
N679 X-205.190 Y14.505 Z5.258 A306.9162 B-13.8673 
N680 X-205.248 Y14.654 Z5.084 A305.8712 B-13.7932 
N681 X-205.304 Y14.797 Z4.913 A304.7057 B-13.6908 
N682 X-205.360 Y14.935 Z4.744 A303.4342 B-13.5814 
N683 X-205.407 Y15.070 Z4.578 A302.1050 B-13.5889 
N684 X-205.453 Y15.202 Z4.413 A300.7288 B-13.5967 
N685 X-205.497 Y15.331 Z4.248 A299.3306 B-13.6024 
N686 X-205.539 Y15.458 Z4.082 A297.9243 B-13.6046 
N687 X-205.579 Y15.583 Z3.917 A296.5151 B-13.6025 
N688 X-205.618 Y15.705 Z3.752 A295.1029 B-13.5960 
N689 X-205.655 Y15.825 Z3.587 A293.6853 B-13.5851 
N690 X-205.690 Y15.942 Z3.422 A292.2592 B-13.5699 
N691 X-205.723 Y16.056 Z3.259 A290.8222 B-13.5505 
N692 X-205.755 Y16.167 Z3.098 A289.3732 B-13.5270 
N693 X-205.786 Y16.275 Z2.939 A287.9119 B-13.4995 
N694 X-205.814 Y16.380 Z2.781 A286.4388 B-13.4681 
N695 X-205.841 Y16.481 Z2.627 A284.9550 B-13.4330 
N696 X-205.867 Y16.579 Z2.475 A283.4622 B-13.3942 
N697 X-205.891 Y16.674 Z2.326 A281.9622 B-13.3521 
N698 X-205.914 Y16.764 Z2.181 A280.4554 B-13.3070 
N699 X-205.935 Y16.852 Z2.039 A278.9378 B-13.2592 
N700 X-205.955 Y16.935 Z1.903 A277.4025 B-13.2094 
N701 X-205.973 Y17.015 Z1.772 A275.8465 B-13.1579 
N702 X-205.990 Y17.092 Z1.646 A274.2744 B-13.1049 
N703 X-206.005 Y17.164 Z1.526 A272.6999 B-13.0505 
N704 X-206.020 Y17.234 Z1.410 A271.1403 B-12.9946 
N705 X-206.033 Y17.300 Z1.299 A269.5972 B-12.9377 
N706 X-206.046 Y17.363 Z1.195 A268.0408 B-12.8807 
N707 X-206.057 Y17.423 Z1.099 A266.4328 B-12.8245 
N708 X-206.068 Y17.480 Z1.012 A264.7725 B-12.7691 
N709 X-206.077 Y17.535 Z0.933 A263.0747 B-12.7142 
N710 X-206.086 Y17.589 Z0.862 A261.3426 B-12.6600 
N711 X-206.094 Y17.640 Z0.799 A259.5516 B-12.6066 
N712 X-206.101 Y17.691 Z0.746 A257.6811 B-12.5540 
N713 X-206.109 Y17.741 Z0.700 A255.7649 B-12.5020 
N714 X-206.115 Y17.790 Z0.658 A253.8532 B-12.4503 
N715 X-206.121 Y17.837 Z0.619 A251.9797 B-12.3990 
N716 X-206.128 Y17.881 Z0.581 A250.1569 B-12.3144 
N717 X-206.134 Y17.924 Z0.543 A248.3800 B-12.2438 
N718 X-206.139 Y17.965 Z0.507 A246.6386 B-12.1860 
N719 X-206.143 Y18.004 Z0.471 A244.9251 B-12.1395 
N720 X-206.146 Y18.042 Z0.436 A243.2347 B-12.1031 
N721 X-206.149 Y18.078 Z0.402 A241.5647 B-12.0759 
N722 X-206.151 Y18.113 Z0.368 A239.9128 B-12.0571 
N723 X-206.152 Y18.148 Z0.335 A238.2759 B-12.0431 
N724 X-206.152 Y18.182 Z0.301 A236.6522 B-12.0280 
N725 X-206.152 Y18.214 Z0.267 A235.0397 B-12.0118 
N726 X-206.152 Y18.246 Z0.233 A233.4360 B-11.9945 
N727 X-206.151 Y18.277 Z0.199 A231.8396 B-11.9761 
N728 X-206.149 Y18.306 Z0.164 A230.2492 B-11.9566 
N729 X-206.148 Y18.335 Z0.128 A228.6639 B-11.9360 
N730 X-206.146 Y18.362 Z0.093 A227.0828 B-11.9143 
N731 X-206.144 Y18.388 Z0.056 A225.5052 B-11.8917 
N732 X-206.142 Y18.413 Z0.018 A223.9305 B-11.8679 
N733 X-206.140 Y18.437 Z-0.020 A222.3581 B-11.8432 
N734 X-206.139 Y18.461 Z-0.058 A220.7874 B-11.8175 
N735 X-206.138 Y18.482 Z-0.098 A219.2179 B-11.7907 
N736 X-206.136 Y18.503 Z-0.138 A217.6493 B-11.7630 
N737 X-206.136 Y18.523 Z-0.178 A216.0811 B-11.7343 
N738 X-206.135 Y18.541 Z-0.220 A214.5130 B-11.7047 
N739 X-206.135 Y18.558 Z-0.262 A212.9447 B-11.6741 
N740 X-206.136 Y18.574 Z-0.305 A211.3755 B-11.6431 
N741 X-206.136 Y18.588 Z-0.348 A209.8057 B-11.6108 
N742 X-206.137 Y18.601 Z-0.392 A208.2346 B-11.5776 
N743 X-206.139 Y18.613 Z-0.437 A206.6615 B-11.5435 
N744 X-206.141 Y18.623 Z-0.483 A205.0859 B-11.5086 
N745 X-206.143 Y18.632 Z-0.529 A203.5068 B-11.4727 
N746 X-206.145 Y18.639 Z-0.575 A201.9233 B-11.4360 
N747 X-206.148 Y18.644 Z-0.623 A200.3344 B-11.3984 
N748 X-206.151 Y18.648 Z-0.671 A198.7391 B-11.3598 
N749 X-206.154 Y18.650 Z-0.719 A197.1361 B-11.3203 
N750 X-206.158 Y18.650 Z-0.769 A195.5241 B-11.2799 
N751 X-206.161 Y18.648 Z-0.819 A193.9015 B-11.2385 
N752 X-206.165 Y18.643 Z-0.871 A192.2664 B-11.1960 
N753 X-206.169 Y18.636 Z-0.923 A190.6169 B-11.1526 
N754 X-206.173 Y18.626 Z-0.977 A188.9517 B-11.1080 
N755 X-206.176 Y18.613 Z-1.032 A187.2711 B-11.0625 
N756 X-206.179 Y18.595 Z-1.088 A185.5775 B-11.0160 
N757 X-206.181 Y18.573 Z-1.145 A183.8775 B-10.9688 
N758 X-206.182 Y18.544 Z-1.204 A182.1838 B-10.9214 
N759 X-206.182 Y18.508 Z-1.264 A180.5128 B-10.8808 
N760 X-206.179 Y18.462 Z-1.325 A178.8858 B-10.8613 
N761 X-206.177 Y18.404 Z-1.388 A177.3432 B-10.8454 
N762 X-206.173 Y18.333 Z-1.451 A175.9008 B-10.8338 
N763 X-206.169 Y18.248 Z-1.514 A174.5389 B-10.8260 
N764 X-206.165 Y18.153 Z-1.578 A173.2117 B-10.8206 
N765 X-206.160 Y18.048 Z-1.642 A171.8973 B-10.8169 
N766 X-206.153 Y17.931 Z-1.706 A170.6053 B-10.8152 
N767 X-206.146 Y17.801 Z-1.771 A169.3564 B-10.8163 
N768 X-206.139 Y17.658 Z-1.835 A168.1468 B-10.8203 
N769 X-206.130 Y17.504 Z-1.900 A166.9594 B-10.8265 
N770 X-206.120 Y17.336 Z-1.964 A165.7971 B-10.8351 
N771 X-206.109 Y17.156 Z-2.027 A164.6745 B-10.8468 
N772 X-206.096 Y16.961 Z-2.090 A163.6024 B-10.8622 
N773 X-206.082 Y16.753 Z-2.151 A162.5797 B-10.8813 
N774 X-206.067 Y16.533 Z-2.210 A161.5983 B-10.9040 
N775 X-206.050 Y16.300 Z-2.268 A160.6529 B-10.9302 
N776 X-206.031 Y16.056 Z-2.325 A159.7516 B-10.9604 
N777 X-206.010 Y15.799 Z-2.378 A158.9171 B-10.9977 
N778 X-205.986 Y15.528 Z-2.429 A158.1788 B-11.0543 
N779 X-205.961 Y15.244 Z-2.475 A157.5662 B-11.1113 
N780 X-205.934 Y14.946 Z-2.516 A157.0905 B-11.1710 
N781 X-205.904 Y14.635 Z-2.553 A156.7399 B-11.2351 
N782 X-205.873 Y14.314 Z-2.586 A156.4838 B-11.3036 
N783 X-205.839 Y13.986 Z-2.614 A156.2860 B-11.3754 
N784 X-205.803 Y13.651 Z-2.640 A156.1147 B-11.4489 
N785 X-205.765 Y13.312 Z-2.663 A155.9451 B-11.5223 
N786 X-205.726 Y12.971 Z-2.684 A155.7556 B-11.5936 
N787 X-205.685 Y12.628 Z-2.703 A155.5257 B-11.6603 
N788 X-205.641 Y12.285 Z-2.720 A155.2371 B-11.7198 
N789 X-205.596 Y11.943 Z-2.736 A154.8800 B-11.7697 
N790 X-205.549 Y11.601 Z-2.751 A154.4574 B-11.8088 
N791 X-205.501 Y11.260 Z-2.763 A153.9841 B-11.8374 
N792 X-205.450 Y10.919 Z-2.774 A153.4806 B-11.8570 
N793 X-205.397 Y10.575 Z-2.783 A152.9661 B-11.8694 
N794 X-205.343 Y10.230 Z-2.788 A152.4538 B-11.8761 
N795 X-205.286 Y9.883 Z-2.791 A151.9504 B-11.8783 
N796 X-205.226 Y9.533 Z-2.792 A151.4579 B-11.8762 
N797 X-205.164 Y9.180 Z-2.789 A150.9767 B-11.8702 
N798 X-205.100 Y8.825 Z-2.784 A150.5068 B-11.8605 
N799 X-205.032 Y8.467 Z-2.777 A150.0482 B-11.8473 
N800 X-204.962 Y8.105 Z-2.767 A149.6015 B-11.8309 
N801 X-204.889 Y7.740 Z-2.755 A149.1679 B-11.8117 
N802 X-204.813 Y7.371 Z-2.740 A148.7489 B-11.7904 
N803 X-204.733 Y6.997 Z-2.722 A148.3466 B-11.7677 
N804 X-204.650 Y6.619 Z-2.702 A147.9626 B-11.7443 
N805 X-204.563 Y6.236 Z-2.680 A147.5980 B-11.7210 
N806 X-204.473 Y5.847 Z-2.655 A147.2532 B-11.6981 
N807 X-204.378 Y5.454 Z-2.629 A146.9277 B-11.6761 
N808 X-204.279 Y5.054 Z-2.600 A146.6201 B-11.6549 
N809 X-204.175 Y4.650 Z-2.569 A146.3277 B-11.6342 
N810 X-204.067 Y4.239 Z-2.536 A146.1103 B-11.6318 
N811 X-203.955 Y3.822 Z-2.497 A146.0395 B-11.6567 
N812 X-203.844 Y3.399 Z-2.458 A145.9874 B-11.6656 
N813 X-203.731 Y2.971 Z-2.417 A145.9487 B-11.6703 
N814 X-203.617 Y2.540 Z-2.375 A145.9205 B-11.6783 
N815 X-203.502 Y2.105 Z-2.333 A145.9029 B-11.6896 
N816 X-203.387 Y1.668 Z-2.291 A145.8967 B-11.7043 
N817 X-203.272 Y1.229 Z-2.248 A145.9036 B-11.7230 
N818 X-203.156 Y0.790 Z-2.205 A145.9262 B-11.7465 
N819 X-203.040 Y0.350 Z-2.162 A145.9682 B-11.7757 
N820 X-202.924 Y-0.089 Z-2.119 A146.0340 B-11.8121 
N821 X-202.809 Y-0.527 Z-2.076 A146.1283 B-11.8568 
N822 X-202.695 Y-0.964 Z-2.034 A146.2543 B-11.9110 
N823 X-202.581 Y-1.398 Z-1.993 A146.4138 B-11.9750 
N824 X-202.468 Y-1.829 Z-1.953 A146.6068 B-12.0488 
N825 X-202.356 Y-2.257 Z-1.914 A146.8322 B-12.1322 
N826 X-202.246 Y-2.682 Z-1.877 A147.0874 B-12.2242 
N827 X-202.137 Y-3.102 Z-1.842 A147.3697 B-12.3240 
N828 X-202.029 Y-3.518 Z-1.810 A147.6768 B-12.4310 
N829 X-201.924 Y-3.929 Z-1.779 A148.0073 B-12.5446 
N830 X-201.820 Y-4.335 Z-1.752 A148.3601 B-12.6646 
N831 X-201.717 Y-4.737 Z-1.726 A148.7351 B-12.7908 
N832 X-201.617 Y-5.133 Z-1.704 A149.1323 B-12.9232 
N833 X-201.518 Y-5.525 Z-1.684 A149.5523 B-13.0620 
N834 X-201.421 Y-5.912 Z-1.668 A149.9953 B-13.2072 
N835 X-201.326 Y-6.295 Z-1.654 A150.4618 B-13.3588 
N836 X-201.232 Y-6.672 Z-1.643 A150.9517 B-13.5168 
N837 X-201.139 Y-7.046 Z-1.635 A151.4649 B-13.6812 
N838 X-201.049 Y-7.414 Z-1.630 A152.0017 B-13.8519 
N839 X-200.960 Y-7.779 Z-1.628 A152.5621 B-14.0289 
N840 X-200.874 Y-8.139 Z-1.630 A153.1455 B-14.2118 
N841 X-200.789 Y-8.495 Z-1.635 A153.7515 B-14.4006 
N842 X-200.705 Y-8.847 Z-1.643 A154.3798 B-14.5951 
N843 X-200.624 Y-9.195 Z-1.654 A155.0301 B-14.7950 
N844 X-200.544 Y-9.539 Z-1.669 A155.7021 B-15.0003 
N845 X-200.465 Y-9.879 Z-1.687 A156.3956 B-15.2106 
N846 X-200.389 Y-10.215 Z-1.709 A157.1104 B-15.4259 
N847 X-200.314 Y-10.548 Z-1.735 A157.8460 B-15.6459 
N848 X-200.240 Y-10.877 Z-1.764 A158.6019 B-15.8703 
N849 X-200.168 Y-11.203 Z-1.796 A159.3776 B-16.0988 
N850 X-200.098 Y-11.525 Z-1.832 A160.1725 B-16.3312 
N851 X-200.029 Y-11.845 Z-1.872 A160.9857 B-16.5670 
N852 X-199.961 Y-12.161 Z-1.916 A161.8166 B-16.8060 
N853 X-199.895 Y-12.475 Z-1.963 A162.6643 B-17.0477 
N854 X-199.831 Y-12.786 Z-2.015 A163.5278 B-17.2917 
N855 X-199.767 Y-13.094 Z-2.070 A164.4064 B-17.5376 
N856 X-199.706 Y-13.400 Z-2.129 A165.2988 B-17.7851 
N857 X-199.645 Y-13.704 Z-2.192 A166.2042 B-18.0336 
N858 X-199.586 Y-14.006 Z-2.260 A167.1212 B-18.2828 
N859 X-199.528 Y-14.306 Z-2.331 A168.0488 B-18.5321 
N860 X-199.472 Y-14.605 Z-2.407 A168.9855 B-18.7811 
N861 X-199.417 Y-14.902 Z-2.488 A169.9305 B-19.0295 
N862 X-199.363 Y-15.198 Z-2.573 A170.8827 B-19.2768 
N863 X-199.310 Y-15.494 Z-2.663 A171.8415 B-19.5228 
N864 X-199.258 Y-15.789 Z-2.757 A172.8061 B-19.7671 
N865 X-199.207 Y-16.084 Z-2.857 A173.7760 B-20.0096 
N866 X-199.157 Y-16.380 Z-2.962 A174.7505 B-20.2500 
N867 X-199.108 Y-16.676 Z-3.073 A175.7287 B-20.4880 
N868 X-199.061 Y-16.973 Z-3.190 A176.7086 B-20.7231 
N869 X-199.014 Y-17.271 Z-3.312 A177.6859 B-20.9541 
N870 X-198.968 Y-17.570 Z-3.441 A178.6537 B-21.1797 
N871 X-198.924 Y-17.869 Z-3.577 A179.6037 B-21.3979 
N872 X-198.880 Y-18.169 Z-3.719 A180.5259 B-21.6069 
N873 X-198.838 Y-18.469 Z-3.867 A181.4096 B-21.8046 
N874 X-198.798 Y-18.769 Z-4.021 A182.2429 B-21.9890 
N875 X-198.759 Y-19.066 Z-4.180 A183.0145 B-22.1580 
N876 X-198.722 Y-19.361 Z-4.345 A183.7163 B-22.3107 
N877 X-198.686 Y-19.653 Z-4.513 A184.3444 B-22.4468 
N878 X-198.652 Y-19.940 Z-4.684 A184.8973 B-22.5665 
N879 X-198.620 Y-20.221 Z-4.856 A185.3754 B-22.6703 
N880 X-198.590 Y-20.496 Z-5.029 A185.7810 B-22.7591 
N881 X-198.561 Y-20.763 Z-5.200 A186.1199 B-22.8343 
N882 X-198.534 Y-21.021 Z-5.369 A186.4010 B-22.8978 
N883 X-198.508 Y-21.269 Z-5.533 A186.6329 B-22.9513 
N884 X-198.484 Y-21.506 Z-5.693 A186.8228 B-22.9963 
N885 X-198.462 Y-21.731 Z-5.845 A186.9776 B-23.0342 
N886 X-198.441 Y-21.944 Z-5.991 A187.1039 B-23.0662 
N887 X-198.422 Y-22.143 Z-6.128 A187.2063 B-23.0931 
N888 X-198.404 Y-22.329 Z-6.257 A187.2893 B-23.1159 
N889 X-198.388 Y-22.500 Z-6.376 A187.3502 B-23.1341 
N890 X-198.375 Y-22.650 Z-6.486 A187.2035 B-23.1133 
N891 X-198.374 Y-22.738 Z-6.581 A185.8736 B-22.8695 
N892 X-198.383 Y-22.769 Z-6.662 A183.4554 B-22.4033 
N893 X-198.394 Y-22.782 Z-6.737 A180.8250 B-21.8696 
N894 X-198.405 Y-22.790 Z-6.805 A178.2555 B-21.3231 
N895 X-198.416 Y-22.797 Z-6.867 A175.8141 B-20.7817 
N896 X-198.425 Y-22.804 Z-6.925 A173.5120 B-20.2519 
N897 X-198.434 Y-22.811 Z-6.978 A171.3411 B-19.7360 
N898 X-198.442 Y-22.819 Z-7.027 A169.2862 B-19.2335 
N899 X-198.449 Y-22.827 Z-7.074 A167.3297 B-18.7429 
N900 X-198.455 Y-22.837 Z-7.118 A165.4546 B-18.2619 
N901 X-198.461 Y-22.847 Z-7.160 A163.6452 B-17.7884 
N902 X-198.466 Y-22.858 Z-7.200 A161.8879 B-17.3200 
N903 X-198.471 Y-22.870 Z-7.239 A160.1715 B-16.8547 
N904 X-198.476 Y-22.882 Z-7.276 A158.4867 B-16.3911 
N905 X-198.480 Y-22.896 Z-7.312 A156.8264 B-15.9279 
N906 X-198.484 Y-22.910 Z-7.348 A155.1849 B-15.4641 
N907 X-198.487 Y-22.925 Z-7.382 A153.5580 B-14.9991 
N908 X-198.490 Y-22.941 Z-7.415 A151.9428 B-14.5326 
N909 X-198.492 Y-22.958 Z-7.448 A150.3370 B-14.0644 
N910 X-198.494 Y-22.976 Z-7.480 A148.7391 B-13.5946 
N911 X-198.496 Y-22.995 Z-7.511 A147.1478 B-13.1233 
N912 X-198.497 Y-23.015 Z-7.541 A145.5625 B-12.6506 
N913 X-198.498 Y-23.036 Z-7.570 A143.9826 B-12.1770 
N914 X-198.498 Y-23.057 Z-7.598 A142.4076 B-11.7027 
N915 X-198.498 Y-23.080 Z-7.625 A140.8375 B-11.2280 
N916 X-198.498 Y-23.103 Z-7.651 A139.2718 B-10.7534 
N917 X-198.497 Y-23.128 Z-7.677 A137.7106 B-10.2793 
N918 X-198.496 Y-23.153 Z-7.701 A136.1537 B-9.8060 
N919 X-198.495 Y-23.179 Z-7.724 A134.6010 B-9.3340 
N920 X-198.493 Y-23.206 Z-7.746 A133.0526 B-8.8636 
N921 X-198.491 Y-23.234 Z-7.767 A131.5084 B-8.3954 
N922 X-198.488 Y-23.262 Z-7.786 A129.9684 B-7.9297 
N923 X-198.485 Y-23.291 Z-7.805 A128.4324 B-7.4668 
N924 X-198.482 Y-23.321 Z-7.822 A126.9005 B-7.0073 
N925 X-198.478 Y-23.352 Z-7.838 A125.3724 B-6.5513 
N926 X-198.473 Y-23.383 Z-7.852 A123.8478 B-6.0993 
N927 X-198.468 Y-23.415 Z-7.865 A122.3264 B-5.6516 
N928 X-198.463 Y-23.447 Z-7.877 A120.8081 B-5.2085 
N929 X-198.457 Y-23.480 Z-7.888 A119.2924 B-4.7702 
N930 X-198.451 Y-23.513 Z-7.897 A117.7792 B-4.3372 
N931 X-198.446 Y-23.547 Z-7.904 A116.2757 B-3.8840 
N932 X-198.440 Y-23.581 Z-7.910 A114.7740 B-3.4372 
N933 X-198.434 Y-23.616 Z-7.915 A113.2736 B-2.9980 
N934 X-198.427 Y-23.650 Z-7.918 A111.7746 B-2.5663 
N935 X-198.420 Y-23.685 Z-7.920 A110.2769 B-2.1423 
N936 X-198.413 Y-23.720 Z-7.920 A108.7805 B-1.7260 
N937 X-198.405 Y-23.756 Z-7.919 A107.2852 B-1.3176 
N938 X-198.397 Y-23.791 Z-7.917 A105.7909 B-0.9170 
N939 X-198.388 Y-23.826 Z-7.913 A104.2976 B-0.5245 
N940 X-198.379 Y-23.862 Z-7.907 A102.8053 B-0.1403 
N941 X-198.370 Y-23.897 Z-7.901 A101.3137 B0.2357 
N942 X-198.361 Y-23.932 Z-7.893 A99.8228 B0.6030 
N943 X-198.351 Y-23.967 Z-7.883 A98.3326 B0.9618 
N944 X-198.341 Y-24.001 Z-7.872 A96.8428 B1.3117 
N945 X-198.331 Y-24.035 Z-7.860 A95.3535 B1.6526 
N946 X-198.320 Y-24.069 Z-7.847 A93.8645 B1.9843 
N947 X-198.310 Y-24.103 Z-7.832 A92.3756 B2.3068 
N948 X-198.299 Y-24.136 Z-7.816 A90.8868 B2.6199 
N949 X-198.288 Y-24.169 Z-7.799 A89.3979 B2.9234 
N950 X-198.277 Y-24.201 Z-7.780 A87.9088 B3.2172 
N951 X-198.265 Y-24.232 Z-7.761 A86.4194 B3.5012 
N952 X-198.254 Y-24.263 Z-7.740 A84.9294 B3.7752 
N953 X-198.242 Y-24.294 Z-7.719 A83.4388 B4.0391 
N954 X-198.231 Y-24.323 Z-7.696 A81.9473 B4.2928 
N955 X-198.219 Y-24.352 Z-7.672 A80.4548 B4.5362 
N956 X-198.208 Y-24.381 Z-7.648 A78.9611 B4.7691 
N957 X-198.196 Y-24.408 Z-7.623 A77.4658 B4.9915 
N958 X-198.185 Y-24.435 Z-7.597 A75.9687 B5.2033 
N959 X-198.173 Y-24.461 Z-7.571 A74.4696 B5.4043 
N960 X-198.162 Y-24.486 Z-7.543 A72.9683 B5.5944 
N961 X-198.150 Y-24.510 Z-7.516 A71.4646 B5.7735 
N962 X-198.139 Y-24.534 Z-7.487 A69.9582 B5.9415 
N963 X-198.128 Y-24.557 Z-7.459 A68.4491 B6.0982 
N964 X-198.116 Y-24.579 Z-7.429 A66.9370 B6.2436 
N965 X-198.105 Y-24.600 Z-7.400 A65.4219 B6.3775 
N966 X-198.094 Y-24.621 Z-7.370 A63.9040 B6.4998 
N967 X-198.083 Y-24.640 Z-7.340 A62.3837 B6.6103 
N968 X-198.072 Y-24.659 Z-7.310 A60.8618 B6.7088 
N969 X-198.060 Y-24.677 Z-7.279 A59.3391 B6.7952 
N970 X-198.049 Y-24.695 Z-7.249 A57.8166 B6.8696 
N971 X-198.037 Y-24.711 Z-7.218 A56.2952 B6.9317 
N972 X-198.024 Y-24.726 Z-7.187 A54.7757 B6.9815 
N973 X-198.011 Y-24.741 Z-7.156 A53.2580 B7.0191 
N974 X-197.998 Y-24.755 Z-7.125 A51.7413 B7.0445 
N975 X-197.984 Y-24.769 Z-7.095 A50.2244 B7.0577 
N976 X-197.971 Y-24.781 Z-7.064 A48.7057 B7.0587 
N977 X-197.957 Y-24.794 Z-7.033 A47.1832 B7.0473 
N978 X-197.944 Y-24.806 Z-7.003 A45.6540 B7.0236 
N979 X-197.931 Y-24.817 Z-6.972 A44.1146 B6.9871 
N980 X-197.918 Y-24.828 Z-6.942 A42.5602 B6.9375 
N981 X-197.906 Y-24.839 Z-6.912 A40.9847 B6.8741 
N982 X-197.894 Y-24.850 Z-6.881 A39.3803 B6.7960 
N983 X-197.882 Y-24.861 Z-6.850 A37.7365 B6.7020 
N984 X-197.870 Y-24.872 Z-6.818 A36.0409 B6.5900 
N985 X-197.859 Y-24.883 Z-6.786 A34.2783 B6.4577 
N986 X-197.849 Y-24.895 Z-6.752 A32.4318 B6.3017 
N987 X-197.838 Y-24.906 Z-6.716 A30.4841 B6.1179 
N988 X-197.828 Y-24.917 Z-6.678 A28.4196 B5.9018 
N989 X-197.819 Y-24.928 Z-6.636 A26.2331 B5.6492 
N990 X-197.812 Y-24.935 Z-6.587 A23.9547 B5.3602 
N991 X-197.807 Y-24.929 Z-6.526 A21.7552 B5.0560 
N992 X-196.926 Y-28.621 Z2.725 
N993 G00 X-194.722 Y-37.851 Z25.854 
N994 X-192.668 Y-57.550 Z39.631 
N995 X-197.074 Y-39.090 Z-6.627 
N996 G01 X-196.935 Y-36.541 Z-8.435 F861 
N997 X-196.861 Y-33.556 Z-9.369 
N998 X-196.858 Y-30.427 Z-9.338 
N999 X-196.928 Y-27.462 Z-8.344 
N1000 M342 ; chlodziwo woda
VELOLIM[A]=100 ;PRZYWOLANIE VELOLIM
N1001 X-197.063 Y-24.949 Z-6.484 
N1001 X-197.063 Y-24.949 Z-6.484 
F200
N1002 X-197.061 Y-24.892 Z-6.388 A20.3225 B4.8424 F200 
N1003 X-197.070 Y-24.768 Z-6.260 A20.0191 B4.7901 
N1004 X-197.082 Y-24.618 Z-6.116 A19.9828 B4.7769 
N1005 X-197.096 Y-24.454 Z-5.958 A19.9736 B4.7672 
N1006 X-197.109 Y-24.275 Z-5.787 A19.9643 B4.7569 
N1007 X-197.122 Y-24.082 Z-5.602 A19.9521 B4.7454 
N1008 X-197.136 Y-23.875 Z-5.403 A19.9371 B4.7327 
N1009 X-197.149 Y-23.654 Z-5.191 A19.9192 B4.7188 
N1010 X-197.162 Y-23.418 Z-4.965 A19.8982 B4.7038 
N1011 X-197.173 Y-23.169 Z-4.726 A19.8739 B4.6876 
N1012 X-197.185 Y-22.908 Z-4.475 A19.8454 B4.6701 
N1013 X-197.197 Y-22.635 Z-4.213 A19.8119 B4.6512 
N1014 X-197.211 Y-22.351 Z-3.941 A19.7728 B4.6308 
N1015 X-197.225 Y-22.058 Z-3.661 A19.7272 B4.6090 
N1016 X-197.239 Y-21.758 Z-3.373 A19.6745 B4.5857 
N1017 X-197.254 Y-21.451 Z-3.080 A19.6143 B4.5607 
N1018 X-197.270 Y-21.138 Z-2.781 A19.5464 B4.5342 
N1019 X-197.286 Y-20.821 Z-2.479 A19.4706 B4.5062 
N1020 X-197.303 Y-20.501 Z-2.175 A19.3865 B4.4766 
N1021 X-197.320 Y-20.178 Z-1.869 A19.2934 B4.4454 
N1022 X-197.337 Y-19.854 Z-1.562 A19.1902 B4.4124 
N1023 X-197.355 Y-19.529 Z-1.255 A19.0755 B4.3773 
N1024 X-197.373 Y-19.204 Z-0.950 A18.9483 B4.3401 
N1025 X-197.392 Y-18.879 Z-0.645 A18.8079 B4.3005 
N1026 X-197.411 Y-18.556 Z-0.343 A18.6541 B4.2582 
N1027 X-197.431 Y-18.233 Z-0.043 A18.4869 B4.2126 
N1028 X-197.450 Y-17.912 Z0.255 A18.3065 B4.1646 
N1029 X-197.471 Y-17.592 Z0.550 A18.1131 B4.1141 
N1030 X-197.491 Y-17.273 Z0.841 A17.9071 B4.0613 
N1031 X-197.512 Y-16.957 Z1.130 A17.6885 B4.0060 
N1032 X-197.534 Y-16.642 Z1.415 A17.4577 B3.9483 
N1033 X-197.556 Y-16.329 Z1.696 A17.2146 B3.8880 
N1034 X-197.578 Y-16.018 Z1.974 A16.9595 B3.8253 
N1035 X-197.601 Y-15.708 Z2.248 A16.6923 B3.7600 
N1036 X-197.624 Y-15.401 Z2.519 A16.4132 B3.6921 
N1037 X-197.648 Y-15.095 Z2.785 A16.1220 B3.6215 
N1038 X-197.672 Y-14.791 Z3.048 A15.8188 B3.5482 
N1039 X-197.697 Y-14.489 Z3.306 A15.5035 B3.4721 
N1040 X-197.722 Y-14.189 Z3.561 A15.1759 B3.3930 
N1041 X-197.747 Y-13.890 Z3.811 A14.8360 B3.3110 
N1042 X-197.773 Y-13.593 Z4.058 A14.4834 B3.2259 
N1043 X-197.800 Y-13.299 Z4.300 A14.1181 B3.1376 
N1044 X-197.827 Y-13.006 Z4.538 A13.7398 B3.0459 
N1045 X-197.855 Y-12.714 Z4.772 A13.3483 B2.9508 
N1046 X-197.883 Y-12.425 Z5.002 A12.9435 B2.8521 
N1047 X-197.911 Y-12.137 Z5.227 A12.5254 B2.7498 
N1048 X-197.940 Y-11.851 Z5.448 A12.0938 B2.6437 
N1049 X-197.969 Y-11.567 Z5.665 A11.6489 B2.5338 
N1050 X-197.999 Y-11.285 Z5.877 A11.1906 B2.4201 
N1051 X-198.030 Y-11.004 Z6.085 A10.7192 B2.3023 
N1052 X-198.061 Y-10.725 Z6.289 A10.2349 B2.1805 
N1053 X-198.092 Y-10.448 Z6.488 A9.7381 B2.0547 
N1054 X-198.124 Y-10.172 Z6.683 A9.2291 B1.9249 
N1055 X-198.157 Y-9.898 Z6.874 A8.7076 B1.7953 
N1056 X-198.190 Y-9.626 Z7.060 A8.1741 B1.6654 
N1057 X-198.224 Y-9.354 Z7.242 A7.6300 B1.5319 
N1058 X-198.258 Y-9.085 Z7.420 A7.0756 B1.3948 
N1059 X-198.293 Y-8.816 Z7.593 A6.5112 B1.2542 
N1060 X-198.329 Y-8.549 Z7.762 A5.9370 B1.1101 
N1061 X-198.365 Y-8.284 Z7.927 A5.3530 B0.9623 
N1062 X-198.402 Y-8.019 Z8.088 A4.7593 B0.8110 
N1063 X-198.439 Y-7.756 Z8.245 A4.1559 B0.6560 
N1064 X-198.476 Y-7.494 Z8.397 A3.5427 B0.4973 
N1065 X-198.514 Y-7.234 Z8.545 A2.9197 B0.3349 
N1066 X-198.553 Y-6.974 Z8.690 A2.2870 B0.1686 
N1067 X-198.592 Y-6.716 Z8.830 A1.6448 B-0.0015 
N1068 X-198.632 Y-6.459 Z8.966 A0.9932 B-0.1753 
N1069 X-198.672 Y-6.204 Z9.098 A0.3325 B-0.3529 
N1070 X-198.712 Y-5.949 Z9.226 A359.6630 B-0.5342 
N1071 X-198.754 Y-5.696 Z9.350 A358.9850 B-0.7193 
N1072 X-198.795 Y-5.443 Z9.470 A358.2987 B-0.9079 
N1073 X-198.837 Y-5.192 Z9.586 A357.6045 B-1.1002 
N1074 X-198.880 Y-4.941 Z9.698 A356.9027 B-1.2959 
N1075 X-198.923 Y-4.692 Z9.806 A356.1936 B-1.4951 
N1076 X-198.967 Y-4.443 Z9.911 A355.4775 B-1.6976 
N1077 X-199.011 Y-4.195 Z10.011 A354.7547 B-1.9035 
N1078 X-199.056 Y-3.949 Z10.108 A354.0256 B-2.1125 
N1079 X-199.101 Y-3.702 Z10.201 A353.2904 B-2.3247 
N1080 X-199.147 Y-3.457 Z10.291 A352.5494 B-2.5400 
N1081 X-199.193 Y-3.212 Z10.376 A351.8029 B-2.7582 
N1082 X-199.240 Y-2.968 Z10.458 A351.0513 B-2.9792 
N1083 X-199.288 Y-2.725 Z10.536 A350.2948 B-3.2030 
N1084 X-199.336 Y-2.482 Z10.611 A349.5337 B-3.4295 
N1085 X-199.384 Y-2.240 Z10.682 A348.7683 B-3.6585 
N1086 X-199.433 Y-1.998 Z10.749 A347.9990 B-3.8899 
N1087 X-199.483 Y-1.756 Z10.813 A347.2259 B-4.1237 
N1088 X-199.533 Y-1.515 Z10.873 A346.4494 B-4.3596 
N1089 X-199.584 Y-1.275 Z10.930 A345.6698 B-4.5977 
N1090 X-199.635 Y-1.034 Z10.983 A344.8873 B-4.8377 
N1091 X-199.687 Y-0.794 Z11.032 A344.1021 B-5.0796 
N1092 X-199.739 Y-0.555 Z11.078 A343.3146 B-5.3232 
N1093 X-199.792 Y-0.315 Z11.120 A342.5250 B-5.5684 
N1094 X-199.846 Y-0.076 Z11.159 A341.7335 B-5.8151 
N1095 X-199.900 Y0.163 Z11.194 A340.9404 B-6.0631 
N1096 X-199.955 Y0.402 Z11.226 A340.1459 B-6.3124 
N1097 X-200.010 Y0.641 Z11.254 A339.3501 B-6.5628 
N1098 X-200.066 Y0.880 Z11.279 A338.5534 B-6.8143 
N1099 X-200.123 Y1.118 Z11.300 A337.7559 B-7.0666 
N1100 X-200.180 Y1.357 Z11.317 A336.9577 B-7.3197 
N1101 X-200.238 Y1.595 Z11.331 A336.1589 B-7.5735 
N1102 X-200.296 Y1.833 Z11.342 A335.3598 B-7.8279 
N1103 X-200.356 Y2.071 Z11.349 A334.5608 B-8.0827 
N1104 X-200.416 Y2.309 Z11.352 A333.7618 B-8.3378 
N1105 X-200.476 Y2.547 Z11.352 A332.9627 B-8.5932 
N1106 X-200.537 Y2.785 Z11.348 A332.1636 B-8.8489 
N1107 X-200.599 Y3.023 Z11.341 A331.3646 B-9.1047 
N1108 X-200.661 Y3.261 Z11.330 A330.5659 B-9.3605 
N1109 X-200.723 Y3.498 Z11.315 A329.7678 B-9.6162 
N1110 X-200.787 Y3.735 Z11.297 A328.9700 B-9.8718 
N1111 X-200.851 Y3.973 Z11.275 A328.1728 B-10.1271 
N1112 X-200.915 Y4.209 Z11.250 A327.3761 B-10.3821 
N1113 X-200.980 Y4.446 Z11.221 A326.5799 B-10.6368 
N1114 X-201.045 Y4.682 Z11.188 A325.7843 B-10.8911 
N1115 X-201.111 Y4.918 Z11.152 A324.9893 B-11.1448 
N1116 X-201.178 Y5.154 Z11.113 A324.1949 B-11.3981 
N1117 X-201.245 Y5.389 Z11.069 A323.4010 B-11.6507 
N1118 X-201.312 Y5.624 Z11.022 A322.6076 B-11.9028 
N1119 X-201.380 Y5.858 Z10.972 A321.8147 B-12.1541 
N1120 X-201.449 Y6.092 Z10.918 A321.0223 B-12.4048 
N1121 X-201.518 Y6.325 Z10.860 A320.2302 B-12.6547 
N1122 X-201.587 Y6.557 Z10.799 A319.4384 B-12.9038 
N1123 X-201.657 Y6.789 Z10.734 A318.6469 B-13.1522 
N1124 X-201.727 Y7.019 Z10.666 A317.8556 B-13.3997 
N1125 X-201.798 Y7.249 Z10.594 A317.0644 B-13.6463 
N1126 X-201.868 Y7.479 Z10.518 A316.2732 B-13.8921 
N1127 X-201.940 Y7.707 Z10.439 A315.4821 B-14.1369 
N1128 X-202.011 Y7.934 Z10.357 A314.6909 B-14.3808 
N1129 X-202.083 Y8.160 Z10.271 A313.8996 B-14.6237 
N1130 X-202.155 Y8.385 Z10.182 A313.1084 B-14.8656 
N1131 X-202.228 Y8.609 Z10.089 A312.3185 B-15.1059 
N1132 X-202.301 Y8.832 Z9.992 A311.5340 B-15.3436 
N1133 X-202.374 Y9.054 Z9.892 A310.7676 B-15.5750 
N1134 X-202.448 Y9.276 Z9.785 A310.0494 B-15.7913 
N1135 X-202.524 Y9.500 Z9.672 A309.4366 B-15.9763 
N1136 X-202.603 Y9.727 Z9.546 A309.0127 B-16.1058 
N1137 X-202.687 Y9.960 Z9.406 A308.8620 B-16.1373 
N1138 X-202.776 Y10.200 Z9.249 A309.0407 B-16.0583 
N1139 X-202.870 Y10.447 Z9.074 A309.5362 B-15.8830 
N1140 X-202.968 Y10.698 Z8.887 A310.2549 B-15.6418 
N1141 X-203.067 Y10.950 Z8.694 A311.0532 B-15.3737 
N1142 X-203.165 Y11.197 Z8.501 A311.7902 B-15.1145 
N1143 X-203.262 Y11.438 Z8.310 A312.3733 B-14.8864 
N1144 X-203.357 Y11.671 Z8.123 A312.7761 B-14.6948 
N1145 X-203.448 Y11.898 Z7.939 A313.0312 B-14.5459 
N1146 X-203.536 Y12.118 Z7.757 A313.1792 B-14.4247 
N1147 X-203.622 Y12.335 Z7.574 A313.2625 B-14.3202 
N1148 X-203.705 Y12.548 Z7.389 A313.3024 B-14.2266 
N1149 X-203.786 Y12.757 Z7.204 A313.2951 B-14.1439 
N1150 X-203.863 Y12.961 Z7.019 A313.2164 B-14.0757 
N1151 X-203.938 Y13.160 Z6.835 A313.0325 B-14.0267 
N1152 X-204.010 Y13.351 Z6.653 A312.7162 B-13.9989 
N1153 X-204.079 Y13.536 Z6.474 A312.2602 B-13.9896 
N1154 X-204.145 Y13.713 Z6.297 A311.6815 B-13.9918 
N1155 X-204.210 Y13.886 Z6.122 A311.0118 B-13.9963 
N1156 X-204.272 Y14.054 Z5.946 A310.2832 B-13.9954 
N1157 X-204.333 Y14.218 Z5.770 A309.5154 B-13.9839 
N1158 X-204.392 Y14.379 Z5.592 A308.7108 B-13.9596 
N1159 X-204.451 Y14.536 Z5.415 A307.8535 B-13.9213 
N1160 X-204.509 Y14.687 Z5.239 A306.9162 B-13.8673 
N1161 X-204.565 Y14.832 Z5.065 A305.8712 B-13.7932 
N1162 X-204.622 Y14.972 Z4.894 A304.7057 B-13.6908 
N1163 X-204.676 Y15.106 Z4.727 A303.4342 B-13.5814 
N1164 X-204.723 Y15.238 Z4.561 A302.1050 B-13.5889 
N1165 X-204.768 Y15.367 Z4.397 A300.7288 B-13.5967 
N1166 X-204.811 Y15.493 Z4.233 A299.3306 B-13.6024 
N1167 X-204.852 Y15.617 Z4.069 A297.9243 B-13.6046 
N1168 X-204.892 Y15.739 Z3.905 A296.5151 B-13.6025 
N1169 X-204.930 Y15.859 Z3.741 A295.1029 B-13.5960 
N1170 X-204.966 Y15.976 Z3.577 A293.6853 B-13.5851 
N1171 X-205.001 Y16.090 Z3.414 A292.2592 B-13.5699 
N1172 X-205.034 Y16.202 Z3.253 A290.8222 B-13.5505 
N1173 X-205.065 Y16.311 Z3.092 A289.3732 B-13.5270 
N1174 X-205.095 Y16.417 Z2.934 A287.9119 B-13.4995 
N1175 X-205.124 Y16.519 Z2.778 A286.4388 B-13.4681 
N1176 X-205.150 Y16.618 Z2.624 A284.9550 B-13.4330 
N1177 X-205.175 Y16.714 Z2.473 A283.4622 B-13.3942 
N1178 X-205.199 Y16.806 Z2.325 A281.9622 B-13.3521 
N1179 X-205.221 Y16.895 Z2.181 A280.4554 B-13.3070 
N1180 X-205.242 Y16.981 Z2.040 A278.9378 B-13.2592 
N1181 X-205.261 Y17.062 Z1.904 A277.4025 B-13.2094 
N1182 X-205.279 Y17.140 Z1.774 A275.8465 B-13.1579 
N1183 X-205.296 Y17.215 Z1.649 A274.2744 B-13.1049 
N1184 X-205.311 Y17.286 Z1.528 A272.6999 B-13.0505 
N1185 X-205.325 Y17.354 Z1.413 A271.1403 B-12.9946 
N1186 X-205.339 Y17.418 Z1.302 A269.5972 B-12.9377 
N1187 X-205.351 Y17.479 Z1.197 A268.0408 B-12.8807 
N1188 X-205.362 Y17.537 Z1.102 A266.4328 B-12.8245 
N1189 X-205.372 Y17.593 Z1.014 A264.7725 B-12.7691 
N1190 X-205.382 Y17.646 Z0.935 A263.0747 B-12.7142 
N1191 X-205.390 Y17.697 Z0.863 A261.3426 B-12.6600 
N1192 X-205.398 Y17.747 Z0.799 A259.5516 B-12.6066 
N1193 X-205.405 Y17.795 Z0.745 A257.6811 B-12.5540 
N1194 X-205.412 Y17.843 Z0.698 A255.7649 B-12.5020 
N1195 X-205.419 Y17.888 Z0.655 A253.8532 B-12.4503 
N1196 X-205.424 Y17.932 Z0.614 A251.9797 B-12.3990 
N1197 X-205.431 Y17.973 Z0.574 A250.1569 B-12.3144 
N1198 X-205.437 Y18.012 Z0.535 A248.3800 B-12.2438 
N1199 X-205.442 Y18.049 Z0.497 A246.6386 B-12.1860 
N1200 X-205.446 Y18.085 Z0.461 A244.9251 B-12.1395 
N1201 X-205.449 Y18.119 Z0.425 A243.2347 B-12.1031 
N1202 X-205.451 Y18.152 Z0.390 A241.5647 B-12.0759 
N1203 X-205.453 Y18.184 Z0.355 A239.9128 B-12.0571 
N1204 X-205.454 Y18.215 Z0.321 A238.2759 B-12.0431 
N1205 X-205.454 Y18.244 Z0.287 A236.6522 B-12.0280 
N1206 X-205.454 Y18.273 Z0.253 A235.0397 B-12.0118 
N1207 X-205.454 Y18.301 Z0.218 A233.4360 B-11.9945 
N1208 X-205.452 Y18.327 Z0.184 A231.8396 B-11.9761 
N1209 X-205.451 Y18.353 Z0.149 A230.2492 B-11.9566 
N1210 X-205.449 Y18.378 Z0.114 A228.6639 B-11.9360 
N1211 X-205.447 Y18.402 Z0.079 A227.0828 B-11.9143 
N1212 X-205.445 Y18.425 Z0.043 A225.5052 B-11.8917 
N1213 X-205.443 Y18.447 Z0.006 A223.9305 B-11.8679 
N1214 X-205.441 Y18.468 Z-0.031 A222.3581 B-11.8432 
N1215 X-205.439 Y18.487 Z-0.068 A220.7874 B-11.8175 
N1216 X-205.438 Y18.506 Z-0.106 A219.2179 B-11.7907 
N1217 X-205.437 Y18.524 Z-0.145 A217.6493 B-11.7630 
N1218 X-205.436 Y18.540 Z-0.184 A216.0811 B-11.7343 
N1219 X-205.435 Y18.555 Z-0.223 A214.5130 B-11.7047 
N1220 X-205.435 Y18.570 Z-0.263 A212.9447 B-11.6741 
N1221 X-205.435 Y18.583 Z-0.304 A211.3755 B-11.6431 
N1222 X-205.436 Y18.594 Z-0.345 A209.8057 B-11.6108 
N1223 X-205.437 Y18.605 Z-0.386 A208.2346 B-11.5776 
N1224 X-205.438 Y18.614 Z-0.428 A206.6615 B-11.5435 
N1225 X-205.440 Y18.622 Z-0.471 A205.0859 B-11.5086 
N1226 X-205.442 Y18.629 Z-0.514 A203.5068 B-11.4727 
N1227 X-205.444 Y18.634 Z-0.558 A201.9233 B-11.4360 
N1228 X-205.447 Y18.638 Z-0.602 A200.3344 B-11.3984 
N1229 X-205.450 Y18.640 Z-0.647 A198.7391 B-11.3598 
N1230 X-205.453 Y18.641 Z-0.692 A197.1361 B-11.3203 
N1231 X-205.456 Y18.640 Z-0.739 A195.5241 B-11.2799 
N1232 X-205.460 Y18.637 Z-0.786 A193.9015 B-11.2385 
N1233 X-205.464 Y18.631 Z-0.834 A192.2664 B-11.1960 
N1234 X-205.468 Y18.624 Z-0.882 A190.6169 B-11.1526 
N1235 X-205.471 Y18.613 Z-0.932 A188.9517 B-11.1080 
N1236 X-205.474 Y18.600 Z-0.983 A187.2711 B-11.0625 
N1237 X-205.477 Y18.583 Z-1.036 A185.5775 B-11.0160 
N1238 X-205.479 Y18.561 Z-1.090 A183.8775 B-10.9688 
N1239 X-205.480 Y18.533 Z-1.145 A182.1838 B-10.9214 
N1240 X-205.479 Y18.497 Z-1.201 A180.5128 B-10.8808 
N1241 X-205.477 Y18.452 Z-1.259 A178.8858 B-10.8613 
N1242 X-205.474 Y18.396 Z-1.318 A177.3432 B-10.8454 
N1243 X-205.471 Y18.326 Z-1.378 A175.9008 B-10.8338 
N1244 X-205.467 Y18.244 Z-1.438 A174.5389 B-10.8260 
N1245 X-205.462 Y18.151 Z-1.500 A173.2117 B-10.8206 
N1246 X-205.456 Y18.048 Z-1.561 A171.8973 B-10.8169 
N1247 X-205.450 Y17.933 Z-1.624 A170.6053 B-10.8152 
N1248 X-205.443 Y17.806 Z-1.686 A169.3564 B-10.8163 
N1249 X-205.436 Y17.666 Z-1.749 A168.1468 B-10.8203 
N1250 X-205.426 Y17.514 Z-1.812 A166.9594 B-10.8265 
N1251 X-205.416 Y17.349 Z-1.874 A165.7971 B-10.8351 
N1252 X-205.405 Y17.172 Z-1.936 A164.6745 B-10.8468 
N1253 X-205.392 Y16.980 Z-1.997 A163.6024 B-10.8622 
N1254 X-205.378 Y16.776 Z-2.057 A162.5797 B-10.8813 
N1255 X-205.362 Y16.558 Z-2.116 A161.5983 B-10.9040 
N1256 X-205.345 Y16.329 Z-2.174 A160.6529 B-10.9302 
N1257 X-205.325 Y16.088 Z-2.229 A159.7516 B-10.9604 
N1258 X-205.304 Y15.835 Z-2.283 A158.9171 B-10.9977 
N1259 X-205.281 Y15.568 Z-2.333 A158.1788 B-11.0543 
N1260 X-205.255 Y15.287 Z-2.379 A157.5662 B-11.1113 
N1261 X-205.228 Y14.993 Z-2.420 A157.0905 B-11.1710 
N1262 X-205.198 Y14.686 Z-2.457 A156.7399 B-11.2351 
N1263 X-205.166 Y14.370 Z-2.489 A156.4838 B-11.3036 
N1264 X-205.132 Y14.045 Z-2.518 A156.2860 B-11.3754 
N1265 X-205.096 Y13.714 Z-2.544 A156.1147 B-11.4489 
N1266 X-205.059 Y13.380 Z-2.568 A155.9451 B-11.5223 
N1267 X-205.019 Y13.043 Z-2.589 A155.7556 B-11.5936 
N1268 X-204.978 Y12.704 Z-2.609 A155.5257 B-11.6603 
N1269 X-204.934 Y12.366 Z-2.627 A155.2371 B-11.7198 
N1270 X-204.889 Y12.029 Z-2.643 A154.8800 B-11.7697 
N1271 X-204.842 Y11.692 Z-2.658 A154.4574 B-11.8088 
N1272 X-204.794 Y11.356 Z-2.672 A153.9841 B-11.8374 
N1273 X-204.743 Y11.019 Z-2.683 A153.4806 B-11.8570 
N1274 X-204.691 Y10.680 Z-2.693 A152.9661 B-11.8694 
N1275 X-204.636 Y10.340 Z-2.699 A152.4538 B-11.8761 
N1276 X-204.579 Y9.998 Z-2.703 A151.9504 B-11.8783 
N1277 X-204.520 Y9.653 Z-2.705 A151.4579 B-11.8762 
N1278 X-204.458 Y9.305 Z-2.703 A150.9767 B-11.8702 
N1279 X-204.394 Y8.955 Z-2.699 A150.5068 B-11.8605 
N1280 X-204.327 Y8.601 Z-2.693 A150.0482 B-11.8473 
N1281 X-204.257 Y8.245 Z-2.684 A149.6015 B-11.8309 
N1282 X-204.185 Y7.885 Z-2.673 A149.1679 B-11.8117 
N1283 X-204.109 Y7.521 Z-2.659 A148.7489 B-11.7904 
N1284 X-204.030 Y7.153 Z-2.642 A148.3466 B-11.7677 
N1285 X-203.947 Y6.780 Z-2.623 A147.9626 B-11.7443 
N1286 X-203.861 Y6.402 Z-2.602 A147.5980 B-11.7210 
N1287 X-203.770 Y6.018 Z-2.578 A147.2532 B-11.6981 
N1288 X-203.676 Y5.630 Z-2.552 A146.9277 B-11.6761 
N1289 X-203.577 Y5.236 Z-2.524 A146.6201 B-11.6549 
N1290 X-203.474 Y4.837 Z-2.494 A146.3277 B-11.6342 
N1291 X-203.367 Y4.430 Z-2.461 A146.1103 B-11.6318 
N1292 X-203.255 Y4.012 Z-2.423 A146.0395 B-11.6567 
N1293 X-203.143 Y3.590 Z-2.383 A145.9874 B-11.6656 
N1294 X-203.030 Y3.162 Z-2.342 A145.9487 B-11.6703 
N1295 X-202.917 Y2.731 Z-2.301 A145.9205 B-11.6783 
N1296 X-202.802 Y2.296 Z-2.258 A145.9029 B-11.6896 
N1297 X-202.687 Y1.859 Z-2.215 A145.8967 B-11.7043 
N1298 X-202.571 Y1.420 Z-2.172 A145.9036 B-11.7230 
N1299 X-202.455 Y0.981 Z-2.129 A145.9262 B-11.7465 
N1300 X-202.339 Y0.541 Z-2.085 A145.9682 B-11.7757 
N1301 X-202.223 Y0.101 Z-2.041 A146.0340 B-11.8121 
N1302 X-202.107 Y-0.337 Z-1.998 A146.1283 B-11.8568 
N1303 X-201.993 Y-0.774 Z-1.954 A146.2543 B-11.9110 
N1304 X-201.878 Y-1.209 Z-1.912 A146.4138 B-11.9750 
N1305 X-201.765 Y-1.641 Z-1.871 A146.6068 B-12.0488 
N1306 X-201.653 Y-2.070 Z-1.830 A146.8322 B-12.1322 
N1307 X-201.542 Y-2.495 Z-1.792 A147.0874 B-12.2242 
N1308 X-201.432 Y-2.916 Z-1.755 A147.3697 B-12.3240 
N1309 X-201.324 Y-3.333 Z-1.721 A147.6768 B-12.4310 
N1310 X-201.218 Y-3.745 Z-1.688 A148.0073 B-12.5446 
N1311 X-201.113 Y-4.152 Z-1.659 A148.3601 B-12.6646 
N1312 X-201.010 Y-4.555 Z-1.631 A148.7351 B-12.7908 
N1313 X-200.908 Y-4.953 Z-1.607 A149.1323 B-12.9232 
N1314 X-200.809 Y-5.347 Z-1.585 A149.5523 B-13.0620 
N1315 X-200.711 Y-5.736 Z-1.565 A149.9953 B-13.2072 
N1316 X-200.615 Y-6.120 Z-1.549 A150.4618 B-13.3588 
N1317 X-200.520 Y-6.500 Z-1.536 A150.9517 B-13.5168 
N1318 X-200.426 Y-6.875 Z-1.525 A151.4649 B-13.6812 
N1319 X-200.335 Y-7.246 Z-1.518 A152.0017 B-13.8519 
N1320 X-200.245 Y-7.613 Z-1.514 A152.5621 B-14.0289 
N1321 X-200.157 Y-7.976 Z-1.513 A153.1455 B-14.2118 
N1322 X-200.071 Y-8.335 Z-1.515 A153.7515 B-14.4006 
N1323 X-199.987 Y-8.689 Z-1.521 A154.3798 B-14.5951 
N1324 X-199.904 Y-9.040 Z-1.530 A155.0301 B-14.7950 
N1325 X-199.822 Y-9.387 Z-1.543 A155.7021 B-15.0003 
N1326 X-199.743 Y-9.731 Z-1.559 A156.3956 B-15.2106 
N1327 X-199.665 Y-10.070 Z-1.579 A157.1104 B-15.4259 
N1328 X-199.588 Y-10.407 Z-1.602 A157.8460 B-15.6459 
N1329 X-199.513 Y-10.740 Z-1.629 A158.6019 B-15.8703 
N1330 X-199.440 Y-11.069 Z-1.660 A159.3776 B-16.0988 
N1331 X-199.368 Y-11.396 Z-1.694 A160.1725 B-16.3312 
N1332 X-199.298 Y-11.720 Z-1.732 A160.9857 B-16.5670 
N1333 X-199.229 Y-12.041 Z-1.775 A161.8166 B-16.8060 
N1334 X-199.162 Y-12.359 Z-1.821 A162.6643 B-17.0477 
N1335 X-199.096 Y-12.674 Z-1.871 A163.5278 B-17.2917 
N1336 X-199.031 Y-12.987 Z-1.926 A164.4064 B-17.5376 
N1337 X-198.968 Y-13.298 Z-1.984 A165.2988 B-17.7851 
N1338 X-198.907 Y-13.607 Z-2.047 A166.2042 B-18.0336 
N1339 X-198.846 Y-13.913 Z-2.115 A167.1212 B-18.2828 
N1340 X-198.787 Y-14.219 Z-2.186 A168.0488 B-18.5321 
N1341 X-198.730 Y-14.522 Z-2.263 A168.9855 B-18.7811 
N1342 X-198.673 Y-14.824 Z-2.344 A169.9305 B-19.0295 
N1343 X-198.618 Y-15.126 Z-2.430 A170.8827 B-19.2768 
N1344 X-198.564 Y-15.426 Z-2.521 A171.8415 B-19.5228 
N1345 X-198.511 Y-15.726 Z-2.617 A172.8061 B-19.7671 
N1346 X-198.460 Y-16.026 Z-2.718 A173.7760 B-20.0096 
N1347 X-198.409 Y-16.326 Z-2.825 A174.7505 B-20.2500 
N1348 X-198.360 Y-16.627 Z-2.938 A175.7287 B-20.4880 
N1349 X-198.312 Y-16.928 Z-3.057 A176.7086 B-20.7231 
N1350 X-198.264 Y-17.231 Z-3.182 A177.6859 B-20.9541 
N1351 X-198.218 Y-17.534 Z-3.314 A178.6537 B-21.1797 
N1352 X-198.173 Y-17.838 Z-3.453 A179.6037 B-21.3979 
N1353 X-198.130 Y-18.142 Z-3.598 A180.5259 B-21.6069 
N1354 X-198.088 Y-18.445 Z-3.749 A181.4096 B-21.8046 
N1355 X-198.047 Y-18.747 Z-3.906 A182.2429 B-21.9890 
N1356 X-198.008 Y-19.048 Z-4.069 A183.0145 B-22.1580 
N1357 X-197.971 Y-19.345 Z-4.236 A183.7163 B-22.3107 
N1358 X-197.935 Y-19.638 Z-4.407 A184.3444 B-22.4468 
N1359 X-197.902 Y-19.927 Z-4.581 A184.8973 B-22.5665 
N1360 X-197.869 Y-20.210 Z-4.756 A185.3754 B-22.6703 
N1361 X-197.839 Y-20.486 Z-4.930 A185.7810 B-22.7591 
N1362 X-197.810 Y-20.754 Z-5.103 A186.1199 B-22.8343 
N1363 X-197.783 Y-21.013 Z-5.274 A186.4010 B-22.8978 
N1364 X-197.758 Y-21.262 Z-5.440 A186.6329 B-22.9513 
N1365 X-197.734 Y-21.500 Z-5.600 A186.8228 B-22.9963 
N1366 X-197.712 Y-21.725 Z-5.754 A186.9776 B-23.0342 
N1367 X-197.691 Y-21.938 Z-5.900 A187.1039 B-23.0662 
N1368 X-197.672 Y-22.138 Z-6.038 A187.2063 B-23.0931 
N1369 X-197.654 Y-22.323 Z-6.167 A187.2893 B-23.1159 
N1370 X-197.638 Y-22.495 Z-6.287 A187.3502 B-23.1341 
N1371 X-197.625 Y-22.645 Z-6.397 A187.2035 B-23.1133 
N1372 X-197.623 Y-22.729 Z-6.486 A185.8736 B-22.8695 
N1373 X-197.631 Y-22.752 Z-6.558 A183.4554 B-22.4033 
N1374 X-197.642 Y-22.756 Z-6.622 A180.8250 B-21.8696 
N1375 X-197.653 Y-22.755 Z-6.679 A178.2555 B-21.3231 
N1376 X-197.664 Y-22.753 Z-6.732 A175.8141 B-20.7817 
N1377 X-197.674 Y-22.750 Z-6.782 A173.5120 B-20.2519 
N1378 X-197.684 Y-22.748 Z-6.828 A171.3411 B-19.7360 
N1379 X-197.692 Y-22.746 Z-6.871 A169.2862 B-19.2335 
N1380 X-197.701 Y-22.745 Z-6.913 A167.3297 B-18.7429 
N1381 X-197.708 Y-22.745 Z-6.953 A165.4546 B-18.2619 
N1382 X-197.716 Y-22.746 Z-6.991 A163.6452 B-17.7884 
N1383 X-197.723 Y-22.748 Z-7.029 A161.8879 B-17.3200 
N1384 X-197.729 Y-22.750 Z-7.066 A160.1715 B-16.8547 
N1385 X-197.735 Y-22.754 Z-7.101 A158.4867 B-16.3911 
N1386 X-197.741 Y-22.758 Z-7.137 A156.8264 B-15.9279 
N1387 X-197.747 Y-22.763 Z-7.172 A155.1849 B-15.4641 
N1388 X-197.752 Y-22.770 Z-7.206 A153.5580 B-14.9991 
N1389 X-197.757 Y-22.777 Z-7.241 A151.9428 B-14.5326 
N1390 X-197.762 Y-22.785 Z-7.274 A150.3370 B-14.0644 
N1391 X-197.766 Y-22.794 Z-7.308 A148.7391 B-13.5946 
N1392 X-197.770 Y-22.805 Z-7.341 A147.1478 B-13.1233 
N1393 X-197.773 Y-22.816 Z-7.374 A145.5625 B-12.6506 
N1394 X-197.777 Y-22.829 Z-7.406 A143.9826 B-12.1770 
N1395 X-197.780 Y-22.842 Z-7.438 A142.4076 B-11.7027 
N1396 X-197.782 Y-22.857 Z-7.470 A140.8375 B-11.2280 
N1397 X-197.784 Y-22.873 Z-7.500 A139.2718 B-10.7534 
N1398 X-197.786 Y-22.891 Z-7.531 A137.7106 B-10.2793 
N1399 X-197.788 Y-22.909 Z-7.560 A136.1537 B-9.8060 
N1400 X-197.789 Y-22.929 Z-7.589 A134.6010 B-9.3340 
N1401 X-197.790 Y-22.950 Z-7.618 A133.0526 B-8.8636 
N1402 X-197.790 Y-22.972 Z-7.645 A131.5084 B-8.3954 
N1403 X-197.790 Y-22.995 Z-7.671 A129.9684 B-7.9297 
N1404 X-197.789 Y-23.020 Z-7.697 A128.4324 B-7.4668 
N1405 X-197.788 Y-23.045 Z-7.722 A126.9005 B-7.0073 
N1406 X-197.786 Y-23.072 Z-7.745 A125.3724 B-6.5513 
N1407 X-197.784 Y-23.100 Z-7.767 A123.8478 B-6.0993 
N1408 X-197.782 Y-23.128 Z-7.789 A122.3264 B-5.6516 
N1409 X-197.778 Y-23.158 Z-7.809 A120.8081 B-5.2085 
N1410 X-197.775 Y-23.189 Z-7.828 A119.2924 B-4.7702 
N1411 X-197.771 Y-23.220 Z-7.845 A117.7792 B-4.3372 
N1412 X-197.767 Y-23.253 Z-7.861 A116.2757 B-3.8840 
N1413 X-197.764 Y-23.286 Z-7.875 A114.7740 B-3.4372 
N1414 X-197.759 Y-23.321 Z-7.889 A113.2736 B-2.9980 
N1415 X-197.755 Y-23.356 Z-7.900 A111.7746 B-2.5663 
N1416 X-197.749 Y-23.391 Z-7.911 A110.2769 B-2.1423 
N1417 X-197.743 Y-23.427 Z-7.920 A108.7805 B-1.7260 
N1418 X-197.737 Y-23.464 Z-7.927 A107.2852 B-1.3176 
N1419 X-197.730 Y-23.502 Z-7.933 A105.7909 B-0.9170 
N1420 X-197.723 Y-23.539 Z-7.937 A104.2976 B-0.5245 
N1421 X-197.715 Y-23.578 Z-7.940 A102.8053 B-0.1403 
N1422 X-197.707 Y-23.616 Z-7.941 A101.3137 B0.2357 
N1423 X-197.698 Y-23.655 Z-7.940 A99.8228 B0.6030 
N1424 X-197.689 Y-23.694 Z-7.938 A98.3326 B0.9618 
N1425 X-197.679 Y-23.733 Z-7.934 A96.8428 B1.3117 
N1426 X-197.670 Y-23.772 Z-7.929 A95.3535 B1.6526 
N1427 X-197.660 Y-23.811 Z-7.922 A93.8645 B1.9843 
N1428 X-197.649 Y-23.851 Z-7.914 A92.3756 B2.3068 
N1429 X-197.638 Y-23.890 Z-7.904 A90.8868 B2.6199 
N1430 X-197.627 Y-23.928 Z-7.892 A89.3979 B2.9234 
N1431 X-197.616 Y-23.967 Z-7.879 A87.9088 B3.2172 
N1432 X-197.604 Y-24.005 Z-7.865 A86.4194 B3.5012 
N1433 X-197.593 Y-24.043 Z-7.849 A84.9294 B3.7752 
N1434 X-197.581 Y-24.081 Z-7.832 A83.4388 B4.0391 
N1435 X-197.569 Y-24.118 Z-7.813 A81.9473 B4.2928 
N1436 X-197.556 Y-24.154 Z-7.793 A80.4548 B4.5362 
N1437 X-197.544 Y-24.190 Z-7.772 A78.9611 B4.7691 
N1438 X-197.531 Y-24.226 Z-7.750 A77.4658 B4.9915 
N1439 X-197.519 Y-24.261 Z-7.726 A75.9687 B5.2033 
N1440 X-197.506 Y-24.295 Z-7.701 A74.4696 B5.4043 
N1441 X-197.493 Y-24.328 Z-7.676 A72.9683 B5.5944 
N1442 X-197.480 Y-24.361 Z-7.649 A71.4646 B5.7735 
N1443 X-197.467 Y-24.393 Z-7.621 A69.9582 B5.9415 
N1444 X-197.454 Y-24.424 Z-7.593 A68.4491 B6.0982 
N1445 X-197.441 Y-24.455 Z-7.563 A66.9370 B6.2436 
N1446 X-197.428 Y-24.485 Z-7.533 A65.4219 B6.3775 
N1447 X-197.415 Y-24.513 Z-7.502 A63.9040 B6.4998 
N1448 X-197.402 Y-24.541 Z-7.470 A62.3837 B6.6103 
N1449 X-197.389 Y-24.568 Z-7.437 A60.8618 B6.7088 
N1450 X-197.376 Y-24.594 Z-7.404 A59.3391 B6.7952 
N1451 X-197.362 Y-24.620 Z-7.371 A57.8166 B6.8696 
N1452 X-197.347 Y-24.644 Z-7.337 A56.2952 B6.9317 
N1453 X-197.332 Y-24.667 Z-7.302 A54.7757 B6.9815 
N1454 X-197.317 Y-24.689 Z-7.267 A53.2580 B7.0191 
N1455 X-197.301 Y-24.710 Z-7.231 A51.7413 B7.0445 
N1456 X-197.285 Y-24.730 Z-7.195 A50.2244 B7.0577 
N1457 X-197.269 Y-24.750 Z-7.159 A48.7057 B7.0587 
N1458 X-197.253 Y-24.768 Z-7.123 A47.1832 B7.0473 
N1459 X-197.237 Y-24.786 Z-7.086 A45.6540 B7.0236 
N1460 X-197.222 Y-24.803 Z-7.049 A44.1146 B6.9871 
N1461 X-197.206 Y-24.820 Z-7.012 A42.5602 B6.9375 
N1462 X-197.191 Y-24.836 Z-6.974 A40.9847 B6.8741 
N1463 X-197.177 Y-24.852 Z-6.935 A39.3803 B6.7960 
N1464 X-197.162 Y-24.867 Z-6.896 A37.7365 B6.7020 
N1465 X-197.148 Y-24.883 Z-6.855 A36.0409 B6.5900 
N1466 X-197.134 Y-24.897 Z-6.813 A34.2783 B6.4577 
N1467 X-197.120 Y-24.912 Z-6.769 A32.4318 B6.3017 
N1468 X-197.107 Y-24.926 Z-6.722 A30.4841 B6.1179 
N1469 X-197.094 Y-24.939 Z-6.672 A28.4196 B5.9018 
N1470 X-197.082 Y-24.951 Z-6.617 A26.2331 B5.6492 
N1471 X-197.071 Y-24.957 Z-6.556 A23.9547 B5.3602 
N1472 X-197.063 Y-24.949 Z-6.484 A21.7552 B5.0560 
N1473 X-196.182 Y-28.641 Z2.767 F861 
N1474 G00 X-192.657 Y-43.409 Z39.774 
;RAPORT("TC999999","Flank Milling Transition:137 End")
;trailer : concat=None
; points cnt = 1431
N1476 MSG (" --- GROUPED OF SUBPROGRAM --- ")
VELOLIM[A]=100 ;ODWOLANIE VELOLIM
N1477 FGROUP()
N1478 TRAFOOF
; PROGRAM NAME: C99999933
; ORDER       : C999999
; OPER. NAME  : Flank Milling Transition:138
; OPER. DESCR.: finish flank shroud
; OPER. TYPE  : preFinFlank
; GEO. OPTION : 2
; MACHINE     : HSTM_500M_SIM840D_Py
;             : HSTM500 Morelia- HAMUEL: 5-axis milling machine-SIM840D Traori PP_Script
; CONTROL     : SINUMERIK 840D
; created:   2022-11-16 12:02:03.731065
;----------------------------------------
;-------DODATKOWE DANE-------------------
; PROGRAMISTA : Mariusz Malec
; PARTID      : 301T002159P1002_-
;  dec_value  : 0.7
;  lean_angle : 10.0
;  tilt_angle : 0.0
;  airf_offset: 0.05
;  firstoffset: 1.5
;----------------------------------------
;RAPORT("TC999999","Flank Milling Transition:138")
N10 TRAFOOF
N11 D0
N12 G90 G94
N13 G0 G53 D0 Z550
N14 STOPRE
M9 ; chlodziwo wyl
; --- Flank Milling Transition:138 - finish flank shroud ---
N16 ;ToolChange : concat=None ,current_tdmid=None, PP.tdmId=940683
N17 TRAFOOF
N18 G0 G53 D0 Z550 B0
N19 STOPRE
N20 MSG(" TLID=940683 D=5.035 R=3.0 Ang=10.0 Len=150.0 ")
N21 S8619 M03
N22 STOPRE
N23 TOL(0.001,1,1)
N24 G0 G53 A52.0281 B16.0583
N25 TRAORI
N26 G54 D4
N27 D4 
N28 TRANS  X=R8 A=R25
STOPRE
E_ZDARZ=300018
;ACS_FINISH_UBG_PLATFORM_XLB_SHROUD=7740683
STOPRE
N29 ; DELTA A > 40.1
N30 TRAFOOF
N31 D4
N32 STOPRE
N33 G00 G54 Z236.000
N34 G01 A52.0281 F10000
N35 TRAORI
N36 G54 D4
N37 STOPRE
N38 TRANS  X=R8 A=R25
N39 G00 X-301.892 Y-61.527 Z36.930 A52.0281 B16.0583 
N40 M342 ; chlodziwo woda
N41 X-315.723 Y-23.649 Z7.367 
N42 G01 X-315.967 Y-21.962 Z4.743 F861 
N43 X-316.308 Y-21.170 Z1.736 
N44 X-316.713 Y-21.351 Z-1.361 
N45 X-317.142 Y-22.487 Z-4.245 
N46 M342 ; chlodziwo woda
N47 X-317.554 Y-24.466 Z-6.633 
N48 X-317.569 Y-24.521 Z-6.648 A54.1255 B16.0032 
N49 X-317.580 Y-24.568 Z-6.650 A56.3487 B15.9353 
N50 X-317.587 Y-24.610 Z-6.649 A58.5235 B15.8597 
N51 X-317.591 Y-24.649 Z-6.647 A60.6116 B15.7786 
N52 X-317.592 Y-24.686 Z-6.646 A62.6069 B15.6935 
N53 X-317.591 Y-24.721 Z-6.645 A64.5180 B15.6051 
N54 X-317.587 Y-24.755 Z-6.646 A66.3598 B15.5135 
N55 X-317.582 Y-24.788 Z-6.648 A68.1435 B15.4190 
N56 X-317.576 Y-24.819 Z-6.651 A69.8846 B15.3213 
N57 X-317.568 Y-24.850 Z-6.655 A71.5939 B15.2203 
N58 X-317.558 Y-24.881 Z-6.660 A73.2808 B15.1157 
N59 X-317.547 Y-24.911 Z-6.666 A74.9532 B15.0072 
N60 X-317.535 Y-24.941 Z-6.673 A76.6169 B14.8947 
N61 X-317.522 Y-24.970 Z-6.681 A78.2765 B14.7780 
N62 X-317.508 Y-25.000 Z-6.691 A79.9350 B14.6571 
N63 X-317.492 Y-25.029 Z-6.701 A81.5946 B14.5318 
N64 X-317.476 Y-25.058 Z-6.712 A83.2563 B14.4023 
N65 X-317.458 Y-25.086 Z-6.724 A84.9204 B14.2685 
N66 X-317.440 Y-25.114 Z-6.737 A86.5863 B14.1306 
N67 X-317.421 Y-25.142 Z-6.751 A88.2534 B13.9888 
N68 X-317.402 Y-25.169 Z-6.766 A89.9207 B13.8433 
N69 X-317.382 Y-25.195 Z-6.782 A91.5866 B13.6943 
N70 X-317.362 Y-25.221 Z-6.798 A93.2496 B13.5422 
N71 X-317.341 Y-25.247 Z-6.816 A94.9081 B13.3873 
N72 X-317.321 Y-25.271 Z-6.833 A96.5603 B13.2299 
N73 X-317.301 Y-25.295 Z-6.852 A98.2045 B13.0703 
N74 X-317.281 Y-25.318 Z-6.870 A99.8383 B12.9090 
N75 X-317.261 Y-25.340 Z-6.889 A101.4612 B12.7462 
N76 X-317.242 Y-25.361 Z-6.909 A103.0704 B12.5824 
N77 X-317.224 Y-25.381 Z-6.928 A104.6659 B12.4178 
N78 X-317.206 Y-25.400 Z-6.948 A106.2453 B12.2528 
N79 X-317.189 Y-25.418 Z-6.968 A107.8089 B12.0877 
N80 X-317.173 Y-25.435 Z-6.988 A109.3563 B11.9226 
N81 X-317.157 Y-25.451 Z-7.008 A110.8873 B11.7578 
N82 X-317.143 Y-25.467 Z-7.028 A112.4026 B11.5933 
N83 X-317.130 Y-25.481 Z-7.048 A113.9033 B11.4293 
N84 X-317.118 Y-25.494 Z-7.067 A115.3909 B11.2657 
N85 X-317.107 Y-25.507 Z-7.087 A116.8666 B11.1024 
N86 X-317.097 Y-25.518 Z-7.107 A118.3333 B10.9395 
N87 X-317.088 Y-25.529 Z-7.126 A119.7937 B10.7766 
N88 X-317.080 Y-25.539 Z-7.146 A121.2501 B10.6136 
N89 X-317.074 Y-25.548 Z-7.165 A122.7058 B10.4504 
N90 X-317.070 Y-25.556 Z-7.184 A124.1631 B10.2867 
N91 X-317.067 Y-25.563 Z-7.203 A125.6242 B10.1224 
N92 X-317.065 Y-25.570 Z-7.222 A127.0910 B9.9575 
N93 X-317.065 Y-25.575 Z-7.241 A128.5644 B9.7919 
N94 X-317.065 Y-25.580 Z-7.259 A130.0458 B9.6217 
N95 X-317.066 Y-25.584 Z-7.278 A131.5346 B9.4426 
N96 X-317.067 Y-25.587 Z-7.297 A133.0327 B9.2642 
N97 X-317.069 Y-25.590 Z-7.316 A134.5422 B9.1005 
N98 X-317.070 Y-25.592 Z-7.335 A136.0605 B8.9364 
N99 X-317.072 Y-25.594 Z-7.354 A137.5868 B8.7721 
N100 X-317.074 Y-25.594 Z-7.373 A139.1202 B8.6078 
N101 X-317.075 Y-25.594 Z-7.392 A140.6598 B8.4437 
N102 X-317.077 Y-25.594 Z-7.411 A142.2044 B8.2802 
N103 X-317.078 Y-25.592 Z-7.430 A143.7530 B8.1175 
N104 X-317.080 Y-25.590 Z-7.449 A145.3046 B7.9559 
N105 X-317.082 Y-25.587 Z-7.467 A146.8578 B7.7905 
N106 X-317.085 Y-25.583 Z-7.485 A148.4129 B7.6289 
N107 X-317.089 Y-25.579 Z-7.502 A149.9691 B7.4692 
N108 X-317.094 Y-25.574 Z-7.519 A151.5264 B7.3115 
N109 X-317.099 Y-25.568 Z-7.536 A153.0853 B7.1558 
N110 X-317.106 Y-25.561 Z-7.552 A154.6465 B7.0022 
N111 X-317.113 Y-25.554 Z-7.568 A156.2108 B6.8508 
N112 X-317.121 Y-25.546 Z-7.583 A157.7790 B6.7016 
N113 X-317.130 Y-25.537 Z-7.597 A159.3516 B6.5546 
N114 X-317.139 Y-25.528 Z-7.612 A160.9299 B6.4100 
N115 X-317.148 Y-25.518 Z-7.625 A162.5142 B6.2677 
N116 X-317.158 Y-25.508 Z-7.639 A164.1044 B6.1280 
N117 X-317.167 Y-25.497 Z-7.652 A165.7013 B5.9909 
N118 X-317.177 Y-25.485 Z-7.664 A167.3042 B5.8567 
N119 X-317.186 Y-25.474 Z-7.676 A168.9131 B5.7253 
N120 X-317.196 Y-25.461 Z-7.688 A170.5271 B5.5972 
N121 X-317.205 Y-25.449 Z-7.699 A172.1457 B5.4723 
N122 X-317.214 Y-25.436 Z-7.709 A173.7677 B5.3510 
N123 X-317.222 Y-25.422 Z-7.719 A175.3928 B5.2334 
N124 X-317.230 Y-25.408 Z-7.729 A177.0198 B5.1195 
N125 X-317.238 Y-25.395 Z-7.738 A178.6484 B5.0097 
N126 X-317.245 Y-25.380 Z-7.747 A180.2779 B4.9039 
N127 X-317.251 Y-25.366 Z-7.755 A181.9080 B4.8023 
N128 X-317.257 Y-25.351 Z-7.763 A183.5389 B4.7050 
N129 X-317.262 Y-25.337 Z-7.770 A185.1707 B4.6120 
N130 X-317.266 Y-25.322 Z-7.777 A186.8040 B4.5233 
N131 X-317.269 Y-25.307 Z-7.784 A188.4399 B4.4390 
N132 X-317.271 Y-25.292 Z-7.790 A190.0801 B4.3590 
N133 X-317.273 Y-25.276 Z-7.796 A191.7268 B4.2834 
N134 X-317.274 Y-25.261 Z-7.801 A193.3832 B4.2120 
N135 X-317.274 Y-25.245 Z-7.806 A195.0539 B4.1450 
N136 X-317.273 Y-25.229 Z-7.810 A196.7451 B4.0821 
N137 X-317.271 Y-25.213 Z-7.814 A198.4645 B4.0233 
N138 X-317.269 Y-25.196 Z-7.818 A200.2205 B3.9688 
N139 X-317.265 Y-25.179 Z-7.821 A202.0259 B3.9186 
N140 X-317.260 Y-25.161 Z-7.824 A203.8922 B3.8728 
N141 X-317.255 Y-25.141 Z-7.826 A205.8333 B3.8319 
N142 X-317.248 Y-25.120 Z-7.828 A207.8651 B3.7964 
N143 X-317.239 Y-25.097 Z-7.828 A209.9961 B3.7673 
N144 X-317.230 Y-25.070 Z-7.827 A212.2291 B3.7457 
N145 X-317.220 Y-25.036 Z-7.823 A214.5322 B3.7330 
N146 X-317.209 Y-24.988 Z-7.813 A216.7767 B3.7302 
N147 X-317.199 Y-24.903 Z-7.782 A218.4741 B3.7350 
N148 X-317.190 Y-24.759 Z-7.709 A219.0366 B3.7401 
N149 X-317.183 Y-24.581 Z-7.611 A219.1057 B3.7440 
N150 X-317.179 Y-24.384 Z-7.501 A219.1005 B3.7481 
N151 X-317.180 Y-24.170 Z-7.382 A219.0845 B3.7525 
N152 X-317.185 Y-23.938 Z-7.252 A219.0649 B3.7571 
N153 X-317.190 Y-23.689 Z-7.113 A219.0418 B3.7618 
N154 X-317.196 Y-23.423 Z-6.964 A219.0157 B3.7668 
N155 X-317.202 Y-23.139 Z-6.806 A218.9868 B3.7721 
N156 X-317.208 Y-22.839 Z-6.639 A218.9551 B3.7777 
N157 X-317.215 Y-22.523 Z-6.464 A218.9202 B3.7837 
N158 X-317.223 Y-22.194 Z-6.281 A218.8810 B3.7899 
N159 X-317.231 Y-21.853 Z-6.092 A218.8356 B3.7964 
N160 X-317.239 Y-21.500 Z-5.898 A218.7813 B3.8032 
N161 X-317.248 Y-21.139 Z-5.699 A218.7149 B3.8102 
N162 X-317.257 Y-20.771 Z-5.497 A218.6326 B3.8173 
N163 X-317.267 Y-20.396 Z-5.292 A218.5306 B3.8248 
N164 X-317.277 Y-20.017 Z-5.086 A218.4054 B3.8324 
N165 X-317.287 Y-19.635 Z-4.880 A218.2542 B3.8403 
N166 X-317.298 Y-19.252 Z-4.674 A218.0752 B3.8486 
N167 X-317.309 Y-18.867 Z-4.469 A217.8670 B3.8571 
N168 X-317.321 Y-18.483 Z-4.267 A217.6287 B3.8661 
N169 X-317.333 Y-18.100 Z-4.067 A217.3597 B3.8755 
N170 X-317.345 Y-17.718 Z-3.870 A217.0593 B3.8855 
N171 X-317.358 Y-17.337 Z-3.677 A216.7270 B3.8960 
N172 X-317.371 Y-16.959 Z-3.488 A216.3621 B3.9073 
N173 X-317.384 Y-16.584 Z-3.303 A215.9644 B3.9193 
N174 X-317.398 Y-16.210 Z-3.123 A215.5340 B3.9322 
N175 X-317.412 Y-15.839 Z-2.947 A215.0718 B3.9461 
N176 X-317.426 Y-15.470 Z-2.776 A214.5795 B3.9610 
N177 X-317.441 Y-15.104 Z-2.610 A214.0596 B3.9770 
N178 X-317.456 Y-14.740 Z-2.450 A213.5150 B3.9942 
N179 X-317.471 Y-14.378 Z-2.295 A212.9488 B4.0125 
N180 X-317.487 Y-14.019 Z-2.144 A212.3635 B4.0320 
N181 X-317.503 Y-13.662 Z-2.000 A211.7607 B4.0527 
N182 X-317.520 Y-13.307 Z-1.860 A211.1405 B4.0747 
N183 X-317.536 Y-12.954 Z-1.726 A210.5005 B4.0982 
N184 X-317.554 Y-12.603 Z-1.596 A209.8337 B4.1232 
N185 X-317.571 Y-12.252 Z-1.471 A209.1282 B4.1504 
N186 X-317.589 Y-11.900 Z-1.350 A208.3682 B4.1803 
N187 X-317.608 Y-11.548 Z-1.234 A207.5397 B4.2136 
N188 X-317.627 Y-11.194 Z-1.121 A206.6369 B4.2509 
N189 X-317.647 Y-10.839 Z-1.012 A205.6650 B4.2922 
N190 X-317.667 Y-10.483 Z-0.908 A204.6383 B4.3375 
N191 X-317.687 Y-10.126 Z-0.809 A203.5731 B4.3865 
N192 X-317.708 Y-9.770 Z-0.715 A202.4828 B4.4372 
N193 X-317.729 Y-9.414 Z-0.626 A201.3757 B4.4884 
N194 X-317.751 Y-9.058 Z-0.543 A200.2562 B4.5401 
N195 X-317.773 Y-8.704 Z-0.466 A199.1264 B4.5925 
N196 X-317.795 Y-8.350 Z-0.395 A197.9881 B4.6457 
N197 X-317.817 Y-7.996 Z-0.329 A196.8444 B4.6997 
N198 X-317.840 Y-7.644 Z-0.269 A195.7010 B4.7542 
N199 X-317.863 Y-7.293 Z-0.215 A194.5682 B4.8085 
N200 X-317.887 Y-6.943 Z-0.166 A193.4606 B4.8615 
N201 X-317.910 Y-6.597 Z-0.124 A192.3943 B4.9118 
N202 X-317.934 Y-6.254 Z-0.088 A191.3802 B4.9581 
N203 X-317.957 Y-5.914 Z-0.057 A190.4198 B4.9997 
N204 X-317.981 Y-5.576 Z-0.032 A189.5044 B5.0369 
N205 X-318.005 Y-5.241 Z-0.013 A188.6199 B5.0704 
N206 X-318.029 Y-4.907 Z0.002 A187.7527 B5.1010 
N207 X-318.053 Y-4.573 Z0.011 A186.8940 B5.1294 
N208 X-318.077 Y-4.239 Z0.016 A186.0399 B5.1556 
N209 X-318.102 Y-3.905 Z0.015 A185.1908 B5.1795 
N210 X-318.127 Y-3.572 Z0.010 A184.3494 B5.2006 
N211 X-318.152 Y-3.238 Z-0.001 A183.5188 B5.2183 
N212 X-318.177 Y-2.905 Z-0.016 A182.7010 B5.2320 
N213 X-318.202 Y-2.571 Z-0.036 A181.8964 B5.2413 
N214 X-318.228 Y-2.238 Z-0.062 A181.1034 B5.2460 
N215 X-318.253 Y-1.903 Z-0.092 A180.3204 B5.2459 
N216 X-318.279 Y-1.568 Z-0.127 A179.5457 B5.2407 
N217 X-318.306 Y-1.231 Z-0.167 A178.8191 B5.2299 
N218 X-318.334 Y-0.893 Z-0.212 A178.1242 B5.2194 
N219 X-318.364 Y-0.553 Z-0.262 A177.4419 B5.2103 
N220 X-318.396 Y-0.212 Z-0.316 A176.7729 B5.2024 
N221 X-318.429 Y0.130 Z-0.375 A176.1180 B5.1955 
N222 X-318.464 Y0.473 Z-0.440 A175.4777 B5.1895 
N223 X-318.501 Y0.818 Z-0.508 A174.8528 B5.1840 
N224 X-318.540 Y1.165 Z-0.582 A174.2440 B5.1789 
N225 X-318.581 Y1.513 Z-0.660 A173.6518 B5.1741 
N226 X-318.623 Y1.863 Z-0.743 A173.0761 B5.1693 
N227 X-318.667 Y2.216 Z-0.830 A172.5177 B5.1644 
N228 X-318.713 Y2.570 Z-0.923 A171.9770 B5.1592 
N229 X-318.762 Y2.927 Z-1.020 A171.4544 B5.1534 
N230 X-318.813 Y3.286 Z-1.122 A170.9504 B5.1469 
N231 X-318.866 Y3.648 Z-1.228 A170.4671 B5.1391 
N232 X-318.921 Y4.012 Z-1.339 A170.0079 B5.1293 
N233 X-318.979 Y4.377 Z-1.454 A169.5780 B5.1164 
N234 X-319.039 Y4.744 Z-1.574 A169.1841 B5.0989 
N235 X-319.101 Y5.113 Z-1.696 A168.8345 B5.0750 
N236 X-319.165 Y5.482 Z-1.822 A168.5376 B5.0426 
N237 X-319.232 Y5.851 Z-1.951 A168.2996 B5.0000 
N238 X-319.300 Y6.219 Z-2.081 A168.1230 B4.9462 
N239 X-319.370 Y6.586 Z-2.212 A168.0073 B4.8806 
N240 X-319.442 Y6.952 Z-2.345 A167.9489 B4.8035 
N241 X-319.516 Y7.316 Z-2.477 A167.9418 B4.7157 
N242 X-319.590 Y7.678 Z-2.609 A167.9793 B4.6181 
N243 X-319.666 Y8.036 Z-2.740 A168.0560 B4.5116 
N244 X-319.743 Y8.391 Z-2.869 A168.1691 B4.3967 
N245 X-319.821 Y8.742 Z-2.996 A168.3179 B4.2734 
N246 X-319.899 Y9.086 Z-3.121 A168.5050 B4.1408 
N247 X-319.977 Y9.424 Z-3.242 A168.7361 B3.9974 
N248 X-320.054 Y9.754 Z-3.359 A169.0197 B3.8411 
N249 X-320.131 Y10.075 Z-3.470 A169.3663 B3.6689 
N250 X-320.206 Y10.385 Z-3.576 A169.7873 B3.4776 
N251 X-320.279 Y10.685 Z-3.675 A170.2920 B3.2646 
N252 X-320.350 Y10.973 Z-3.767 A170.8835 B3.0286 
N253 X-320.418 Y11.249 Z-3.852 A171.5562 B2.7708 
N254 X-320.484 Y11.514 Z-3.929 A172.2955 B2.4947 
N255 X-320.547 Y11.768 Z-4.000 A173.0816 B2.2055 
N256 X-320.608 Y12.012 Z-4.064 A173.9019 B1.9067 
N257 X-320.667 Y12.245 Z-4.120 A174.7564 B1.5985 
N258 X-320.722 Y12.468 Z-4.171 A175.6533 B1.2791 
N259 X-320.775 Y12.680 Z-4.214 A176.6031 B0.9458 
N260 X-320.824 Y12.880 Z-4.251 A177.6100 B0.5980 
N261 X-320.871 Y13.070 Z-4.282 A178.6669 B0.2379 
N262 X-320.915 Y13.251 Z-4.307 A179.7604 B-0.1304 
N263 X-320.956 Y13.422 Z-4.327 A180.8761 B-0.5028 
N264 X-320.994 Y13.584 Z-4.342 A182.0060 B-0.8767 
N265 X-321.030 Y13.739 Z-4.353 A183.1540 B-1.2526 
N266 X-321.064 Y13.884 Z-4.359 A184.3306 B-1.6329 
N267 X-321.094 Y14.021 Z-4.361 A185.5462 B-2.0195 
N268 X-321.122 Y14.149 Z-4.360 A186.8078 B-2.4138 
N269 X-321.148 Y14.268 Z-4.355 A188.1168 B-2.8152 
N270 X-321.171 Y14.379 Z-4.348 A189.4685 B-3.2219 
N271 X-321.192 Y14.482 Z-4.338 A190.8561 B-3.6312 
N272 X-321.210 Y14.578 Z-4.326 A192.2731 B-4.0410 
N273 X-321.227 Y14.668 Z-4.312 A193.7136 B-4.4491 
N274 X-321.242 Y14.752 Z-4.297 A195.1728 B-4.8538 
N275 X-321.258 Y14.829 Z-4.280 A196.6597 B-5.1937 
N276 X-321.273 Y14.902 Z-4.262 A198.1600 B-5.5235 
N277 X-321.287 Y14.970 Z-4.243 A199.6714 B-5.8446 
N278 X-321.300 Y15.033 Z-4.223 A201.1931 B-6.1564 
N279 X-321.311 Y15.092 Z-4.203 A202.7235 B-6.4581 
N280 X-321.321 Y15.148 Z-4.182 A204.2619 B-6.7491 
N281 X-321.331 Y15.200 Z-4.161 A205.8077 B-7.0289 
N282 X-321.339 Y15.249 Z-4.140 A207.3597 B-7.2969 
N283 X-321.347 Y15.295 Z-4.118 A208.9173 B-7.5526 
N284 X-321.354 Y15.338 Z-4.096 A210.4804 B-7.7956 
N285 X-321.360 Y15.378 Z-4.075 A212.0485 B-8.0257 
N286 X-321.366 Y15.416 Z-4.053 A213.6214 B-8.2423 
N287 X-321.371 Y15.452 Z-4.031 A215.1994 B-8.4454 
N288 X-321.376 Y15.486 Z-4.010 A216.7817 B-8.6345 
N289 X-321.379 Y15.518 Z-3.989 A218.3685 B-8.8093 
N290 X-321.383 Y15.547 Z-3.968 A219.9583 B-8.9696 
N291 X-321.386 Y15.576 Z-3.947 A221.5497 B-9.1150 
N292 X-321.389 Y15.602 Z-3.926 A223.1401 B-9.2451 
N293 X-321.391 Y15.628 Z-3.906 A224.7274 B-9.3598 
N294 X-321.393 Y15.652 Z-3.885 A226.3101 B-9.4590 
N295 X-321.395 Y15.675 Z-3.864 A227.8893 B-9.5428 
N296 X-321.396 Y15.698 Z-3.844 A229.4674 B-9.6114 
N297 X-321.397 Y15.719 Z-3.824 A231.0479 B-9.6647 
N298 X-321.398 Y15.739 Z-3.804 A232.6342 B-9.7027 
N299 X-321.398 Y15.758 Z-3.784 A234.2288 B-9.7366 
N300 X-321.398 Y15.777 Z-3.765 A235.8343 B-9.7670 
N301 X-321.397 Y15.795 Z-3.745 A237.4528 B-9.7764 
N302 X-321.396 Y15.812 Z-3.726 A239.0862 B-9.7653 
N303 X-321.396 Y15.829 Z-3.707 A240.7370 B-9.7343 
N304 X-321.395 Y15.846 Z-3.688 A242.4084 B-9.6833 
N305 X-321.395 Y15.862 Z-3.668 A244.1049 B-9.6121 
N306 X-321.394 Y15.879 Z-3.649 A245.8303 B-9.5200 
N307 X-321.394 Y15.896 Z-3.628 A247.5898 B-9.4062 
N308 X-321.393 Y15.913 Z-3.607 A249.3835 B-9.2697 
N309 X-321.392 Y15.932 Z-3.583 A251.2049 B-9.1102 
N310 X-321.392 Y15.952 Z-3.557 A253.0361 B-8.9289 
N311 X-321.391 Y15.975 Z-3.525 A254.8497 B-8.7286 
N312 X-321.390 Y16.001 Z-3.485 A256.6031 B-8.5150 
N313 X-321.388 Y16.031 Z-3.432 A258.2412 B-8.2973 
N314 X-321.384 Y16.066 Z-3.363 A259.7035 B-8.0871 
N315 X-321.378 Y16.106 Z-3.275 A260.9566 B-7.8934 
N316 X-321.371 Y16.148 Z-3.170 A262.0248 B-7.7168 
N317 X-321.361 Y16.193 Z-3.052 A263.0078 B-7.5443 
N318 X-321.352 Y16.238 Z-2.929 A264.0123 B-7.3596 
N319 X-321.341 Y16.282 Z-2.802 A265.0661 B-7.1571 
N320 X-321.330 Y16.325 Z-2.671 A266.1419 B-6.9406 
N321 X-321.318 Y16.368 Z-2.533 A267.2130 B-6.7144 
N322 X-321.305 Y16.411 Z-2.388 A268.2630 B-6.4812 
N323 X-321.290 Y16.453 Z-2.236 A269.2975 B-6.2698 
N324 X-321.273 Y16.493 Z-2.079 A270.3259 B-6.0566 
N325 X-321.255 Y16.532 Z-1.919 A271.3620 B-5.8365 
N326 X-321.236 Y16.569 Z-1.755 A272.4145 B-5.6080 
N327 X-321.216 Y16.604 Z-1.588 A273.4812 B-5.3712 
N328 X-321.195 Y16.637 Z-1.419 A274.5534 B-5.1281 
N329 X-321.174 Y16.668 Z-1.246 A275.6223 B-4.8808 
N330 X-321.151 Y16.696 Z-1.070 A276.6834 B-4.6304 
N331 X-321.127 Y16.722 Z-0.892 A277.7363 B-4.3774 
N332 X-321.103 Y16.744 Z-0.712 A278.7839 B-4.1215 
N333 X-321.078 Y16.765 Z-0.529 A279.8309 B-3.8619 
N334 X-321.052 Y16.782 Z-0.346 A280.8794 B-3.5983 
N335 X-321.025 Y16.797 Z-0.161 A281.9284 B-3.3313 
N336 X-320.998 Y16.809 Z0.025 A282.9762 B-3.0614 
N337 X-320.970 Y16.817 Z0.211 A284.0210 B-2.7895 
N338 X-320.942 Y16.823 Z0.399 A285.0615 B-2.5161 
N339 X-320.913 Y16.826 Z0.587 A286.0971 B-2.2417 
N340 X-320.884 Y16.826 Z0.775 A287.1278 B-1.9666 
N341 X-320.854 Y16.823 Z0.964 A288.1544 B-1.6909 
N342 X-320.823 Y16.817 Z1.153 A289.1782 B-1.4147 
N343 X-320.792 Y16.808 Z1.341 A290.2010 B-1.1378 
N344 X-320.761 Y16.796 Z1.528 A291.2253 B-0.8599 
N345 X-320.729 Y16.781 Z1.715 A292.2534 B-0.5808 
N346 X-320.697 Y16.764 Z1.901 A293.2875 B-0.3002 
N347 X-320.666 Y16.744 Z2.085 A294.3294 B-0.0180 
N348 X-320.634 Y16.721 Z2.267 A295.3808 B0.2657 
N349 X-320.601 Y16.696 Z2.448 A296.4425 B0.5507 
N350 X-320.569 Y16.669 Z2.626 A297.5150 B0.8366 
N351 X-320.537 Y16.639 Z2.803 A298.5976 B1.1227 
N352 X-320.505 Y16.607 Z2.978 A299.6883 B1.4075 
N353 X-320.473 Y16.572 Z3.151 A300.7822 B1.6891 
N354 X-320.440 Y16.535 Z3.322 A301.8697 B1.9745 
N355 X-320.416 Y16.494 Z3.495 A302.9031 B2.4143 
N356 X-320.391 Y16.449 Z3.666 A303.9170 B2.8302 
N357 X-320.364 Y16.401 Z3.837 A304.9065 B3.2223 
N358 X-320.337 Y16.350 Z4.008 A305.8728 B3.5929 
N359 X-320.308 Y16.295 Z4.177 A306.8219 B3.9453 
N360 X-320.279 Y16.238 Z4.345 A307.7617 B4.2830 
N361 X-320.250 Y16.177 Z4.511 A308.6987 B4.6088 
N362 X-320.220 Y16.114 Z4.675 A309.6369 B4.9244 
N363 X-320.190 Y16.048 Z4.837 A310.5783 B5.2309 
N364 X-320.159 Y15.980 Z4.998 A311.5238 B5.5289 
N365 X-320.128 Y15.909 Z5.156 A312.4740 B5.8189 
N366 X-320.097 Y15.835 Z5.312 A313.4291 B6.1012 
N367 X-320.066 Y15.760 Z5.467 A314.3893 B6.3760 
N368 X-320.035 Y15.681 Z5.619 A315.3546 B6.6437 
N369 X-320.004 Y15.601 Z5.769 A316.3250 B6.9044 
N370 X-319.972 Y15.517 Z5.918 A317.3005 B7.1582 
N371 X-319.940 Y15.432 Z6.064 A318.2807 B7.4054 
N372 X-319.909 Y15.344 Z6.208 A319.2656 B7.6458 
N373 X-319.877 Y15.253 Z6.351 A320.2549 B7.8797 
N374 X-319.845 Y15.161 Z6.491 A321.2483 B8.1071 
N375 X-319.814 Y15.065 Z6.629 A322.2454 B8.3280 
N376 X-319.782 Y14.967 Z6.766 A323.2459 B8.5424 
N377 X-319.750 Y14.867 Z6.900 A324.2493 B8.7504 
N378 X-319.718 Y14.764 Z7.032 A325.2554 B8.9519 
N379 X-319.687 Y14.659 Z7.163 A326.2635 B9.1469 
N380 X-319.655 Y14.551 Z7.291 A327.2735 B9.3354 
N381 X-319.623 Y14.441 Z7.418 A328.2848 B9.5175 
N382 X-319.592 Y14.328 Z7.543 A329.2973 B9.6931 
N383 X-319.560 Y14.212 Z7.665 A330.3105 B9.8623 
N384 X-319.529 Y14.094 Z7.786 A331.3243 B10.0250 
N385 X-319.497 Y13.973 Z7.905 A332.3383 B10.1813 
N386 X-319.466 Y13.849 Z8.021 A333.3523 B10.3312 
N387 X-319.435 Y13.723 Z8.136 A334.3659 B10.4747 
N388 X-319.403 Y13.593 Z8.249 A335.3789 B10.6117 
N389 X-319.372 Y13.461 Z8.360 A336.3909 B10.7423 
N390 X-319.341 Y13.326 Z8.468 A337.4017 B10.8666 
N391 X-319.310 Y13.188 Z8.575 A338.4109 B10.9844 
N392 X-319.280 Y13.048 Z8.679 A339.4181 B11.0957 
N393 X-319.249 Y12.904 Z8.782 A340.4229 B11.2007 
N394 X-319.219 Y12.757 Z8.882 A341.4249 B11.2992 
N395 X-319.188 Y12.607 Z8.980 A342.4238 B11.3914 
N396 X-319.158 Y12.455 Z9.076 A343.4193 B11.4771 
N397 X-319.128 Y12.299 Z9.169 A344.4109 B11.5564 
N398 X-319.098 Y12.140 Z9.260 A345.3985 B11.6294 
N399 X-319.069 Y11.978 Z9.349 A346.3816 B11.6961 
N400 X-319.039 Y11.813 Z9.435 A347.3599 B11.7565 
N401 X-319.010 Y11.644 Z9.519 A348.3332 B11.8106 
N402 X-318.981 Y11.473 Z9.600 A349.3012 B11.8585 
N403 X-318.952 Y11.298 Z9.679 A350.2635 B11.9003 
N404 X-318.924 Y11.120 Z9.755 A351.2202 B11.9360 
N405 X-318.896 Y10.940 Z9.828 A352.1716 B11.9656 
N406 X-318.868 Y10.756 Z9.899 A353.1188 B11.9941 
N407 X-318.841 Y10.568 Z9.967 A354.0629 B12.0366 
N408 X-318.817 Y10.379 Z10.032 A355.0076 B12.0968 
N409 X-318.793 Y10.186 Z10.095 A355.9568 B12.1772 
N410 X-318.772 Y9.994 Z10.154 A356.9244 B12.2790 
N411 X-318.752 Y9.802 Z10.211 A357.9109 B12.3851 
N412 X-318.731 Y9.607 Z10.264 A358.8986 B12.4907 
N413 X-318.710 Y9.409 Z10.314 A359.8832 B12.5951 
N414 X-318.689 Y9.207 Z10.361 A0.8609 B12.6980 
N415 X-318.668 Y9.002 Z10.406 A1.8293 B12.7992 
N416 X-318.647 Y8.793 Z10.447 A2.7873 B12.8985 
N417 X-318.626 Y8.581 Z10.484 A3.7342 B12.9958 
N418 X-318.604 Y8.365 Z10.519 A4.6699 B13.0913 
N419 X-318.582 Y8.145 Z10.550 A5.5945 B13.1848 
N420 X-318.560 Y7.922 Z10.578 A6.5078 B13.2763 
N421 X-318.538 Y7.694 Z10.602 A7.4099 B13.3659 
N422 X-318.515 Y7.464 Z10.623 A8.3008 B13.4536 
N423 X-318.493 Y7.229 Z10.640 A9.1803 B13.5394 
N424 X-318.470 Y6.991 Z10.653 A10.0481 B13.6232 
N425 X-318.447 Y6.749 Z10.662 A10.9042 B13.7050 
N426 X-318.423 Y6.503 Z10.668 A11.7486 B13.7849 
N427 X-318.400 Y6.254 Z10.670 A12.5817 B13.8630 
N428 X-318.377 Y6.002 Z10.668 A13.4038 B13.9392 
N429 X-318.354 Y5.746 Z10.661 A14.2146 B14.0135 
N430 X-318.330 Y5.486 Z10.651 A15.0141 B14.0860 
N431 X-318.307 Y5.224 Z10.637 A15.8024 B14.1567 
N432 X-318.283 Y4.958 Z10.619 A16.5797 B14.2255 
N433 X-318.260 Y4.689 Z10.596 A17.3460 B14.2926 
N434 X-318.236 Y4.417 Z10.569 A18.1016 B14.3580 
N435 X-318.213 Y4.142 Z10.538 A18.8464 B14.4216 
N436 X-318.189 Y3.865 Z10.503 A19.5807 B14.4836 
N437 X-318.166 Y3.584 Z10.463 A20.3047 B14.5439 
N438 X-318.142 Y3.301 Z10.420 A21.0186 B14.6026 
N439 X-318.118 Y3.016 Z10.371 A21.7225 B14.6596 
N440 X-318.095 Y2.728 Z10.319 A22.4166 B14.7152 
N441 X-318.072 Y2.438 Z10.262 A23.1011 B14.7691 
N442 X-318.048 Y2.145 Z10.201 A23.7762 B14.8216 
N443 X-318.025 Y1.851 Z10.136 A24.4421 B14.8726 
N444 X-318.002 Y1.554 Z10.066 A25.0988 B14.9221 
N445 X-317.979 Y1.255 Z9.992 A25.7465 B14.9703 
N446 X-317.956 Y0.955 Z9.914 A26.3853 B15.0170 
N447 X-317.933 Y0.653 Z9.831 A27.0154 B15.0623 
N448 X-317.911 Y0.349 Z9.745 A27.6368 B15.1063 
N449 X-317.888 Y0.043 Z9.654 A28.2497 B15.1489 
N450 X-317.866 Y-0.264 Z9.558 A28.8542 B15.1902 
N451 X-317.844 Y-0.572 Z9.459 A29.4505 B15.2303 
N452 X-317.822 Y-0.882 Z9.355 A30.0387 B15.2691 
N453 X-317.801 Y-1.193 Z9.247 A30.6189 B15.3066 
N454 X-317.779 Y-1.505 Z9.136 A31.1914 B15.3430 
N455 X-317.758 Y-1.818 Z9.020 A31.7562 B15.3782 
N456 X-317.737 Y-2.132 Z8.899 A32.3135 B15.4122 
N457 X-317.717 Y-2.447 Z8.775 A32.8636 B15.4451 
N458 X-317.696 Y-2.763 Z8.647 A33.4065 B15.4769 
N459 X-317.676 Y-3.080 Z8.515 A33.9425 B15.5076 
N460 X-317.657 Y-3.397 Z8.379 A34.4717 B15.5372 
N461 X-317.637 Y-3.715 Z8.239 A34.9944 B15.5658 
N462 X-317.618 Y-4.034 Z8.096 A35.5106 B15.5933 
N463 X-317.599 Y-4.353 Z7.948 A36.0206 B15.6199 
N464 X-317.580 Y-4.673 Z7.797 A36.5246 B15.6455 
N465 X-317.562 Y-4.993 Z7.642 A37.0225 B15.6714 
N466 X-317.544 Y-5.313 Z7.483 A37.5147 B15.6964 
N467 X-317.526 Y-5.634 Z7.320 A38.0013 B15.7203 
N468 X-317.509 Y-5.955 Z7.154 A38.4823 B15.7431 
N469 X-317.492 Y-6.277 Z6.984 A38.9577 B15.7650 
N470 X-317.476 Y-6.599 Z6.810 A39.4277 B15.7858 
N471 X-317.459 Y-6.921 Z6.633 A39.8919 B15.8057 
N472 X-317.443 Y-7.243 Z6.452 A40.3504 B15.8246 
N473 X-317.428 Y-7.566 Z6.267 A40.8026 B15.8425 
N474 X-317.413 Y-7.889 Z6.079 A41.2482 B15.8595 
N475 X-317.398 Y-8.213 Z5.887 A41.6868 B15.8755 
N476 X-317.383 Y-8.537 Z5.691 A42.1180 B15.8906 
N477 X-317.369 Y-8.861 Z5.491 A42.5413 B15.9049 
N478 X-317.355 Y-9.186 Z5.288 A42.9566 B15.9182 
N479 X-317.342 Y-9.511 Z5.081 A43.3634 B15.9308 
N480 X-317.329 Y-9.838 Z4.870 A43.7617 B15.9424 
N481 X-317.316 Y-10.164 Z4.655 A44.1512 B15.9533 
N482 X-317.304 Y-10.492 Z4.437 A44.5319 B15.9635 
N483 X-317.292 Y-10.820 Z4.215 A44.9033 B15.9729 
N484 X-317.280 Y-11.150 Z3.989 A45.2653 B15.9816 
N485 X-317.269 Y-11.480 Z3.759 A45.6173 B15.9896 
N486 X-317.258 Y-11.811 Z3.525 A45.9588 B15.9969 
N487 X-317.247 Y-12.144 Z3.287 A46.2891 B16.0037 
N488 X-317.237 Y-12.478 Z3.045 A46.6077 B16.0098 
N489 X-317.227 Y-12.813 Z2.799 A46.9140 B16.0154 
N490 X-317.218 Y-13.150 Z2.549 A47.2072 B16.0204 
N491 X-317.209 Y-13.488 Z2.295 A47.4865 B16.0250 
N492 X-317.201 Y-13.827 Z2.038 A47.7511 B16.0291 
N493 X-317.192 Y-14.168 Z1.776 A48.0002 B16.0329 
N494 X-317.185 Y-14.511 Z1.511 A48.2331 B16.0362 
N495 X-317.177 Y-14.855 Z1.243 A48.4493 B16.0393 
N496 X-317.170 Y-15.200 Z0.971 A48.6482 B16.0421 
N497 X-317.164 Y-15.546 Z0.697 A48.8295 B16.0447 
N498 X-317.157 Y-15.892 Z0.420 A48.9932 B16.0471 
N499 X-317.151 Y-16.239 Z0.141 A49.1393 B16.0494 
N500 X-317.146 Y-16.586 Z-0.140 A49.2687 B16.0515 
N501 X-317.141 Y-16.933 Z-0.422 A49.3822 B16.0536 
N502 X-317.136 Y-17.278 Z-0.704 A49.4815 B16.0557 
N503 X-317.131 Y-17.622 Z-0.986 A49.5685 B16.0577 
N504 X-317.127 Y-17.964 Z-1.267 A49.6451 B16.0597 
N505 X-317.123 Y-18.303 Z-1.546 A49.7128 B16.0617 
N506 X-317.120 Y-18.638 Z-1.824 A49.7731 B16.0637 
N507 X-317.117 Y-18.970 Z-2.099 A49.8267 B16.0656 
