; PROGRAM NAME: C99999936
; ORDER       : C999999
; OPER. NAME  : Side Milling:131
; OPER. DESCR.: Side Milling/rowek zgr
; OPER. TYPE  : sideMill
; GEO. OPTION : 1
; MACHINE     : HSTM_500M_SIM840D_Py
;             : HSTM500 Morelia- HAMUEL: 5-axis milling machine-SIM840D Traori PP_Script
; CONTROL     : SINUMERIK 840D
; created:   2022-11-16 12:01:15.604259
;----------------------------------------
;-------DODATKOWE DANE-------------------
; PROGRAMISTA : Mariusz Malec
; PARTID      : 301T002159P1002_-
;  ap         : 3.0
;  ae         : 5.0
;  lean_angle : 0.0
;  fin_offset : 0.3
;----------------------------------------
;RAPORT("TC999999","Side Milling:131")
N10 TRAFOOF
N11 D0
N12 G90 G94
N13 G0 G53 D0 Z550
N14 STOPRE
M9 ; chlodziwo wyl
; --- Side Milling:131 - Side Milling/rowek zgr ---
N16 ;ToolChange : concat=None ,current_tdmid=None, PP.tdmId=940706
N17 TRAFOOF
N18 G0 G53 D0 X-200 Y150 Z550 B0
N19 T="7740706"
;RAPORT("TC999999","ToolChangeStart 7740706")
N20 M6
;RAPORT("TC999999","ToolChangeEnd")
N21 STOPRE
N22 MSG(" TLID=940706 D=8.0 R=1.6 Ang=0.0 Len=111.0 ")
N23 S4774 M03
N24 STOPRE
N25 TOL(0.1,1,1)
N26 G0 G53 A234.0000 B0.0000
N27 TRAORI
N28 G54 D1
;tol5=0.15
STOPRE
E_ZDARZ=500002
;ACS_ROUGH_SLOT=7740706
STOPRE
;UWAGA : ZMIENIONA TOLERANCJA OSI A i B, ruchy osi A i B beda usuniete : TOL5=0.15
N29 ; DELTA A > 40.1
N30 TRAFOOF
N31 D1
N32 STOPRE
N33 G00 G54 Z275.000
N34 G01 A234.0000 F10000
N35 TRAORI
N36 G54 D1
N37 STOPRE
N38 TRANS 
N39 G00 X-152.362 Y35.747 Z-61.125 A234.0000 
N40 M342 ; chlodziwo woda
N41 X-152.362 Y-4.703 Z-31.736 
N42 ;on NNTE
N43 D1 
N44 G01 G41 X-152.278 Y1.174 Z-23.646 F381
N45 G01 X-152.278 Y1.174 Z-23.646 F381 
N46 X-152.277 Y1.248 Z-23.545 
N47 X-152.276 Y1.321 Z-23.444 
N48 X-152.275 Y1.395 Z-23.343 
N49 X-152.274 Y1.468 Z-23.242 
N50 X-152.273 Y1.542 Z-23.141 
N51 X-152.272 Y1.615 Z-23.040 
N52 X-152.271 Y1.689 Z-22.938 
N53 X-152.270 Y1.762 Z-22.837 
N54 X-152.269 Y1.835 Z-22.736 
N55 X-152.268 Y1.909 Z-22.635 
N56 X-152.267 Y1.982 Z-22.534 
N57 X-152.266 Y2.056 Z-22.433 
N58 X-152.265 Y2.129 Z-22.332 
N59 X-152.264 Y2.203 Z-22.231 
N60 X-152.263 Y2.276 Z-22.129 
N61 X-152.262 Y2.350 Z-22.028 
N62 X-152.261 Y2.423 Z-21.927 
N63 X-152.260 Y2.497 Z-21.826 
N64 X-152.259 Y2.570 Z-21.725 
N65 X-152.258 Y2.644 Z-21.624 
N66 X-152.257 Y2.717 Z-21.523 
N67 X-152.255 Y2.791 Z-21.422 
N68 X-152.254 Y2.864 Z-21.320 
N69 X-152.253 Y2.938 Z-21.219 
N70 X-152.252 Y3.013 Z-21.115 
N71 X-152.251 Y3.089 Z-21.011 
N72 X-152.250 Y3.165 Z-20.906 
N73 X-152.249 Y3.241 Z-20.802 
N74 X-152.248 Y3.317 Z-20.697 
N75 X-152.247 Y3.393 Z-20.593 
N76 X-152.246 Y3.468 Z-20.489 
N77 X-152.245 Y3.544 Z-20.384 
N78 X-152.244 Y3.620 Z-20.280 
N79 X-152.243 Y3.696 Z-20.175 
N80 X-152.241 Y3.772 Z-20.071 
N81 X-152.240 Y3.848 Z-19.967 
N82 X-152.239 Y3.923 Z-19.862 
N83 X-152.238 Y3.999 Z-19.758 
N84 X-152.237 Y4.075 Z-19.654 
N85 X-152.236 Y4.151 Z-19.549 
N86 X-152.235 Y4.227 Z-19.445 
N87 X-152.234 Y4.303 Z-19.340 
N88 X-152.233 Y4.379 Z-19.236 
N89 X-152.232 Y4.454 Z-19.132 
N90 X-152.231 Y4.530 Z-19.027 
N91 X-152.230 Y4.606 Z-18.923 
N92 X-152.229 Y4.682 Z-18.818 
N93 X-152.227 Y4.758 Z-18.714 
N94 X-152.226 Y4.834 Z-18.610 
N95 X-152.225 Y4.909 Z-18.505 
N96 X-152.224 Y4.985 Z-18.401 
N97 X-152.223 Y5.061 Z-18.296 
N98 X-152.222 Y5.137 Z-18.192 
N99 X-152.221 Y5.213 Z-18.088 
N100 X-152.220 Y5.289 Z-17.983 
N101 X-152.219 Y5.363 Z-17.881 
N102 X-152.218 Y5.438 Z-17.778 
N103 X-152.217 Y5.512 Z-17.676 
N104 X-152.216 Y5.587 Z-17.573 
N105 X-152.215 Y5.661 Z-17.470 
N106 X-152.214 Y5.736 Z-17.368 
N107 X-152.212 Y5.810 Z-17.265 
N108 X-152.211 Y5.885 Z-17.163 
N109 X-152.210 Y5.959 Z-17.060 
N110 X-152.209 Y6.034 Z-16.957 
N111 X-152.208 Y6.109 Z-16.855 
N112 X-152.207 Y6.183 Z-16.752 
N113 X-152.206 Y6.258 Z-16.650 
N114 X-152.205 Y6.332 Z-16.547 
N115 X-152.204 Y6.407 Z-16.444 
N116 X-152.203 Y6.481 Z-16.342 
N117 X-152.202 Y6.556 Z-16.239 
N118 X-152.201 Y6.630 Z-16.137 
N119 X-152.200 Y6.705 Z-16.034 
N120 X-152.199 Y6.779 Z-15.932 
N121 X-152.198 Y6.854 Z-15.829 
N122 X-152.197 Y6.928 Z-15.726 
N123 X-152.195 Y7.003 Z-15.624 
N124 X-152.194 Y7.077 Z-15.521 
N125 X-152.193 Y7.152 Z-15.419 
N126 X-152.192 Y7.227 Z-15.316 
N127 X-152.191 Y7.301 Z-15.213 
N128 X-152.190 Y7.376 Z-15.111 
N129 X-152.189 Y7.450 Z-15.008 
N130 X-152.188 Y7.525 Z-14.906 
N131 X-152.187 Y7.599 Z-14.803 
N132 X-152.186 Y7.674 Z-14.700 
N133 X-152.185 Y7.748 Z-14.598 
N134 X-152.184 Y7.823 Z-14.495 
N135 X-152.183 Y7.897 Z-14.393 
N136 X-152.182 Y7.972 Z-14.290 
N137 X-152.181 Y8.046 Z-14.187 
N138 X-152.180 Y8.121 Z-14.085 
N139 X-152.179 Y8.196 Z-13.982 
N140 X-152.177 Y8.270 Z-13.880 
N141 X-152.176 Y8.345 Z-13.777 
N142 X-152.175 Y8.419 Z-13.675 
N143 X-152.174 Y8.494 Z-13.572 
N144 X-152.173 Y8.568 Z-13.469 
N145 X-152.172 Y8.643 Z-13.367 
N146 X-152.171 Y8.717 Z-13.264 
N147 X-152.170 Y8.792 Z-13.162 
N148 X-152.169 Y8.866 Z-13.059 
N149 X-152.168 Y8.941 Z-12.956 
N150 X-152.167 Y9.015 Z-12.854 
N151 X-152.166 Y9.090 Z-12.751 
N152 X-152.165 Y9.165 Z-12.649 
N153 X-152.164 Y9.239 Z-12.546 
N154 X-152.163 Y9.314 Z-12.443 
N155 X-152.162 Y9.388 Z-12.341 
N156 X-152.160 Y9.463 Z-12.238 
N157 X-152.159 Y9.537 Z-12.136 
N158 X-152.158 Y9.612 Z-12.033 
N159 X-152.157 Y9.686 Z-11.930 
N160 X-152.156 Y9.761 Z-11.828 
N161 X-152.155 Y9.835 Z-11.725 
N162 X-152.154 Y9.910 Z-11.623 
N163 X-152.153 Y9.984 Z-11.520 
N164 X-152.152 Y10.059 Z-11.418 
N165 X-152.151 Y10.133 Z-11.315 
N166 X-152.150 Y10.208 Z-11.212 
N167 X-152.149 Y10.283 Z-11.110 
N168 X-152.148 Y10.357 Z-11.007 
N169 X-152.147 Y10.432 Z-10.905 
N170 X-152.146 Y10.506 Z-10.802 
N171 X-152.145 Y10.581 Z-10.699 
N172 X-152.144 Y10.655 Z-10.597 
N173 X-152.142 Y10.730 Z-10.494 
N174 X-152.141 Y10.804 Z-10.392 
N175 X-152.140 Y10.879 Z-10.289 
N176 X-152.139 Y10.953 Z-10.186 
N177 X-152.138 Y11.028 Z-10.084 
N178 X-152.137 Y11.102 Z-9.981 
N179 X-152.136 Y11.177 Z-9.879 
N180 X-152.135 Y11.252 Z-9.776 
N181 X-152.134 Y11.326 Z-9.673 
N182 X-152.133 Y11.401 Z-9.571 
N183 X-152.132 Y11.475 Z-9.468 
N184 X-152.131 Y11.550 Z-9.366 
N185 X-152.130 Y11.624 Z-9.263 
N186 X-152.129 Y11.699 Z-9.161 
N187 X-152.128 Y11.773 Z-9.058 
N188 X-152.128 Y11.848 Z-8.955 
N189 X-152.129 Y11.922 Z-8.853 
N190 X-152.129 Y11.997 Z-8.750 
N191 X-152.129 Y12.071 Z-8.648 
N192 X-152.129 Y12.146 Z-8.545 
N193 X-152.129 Y12.221 Z-8.442 
N194 X-152.130 Y12.295 Z-8.340 
N195 X-152.130 Y12.370 Z-8.237 
N196 X-152.130 Y12.444 Z-8.135 
N197 X-152.130 Y12.519 Z-8.032 
N198 X-152.130 Y12.593 Z-7.929 
N199 X-152.131 Y12.668 Z-7.827 
N200 X-152.131 Y12.742 Z-7.724 
N201 X-152.131 Y12.817 Z-7.622 
N202 X-152.131 Y12.891 Z-7.519 
N203 X-152.131 Y12.966 Z-7.416 
N204 X-152.131 Y13.040 Z-7.314 
N205 X-152.132 Y13.115 Z-7.211 
N206 X-152.132 Y13.190 Z-7.109 
N207 X-152.132 Y13.264 Z-7.006 
N208 X-152.132 Y13.339 Z-6.903 
N209 X-152.132 Y13.413 Z-6.801 
N210 X-152.133 Y13.488 Z-6.698 
N211 X-152.133 Y13.562 Z-6.596 
N212 X-152.133 Y13.637 Z-6.493 
N213 X-152.133 Y13.711 Z-6.390 
N214 X-152.133 Y13.786 Z-6.288 
N215 X-152.134 Y13.860 Z-6.185 
N216 X-152.134 Y13.935 Z-6.083 
N217 X-152.134 Y14.009 Z-5.980 
N218 X-152.134 Y14.084 Z-5.877 
N219 X-152.134 Y14.159 Z-5.775 
N220 X-152.135 Y14.233 Z-5.672 
N221 X-152.135 Y14.308 Z-5.570 
N222 X-152.135 Y14.382 Z-5.467 
N223 X-152.135 Y14.457 Z-5.365 
N224 X-152.135 Y14.531 Z-5.262 
N225 X-152.136 Y14.606 Z-5.159 
N226 X-152.136 Y14.680 Z-5.057 
N227 X-152.136 Y14.755 Z-4.954 
N228 X-152.136 Y14.829 Z-4.852 
N229 X-152.136 Y14.904 Z-4.749 
N230 X-152.137 Y14.978 Z-4.646 
N231 X-152.137 Y15.053 Z-4.544 
N232 X-152.137 Y15.128 Z-4.441 
N233 X-152.137 Y15.202 Z-4.339 
N234 X-152.137 Y15.277 Z-4.236 
N235 X-152.138 Y15.351 Z-4.133 
N236 X-152.138 Y15.426 Z-4.031 
N237 X-152.138 Y15.500 Z-3.928 
N238 X-152.138 Y15.575 Z-3.826 
N239 X-152.138 Y15.649 Z-3.723 
N240 X-152.139 Y15.724 Z-3.620 
N241 X-152.139 Y15.798 Z-3.518 
N242 X-152.140 Y15.873 Z-3.415 
N243 X-152.141 Y15.947 Z-3.313 
N244 X-152.142 Y16.022 Z-3.210 
N245 X-152.143 Y16.097 Z-3.107 
N246 X-152.144 Y16.171 Z-3.005 
N247 X-152.145 Y16.246 Z-2.902 
N248 X-152.146 Y16.320 Z-2.800 
N249 X-152.147 Y16.395 Z-2.697 
N250 X-152.148 Y16.469 Z-2.594 
N251 X-152.149 Y16.544 Z-2.492 
N252 X-152.150 Y16.618 Z-2.389 
N253 X-152.151 Y16.693 Z-2.287 
N254 X-152.153 Y16.767 Z-2.184 
N255 X-152.154 Y16.842 Z-2.082 
N256 X-152.155 Y16.916 Z-1.979 
N257 X-152.156 Y16.991 Z-1.876 
N258 X-152.157 Y17.066 Z-1.774 
N259 X-152.158 Y17.140 Z-1.671 
N260 X-152.159 Y17.215 Z-1.569 
N261 X-152.160 Y17.289 Z-1.466 
N262 X-152.161 Y17.364 Z-1.363 
N263 X-152.162 Y17.438 Z-1.261 
N264 X-152.163 Y17.513 Z-1.158 
N265 X-152.164 Y17.587 Z-1.056 
N266 X-152.165 Y17.662 Z-0.953 
N267 X-152.167 Y17.736 Z-0.850 
N268 X-152.168 Y17.811 Z-0.748 
N269 X-152.169 Y17.885 Z-0.645 
N270 X-152.170 Y17.960 Z-0.543 
N271 X-152.171 Y18.035 Z-0.440 
N272 X-152.172 Y18.109 Z-0.337 
N273 X-152.173 Y18.184 Z-0.235 
N274 X-152.174 Y18.258 Z-0.132 
N275 X-152.175 Y18.333 Z-0.030 
N276 X-152.176 Y18.407 Z0.073 
N277 X-152.177 Y18.482 Z0.175 
N278 X-152.178 Y18.556 Z0.278 
N279 X-152.179 Y18.631 Z0.381 
N280 X-152.180 Y18.705 Z0.483 
N281 X-152.182 Y18.780 Z0.586 
N282 X-152.183 Y18.854 Z0.688 
N283 X-152.184 Y18.929 Z0.791 
N284 X-152.185 Y19.004 Z0.894 
N285 X-152.186 Y19.078 Z0.996 
N286 X-152.188 Y19.153 Z1.099 
N287 X-152.190 Y19.227 Z1.201 
N288 X-152.192 Y19.302 Z1.304 
N289 X-152.194 Y19.376 Z1.407 
N290 X-152.196 Y19.451 Z1.509 
N291 X-152.198 Y19.525 Z1.612 
N292 X-152.200 Y19.600 Z1.714 
N293 X-152.202 Y19.674 Z1.817 
N294 X-152.204 Y19.749 Z1.919 
N295 X-152.206 Y19.823 Z2.022 
N296 X-152.208 Y19.898 Z2.125 
N297 X-152.210 Y19.972 Z2.227 
N298 X-152.212 Y20.047 Z2.330 
N299 X-152.214 Y20.121 Z2.432 
N300 X-152.216 Y20.196 Z2.535 
N301 X-152.218 Y20.271 Z2.638 
N302 X-152.220 Y20.345 Z2.740 
N303 X-152.222 Y20.420 Z2.843 
N304 X-152.224 Y20.494 Z2.945 
N305 X-152.226 Y20.569 Z3.048 
N306 X-152.228 Y20.643 Z3.150 
N307 X-152.230 Y20.718 Z3.253 
N308 X-152.232 Y20.792 Z3.356 
N309 X-152.234 Y20.867 Z3.458 
N310 X-152.236 Y20.941 Z3.561 
N311 X-152.238 Y21.016 Z3.663 
N312 X-152.240 Y21.090 Z3.766 
N313 X-152.242 Y21.165 Z3.868 
N314 X-152.244 Y21.239 Z3.971 
N315 X-152.246 Y21.314 Z4.074 
N316 X-152.248 Y21.388 Z4.176 
N317 X-152.251 Y21.463 Z4.279 
N318 X-152.253 Y21.538 Z4.381 
N319 X-152.255 Y21.612 Z4.484 
N320 X-152.257 Y21.687 Z4.587 
N321 X-152.259 Y21.761 Z4.689 
N322 X-152.261 Y21.836 Z4.792 
N323 X-152.263 Y21.910 Z4.894 
N324 X-152.265 Y21.985 Z4.997 
N325 X-152.267 Y22.059 Z5.099 
N326 X-152.269 Y22.134 Z5.202 
N327 X-152.271 Y22.208 Z5.305 
N328 X-152.273 Y22.283 Z5.407 
N329 X-152.275 Y22.357 Z5.510 
N330 X-152.277 Y22.432 Z5.612 
N331 X-152.279 Y22.506 Z5.715 
N332 X-152.281 Y22.581 Z5.818 
N333 X-152.283 Y22.655 Z5.920 
N334 X-152.285 Y22.730 Z6.023 
N335 X-152.287 Y22.805 Z6.125 
N336 X-152.289 Y22.879 Z6.228 
N337 X-152.291 Y22.954 Z6.330 
N338 X-152.293 Y23.028 Z6.433 
N339 X-152.295 Y23.103 Z6.536 
N340 X-152.297 Y23.177 Z6.638 
N341 X-152.299 Y23.252 Z6.741 
N342 X-152.301 Y23.326 Z6.843 
N343 X-152.303 Y23.401 Z6.946 
N344 X-152.305 Y23.475 Z7.049 
N345 X-152.307 Y23.550 Z7.151 
N346 X-152.309 Y23.624 Z7.254 
N347 X-152.311 Y23.699 Z7.356 
N348 X-152.314 Y23.773 Z7.459 
N349 X-152.317 Y23.848 Z7.561 
N350 X-152.320 Y23.922 Z7.664 
N351 X-152.323 Y23.997 Z7.767 
N352 X-152.326 Y24.071 Z7.869 
N353 X-152.329 Y24.146 Z7.972 
N354 X-152.332 Y24.221 Z8.074 
N355 X-152.335 Y24.295 Z8.177 
N356 X-152.338 Y24.370 Z8.279 
N357 X-152.341 Y24.444 Z8.382 
N358 X-152.344 Y24.519 Z8.484 
N359 X-152.347 Y24.593 Z8.587 
N360 X-152.350 Y24.668 Z8.690 
N361 X-152.353 Y24.742 Z8.792 
N362 X-152.356 Y24.817 Z8.895 
N363 X-152.359 Y24.891 Z8.997 
N364 X-152.362 Y24.966 Z9.100 
N365 X-152.365 Y25.040 Z9.202 
N366 X-152.368 Y25.115 Z9.305 
N367 X-152.370 Y25.189 Z9.408 
N368 X-152.373 Y25.264 Z9.510 
N369 X-152.376 Y25.338 Z9.613 
N370 X-152.379 Y25.413 Z9.715 
N371 X-152.382 Y25.487 Z9.818 
N372 X-152.385 Y25.562 Z9.920 
N373 X-152.388 Y25.636 Z10.023 
N374 X-152.391 Y25.711 Z10.126 
N375 X-152.394 Y25.785 Z10.228 
N376 X-152.397 Y25.860 Z10.331 
N377 X-152.400 Y25.934 Z10.433 
N378 X-152.403 Y26.009 Z10.536 
N379 X-152.406 Y26.083 Z10.638 
N380 X-152.409 Y26.158 Z10.741 
N381 X-152.412 Y26.233 Z10.844 
N382 X-152.415 Y26.307 Z10.946 
N383 X-152.418 Y26.382 Z11.049 
N384 X-152.421 Y26.456 Z11.151 
N385 X-152.424 Y26.531 Z11.254 
N386 X-152.427 Y26.605 Z11.356 
N387 X-152.430 Y26.680 Z11.459 
N388 X-152.433 Y26.754 Z11.561 
N389 X-152.436 Y26.829 Z11.664 
N390 X-152.439 Y26.903 Z11.767 
N391 X-152.442 Y26.978 Z11.869 
N392 X-152.445 Y27.052 Z11.972 
N393 X-152.448 Y27.127 Z12.074 
N394 X-152.451 Y27.201 Z12.177 
N395 X-152.454 Y27.277 Z12.281 
N396 X-152.457 Y27.353 Z12.386 
N397 X-152.460 Y27.429 Z12.490 
N398 X-152.463 Y27.505 Z12.594 
N399 X-152.466 Y27.580 Z12.699 
N400 X-152.469 Y27.656 Z12.803 
N401 X-152.473 Y27.732 Z12.907 
N402 X-152.476 Y27.808 Z13.012 
N403 X-152.479 Y27.884 Z13.116 
N404 X-152.482 Y27.959 Z13.220 
N405 X-152.485 Y28.035 Z13.325 
N406 X-152.488 Y28.111 Z13.429 
N407 X-152.491 Y28.187 Z13.534 
N408 X-152.494 Y28.263 Z13.638 
N409 X-152.497 Y28.339 Z13.742 
N410 X-152.500 Y28.414 Z13.847 
N411 X-152.503 Y28.490 Z13.951 
N412 X-152.506 Y28.566 Z14.055 
N413 X-152.509 Y28.642 Z14.160 
N414 X-152.512 Y28.718 Z14.264 
N415 X-152.515 Y28.794 Z14.368 
N416 X-152.518 Y28.869 Z14.473 
N417 X-152.521 Y28.945 Z14.577 
N418 X-152.524 Y29.021 Z14.682 
N419 X-152.527 Y29.097 Z14.786 
N420 X-152.530 Y29.173 Z14.890 
N421 X-152.533 Y29.248 Z14.995 
N422 X-152.536 Y29.324 Z15.099 
N423 X-152.539 Y29.400 Z15.203 
N424 X-152.543 Y29.476 Z15.308 
N425 X-152.546 Y29.552 Z15.412 
N426 G40 X-152.781 Y35.428 Z23.500 F381
N427 X-152.781 Y35.428 Z23.500 
N428 G00 X-152.781 Y55.653 Z8.805 
N429 X-152.362 Y13.378 Z-44.873 
N430 X-152.362 Y-6.847 Z-30.179 
N431 ;on NNTE
N432 D1 
N433 G01 G41 X-152.278 Y-0.970 Z-22.089 F381
N434 G01 X-152.278 Y-0.970 Z-22.089 F381 
N435 X-152.277 Y-0.896 Z-21.988 
N436 X-152.276 Y-0.823 Z-21.886 
N437 X-152.275 Y-0.749 Z-21.785 
N438 X-152.274 Y-0.676 Z-21.684 
N439 X-152.273 Y-0.602 Z-21.583 
N440 X-152.272 Y-0.529 Z-21.482 
N441 X-152.271 Y-0.455 Z-21.381 
N442 X-152.270 Y-0.382 Z-21.280 
N443 X-152.269 Y-0.308 Z-21.179 
N444 X-152.268 Y-0.235 Z-21.077 
N445 X-152.267 Y-0.161 Z-20.976 
N446 X-152.266 Y-0.088 Z-20.875 
N447 X-152.265 Y-0.015 Z-20.774 
N448 X-152.264 Y0.059 Z-20.673 
N449 X-152.263 Y0.132 Z-20.572 
N450 X-152.262 Y0.206 Z-20.471 
N451 X-152.261 Y0.279 Z-20.370 
N452 X-152.260 Y0.353 Z-20.268 
N453 X-152.259 Y0.426 Z-20.167 
N454 X-152.258 Y0.500 Z-20.066 
N455 X-152.257 Y0.573 Z-19.965 
N456 X-152.255 Y0.647 Z-19.864 
N457 X-152.254 Y0.720 Z-19.763 
N458 X-152.253 Y0.794 Z-19.662 
N459 X-152.252 Y0.869 Z-19.557 
N460 X-152.251 Y0.945 Z-19.453 
N461 X-152.250 Y1.021 Z-19.349 
N462 X-152.249 Y1.097 Z-19.244 
N463 X-152.248 Y1.173 Z-19.140 
N464 X-152.247 Y1.249 Z-19.035 
N465 X-152.246 Y1.325 Z-18.931 
N466 X-152.245 Y1.400 Z-18.827 
N467 X-152.244 Y1.476 Z-18.722 
N468 X-152.243 Y1.552 Z-18.618 
N469 X-152.241 Y1.628 Z-18.513 
N470 X-152.240 Y1.704 Z-18.409 
N471 X-152.239 Y1.780 Z-18.305 
N472 X-152.238 Y1.855 Z-18.200 
N473 X-152.237 Y1.931 Z-18.096 
N474 X-152.236 Y2.007 Z-17.991 
N475 X-152.235 Y2.083 Z-17.887 
N476 X-152.234 Y2.159 Z-17.783 
N477 X-152.233 Y2.235 Z-17.678 
N478 X-152.232 Y2.310 Z-17.574 
N479 X-152.231 Y2.386 Z-17.470 
N480 X-152.230 Y2.462 Z-17.365 
N481 X-152.229 Y2.538 Z-17.261 
N482 X-152.227 Y2.614 Z-17.156 
N483 X-152.226 Y2.690 Z-17.052 
N484 X-152.225 Y2.766 Z-16.948 
N485 X-152.224 Y2.841 Z-16.843 
N486 X-152.223 Y2.917 Z-16.739 
N487 X-152.222 Y2.993 Z-16.634 
N488 X-152.221 Y3.069 Z-16.530 
N489 X-152.220 Y3.145 Z-16.426 
N490 X-152.219 Y3.219 Z-16.323 
N491 X-152.218 Y3.294 Z-16.221 
N492 X-152.217 Y3.368 Z-16.118 
N493 X-152.216 Y3.443 Z-16.015 
N494 X-152.215 Y3.517 Z-15.913 
N495 X-152.214 Y3.592 Z-15.810 
N496 X-152.212 Y3.666 Z-15.708 
N497 X-152.211 Y3.741 Z-15.605 
N498 X-152.210 Y3.816 Z-15.502 
N499 X-152.209 Y3.890 Z-15.400 
N500 X-152.208 Y3.965 Z-15.297 
N501 X-152.207 Y4.039 Z-15.195 
N502 X-152.206 Y4.114 Z-15.092 
N503 X-152.205 Y4.188 Z-14.989 
N504 X-152.204 Y4.263 Z-14.887 
N505 X-152.203 Y4.337 Z-14.784 
N506 X-152.202 Y4.412 Z-14.682 
N507 X-152.201 Y4.486 Z-14.579 
N508 X-152.200 Y4.561 Z-14.476 
N509 X-152.199 Y4.635 Z-14.374 
N510 X-152.198 Y4.710 Z-14.271 
N511 X-152.197 Y4.785 Z-14.169 
N512 X-152.195 Y4.859 Z-14.066 
N513 X-152.194 Y4.934 Z-13.964 
N514 X-152.193 Y5.008 Z-13.861 
N515 X-152.192 Y5.083 Z-13.758 
N516 X-152.191 Y5.157 Z-13.656 
N517 X-152.190 Y5.232 Z-13.553 
N518 X-152.189 Y5.306 Z-13.451 
N519 X-152.188 Y5.381 Z-13.348 
N520 X-152.187 Y5.455 Z-13.245 
N521 X-152.186 Y5.530 Z-13.143 
N522 X-152.185 Y5.604 Z-13.040 
N523 X-152.184 Y5.679 Z-12.938 
N524 X-152.183 Y5.753 Z-12.835 
N525 X-152.182 Y5.828 Z-12.732 
N526 X-152.181 Y5.903 Z-12.630 
N527 X-152.180 Y5.977 Z-12.527 
N528 X-152.179 Y6.052 Z-12.425 
N529 X-152.177 Y6.126 Z-12.322 
N530 X-152.176 Y6.201 Z-12.219 
N531 X-152.175 Y6.275 Z-12.117 
N532 X-152.174 Y6.350 Z-12.014 
N533 X-152.173 Y6.424 Z-11.912 
N534 X-152.172 Y6.499 Z-11.809 
N535 X-152.171 Y6.573 Z-11.707 
N536 X-152.170 Y6.648 Z-11.604 
N537 X-152.169 Y6.722 Z-11.501 
N538 X-152.168 Y6.797 Z-11.399 
N539 X-152.167 Y6.872 Z-11.296 
N540 X-152.166 Y6.946 Z-11.194 
N541 X-152.165 Y7.021 Z-11.091 
N542 X-152.164 Y7.095 Z-10.988 
N543 X-152.163 Y7.170 Z-10.886 
N544 X-152.162 Y7.244 Z-10.783 
N545 X-152.160 Y7.319 Z-10.681 
N546 X-152.159 Y7.393 Z-10.578 
N547 X-152.158 Y7.468 Z-10.475 
N548 X-152.157 Y7.542 Z-10.373 
N549 X-152.156 Y7.617 Z-10.270 
N550 X-152.155 Y7.691 Z-10.168 
N551 X-152.154 Y7.766 Z-10.065 
N552 X-152.153 Y7.841 Z-9.962 
N553 X-152.152 Y7.915 Z-9.860 
N554 X-152.151 Y7.990 Z-9.757 
N555 X-152.150 Y8.064 Z-9.655 
N556 X-152.149 Y8.139 Z-9.552 
N557 X-152.148 Y8.213 Z-9.450 
N558 X-152.147 Y8.288 Z-9.347 
N559 X-152.146 Y8.362 Z-9.244 
N560 X-152.145 Y8.437 Z-9.142 
N561 X-152.144 Y8.511 Z-9.039 
N562 X-152.142 Y8.586 Z-8.937 
N563 X-152.141 Y8.660 Z-8.834 
N564 X-152.140 Y8.735 Z-8.731 
N565 X-152.139 Y8.810 Z-8.629 
N566 X-152.138 Y8.884 Z-8.526 
N567 X-152.137 Y8.959 Z-8.424 
N568 X-152.136 Y9.033 Z-8.321 
N569 X-152.135 Y9.108 Z-8.218 
N570 X-152.134 Y9.182 Z-8.116 
N571 X-152.133 Y9.257 Z-8.013 
N572 X-152.132 Y9.331 Z-7.911 
N573 X-152.131 Y9.406 Z-7.808 
N574 X-152.130 Y9.480 Z-7.705 
N575 X-152.129 Y9.555 Z-7.603 
N576 X-152.128 Y9.629 Z-7.500 
N577 X-152.128 Y9.704 Z-7.398 
N578 X-152.129 Y9.778 Z-7.295 
N579 X-152.129 Y9.853 Z-7.192 
N580 X-152.129 Y9.928 Z-7.090 
N581 X-152.129 Y10.002 Z-6.987 
N582 X-152.129 Y10.077 Z-6.885 
N583 X-152.130 Y10.151 Z-6.782 
N584 X-152.130 Y10.226 Z-6.680 
N585 X-152.130 Y10.300 Z-6.577 
N586 X-152.130 Y10.375 Z-6.474 
N587 X-152.130 Y10.449 Z-6.372 
N588 X-152.131 Y10.524 Z-6.269 
N589 X-152.131 Y10.598 Z-6.167 
N590 X-152.131 Y10.673 Z-6.064 
N591 X-152.131 Y10.747 Z-5.961 
N592 X-152.131 Y10.822 Z-5.859 
N593 X-152.131 Y10.897 Z-5.756 
N594 X-152.132 Y10.971 Z-5.654 
N595 X-152.132 Y11.046 Z-5.551 
N596 X-152.132 Y11.120 Z-5.448 
N597 X-152.132 Y11.195 Z-5.346 
N598 X-152.132 Y11.269 Z-5.243 
N599 X-152.133 Y11.344 Z-5.141 
N600 X-152.133 Y11.418 Z-5.038 
N601 X-152.133 Y11.493 Z-4.935 
N602 X-152.133 Y11.567 Z-4.833 
N603 X-152.133 Y11.642 Z-4.730 
N604 X-152.134 Y11.717 Z-4.628 
N605 X-152.134 Y11.791 Z-4.525 
N606 X-152.134 Y11.866 Z-4.422 
N607 X-152.134 Y11.940 Z-4.320 
N608 X-152.134 Y12.015 Z-4.217 
N609 X-152.135 Y12.089 Z-4.115 
N610 X-152.135 Y12.164 Z-4.012 
N611 X-152.135 Y12.238 Z-3.909 
N612 X-152.135 Y12.313 Z-3.807 
N613 X-152.135 Y12.387 Z-3.704 
N614 X-152.136 Y12.462 Z-3.602 
N615 X-152.136 Y12.536 Z-3.499 
N616 X-152.136 Y12.611 Z-3.396 
N617 X-152.136 Y12.686 Z-3.294 
N618 X-152.136 Y12.760 Z-3.191 
N619 X-152.137 Y12.835 Z-3.089 
N620 X-152.137 Y12.909 Z-2.986 
N621 X-152.137 Y12.984 Z-2.884 
N622 X-152.137 Y13.058 Z-2.781 
N623 X-152.137 Y13.133 Z-2.678 
N624 X-152.138 Y13.207 Z-2.576 
N625 X-152.138 Y13.282 Z-2.473 
N626 X-152.138 Y13.356 Z-2.371 
N627 X-152.138 Y13.431 Z-2.268 
N628 X-152.138 Y13.505 Z-2.165 
N629 X-152.139 Y13.580 Z-2.063 
N630 X-152.139 Y13.655 Z-1.960 
N631 X-152.140 Y13.729 Z-1.858 
N632 X-152.141 Y13.804 Z-1.755 
N633 X-152.142 Y13.878 Z-1.652 
N634 X-152.143 Y13.953 Z-1.550 
N635 X-152.144 Y14.027 Z-1.447 
N636 X-152.145 Y14.102 Z-1.345 
N637 X-152.146 Y14.176 Z-1.242 
N638 X-152.147 Y14.251 Z-1.139 
N639 X-152.148 Y14.325 Z-1.037 
N640 X-152.149 Y14.400 Z-0.934 
N641 X-152.150 Y14.474 Z-0.832 
N642 X-152.151 Y14.549 Z-0.729 
N643 X-152.153 Y14.624 Z-0.626 
N644 X-152.154 Y14.698 Z-0.524 
N645 X-152.155 Y14.773 Z-0.421 
N646 X-152.156 Y14.847 Z-0.319 
N647 X-152.157 Y14.922 Z-0.216 
N648 X-152.158 Y14.996 Z-0.114 
N649 X-152.159 Y15.071 Z-0.011 
N650 X-152.160 Y15.145 Z0.092 
N651 X-152.161 Y15.220 Z0.194 
N652 X-152.162 Y15.294 Z0.297 
N653 X-152.163 Y15.369 Z0.399 
N654 X-152.164 Y15.443 Z0.502 
N655 X-152.165 Y15.518 Z0.605 
N656 X-152.167 Y15.592 Z0.707 
N657 X-152.168 Y15.667 Z0.810 
N658 X-152.169 Y15.742 Z0.912 
N659 X-152.170 Y15.816 Z1.015 
N660 X-152.171 Y15.891 Z1.118 
N661 X-152.172 Y15.965 Z1.220 
N662 X-152.173 Y16.040 Z1.323 
N663 X-152.174 Y16.114 Z1.425 
N664 X-152.175 Y16.189 Z1.528 
N665 X-152.176 Y16.263 Z1.631 
N666 X-152.177 Y16.338 Z1.733 
N667 X-152.178 Y16.412 Z1.836 
N668 X-152.179 Y16.487 Z1.938 
N669 X-152.180 Y16.561 Z2.041 
N670 X-152.182 Y16.636 Z2.143 
N671 X-152.183 Y16.711 Z2.246 
N672 X-152.184 Y16.785 Z2.349 
N673 X-152.185 Y16.860 Z2.451 
N674 X-152.186 Y16.934 Z2.554 
N675 X-152.188 Y17.009 Z2.656 
N676 X-152.190 Y17.083 Z2.759 
N677 X-152.192 Y17.158 Z2.862 
N678 X-152.194 Y17.232 Z2.964 
N679 X-152.196 Y17.307 Z3.067 
N680 X-152.198 Y17.381 Z3.169 
N681 X-152.200 Y17.456 Z3.272 
N682 X-152.202 Y17.530 Z3.374 
N683 X-152.204 Y17.605 Z3.477 
N684 X-152.206 Y17.679 Z3.580 
N685 X-152.208 Y17.754 Z3.682 
N686 X-152.210 Y17.829 Z3.785 
N687 X-152.212 Y17.903 Z3.887 
N688 X-152.214 Y17.978 Z3.990 
N689 X-152.216 Y18.052 Z4.093 
N690 X-152.218 Y18.127 Z4.195 
N691 X-152.220 Y18.201 Z4.298 
N692 X-152.222 Y18.276 Z4.400 
N693 X-152.224 Y18.350 Z4.503 
N694 X-152.226 Y18.425 Z4.605 
N695 X-152.228 Y18.499 Z4.708 
N696 X-152.230 Y18.574 Z4.811 
N697 X-152.232 Y18.648 Z4.913 
N698 X-152.234 Y18.723 Z5.016 
N699 X-152.236 Y18.797 Z5.118 
N700 X-152.238 Y18.872 Z5.221 
N701 X-152.240 Y18.946 Z5.324 
N702 X-152.242 Y19.021 Z5.426 
N703 X-152.244 Y19.096 Z5.529 
N704 X-152.246 Y19.170 Z5.631 
N705 X-152.248 Y19.245 Z5.734 
N706 X-152.251 Y19.319 Z5.836 
N707 X-152.253 Y19.394 Z5.939 
N708 X-152.255 Y19.468 Z6.042 
N709 X-152.257 Y19.543 Z6.144 
N710 X-152.259 Y19.617 Z6.247 
N711 X-152.261 Y19.692 Z6.349 
N712 X-152.263 Y19.766 Z6.452 
N713 X-152.265 Y19.841 Z6.555 
N714 X-152.267 Y19.915 Z6.657 
N715 X-152.269 Y19.990 Z6.760 
N716 X-152.271 Y20.064 Z6.862 
N717 X-152.273 Y20.139 Z6.965 
N718 X-152.275 Y20.213 Z7.067 
N719 X-152.277 Y20.288 Z7.170 
N720 X-152.279 Y20.363 Z7.273 
N721 X-152.281 Y20.437 Z7.375 
N722 X-152.283 Y20.512 Z7.478 
N723 X-152.285 Y20.586 Z7.580 
N724 X-152.287 Y20.661 Z7.683 
N725 X-152.289 Y20.735 Z7.785 
N726 X-152.291 Y20.810 Z7.888 
N727 X-152.293 Y20.884 Z7.991 
N728 X-152.295 Y20.959 Z8.093 
N729 X-152.297 Y21.033 Z8.196 
N730 X-152.299 Y21.108 Z8.298 
N731 X-152.301 Y21.182 Z8.401 
N732 X-152.303 Y21.257 Z8.504 
N733 X-152.305 Y21.331 Z8.606 
N734 X-152.307 Y21.406 Z8.709 
N735 X-152.309 Y21.480 Z8.811 
N736 X-152.311 Y21.555 Z8.914 
N737 X-152.314 Y21.630 Z9.016 
N738 X-152.317 Y21.704 Z9.119 
N739 X-152.320 Y21.779 Z9.222 
N740 X-152.323 Y21.853 Z9.324 
N741 X-152.326 Y21.928 Z9.427 
N742 X-152.329 Y22.002 Z9.529 
N743 X-152.332 Y22.077 Z9.632 
N744 X-152.335 Y22.151 Z9.734 
N745 X-152.338 Y22.226 Z9.837 
N746 X-152.341 Y22.300 Z9.940 
N747 X-152.344 Y22.375 Z10.042 
N748 X-152.347 Y22.449 Z10.145 
N749 X-152.350 Y22.524 Z10.247 
N750 X-152.353 Y22.598 Z10.350 
N751 X-152.356 Y22.673 Z10.452 
N752 X-152.359 Y22.747 Z10.555 
N753 X-152.362 Y22.822 Z10.658 
N754 X-152.365 Y22.896 Z10.760 
N755 X-152.368 Y22.971 Z10.863 
N756 X-152.370 Y23.045 Z10.965 
N757 X-152.373 Y23.120 Z11.068 
N758 X-152.376 Y23.194 Z11.170 
N759 X-152.379 Y23.269 Z11.273 
N760 X-152.382 Y23.343 Z11.375 
N761 X-152.385 Y23.418 Z11.478 
N762 X-152.388 Y23.492 Z11.581 
N763 X-152.391 Y23.567 Z11.683 
N764 X-152.394 Y23.642 Z11.786 
N765 X-152.397 Y23.716 Z11.888 
N766 X-152.400 Y23.791 Z11.991 
N767 X-152.403 Y23.865 Z12.093 
N768 X-152.406 Y23.940 Z12.196 
N769 X-152.409 Y24.014 Z12.299 
N770 X-152.412 Y24.089 Z12.401 
N771 X-152.415 Y24.163 Z12.504 
N772 X-152.418 Y24.238 Z12.606 
N773 X-152.421 Y24.312 Z12.709 
N774 X-152.424 Y24.387 Z12.811 
N775 X-152.427 Y24.461 Z12.914 
N776 X-152.430 Y24.536 Z13.017 
N777 X-152.433 Y24.610 Z13.119 
N778 X-152.436 Y24.685 Z13.222 
N779 X-152.439 Y24.759 Z13.324 
N780 X-152.442 Y24.834 Z13.427 
N781 X-152.445 Y24.908 Z13.529 
N782 X-152.448 Y24.983 Z13.632 
N783 X-152.451 Y25.057 Z13.735 
N784 X-152.454 Y25.133 Z13.839 
N785 X-152.457 Y25.209 Z13.943 
N786 X-152.460 Y25.285 Z14.048 
N787 X-152.463 Y25.361 Z14.152 
N788 X-152.466 Y25.436 Z14.256 
N789 X-152.469 Y25.512 Z14.361 
N790 X-152.473 Y25.588 Z14.465 
N791 X-152.476 Y25.664 Z14.569 
N792 X-152.479 Y25.740 Z14.674 
N793 X-152.482 Y25.816 Z14.778 
N794 X-152.485 Y25.891 Z14.882 
N795 X-152.488 Y25.967 Z14.987 
N796 X-152.491 Y26.043 Z15.091 
N797 X-152.494 Y26.119 Z15.196 
N798 X-152.497 Y26.195 Z15.300 
N799 X-152.500 Y26.271 Z15.404 
N800 X-152.503 Y26.346 Z15.509 
N801 X-152.506 Y26.422 Z15.613 
N802 X-152.509 Y26.498 Z15.717 
N803 X-152.512 Y26.574 Z15.822 
N804 X-152.515 Y26.650 Z15.926 
N805 X-152.518 Y26.725 Z16.030 
N806 X-152.521 Y26.801 Z16.135 
N807 X-152.524 Y26.877 Z16.239 
N808 X-152.527 Y26.953 Z16.344 
N809 X-152.530 Y27.029 Z16.448 
N810 X-152.533 Y27.105 Z16.552 
N811 X-152.536 Y27.180 Z16.657 
N812 X-152.539 Y27.256 Z16.761 
N813 X-152.543 Y27.332 Z16.865 
N814 X-152.546 Y27.408 Z16.970 
N815 G40 X-152.781 Y33.284 Z25.058 F381
N816 X-152.781 Y33.284 Z25.058 
N817 G00 X-152.781 Y73.735 Z-4.332 
;RAPORT("TC999999","Side Milling:131 End")
;trailer : concat=None
; points cnt = 764
N819 MSG (" --- GROUPED OF SUBPROGRAM --- ")
N820 FGROUP()
N821 TRAFOOF
; PROGRAM NAME: C99999936
; ORDER       : C999999
; OPER. NAME  : Side Milling:132
; OPER. DESCR.: rough slot NGA
; OPER. TYPE  : sideMill
; GEO. OPTION : 1
; MACHINE     : HSTM_500M_SIM840D_Py
;             : HSTM500 Morelia- HAMUEL: 5-axis milling machine-SIM840D Traori PP_Script
; CONTROL     : SINUMERIK 840D
; created:   2022-11-16 12:01:19.041624
;----------------------------------------
;-------DODATKOWE DANE-------------------
; PROGRAMISTA : Mariusz Malec
; PARTID      : 301T002159P1002_-
;  ap         : 3.0
;  ae         : 5.0
;  lean_angle : 0.0
;  fin_offset : 0.3
;----------------------------------------
;RAPORT("TC999999","Side Milling:132")
N10 TRAFOOF
N11 D0
N12 G90 G94
N13 G0 G53 D0 Z550
N14 STOPRE
M9 ; chlodziwo wyl
; --- Side Milling:132 - rough slot NGA ---
N16 ;ToolChange : concat=None ,current_tdmid=None, PP.tdmId=940706
N17 TRAFOOF
N18 G0 G53 D0 Z550 B0
N19 STOPRE
N20 MSG(" TLID=940706 D=8.0 R=1.6 Ang=0.0 Len=111.0 ")
N21 S4774 M03
N22 STOPRE
N23 TOL(0.1,1,1)
N24 G0 G53 A54.0000 B-0.0000
N25 TRAORI
N26 G54 D1
;tol5=0.15
STOPRE
E_ZDARZ=500002
;ACS_ROUGH_SLOT=7740706
STOPRE
;UWAGA : ZMIENIONA TOLERANCJA OSI A i B, ruchy osi A i B beda usuniete : TOL5=0.15
N27 ; DELTA A > 40.1
N28 TRAFOOF
N29 D1
N30 STOPRE
N31 G00 G54 Z275.000
N32 G01 A54.0000 F10000
N33 TRAORI
N34 G54 D1
N35 STOPRE
N36 TRANS 
N37 G00 X-152.332 Y-35.330 Z61.704 A54.0000 
N38 M342 ; chlodziwo woda
N39 X-152.332 Y5.121 Z32.315 
N40 ;on NNTA
N41 D3 
N42 G01 G41 X-152.247 Y-0.757 Z24.225 F381
N43 G01 X-152.247 Y-0.757 Z24.225 F381 
N44 X-152.246 Y-0.830 Z24.124 
N45 X-152.245 Y-0.903 Z24.023 
N46 X-152.244 Y-0.977 Z23.922 
N47 X-152.243 Y-1.050 Z23.820 
N48 X-152.242 Y-1.124 Z23.719 
N49 X-152.241 Y-1.197 Z23.618 
N50 X-152.239 Y-1.271 Z23.517 
N51 X-152.238 Y-1.344 Z23.416 
N52 X-152.237 Y-1.418 Z23.315 
N53 X-152.236 Y-1.491 Z23.214 
N54 X-152.235 Y-1.565 Z23.113 
N55 X-152.234 Y-1.638 Z23.011 
N56 X-152.233 Y-1.712 Z22.910 
N57 X-152.232 Y-1.785 Z22.809 
N58 X-152.231 Y-1.859 Z22.708 
N59 X-152.230 Y-1.932 Z22.607 
N60 X-152.229 Y-2.006 Z22.506 
N61 X-152.228 Y-2.079 Z22.405 
N62 X-152.227 Y-2.152 Z22.304 
N63 X-152.226 Y-2.226 Z22.202 
N64 X-152.225 Y-2.299 Z22.101 
N65 X-152.224 Y-2.373 Z22.000 
N66 X-152.222 Y-2.446 Z21.899 
N67 X-152.221 Y-2.520 Z21.798 
N68 X-152.220 Y-2.596 Z21.694 
N69 X-152.219 Y-2.672 Z21.589 
N70 X-152.218 Y-2.747 Z21.485 
N71 X-152.217 Y-2.823 Z21.380 
N72 X-152.216 Y-2.899 Z21.276 
N73 X-152.215 Y-2.975 Z21.172 
N74 X-152.214 Y-3.051 Z21.067 
N75 X-152.213 Y-3.127 Z20.963 
N76 X-152.212 Y-3.202 Z20.858 
N77 X-152.210 Y-3.278 Z20.754 
N78 X-152.209 Y-3.354 Z20.650 
N79 X-152.208 Y-3.430 Z20.545 
N80 X-152.207 Y-3.506 Z20.441 
N81 X-152.206 Y-3.582 Z20.337 
N82 X-152.205 Y-3.657 Z20.232 
N83 X-152.204 Y-3.733 Z20.128 
N84 X-152.203 Y-3.809 Z20.023 
N85 X-152.202 Y-3.885 Z19.919 
N86 X-152.201 Y-3.961 Z19.815 
N87 X-152.199 Y-4.037 Z19.710 
N88 X-152.198 Y-4.112 Z19.606 
N89 X-152.197 Y-4.188 Z19.501 
N90 X-152.196 Y-4.264 Z19.397 
N91 X-152.195 Y-4.340 Z19.293 
N92 X-152.194 Y-4.416 Z19.188 
N93 X-152.193 Y-4.492 Z19.084 
N94 X-152.192 Y-4.568 Z18.980 
N95 X-152.191 Y-4.643 Z18.875 
N96 X-152.190 Y-4.719 Z18.771 
N97 X-152.189 Y-4.795 Z18.666 
N98 X-152.187 Y-4.871 Z18.562 
N99 X-152.186 Y-4.945 Z18.459 
N100 X-152.185 Y-5.020 Z18.357 
N101 X-152.184 Y-5.094 Z18.254 
N102 X-152.183 Y-5.169 Z18.152 
N103 X-152.182 Y-5.244 Z18.049 
N104 X-152.181 Y-5.318 Z17.946 
N105 X-152.180 Y-5.393 Z17.844 
N106 X-152.179 Y-5.467 Z17.741 
N107 X-152.178 Y-5.542 Z17.639 
N108 X-152.177 Y-5.616 Z17.536 
N109 X-152.176 Y-5.691 Z17.434 
N110 X-152.174 Y-5.765 Z17.331 
N111 X-152.173 Y-5.840 Z17.228 
N112 X-152.172 Y-5.914 Z17.126 
N113 X-152.171 Y-5.989 Z17.023 
N114 X-152.170 Y-6.063 Z16.921 
N115 X-152.169 Y-6.138 Z16.818 
N116 X-152.168 Y-6.213 Z16.715 
N117 X-152.167 Y-6.287 Z16.613 
N118 X-152.166 Y-6.362 Z16.510 
N119 X-152.165 Y-6.436 Z16.408 
N120 X-152.164 Y-6.511 Z16.305 
N121 X-152.163 Y-6.585 Z16.202 
N122 X-152.162 Y-6.660 Z16.100 
N123 X-152.160 Y-6.734 Z15.997 
N124 X-152.159 Y-6.809 Z15.895 
N125 X-152.158 Y-6.883 Z15.792 
N126 X-152.157 Y-6.958 Z15.689 
N127 X-152.156 Y-7.032 Z15.587 
N128 X-152.155 Y-7.107 Z15.484 
N129 X-152.154 Y-7.182 Z15.382 
N130 X-152.153 Y-7.256 Z15.279 
N131 X-152.152 Y-7.331 Z15.177 
N132 X-152.151 Y-7.405 Z15.074 
N133 X-152.150 Y-7.480 Z14.971 
N134 X-152.149 Y-7.554 Z14.869 
N135 X-152.148 Y-7.629 Z14.766 
N136 X-152.146 Y-7.703 Z14.664 
N137 X-152.145 Y-7.778 Z14.561 
N138 X-152.144 Y-7.852 Z14.458 
N139 X-152.143 Y-7.927 Z14.356 
N140 X-152.142 Y-8.001 Z14.253 
N141 X-152.141 Y-8.076 Z14.151 
N142 X-152.140 Y-8.150 Z14.048 
N143 X-152.139 Y-8.225 Z13.945 
N144 X-152.138 Y-8.300 Z13.843 
N145 X-152.138 Y-8.374 Z13.740 
N146 X-152.138 Y-8.449 Z13.638 
N147 X-152.138 Y-8.523 Z13.535 
N148 X-152.138 Y-8.598 Z13.432 
N149 X-152.137 Y-8.672 Z13.330 
N150 X-152.137 Y-8.747 Z13.227 
N151 X-152.137 Y-8.821 Z13.125 
N152 X-152.137 Y-8.896 Z13.022 
N153 X-152.137 Y-8.970 Z12.919 
N154 X-152.137 Y-9.045 Z12.817 
N155 X-152.136 Y-9.119 Z12.714 
N156 X-152.136 Y-9.194 Z12.612 
N157 X-152.136 Y-9.269 Z12.509 
N158 X-152.136 Y-9.343 Z12.407 
N159 X-152.136 Y-9.418 Z12.304 
N160 X-152.136 Y-9.492 Z12.201 
N161 X-152.135 Y-9.567 Z12.099 
N162 X-152.135 Y-9.641 Z11.996 
N163 X-152.135 Y-9.716 Z11.894 
N164 X-152.135 Y-9.790 Z11.791 
N165 X-152.135 Y-9.865 Z11.688 
N166 X-152.134 Y-9.939 Z11.586 
N167 X-152.134 Y-10.014 Z11.483 
N168 X-152.134 Y-10.088 Z11.381 
N169 X-152.134 Y-10.163 Z11.278 
N170 X-152.134 Y-10.238 Z11.175 
N171 X-152.134 Y-10.312 Z11.073 
N172 X-152.133 Y-10.387 Z10.970 
N173 X-152.133 Y-10.461 Z10.868 
N174 X-152.133 Y-10.536 Z10.765 
N175 X-152.133 Y-10.610 Z10.662 
N176 X-152.133 Y-10.685 Z10.560 
N177 X-152.133 Y-10.759 Z10.457 
N178 X-152.132 Y-10.834 Z10.355 
N179 X-152.132 Y-10.908 Z10.252 
N180 X-152.132 Y-10.983 Z10.149 
N181 X-152.132 Y-11.057 Z10.047 
N182 X-152.132 Y-11.132 Z9.944 
N183 X-152.132 Y-11.207 Z9.842 
N184 X-152.131 Y-11.281 Z9.739 
N185 X-152.131 Y-11.356 Z9.636 
N186 X-152.131 Y-11.430 Z9.534 
N187 X-152.131 Y-11.505 Z9.431 
N188 X-152.131 Y-11.579 Z9.329 
N189 X-152.130 Y-11.654 Z9.226 
N190 X-152.130 Y-11.728 Z9.124 
N191 X-152.130 Y-11.803 Z9.021 
N192 X-152.130 Y-11.877 Z8.918 
N193 X-152.130 Y-11.952 Z8.816 
N194 X-152.130 Y-12.027 Z8.713 
N195 X-152.129 Y-12.101 Z8.611 
N196 X-152.129 Y-12.176 Z8.508 
N197 X-152.129 Y-12.250 Z8.405 
N198 X-152.129 Y-12.325 Z8.303 
N199 X-152.129 Y-12.399 Z8.200 
N200 X-152.129 Y-12.474 Z8.098 
N201 X-152.130 Y-12.548 Z7.995 
N202 X-152.132 Y-12.623 Z7.892 
N203 X-152.133 Y-12.697 Z7.790 
N204 X-152.134 Y-12.772 Z7.687 
N205 X-152.135 Y-12.846 Z7.585 
N206 X-152.136 Y-12.921 Z7.482 
N207 X-152.137 Y-12.995 Z7.379 
N208 X-152.138 Y-13.070 Z7.277 
N209 X-152.139 Y-13.145 Z7.174 
N210 X-152.140 Y-13.219 Z7.072 
N211 X-152.142 Y-13.294 Z6.969 
N212 X-152.143 Y-13.368 Z6.866 
N213 X-152.144 Y-13.443 Z6.764 
N214 X-152.145 Y-13.517 Z6.661 
N215 X-152.146 Y-13.592 Z6.559 
N216 X-152.147 Y-13.666 Z6.456 
N217 X-152.148 Y-13.741 Z6.354 
N218 X-152.149 Y-13.815 Z6.251 
N219 X-152.150 Y-13.890 Z6.148 
N220 X-152.152 Y-13.964 Z6.046 
N221 X-152.153 Y-14.039 Z5.943 
N222 X-152.154 Y-14.114 Z5.841 
N223 X-152.155 Y-14.188 Z5.738 
N224 X-152.156 Y-14.263 Z5.635 
N225 X-152.157 Y-14.337 Z5.533 
N226 X-152.158 Y-14.412 Z5.430 
N227 X-152.159 Y-14.486 Z5.328 
N228 X-152.160 Y-14.561 Z5.225 
N229 X-152.162 Y-14.635 Z5.122 
N230 X-152.163 Y-14.710 Z5.020 
N231 X-152.164 Y-14.784 Z4.917 
N232 X-152.165 Y-14.859 Z4.815 
N233 X-152.166 Y-14.933 Z4.712 
N234 X-152.167 Y-15.008 Z4.609 
N235 X-152.168 Y-15.082 Z4.507 
N236 X-152.169 Y-15.157 Z4.404 
N237 X-152.171 Y-15.232 Z4.302 
N238 X-152.172 Y-15.306 Z4.199 
N239 X-152.173 Y-15.381 Z4.097 
N240 X-152.174 Y-15.455 Z3.994 
N241 X-152.175 Y-15.530 Z3.891 
N242 X-152.176 Y-15.604 Z3.789 
N243 X-152.177 Y-15.679 Z3.686 
N244 X-152.178 Y-15.753 Z3.584 
N245 X-152.179 Y-15.828 Z3.481 
N246 X-152.181 Y-15.902 Z3.378 
N247 X-152.182 Y-15.977 Z3.276 
N248 X-152.183 Y-16.051 Z3.173 
N249 X-152.184 Y-16.126 Z3.071 
N250 X-152.185 Y-16.201 Z2.968 
N251 X-152.186 Y-16.275 Z2.865 
N252 X-152.187 Y-16.350 Z2.763 
N253 X-152.188 Y-16.424 Z2.660 
N254 X-152.189 Y-16.499 Z2.558 
N255 X-152.191 Y-16.573 Z2.455 
N256 X-152.192 Y-16.648 Z2.353 
N257 X-152.193 Y-16.722 Z2.250 
N258 X-152.194 Y-16.797 Z2.147 
N259 X-152.195 Y-16.871 Z2.045 
N260 X-152.196 Y-16.946 Z1.942 
N261 X-152.197 Y-17.020 Z1.840 
N262 X-152.198 Y-17.095 Z1.737 
N263 X-152.199 Y-17.170 Z1.634 
N264 X-152.201 Y-17.244 Z1.532 
N265 X-152.202 Y-17.319 Z1.429 
N266 X-152.203 Y-17.393 Z1.327 
N267 X-152.204 Y-17.468 Z1.224 
N268 X-152.205 Y-17.542 Z1.121 
N269 X-152.206 Y-17.617 Z1.019 
N270 X-152.207 Y-17.691 Z0.916 
N271 X-152.208 Y-17.766 Z0.814 
N272 X-152.210 Y-17.840 Z0.711 
N273 X-152.211 Y-17.915 Z0.608 
N274 X-152.212 Y-17.989 Z0.506 
N275 X-152.213 Y-18.064 Z0.403 
N276 X-152.214 Y-18.138 Z0.301 
N277 X-152.215 Y-18.213 Z0.198 
N278 X-152.216 Y-18.288 Z0.096 
N279 X-152.217 Y-18.362 Z-0.007 
N280 X-152.218 Y-18.437 Z-0.110 
N281 X-152.220 Y-18.511 Z-0.212 
N282 X-152.221 Y-18.586 Z-0.315 
N283 X-152.222 Y-18.660 Z-0.417 
N284 X-152.223 Y-18.735 Z-0.520 
N285 X-152.224 Y-18.809 Z-0.623 
N286 X-152.225 Y-18.884 Z-0.725 
N287 X-152.226 Y-18.958 Z-0.828 
N288 X-152.227 Y-19.033 Z-0.930 
N289 X-152.230 Y-19.107 Z-1.033 
N290 X-152.232 Y-19.182 Z-1.136 
N291 X-152.234 Y-19.256 Z-1.238 
N292 X-152.237 Y-19.331 Z-1.341 
N293 X-152.239 Y-19.406 Z-1.443 
N294 X-152.242 Y-19.480 Z-1.546 
N295 X-152.244 Y-19.555 Z-1.648 
N296 X-152.247 Y-19.629 Z-1.751 
N297 X-152.249 Y-19.704 Z-1.854 
N298 X-152.251 Y-19.778 Z-1.956 
N299 X-152.254 Y-19.853 Z-2.059 
N300 X-152.256 Y-19.927 Z-2.161 
N301 X-152.259 Y-20.002 Z-2.264 
N302 X-152.261 Y-20.076 Z-2.366 
N303 X-152.264 Y-20.151 Z-2.469 
N304 X-152.266 Y-20.225 Z-2.572 
N305 X-152.268 Y-20.300 Z-2.674 
N306 X-152.271 Y-20.374 Z-2.777 
N307 X-152.273 Y-20.449 Z-2.879 
N308 X-152.276 Y-20.523 Z-2.982 
N309 X-152.278 Y-20.598 Z-3.084 
N310 X-152.281 Y-20.672 Z-3.187 
N311 X-152.283 Y-20.747 Z-3.290 
N312 X-152.285 Y-20.822 Z-3.392 
N313 X-152.288 Y-20.896 Z-3.495 
N314 X-152.290 Y-20.971 Z-3.597 
N315 X-152.293 Y-21.045 Z-3.700 
N316 X-152.295 Y-21.120 Z-3.802 
N317 X-152.298 Y-21.194 Z-3.905 
N318 X-152.300 Y-21.269 Z-4.008 
N319 X-152.302 Y-21.343 Z-4.110 
N320 X-152.305 Y-21.418 Z-4.213 
N321 X-152.307 Y-21.492 Z-4.315 
N322 X-152.310 Y-21.567 Z-4.418 
N323 X-152.312 Y-21.641 Z-4.521 
N324 X-152.314 Y-21.716 Z-4.623 
N325 X-152.317 Y-21.790 Z-4.726 
N326 X-152.319 Y-21.865 Z-4.828 
N327 X-152.322 Y-21.939 Z-4.931 
N328 X-152.324 Y-22.014 Z-5.033 
N329 X-152.327 Y-22.088 Z-5.136 
N330 X-152.329 Y-22.163 Z-5.239 
N331 X-152.331 Y-22.238 Z-5.341 
N332 X-152.334 Y-22.312 Z-5.444 
N333 X-152.336 Y-22.387 Z-5.546 
N334 X-152.339 Y-22.461 Z-5.649 
N335 X-152.341 Y-22.536 Z-5.751 
N336 X-152.344 Y-22.610 Z-5.854 
N337 X-152.346 Y-22.685 Z-5.957 
N338 X-152.348 Y-22.759 Z-6.059 
N339 X-152.351 Y-22.834 Z-6.162 
N340 X-152.353 Y-22.908 Z-6.264 
N341 X-152.356 Y-22.983 Z-6.367 
N342 X-152.358 Y-23.057 Z-6.469 
N343 X-152.361 Y-23.132 Z-6.572 
N344 X-152.363 Y-23.206 Z-6.675 
N345 X-152.365 Y-23.281 Z-6.777 
N346 X-152.368 Y-23.355 Z-6.880 
N347 X-152.371 Y-23.430 Z-6.982 
N348 X-152.374 Y-23.504 Z-7.085 
N349 X-152.377 Y-23.579 Z-7.187 
N350 X-152.381 Y-23.653 Z-7.290 
N351 X-152.384 Y-23.728 Z-7.393 
N352 X-152.387 Y-23.802 Z-7.495 
N353 X-152.391 Y-23.877 Z-7.598 
N354 X-152.394 Y-23.952 Z-7.700 
N355 X-152.397 Y-24.026 Z-7.803 
N356 X-152.401 Y-24.101 Z-7.905 
N357 X-152.404 Y-24.175 Z-8.008 
N358 X-152.408 Y-24.250 Z-8.110 
N359 X-152.411 Y-24.324 Z-8.213 
N360 X-152.414 Y-24.399 Z-8.316 
N361 X-152.418 Y-24.473 Z-8.418 
N362 X-152.421 Y-24.548 Z-8.521 
N363 X-152.424 Y-24.622 Z-8.623 
N364 X-152.428 Y-24.697 Z-8.726 
N365 X-152.431 Y-24.771 Z-8.828 
N366 X-152.434 Y-24.846 Z-8.931 
N367 X-152.438 Y-24.920 Z-9.033 
N368 X-152.441 Y-24.995 Z-9.136 
N369 X-152.444 Y-25.069 Z-9.239 
N370 X-152.448 Y-25.144 Z-9.341 
N371 X-152.451 Y-25.218 Z-9.444 
N372 X-152.454 Y-25.293 Z-9.546 
N373 X-152.458 Y-25.367 Z-9.649 
N374 X-152.461 Y-25.442 Z-9.751 
N375 X-152.464 Y-25.516 Z-9.854 
N376 X-152.468 Y-25.591 Z-9.957 
N377 X-152.471 Y-25.665 Z-10.059 
N378 X-152.475 Y-25.740 Z-10.162 
N379 X-152.478 Y-25.814 Z-10.264 
N380 X-152.481 Y-25.889 Z-10.367 
N381 X-152.485 Y-25.963 Z-10.469 
N382 X-152.488 Y-26.038 Z-10.572 
N383 X-152.491 Y-26.112 Z-10.674 
N384 X-152.495 Y-26.187 Z-10.777 
N385 X-152.498 Y-26.261 Z-10.880 
N386 X-152.501 Y-26.336 Z-10.982 
N387 X-152.505 Y-26.410 Z-11.085 
N388 X-152.508 Y-26.485 Z-11.187 
N389 X-152.511 Y-26.559 Z-11.290 
N390 X-152.515 Y-26.634 Z-11.392 
N391 X-152.518 Y-26.708 Z-11.495 
N392 X-152.521 Y-26.783 Z-11.597 
N393 X-152.525 Y-26.859 Z-11.702 
N394 X-152.528 Y-26.935 Z-11.806 
N395 X-152.532 Y-27.010 Z-11.911 
N396 X-152.535 Y-27.086 Z-12.015 
N397 X-152.538 Y-27.162 Z-12.119 
N398 X-152.542 Y-27.238 Z-12.224 
N399 X-152.545 Y-27.314 Z-12.328 
N400 X-152.549 Y-27.390 Z-12.432 
N401 X-152.552 Y-27.465 Z-12.537 
N402 X-152.555 Y-27.541 Z-12.641 
N403 X-152.559 Y-27.617 Z-12.745 
N404 X-152.562 Y-27.693 Z-12.850 
N405 X-152.566 Y-27.769 Z-12.954 
N406 X-152.569 Y-27.844 Z-13.058 
N407 X-152.573 Y-27.920 Z-13.163 
N408 X-152.576 Y-27.996 Z-13.267 
N409 X-152.579 Y-28.072 Z-13.371 
N410 X-152.583 Y-28.148 Z-13.476 
N411 X-152.586 Y-28.224 Z-13.580 
N412 X-152.590 Y-28.299 Z-13.685 
N413 X-152.593 Y-28.375 Z-13.789 
N414 X-152.596 Y-28.451 Z-13.893 
N415 X-152.600 Y-28.527 Z-13.998 
N416 X-152.603 Y-28.603 Z-14.102 
N417 X-152.607 Y-28.678 Z-14.206 
N418 X-152.610 Y-28.754 Z-14.311 
N419 X-152.613 Y-28.830 Z-14.415 
N420 X-152.617 Y-28.906 Z-14.519 
N421 X-152.620 Y-28.982 Z-14.624 
N422 X-152.624 Y-29.058 Z-14.728 
N423 X-152.627 Y-29.133 Z-14.832 
N424 G40 X-152.891 Y-35.009 Z-22.920 F381
N425 X-152.891 Y-35.009 Z-22.920 
N426 G00 X-152.891 Y-55.235 Z-8.225 
N427 X-152.332 Y-12.960 Z45.452 
N428 X-152.332 Y7.265 Z30.757 
N429 ;on NNTA
N430 D3 
N431 G01 G41 X-152.247 Y1.387 Z22.667 F381
N432 G01 X-152.247 Y1.387 Z22.667 F381 
N433 X-152.246 Y1.314 Z22.566 
N434 X-152.245 Y1.240 Z22.465 
N435 X-152.244 Y1.167 Z22.364 
N436 X-152.243 Y1.093 Z22.263 
N437 X-152.242 Y1.020 Z22.162 
N438 X-152.241 Y0.947 Z22.061 
N439 X-152.239 Y0.873 Z21.959 
N440 X-152.238 Y0.800 Z21.858 
N441 X-152.237 Y0.726 Z21.757 
N442 X-152.236 Y0.653 Z21.656 
N443 X-152.235 Y0.579 Z21.555 
N444 X-152.234 Y0.506 Z21.454 
N445 X-152.233 Y0.432 Z21.353 
N446 X-152.232 Y0.359 Z21.252 
N447 X-152.231 Y0.285 Z21.150 
N448 X-152.230 Y0.212 Z21.049 
N449 X-152.229 Y0.138 Z20.948 
N450 X-152.228 Y0.065 Z20.847 
N451 X-152.227 Y-0.009 Z20.746 
N452 X-152.226 Y-0.082 Z20.645 
N453 X-152.225 Y-0.156 Z20.544 
N454 X-152.224 Y-0.229 Z20.443 
N455 X-152.222 Y-0.302 Z20.341 
N456 X-152.221 Y-0.376 Z20.240 
N457 X-152.220 Y-0.452 Z20.136 
N458 X-152.219 Y-0.528 Z20.032 
N459 X-152.218 Y-0.603 Z19.927 
N460 X-152.217 Y-0.679 Z19.823 
N461 X-152.216 Y-0.755 Z19.718 
N462 X-152.215 Y-0.831 Z19.614 
N463 X-152.214 Y-0.907 Z19.510 
N464 X-152.213 Y-0.983 Z19.405 
N465 X-152.212 Y-1.058 Z19.301 
N466 X-152.210 Y-1.134 Z19.196 
N467 X-152.209 Y-1.210 Z19.092 
N468 X-152.208 Y-1.286 Z18.988 
N469 X-152.207 Y-1.362 Z18.883 
N470 X-152.206 Y-1.438 Z18.779 
N471 X-152.205 Y-1.514 Z18.675 
N472 X-152.204 Y-1.589 Z18.570 
N473 X-152.203 Y-1.665 Z18.466 
N474 X-152.202 Y-1.741 Z18.361 
N475 X-152.201 Y-1.817 Z18.257 
N476 X-152.199 Y-1.893 Z18.153 
N477 X-152.198 Y-1.969 Z18.048 
N478 X-152.197 Y-2.044 Z17.944 
N479 X-152.196 Y-2.120 Z17.839 
N480 X-152.195 Y-2.196 Z17.735 
N481 X-152.194 Y-2.272 Z17.631 
N482 X-152.193 Y-2.348 Z17.526 
N483 X-152.192 Y-2.424 Z17.422 
N484 X-152.191 Y-2.499 Z17.318 
N485 X-152.190 Y-2.575 Z17.213 
N486 X-152.189 Y-2.651 Z17.109 
N487 X-152.187 Y-2.727 Z17.004 
N488 X-152.186 Y-2.802 Z16.902 
N489 X-152.185 Y-2.876 Z16.799 
N490 X-152.184 Y-2.951 Z16.697 
N491 X-152.183 Y-3.025 Z16.594 
N492 X-152.182 Y-3.100 Z16.491 
N493 X-152.181 Y-3.174 Z16.389 
N494 X-152.180 Y-3.249 Z16.286 
N495 X-152.179 Y-3.323 Z16.184 
N496 X-152.178 Y-3.398 Z16.081 
N497 X-152.177 Y-3.472 Z15.978 
N498 X-152.176 Y-3.547 Z15.876 
N499 X-152.174 Y-3.621 Z15.773 
N500 X-152.173 Y-3.696 Z15.671 
N501 X-152.172 Y-3.770 Z15.568 
N502 X-152.171 Y-3.845 Z15.466 
N503 X-152.170 Y-3.920 Z15.363 
N504 X-152.169 Y-3.994 Z15.260 
N505 X-152.168 Y-4.069 Z15.158 
N506 X-152.167 Y-4.143 Z15.055 
N507 X-152.166 Y-4.218 Z14.953 
N508 X-152.165 Y-4.292 Z14.850 
N509 X-152.164 Y-4.367 Z14.747 
N510 X-152.163 Y-4.441 Z14.645 
N511 X-152.162 Y-4.516 Z14.542 
N512 X-152.160 Y-4.590 Z14.440 
N513 X-152.159 Y-4.665 Z14.337 
N514 X-152.158 Y-4.739 Z14.234 
N515 X-152.157 Y-4.814 Z14.132 
N516 X-152.156 Y-4.889 Z14.029 
N517 X-152.155 Y-4.963 Z13.927 
N518 X-152.154 Y-5.038 Z13.824 
N519 X-152.153 Y-5.112 Z13.721 
N520 X-152.152 Y-5.187 Z13.619 
N521 X-152.151 Y-5.261 Z13.516 
N522 X-152.150 Y-5.336 Z13.414 
N523 X-152.149 Y-5.410 Z13.311 
N524 X-152.148 Y-5.485 Z13.209 
N525 X-152.146 Y-5.559 Z13.106 
N526 X-152.145 Y-5.634 Z13.003 
N527 X-152.144 Y-5.708 Z12.901 
N528 X-152.143 Y-5.783 Z12.798 
N529 X-152.142 Y-5.858 Z12.696 
N530 X-152.141 Y-5.932 Z12.593 
N531 X-152.140 Y-6.007 Z12.490 
N532 X-152.139 Y-6.081 Z12.388 
N533 X-152.138 Y-6.156 Z12.285 
N534 X-152.138 Y-6.230 Z12.183 
N535 X-152.138 Y-6.305 Z12.080 
N536 X-152.138 Y-6.379 Z11.977 
N537 X-152.138 Y-6.454 Z11.875 
N538 X-152.137 Y-6.528 Z11.772 
N539 X-152.137 Y-6.603 Z11.670 
N540 X-152.137 Y-6.677 Z11.567 
N541 X-152.137 Y-6.752 Z11.464 
N542 X-152.137 Y-6.827 Z11.362 
N543 X-152.137 Y-6.901 Z11.259 
N544 X-152.136 Y-6.976 Z11.157 
N545 X-152.136 Y-7.050 Z11.054 
N546 X-152.136 Y-7.125 Z10.951 
N547 X-152.136 Y-7.199 Z10.849 
N548 X-152.136 Y-7.274 Z10.746 
N549 X-152.136 Y-7.348 Z10.644 
N550 X-152.135 Y-7.423 Z10.541 
N551 X-152.135 Y-7.497 Z10.439 
N552 X-152.135 Y-7.572 Z10.336 
N553 X-152.135 Y-7.646 Z10.233 
N554 X-152.135 Y-7.721 Z10.131 
N555 X-152.134 Y-7.796 Z10.028 
N556 X-152.134 Y-7.870 Z9.926 
N557 X-152.134 Y-7.945 Z9.823 
N558 X-152.134 Y-8.019 Z9.720 
N559 X-152.134 Y-8.094 Z9.618 
N560 X-152.134 Y-8.168 Z9.515 
N561 X-152.133 Y-8.243 Z9.413 
N562 X-152.133 Y-8.317 Z9.310 
N563 X-152.133 Y-8.392 Z9.207 
N564 X-152.133 Y-8.466 Z9.105 
N565 X-152.133 Y-8.541 Z9.002 
N566 X-152.133 Y-8.615 Z8.900 
N567 X-152.132 Y-8.690 Z8.797 
N568 X-152.132 Y-8.765 Z8.694 
N569 X-152.132 Y-8.839 Z8.592 
N570 X-152.132 Y-8.914 Z8.489 
N571 X-152.132 Y-8.988 Z8.387 
N572 X-152.132 Y-9.063 Z8.284 
N573 X-152.131 Y-9.137 Z8.181 
N574 X-152.131 Y-9.212 Z8.079 
N575 X-152.131 Y-9.286 Z7.976 
N576 X-152.131 Y-9.361 Z7.874 
N577 X-152.131 Y-9.435 Z7.771 
N578 X-152.130 Y-9.510 Z7.668 
N579 X-152.130 Y-9.584 Z7.566 
N580 X-152.130 Y-9.659 Z7.463 
N581 X-152.130 Y-9.734 Z7.361 
N582 X-152.130 Y-9.808 Z7.258 
N583 X-152.130 Y-9.883 Z7.155 
N584 X-152.129 Y-9.957 Z7.053 
N585 X-152.129 Y-10.032 Z6.950 
N586 X-152.129 Y-10.106 Z6.848 
N587 X-152.129 Y-10.181 Z6.745 
N588 X-152.129 Y-10.255 Z6.643 
N589 X-152.129 Y-10.330 Z6.540 
N590 X-152.130 Y-10.404 Z6.437 
N591 X-152.132 Y-10.479 Z6.335 
N592 X-152.133 Y-10.553 Z6.232 
N593 X-152.134 Y-10.628 Z6.130 
N594 X-152.135 Y-10.703 Z6.027 
N595 X-152.136 Y-10.777 Z5.924 
N596 X-152.137 Y-10.852 Z5.822 
N597 X-152.138 Y-10.926 Z5.719 
N598 X-152.139 Y-11.001 Z5.617 
N599 X-152.140 Y-11.075 Z5.514 
N600 X-152.142 Y-11.150 Z5.411 
N601 X-152.143 Y-11.224 Z5.309 
N602 X-152.144 Y-11.299 Z5.206 
N603 X-152.145 Y-11.373 Z5.104 
N604 X-152.146 Y-11.448 Z5.001 
N605 X-152.147 Y-11.522 Z4.898 
N606 X-152.148 Y-11.597 Z4.796 
N607 X-152.149 Y-11.671 Z4.693 
N608 X-152.150 Y-11.746 Z4.591 
N609 X-152.152 Y-11.821 Z4.488 
N610 X-152.153 Y-11.895 Z4.386 
N611 X-152.154 Y-11.970 Z4.283 
N612 X-152.155 Y-12.044 Z4.180 
N613 X-152.156 Y-12.119 Z4.078 
N614 X-152.157 Y-12.193 Z3.975 
N615 X-152.158 Y-12.268 Z3.873 
N616 X-152.159 Y-12.342 Z3.770 
N617 X-152.160 Y-12.417 Z3.667 
N618 X-152.162 Y-12.491 Z3.565 
N619 X-152.163 Y-12.566 Z3.462 
N620 X-152.164 Y-12.640 Z3.360 
N621 X-152.165 Y-12.715 Z3.257 
N622 X-152.166 Y-12.790 Z3.154 
N623 X-152.167 Y-12.864 Z3.052 
N624 X-152.168 Y-12.939 Z2.949 
N625 X-152.169 Y-13.013 Z2.847 
N626 X-152.171 Y-13.088 Z2.744 
N627 X-152.172 Y-13.162 Z2.642 
N628 X-152.173 Y-13.237 Z2.539 
N629 X-152.174 Y-13.311 Z2.436 
N630 X-152.175 Y-13.386 Z2.334 
N631 X-152.176 Y-13.460 Z2.231 
N632 X-152.177 Y-13.535 Z2.129 
N633 X-152.178 Y-13.609 Z2.026 
N634 X-152.179 Y-13.684 Z1.923 
N635 X-152.181 Y-13.759 Z1.821 
N636 X-152.182 Y-13.833 Z1.718 
N637 X-152.183 Y-13.908 Z1.616 
N638 X-152.184 Y-13.982 Z1.513 
N639 X-152.185 Y-14.057 Z1.410 
N640 X-152.186 Y-14.131 Z1.308 
N641 X-152.187 Y-14.206 Z1.205 
N642 X-152.188 Y-14.280 Z1.103 
N643 X-152.189 Y-14.355 Z1.000 
N644 X-152.191 Y-14.429 Z0.897 
N645 X-152.192 Y-14.504 Z0.795 
N646 X-152.193 Y-14.578 Z0.692 
N647 X-152.194 Y-14.653 Z0.590 
N648 X-152.195 Y-14.727 Z0.487 
N649 X-152.196 Y-14.802 Z0.385 
N650 X-152.197 Y-14.877 Z0.282 
N651 X-152.198 Y-14.951 Z0.179 
N652 X-152.199 Y-15.026 Z0.077 
N653 X-152.201 Y-15.100 Z-0.026 
N654 X-152.202 Y-15.175 Z-0.128 
N655 X-152.203 Y-15.249 Z-0.231 
N656 X-152.204 Y-15.324 Z-0.334 
N657 X-152.205 Y-15.398 Z-0.436 
N658 X-152.206 Y-15.473 Z-0.539 
N659 X-152.207 Y-15.547 Z-0.641 
N660 X-152.208 Y-15.622 Z-0.744 
N661 X-152.210 Y-15.696 Z-0.847 
N662 X-152.211 Y-15.771 Z-0.949 
N663 X-152.212 Y-15.846 Z-1.052 
N664 X-152.213 Y-15.920 Z-1.154 
N665 X-152.214 Y-15.995 Z-1.257 
N666 X-152.215 Y-16.069 Z-1.360 
N667 X-152.216 Y-16.144 Z-1.462 
N668 X-152.217 Y-16.218 Z-1.565 
N669 X-152.218 Y-16.293 Z-1.667 
N670 X-152.220 Y-16.367 Z-1.770 
N671 X-152.221 Y-16.442 Z-1.872 
N672 X-152.222 Y-16.516 Z-1.975 
N673 X-152.223 Y-16.591 Z-2.078 
N674 X-152.224 Y-16.665 Z-2.180 
N675 X-152.225 Y-16.740 Z-2.283 
N676 X-152.226 Y-16.814 Z-2.385 
N677 X-152.227 Y-16.889 Z-2.488 
N678 X-152.230 Y-16.964 Z-2.591 
N679 X-152.232 Y-17.038 Z-2.693 
N680 X-152.234 Y-17.113 Z-2.796 
N681 X-152.237 Y-17.187 Z-2.898 
N682 X-152.239 Y-17.262 Z-3.001 
N683 X-152.242 Y-17.336 Z-3.103 
N684 X-152.244 Y-17.411 Z-3.206 
N685 X-152.247 Y-17.485 Z-3.309 
N686 X-152.249 Y-17.560 Z-3.411 
N687 X-152.251 Y-17.634 Z-3.514 
N688 X-152.254 Y-17.709 Z-3.616 
N689 X-152.256 Y-17.783 Z-3.719 
N690 X-152.259 Y-17.858 Z-3.821 
N691 X-152.261 Y-17.932 Z-3.924 
N692 X-152.264 Y-18.007 Z-4.027 
N693 X-152.266 Y-18.081 Z-4.129 
N694 X-152.268 Y-18.156 Z-4.232 
N695 X-152.271 Y-18.230 Z-4.334 
N696 X-152.273 Y-18.305 Z-4.437 
N697 X-152.276 Y-18.380 Z-4.540 
N698 X-152.278 Y-18.454 Z-4.642 
N699 X-152.281 Y-18.529 Z-4.745 
N700 X-152.283 Y-18.603 Z-4.847 
N701 X-152.285 Y-18.678 Z-4.950 
N702 X-152.288 Y-18.752 Z-5.052 
N703 X-152.290 Y-18.827 Z-5.155 
N704 X-152.293 Y-18.901 Z-5.258 
N705 X-152.295 Y-18.976 Z-5.360 
N706 X-152.298 Y-19.050 Z-5.463 
N707 X-152.300 Y-19.125 Z-5.565 
N708 X-152.302 Y-19.199 Z-5.668 
N709 X-152.305 Y-19.274 Z-5.770 
N710 X-152.307 Y-19.348 Z-5.873 
N711 X-152.310 Y-19.423 Z-5.976 
N712 X-152.312 Y-19.497 Z-6.078 
N713 X-152.314 Y-19.572 Z-6.181 
N714 X-152.317 Y-19.646 Z-6.283 
N715 X-152.319 Y-19.721 Z-6.386 
N716 X-152.322 Y-19.796 Z-6.488 
N717 X-152.324 Y-19.870 Z-6.591 
N718 X-152.327 Y-19.945 Z-6.694 
N719 X-152.329 Y-20.019 Z-6.796 
N720 X-152.331 Y-20.094 Z-6.899 
N721 X-152.334 Y-20.168 Z-7.001 
N722 X-152.336 Y-20.243 Z-7.104 
N723 X-152.339 Y-20.317 Z-7.206 
N724 X-152.341 Y-20.392 Z-7.309 
N725 X-152.344 Y-20.466 Z-7.412 
N726 X-152.346 Y-20.541 Z-7.514 
N727 X-152.348 Y-20.615 Z-7.617 
N728 X-152.351 Y-20.690 Z-7.719 
N729 X-152.353 Y-20.764 Z-7.822 
N730 X-152.356 Y-20.839 Z-7.925 
N731 X-152.358 Y-20.913 Z-8.027 
N732 X-152.361 Y-20.988 Z-8.130 
N733 X-152.363 Y-21.062 Z-8.232 
N734 X-152.365 Y-21.137 Z-8.335 
N735 X-152.368 Y-21.211 Z-8.437 
N736 X-152.371 Y-21.286 Z-8.540 
N737 X-152.374 Y-21.361 Z-8.643 
N738 X-152.377 Y-21.435 Z-8.745 
N739 X-152.381 Y-21.510 Z-8.848 
N740 X-152.384 Y-21.584 Z-8.950 
N741 X-152.387 Y-21.659 Z-9.053 
N742 X-152.391 Y-21.733 Z-9.155 
N743 X-152.394 Y-21.808 Z-9.258 
N744 X-152.397 Y-21.882 Z-9.360 
N745 X-152.401 Y-21.957 Z-9.463 
N746 X-152.404 Y-22.031 Z-9.566 
N747 X-152.408 Y-22.106 Z-9.668 
N748 X-152.411 Y-22.180 Z-9.771 
N749 X-152.414 Y-22.255 Z-9.873 
N750 X-152.418 Y-22.329 Z-9.976 
N751 X-152.421 Y-22.404 Z-10.078 
N752 X-152.424 Y-22.478 Z-10.181 
N753 X-152.428 Y-22.553 Z-10.283 
N754 X-152.431 Y-22.627 Z-10.386 
N755 X-152.434 Y-22.702 Z-10.489 
N756 X-152.438 Y-22.776 Z-10.591 
N757 X-152.441 Y-22.851 Z-10.694 
N758 X-152.444 Y-22.925 Z-10.796 
N759 X-152.448 Y-23.000 Z-10.899 
N760 X-152.451 Y-23.074 Z-11.001 
N761 X-152.454 Y-23.149 Z-11.104 
N762 X-152.458 Y-23.223 Z-11.206 
N763 X-152.461 Y-23.298 Z-11.309 
N764 X-152.464 Y-23.372 Z-11.412 
N765 X-152.468 Y-23.447 Z-11.514 
N766 X-152.471 Y-23.521 Z-11.617 
N767 X-152.475 Y-23.596 Z-11.719 
N768 X-152.478 Y-23.670 Z-11.822 
N769 X-152.481 Y-23.745 Z-11.924 
N770 X-152.485 Y-23.819 Z-12.027 
N771 X-152.488 Y-23.894 Z-12.129 
N772 X-152.491 Y-23.968 Z-12.232 
N773 X-152.495 Y-24.043 Z-12.335 
N774 X-152.498 Y-24.118 Z-12.437 
N775 X-152.501 Y-24.192 Z-12.540 
N776 X-152.505 Y-24.267 Z-12.642 
N777 X-152.508 Y-24.341 Z-12.745 
N778 X-152.511 Y-24.416 Z-12.847 
N779 X-152.515 Y-24.490 Z-12.950 
N780 X-152.518 Y-24.565 Z-13.053 
N781 X-152.521 Y-24.639 Z-13.155 
N782 X-152.525 Y-24.715 Z-13.259 
N783 X-152.528 Y-24.791 Z-13.364 
N784 X-152.532 Y-24.867 Z-13.468 
N785 X-152.535 Y-24.942 Z-13.572 
N786 X-152.538 Y-25.018 Z-13.677 
N787 X-152.542 Y-25.094 Z-13.781 
N788 X-152.545 Y-25.170 Z-13.886 
N789 X-152.549 Y-25.246 Z-13.990 
N790 X-152.552 Y-25.321 Z-14.094 
N791 X-152.555 Y-25.397 Z-14.199 
N792 X-152.559 Y-25.473 Z-14.303 
N793 X-152.562 Y-25.549 Z-14.407 
N794 X-152.566 Y-25.625 Z-14.512 
N795 X-152.569 Y-25.701 Z-14.616 
N796 X-152.573 Y-25.776 Z-14.720 
N797 X-152.576 Y-25.852 Z-14.825 
N798 X-152.579 Y-25.928 Z-14.929 
N799 X-152.583 Y-26.004 Z-15.033 
N800 X-152.586 Y-26.080 Z-15.138 
N801 X-152.590 Y-26.155 Z-15.242 
N802 X-152.593 Y-26.231 Z-15.346 
N803 X-152.596 Y-26.307 Z-15.451 
N804 X-152.600 Y-26.383 Z-15.555 
N805 X-152.603 Y-26.459 Z-15.660 
N806 X-152.607 Y-26.535 Z-15.764 
N807 X-152.610 Y-26.610 Z-15.868 
N808 X-152.613 Y-26.686 Z-15.973 
N809 X-152.617 Y-26.762 Z-16.077 
N810 X-152.620 Y-26.838 Z-16.181 
N811 X-152.624 Y-26.914 Z-16.286 
N812 X-152.627 Y-26.989 Z-16.390 
N813 G40 X-152.891 Y-32.865 Z-24.477 F381
N814 X-152.891 Y-32.865 Z-24.477 
N815 G00 X-152.891 Y-73.316 Z4.912 
;RAPORT("TC999999","Side Milling:132 End")
;trailer : concat=None
; points cnt = 764
N817 M9 ; chlodziwo wyl.
N818 MSG (" --- KONIEC PODPROGRAMU --- ")
N819 FGROUP()
N820 TRAFOOF
N821 STOPRE
N822 G0 G53 D0 Z550.0 M9 M5
N823 G0 G53 Y150 A0 B0
N824 M17
