; PROGRAM NAME: C99999990
; ORDER       : C999999
; OPER. NAME  : Spiral Rough Airfoil:107
; OPER. DESCR.: spiral roughing airfoil/Spirala zgrubnie nozka
; OPER. TYPE  : rouAirfoil
; GEO. OPTION : 3
; MACHINE     : HSTM_500M_SIM840D_Py
;             : HSTM500 Morelia- HAMUEL: 5-axis milling machine-SIM840D Traori PP_Script
; CONTROL     : SINUMERIK 840D
; created:   2022-11-16 11:59:46.421854
;----------------------------------------
;-------DODATKOWE DANE-------------------
; PROGRAMISTA : Mariusz Malec
; PARTID      : 301T002159P1002_-
;  ap         : 2.0
;  ae         : 18.0
;  lean_angle : 1.0
;  airf_offset: 1.0
;----------------------------------------
;RAPORT("TC999999","Spiral Rough Airfoil:107")
N10 TRAFOOF
N11 D0
N12 G90 G94
N13 G0 G53 D0 Z550
N14 STOPRE
M9 ; chlodziwo wyl
; --- Spiral Rough Airfoil:107 - spiral roughing airfoil/Spirala zgrubnie nozka ---
N16 ;ToolChange : concat=None ,current_tdmid=None, PP.tdmId=940721
N17 TRAFOOF
N18 G0 G53 D0 X-200 Y150 Z550 B0
N19 T="7740721"
;RAPORT("TC999999","ToolChangeStart 7740721")
N20 M6
;RAPORT("TC999999","ToolChangeEnd")
N21 STOPRE
N22 MSG(" TLID=940721 D=32.0 R=5.0 Ang=0.0 Len=105.0 ")
N23 S1989 M03
N24 STOPRE
N25 TOL(0.1,1,1)
N26 G0 G53 A179.5217 B0.0000
N27 TRAORI
N28 G54 D1
N29 D1 
;shiftX -0.0
;pointsCnt 2222
N30 ;SPIRALA ZGRUBNIE NOZKA
N31 ; DELTA A > 40.1
N32 TRAFOOF
N33 D1
N34 STOPRE
N35 G00 G54 Z281.000
N36 G01 A179.5217 F10000
N37 TRAORI
N38 G54 D1
N39 STOPRE
N40 TRANS 
N41 G00 X-225.307 Y33.890 Z-73.324 A179.5217 
N42 M346 ; chlodziwo mgla
N43 X-225.307 Y34.308 Z-23.326 
N44 G01 X-225.307 Y33.790 Z-20.241 F1591 
N45 X-225.307 Y32.344 Z-17.466 
N46 X-225.307 Y30.112 Z-15.274 
N47 X-225.307 Y27.311 Z-13.879 
N48 X-225.307 Y24.217 Z-13.418 
N49 X-225.014 Y23.011 Z-13.430 A179.5130 
N50 X-224.683 Y21.640 Z-13.445 A179.4993 
N51 X-224.309 Y20.099 Z-13.462 A179.4810 
N52 X-223.895 Y18.389 Z-13.482 A179.4558 
N53 X-223.441 Y16.515 Z-13.503 A179.4252 
N54 X-222.950 Y14.490 Z-13.523 A179.4005 
N55 X-222.426 Y12.333 Z-13.540 A179.4042 
N56 X-221.875 Y10.067 Z-13.554 A179.4320 
N57 X-221.306 Y7.723 Z-13.573 A179.4454 
N58 X-220.727 Y5.332 Z-13.596 
N59 X-220.144 Y2.931 Z-13.619 
N60 X-219.569 Y0.558 Z-13.644 A179.4396 
N61 X-219.009 Y-1.752 Z-13.668 A179.4316 
N62 X-218.473 Y-3.965 Z-13.691 A179.4222 
N63 X-217.967 Y-6.053 Z-13.713 A179.4114 
N64 X-217.498 Y-7.992 Z-13.734 A179.4004 
N65 X-217.068 Y-9.764 Z-13.752 A179.3956 
N66 X-216.681 Y-11.359 Z-13.767 A179.4022 
N67 X-216.337 Y-12.774 Z-13.777 A179.4322 
N68 X-216.038 Y-14.008 Z-13.789 A179.4454 
N69 X-215.780 Y-15.073 Z-13.802 
N70 X-215.564 Y-15.982 Z-13.831 A179.3450 
N71 X-215.393 Y-16.742 Z-13.916 A178.9315 
N72 X-215.267 Y-17.374 Z-14.070 A178.1177 
N73 X-215.184 Y-17.897 Z-14.308 A176.8198 
N74 X-215.136 Y-18.336 Z-14.631 A175.0381 
N75 X-215.118 Y-18.711 Z-15.031 A172.8141 
N76 X-215.120 Y-19.038 Z-15.481 A170.2915 
N77 X-215.137 Y-19.353 Z-15.988 A167.4264 
N78 X-215.160 Y-19.652 Z-16.509 A164.4528 
N79 X-215.183 Y-19.946 Z-17.024 A161.4777 
N80 X-215.203 Y-20.250 Z-17.539 A158.4488 
N81 X-215.217 Y-20.527 Z-17.982 A155.7910 
N82 X-215.226 Y-20.830 Z-18.435 A153.0058 
N83 X-215.229 Y-21.071 Z-18.772 A150.8894 
N84 X-215.229 Y-21.341 Z-19.129 A148.6000 
N85 X-215.224 Y-21.645 Z-19.505 A146.1183 
N86 X-215.217 Y-21.881 Z-19.779 A144.2621 
N87 X-215.206 Y-22.129 Z-20.052 A142.3680 
N88 X-215.192 Y-22.397 Z-20.330 A140.3871 
N89 X-215.173 Y-22.684 Z-20.609 A138.3279 
N90 X-215.150 Y-22.984 Z-20.882 A136.2428 
N91 X-215.128 Y-23.238 Z-21.099 A134.5264 
N92 X-215.103 Y-23.506 Z-21.316 A132.7561 
N93 X-215.073 Y-23.787 Z-21.530 A130.9341 
N94 X-215.040 Y-24.082 Z-21.741 A129.0676 
N95 X-215.003 Y-24.390 Z-21.947 A127.1622 
N96 X-214.961 Y-24.710 Z-22.146 A125.2219 
N97 X-214.920 Y-25.011 Z-22.321 A123.4320 
N98 X-214.875 Y-25.317 Z-22.486 A121.6413 
N99 X-214.828 Y-25.631 Z-22.643 A119.8363 
N100 X-214.777 Y-25.950 Z-22.791 A118.0227 
N101 X-214.723 Y-26.275 Z-22.929 A116.2052 
N102 X-214.666 Y-26.605 Z-23.056 A114.3882 
N103 X-214.606 Y-26.936 Z-23.173 A112.5770 
N104 X-214.542 Y-27.280 Z-23.281 A110.7215 
N105 X-214.476 Y-27.624 Z-23.377 A108.8845 
N106 X-214.407 Y-27.966 Z-23.460 A107.0713 
N107 X-214.338 Y-28.306 Z-23.531 A105.2858 
N108 X-214.266 Y-28.642 Z-23.590 A103.5325 
N109 X-214.194 Y-28.972 Z-23.638 A101.8170 
N110 X-214.118 Y-29.312 Z-23.675 A100.0564 
N111 X-214.032 Y-29.684 Z-23.703 A98.1369 
N112 X-213.947 Y-30.046 Z-23.717 A96.2777 
N113 X-213.862 Y-30.395 Z-23.718 A94.4803 
N114 X-213.777 Y-30.732 Z-23.708 A92.7490 
N115 X-213.695 Y-31.055 Z-23.687 A91.0889 
N116 X-213.597 Y-31.427 Z-23.650 A89.1684 
N117 X-213.492 Y-31.816 Z-23.595 A87.1563 
N118 X-213.390 Y-32.181 Z-23.528 A85.2533 
N119 X-213.293 Y-32.524 Z-23.451 A83.4569 
N120 X-213.181 Y-32.903 Z-23.350 A81.4509 
N121 X-213.053 Y-33.327 Z-23.213 A79.1772 
N122 X-212.934 Y-33.704 Z-23.069 A77.1237 
N123 X-212.798 Y-34.120 Z-22.883 A74.8097 
N124 X-212.657 Y-34.534 Z-22.664 A72.4435 
N125 X-212.505 Y-34.957 Z-22.400 A69.9490 
N126 X-212.351 Y-35.361 Z-22.099 A67.4499 
N127 X-212.187 Y-35.759 Z-21.736 A64.8226 
N128 X-212.025 Y-36.111 Z-21.323 A62.2618 
N129 X-211.873 Y-36.387 Z-20.866 A59.8920 
N130 X-211.743 Y-36.562 Z-20.387 A57.8674 
N131 X-211.633 Y-36.626 Z-19.874 A56.1802 
N132 X-211.546 Y-36.573 Z-19.334 A54.8643 
N133 X-211.481 Y-36.401 Z-18.752 A53.8864 
N134 X-211.436 Y-36.110 Z-18.122 A53.2226 
N135 X-211.409 Y-35.704 Z-17.433 A52.8280 
N136 X-211.394 Y-35.192 Z-16.673 A52.6381 
N137 X-211.387 Y-34.584 Z-15.828 A52.5830 
N138 X-211.384 Y-33.892 Z-14.891 A52.5942 
N139 X-211.381 Y-33.128 Z-13.861 A52.6211 
N140 X-211.376 Y-32.303 Z-12.741 A52.6351 
N141 X-211.371 Y-31.426 Z-11.544 
N142 X-211.363 Y-30.507 Z-10.286 A52.6198 
N143 X-211.356 Y-29.560 Z-8.985 A52.5956 
N144 X-211.347 Y-28.597 Z-7.663 A52.5712 
N145 X-211.340 Y-27.633 Z-6.342 A52.5569 
N146 X-211.334 Y-26.682 Z-5.044 A52.5644 
N147 X-211.329 Y-25.756 Z-3.788 A52.5994 
N148 X-211.324 Y-24.874 Z-2.589 A52.6351 
N149 X-211.316 Y-24.050 Z-1.454 
N150 X-211.309 Y-23.278 Z-0.392 A52.6335 
N151 X-211.287 Y-22.615 Z0.612 A52.3352 
N152 X-211.249 Y-22.056 Z1.557 A51.7258 
N153 X-211.193 Y-21.612 Z2.452 A50.7229 
N154 X-211.119 Y-21.275 Z3.301 A49.3325 
N155 X-211.030 Y-21.032 Z4.109 A47.5781 
N156 X-210.928 Y-20.868 Z4.882 A45.5121 
N157 X-210.817 Y-20.763 Z5.622 A43.2128 
N158 X-210.704 Y-20.697 Z6.329 A40.7810 
N159 X-210.593 Y-20.648 Z6.995 A38.3279 
N160 X-210.488 Y-20.603 Z7.625 A35.9119 
N161 X-210.393 Y-20.551 Z8.213 A33.6016 
N162 X-210.307 Y-20.488 Z8.765 A31.4041 
N163 X-210.228 Y-20.413 Z9.289 A29.2912 
N164 X-210.156 Y-20.323 Z9.799 A27.2171 
N165 X-210.089 Y-20.218 Z10.304 A25.1451 
N166 X-210.026 Y-20.094 Z10.813 A23.0316 
N167 X-209.966 Y-19.944 Z11.339 A20.8305 
N168 X-209.910 Y-19.761 Z11.888 A18.5094 
N169 X-209.860 Y-19.533 Z12.462 A16.0608 
N170 X-209.820 Y-19.245 Z13.059 A13.4987 
N171 X-209.799 Y-18.880 Z13.662 A10.8906 
N172 X-209.801 Y-18.421 Z14.256 A8.3084 
N173 X-209.837 Y-17.854 Z14.816 A5.8544 
N174 X-209.913 Y-17.169 Z15.313 A3.6487 
N175 X-210.036 Y-16.356 Z15.724 A1.7971 
N176 X-210.210 Y-15.410 Z16.030 A0.3923 
N177 X-210.439 Y-14.329 Z16.226 A359.4726 
N178 X-210.719 Y-13.107 Z16.325 A358.9831 
N179 X-211.046 Y-11.743 Z16.358 A358.8070 
N180 X-211.414 Y-10.238 Z16.356 A358.8010 
N181 X-211.817 Y-8.596 Z16.346 A358.8453 
N182 X-212.250 Y-6.828 Z16.339 A358.8809 
N183 X-212.708 Y-4.953 Z16.341 
N184 X-213.186 Y-2.991 Z16.344 
N185 X-213.680 Y-0.969 Z16.348 
N186 X-214.179 Y1.081 Z16.352 A358.8761 
N187 X-214.678 Y3.126 Z16.357 A358.8681 
N188 X-215.168 Y5.135 Z16.363 A358.8577 
N189 X-215.641 Y7.077 Z16.368 A358.8460 
N190 X-216.092 Y8.924 Z16.373 A358.8364 
N191 X-216.513 Y10.653 Z16.376 A358.8369 
N192 X-216.902 Y12.244 Z16.377 A358.8491 
N193 X-217.255 Y13.688 Z16.375 A358.8795 
N194 X-217.568 Y14.974 Z16.379 A358.8809 
N195 X-217.845 Y16.109 Z16.384 
N196 X-218.084 Y17.097 Z16.396 A358.8305 
N197 X-218.280 Y17.940 Z16.447 A358.5630 
N198 X-218.436 Y18.651 Z16.543 A358.0337 
N199 X-218.552 Y19.246 Z16.702 A357.1490 
N200 X-218.630 Y19.741 Z16.934 A355.8424 
N201 X-218.675 Y20.162 Z17.254 A354.0454 
N202 X-218.690 Y20.527 Z17.655 A351.7868 
N203 X-218.684 Y20.869 Z18.139 A349.0558 
N204 X-218.668 Y21.186 Z18.650 A346.1419 
N205 X-218.647 Y21.495 Z19.171 A343.1371 
N206 X-218.629 Y21.788 Z19.659 A340.2783 
N207 X-218.615 Y22.066 Z20.105 A337.6210 
N208 X-218.604 Y22.370 Z20.569 A334.8012 
N209 X-218.599 Y22.626 Z20.938 A332.5107 
N210 X-218.597 Y22.898 Z21.311 A330.1521 
N211 X-218.599 Y23.211 Z21.712 A327.5466 
N212 X-218.605 Y23.447 Z21.996 A325.6545 
N213 X-218.613 Y23.700 Z22.283 A323.6914 
N214 X-218.626 Y23.974 Z22.577 A321.6277 
N215 X-218.644 Y24.272 Z22.876 A319.4607 
N216 X-218.663 Y24.544 Z23.133 A317.5385 
N217 X-218.684 Y24.800 Z23.361 A315.7759 
N218 X-218.708 Y25.071 Z23.589 A313.9528 
N219 X-218.737 Y25.357 Z23.815 A312.0766 
N220 X-218.769 Y25.658 Z24.038 A310.1513 
N221 X-218.806 Y25.973 Z24.256 A308.1775 
N222 X-218.843 Y26.268 Z24.447 A306.3697 
N223 X-218.882 Y26.563 Z24.626 A304.5976 
N224 X-218.925 Y26.867 Z24.798 A302.7991 
N225 X-218.971 Y27.180 Z24.962 A300.9802 
N226 X-219.021 Y27.500 Z25.118 A299.1453 
N227 X-219.074 Y27.828 Z25.264 A297.2987 
N228 X-219.130 Y28.161 Z25.401 A295.4454 
N229 X-219.189 Y28.495 Z25.525 A293.6097 
N230 X-219.250 Y28.832 Z25.638 A291.7814 
N231 X-219.314 Y29.170 Z25.739 A289.9657 
N232 X-219.380 Y29.507 Z25.829 A288.1686 
N233 X-219.448 Y29.843 Z25.906 A286.3961 
N234 X-219.517 Y30.175 Z25.972 A284.6547 
N235 X-219.588 Y30.506 Z26.026 A282.9250 
N236 X-219.668 Y30.873 Z26.074 A281.0241 
N237 X-219.750 Y31.232 Z26.108 A279.1690 
N238 X-219.832 Y31.583 Z26.129 A277.3609 
N239 X-219.913 Y31.924 Z26.138 A275.6050 
N240 X-219.995 Y32.255 Z26.136 A273.9077 
N241 X-220.077 Y32.581 Z26.123 A272.2292 
N242 X-220.180 Y32.980 Z26.092 A270.1737 
N243 X-220.280 Y33.359 Z26.048 A268.2167 
N244 X-220.378 Y33.717 Z25.992 A266.3601 
N245 X-220.472 Y34.052 Z25.926 A264.6082 
N246 X-220.583 Y34.435 Z25.835 A262.5922 
N247 X-220.707 Y34.852 Z25.714 A260.3764 
N248 X-220.822 Y35.228 Z25.585 A258.3463 
N249 X-220.950 Y35.628 Z25.424 A256.1531 
N250 X-221.095 Y36.068 Z25.215 A253.6837 
N251 X-221.241 Y36.488 Z24.981 A251.2580 
N252 X-221.401 Y36.923 Z24.691 A248.6440 
N253 X-221.565 Y37.340 Z24.350 A245.9903 
N254 X-221.725 Y37.707 Z23.971 A243.4534 
N255 X-221.875 Y38.009 Z23.556 A241.0946 
N256 X-222.019 Y38.243 Z23.085 A238.8527 
N257 X-222.142 Y38.376 Z22.588 A236.9370 
N258 X-222.245 Y38.397 Z22.057 A235.3556 
N259 X-222.323 Y38.293 Z21.497 A234.1652 
N260 X-222.375 Y38.060 Z20.902 A233.3743 
N261 X-222.406 Y37.703 Z20.260 A232.9256 
N262 X-222.422 Y37.235 Z19.554 A232.7273 
N263 X-222.428 Y36.669 Z18.767 A232.6773 
N264 X-222.432 Y36.021 Z17.888 A232.6876 
N265 X-222.435 Y35.301 Z16.912 A232.7092 
N266 X-222.440 Y34.517 Z15.844 A232.7189 
N267 X-222.446 Y33.676 Z14.694 
N268 X-222.453 Y32.786 Z13.476 A232.7168 
N269 X-222.460 Y31.862 Z12.209 A232.7079 
N270 X-222.468 Y30.914 Z10.910 A232.7004 
N271 X-222.475 Y29.959 Z9.603 A232.6986 
N272 X-222.482 Y29.011 Z8.307 A232.7051 
N273 X-222.488 Y28.085 Z7.042 A232.7189 
N274 X-222.495 Y27.197 Z5.824 
N275 X-222.502 Y26.354 Z4.668 
N276 X-222.512 Y25.573 Z3.578 A232.6521 
N277 X-222.530 Y24.877 Z2.555 A232.4182 
N278 X-222.561 Y24.280 Z1.593 A231.9208 
N279 X-222.612 Y23.798 Z0.678 A231.0253 
N280 X-222.686 Y23.439 Z-0.204 A229.6357 
N281 X-222.782 Y23.188 Z-1.057 A227.7796 
N282 X-222.889 Y23.014 Z-1.871 A225.6161 
N283 X-222.998 Y22.884 Z-2.635 A223.3300 
N284 X-223.103 Y22.779 Z-3.348 A221.0131 
N285 X-223.204 Y22.691 Z-4.013 A218.7121 
N286 X-223.299 Y22.610 Z-4.637 A216.4542 
N287 X-223.389 Y22.533 Z-5.225 A214.2395 
N288 X-223.473 Y22.456 Z-5.788 A212.0583 
N289 X-223.553 Y22.374 Z-6.332 A209.8965 
N290 X-223.629 Y22.282 Z-6.864 A207.7469 
N291 X-223.699 Y22.173 Z-7.390 A205.6044 
N292 X-223.763 Y22.041 Z-7.914 A203.4522 
N293 X-223.821 Y21.881 Z-8.443 A201.2695 
N294 X-223.873 Y21.685 Z-8.984 A199.0278 
N295 X-223.917 Y21.444 Z-9.542 A196.6995 
N296 X-223.952 Y21.146 Z-10.127 A194.2329 
N297 X-223.974 Y20.777 Z-10.741 A191.6131 
N298 X-223.979 Y20.319 Z-11.375 A188.8612 
N299 X-223.954 Y19.751 Z-11.994 A186.1239 
N300 X-223.885 Y19.058 Z-12.540 A183.6838 
N301 X-223.760 Y18.232 Z-12.956 A181.8110 
N302 X-223.576 Y17.274 Z-13.228 A180.5925 
N303 X-223.337 Y16.180 Z-13.383 A179.9122 
N304 X-223.051 Y14.948 Z-13.462 A179.5833 
N305 X-222.722 Y13.574 Z-13.501 A179.4470 
N306 X-222.356 Y12.060 Z-13.520 A179.4061 
N307 X-221.956 Y10.414 Z-13.533 A179.4058 
N308 X-221.527 Y8.646 Z-13.544 A179.4166 
N309 X-221.072 Y6.776 Z-13.558 A179.4251 
N310 X-220.599 Y4.825 Z-13.574 A179.4270 
N311 X-220.113 Y2.823 Z-13.592 A179.4234 
N312 X-219.622 Y0.798 Z-13.611 A179.4169 
N313 X-219.133 Y-1.218 Z-13.629 A179.4107 
N314 X-218.654 Y-3.194 Z-13.648 A179.4091 
N315 X-218.191 Y-5.098 Z-13.664 A179.4140 
N316 X-217.752 Y-6.907 Z-13.679 A179.4276 
N317 X-217.343 Y-8.595 Z-13.696 
N318 X-216.966 Y-10.151 Z-13.712 
N319 X-216.625 Y-11.563 Z-13.732 A179.3995 
N320 X-216.324 Y-12.821 Z-13.768 A179.2610 
N321 X-216.064 Y-13.928 Z-13.824 A178.9975 
N322 X-215.844 Y-14.887 Z-13.903 A178.5734 
N323 X-215.664 Y-15.707 Z-14.012 A177.9626 
N324 X-215.521 Y-16.402 Z-14.157 A177.1271 
N325 X-215.413 Y-16.987 Z-14.346 A176.0238 
N326 X-215.337 Y-17.479 Z-14.589 A174.6094 
N327 X-215.291 Y-17.899 Z-14.895 A172.8413 
N328 X-215.269 Y-18.266 Z-15.265 A170.7072 
N329 X-215.267 Y-18.608 Z-15.703 A168.1805 
N330 X-215.276 Y-18.927 Z-16.179 A165.4284 
N331 X-215.291 Y-19.238 Z-16.672 A162.5500 
N332 X-215.305 Y-19.536 Z-17.145 A159.7542 
N333 X-215.316 Y-19.825 Z-17.589 A157.0777 
N334 X-215.324 Y-20.137 Z-18.045 A154.2774 
N335 X-215.326 Y-20.397 Z-18.404 A152.0218 
N336 X-215.325 Y-20.682 Z-18.776 A149.6307 
N337 X-215.320 Y-20.970 Z-19.129 A147.3037 
N338 X-215.312 Y-21.219 Z-19.418 A145.3505 
N339 X-215.300 Y-21.491 Z-19.716 A143.2828 
N340 X-215.284 Y-21.787 Z-20.020 A141.1091 
N341 X-215.266 Y-22.055 Z-20.278 A139.2016 
N342 X-215.246 Y-22.314 Z-20.515 A137.4022 
N343 X-215.223 Y-22.589 Z-20.751 A135.5398 
N344 X-215.195 Y-22.880 Z-20.988 A133.6124 
N345 X-215.163 Y-23.188 Z-21.222 A131.6254 
N346 X-215.131 Y-23.470 Z-21.422 A129.8492 
N347 X-215.096 Y-23.757 Z-21.615 A128.0720 
N348 X-215.058 Y-24.056 Z-21.802 A126.2626 
N349 X-215.015 Y-24.364 Z-21.983 A124.4228 
N350 X-214.969 Y-24.683 Z-22.156 A122.5572 
N351 X-214.921 Y-25.006 Z-22.318 A120.7014 
N352 X-214.870 Y-25.323 Z-22.466 A118.9030 
N353 X-214.817 Y-25.645 Z-22.604 A117.0982 
N354 X-214.760 Y-25.973 Z-22.732 A115.2914 
N355 X-214.701 Y-26.303 Z-22.849 A113.4875 
N356 X-214.639 Y-26.636 Z-22.955 A111.6919 
N357 X-214.574 Y-26.977 Z-23.052 A109.8727 
N358 X-214.504 Y-27.327 Z-23.139 A108.0157 
N359 X-214.433 Y-27.675 Z-23.213 A106.1856 
N360 X-214.360 Y-28.020 Z-23.274 A104.3893 
N361 X-214.287 Y-28.358 Z-23.323 A102.6341 
N362 X-214.213 Y-28.689 Z-23.360 A100.9248 
N363 X-214.129 Y-29.051 Z-23.387 A99.0593 
N364 X-214.044 Y-29.412 Z-23.402 A97.2045 
N365 X-213.959 Y-29.760 Z-23.403 A95.4176 
N366 X-213.875 Y-30.095 Z-23.393 A93.7024 
N367 X-213.793 Y-30.415 Z-23.372 A92.0605 
N368 X-213.694 Y-30.792 Z-23.334 A90.1203 
N369 X-213.597 Y-31.151 Z-23.282 A88.2638 
N370 X-213.503 Y-31.490 Z-23.220 A86.5028 
N371 X-213.409 Y-31.819 Z-23.147 A84.7855 
N372 X-213.293 Y-32.212 Z-23.042 A82.7081 
N373 X-213.184 Y-32.572 Z-22.926 A80.7896 
N374 X-213.074 Y-32.925 Z-22.795 A78.8805 
N375 X-212.942 Y-33.331 Z-22.619 A76.6426 
N376 X-212.816 Y-33.706 Z-22.430 A74.5310 
N377 X-212.666 Y-34.133 Z-22.181 A72.0565 
N378 X-212.513 Y-34.545 Z-21.896 A69.5724 
N379 X-212.356 Y-34.940 Z-21.568 A67.0656 
N380 X-212.197 Y-35.305 Z-21.188 A64.5547 
N381 X-212.044 Y-35.611 Z-20.766 A62.1835 
N382 X-211.907 Y-35.836 Z-20.315 A60.0685 
N383 X-211.783 Y-35.971 Z-19.822 A58.1922 
N384 X-211.678 Y-36.003 Z-19.293 A56.6170 
N385 X-211.593 Y-35.927 Z-18.731 A55.3596 
N386 X-211.527 Y-35.741 Z-18.123 A54.3906 
N387 X-211.477 Y-35.447 Z-17.463 A53.6813 
N388 X-211.441 Y-35.049 Z-16.741 A53.1823 
N389 X-211.417 Y-34.553 Z-15.947 A52.8437 
N390 X-211.399 Y-33.967 Z-15.076 A52.6194 
N391 X-211.387 Y-33.299 Z-14.125 A52.4736 
N392 X-211.379 Y-32.558 Z-13.096 A52.3811 
N393 X-211.373 Y-31.754 Z-11.996 A52.3239 
N394 X-211.369 Y-30.899 Z-10.837 A52.2893 
N395 X-211.366 Y-30.005 Z-9.632 A52.2696 
N396 X-211.363 Y-29.086 Z-8.397 A52.2609 
N397 X-211.361 Y-28.156 Z-7.152 A52.2617 
N398 X-211.360 Y-27.231 Z-5.914 A52.2705 
N399 X-211.357 Y-26.326 Z-4.701 
N400 X-211.354 Y-25.455 Z-3.525 A52.2454 
N401 X-211.345 Y-24.639 Z-2.395 A52.1248 
N402 X-211.329 Y-23.893 Z-1.316 A51.8476 
N403 X-211.302 Y-23.231 Z-0.289 A51.3470 
N404 X-211.262 Y-22.660 Z0.686 A50.5695 
N405 X-211.208 Y-22.183 Z1.613 A49.4788 
N406 X-211.140 Y-21.797 Z2.495 A48.0598 
N407 X-211.059 Y-21.495 Z3.338 A46.3199 
N408 X-210.967 Y-21.263 Z4.147 A44.3010 
N409 X-210.868 Y-21.083 Z4.920 A42.0861 
N410 X-210.770 Y-20.935 Z5.654 A39.7786 
N411 X-210.675 Y-20.802 Z6.344 A37.4703 
N412 X-210.588 Y-20.671 Z6.990 A35.2250 
N413 X-210.510 Y-20.538 Z7.594 A33.0699 
N414 X-210.439 Y-20.397 Z8.168 A30.9810 
N415 X-210.374 Y-20.247 Z8.716 A28.9512 
N416 X-210.316 Y-20.085 Z9.247 A26.9514 
N417 X-210.263 Y-19.906 Z9.772 A24.9540 
N418 X-210.216 Y-19.706 Z10.296 A22.9328 
N419 X-210.174 Y-19.479 Z10.825 A20.8698 
N420 X-210.139 Y-19.215 Z11.366 A18.7424 
N421 X-210.113 Y-18.905 Z11.919 A16.5462 
N422 X-210.099 Y-18.537 Z12.484 A14.2819 
N423 X-210.101 Y-18.100 Z13.053 A11.9789 
N424 X-210.125 Y-17.577 Z13.617 A9.6798 
N425 X-210.178 Y-16.956 Z14.157 A7.4601 
N426 X-210.265 Y-16.225 Z14.652 A5.4101 
N427 X-210.393 Y-15.377 Z15.082 A3.6129 
N428 X-210.565 Y-14.406 Z15.436 A2.1218 
N429 X-210.782 Y-13.309 Z15.710 A0.9542 
N430 X-211.045 Y-12.087 Z15.907 A0.1024 
N431 X-211.351 Y-10.739 Z16.035 A359.5414 
N432 X-211.696 Y-9.271 Z16.106 A359.2239 
N433 X-212.076 Y-7.691 Z16.138 A359.0863 
N434 X-212.485 Y-6.011 Z16.146 A359.0575 
N435 X-212.916 Y-4.247 Z16.147 A359.0731 
N436 X-213.361 Y-2.422 Z16.148 A359.0946 
N437 X-213.815 Y-0.560 Z16.153 A359.1054 
N438 X-214.271 Y1.313 Z16.160 A359.1057 
N439 X-214.723 Y3.168 Z16.169 A359.1016 
N440 X-215.163 Y4.978 Z16.178 A359.0988 
N441 X-215.587 Y6.719 Z16.187 A359.1001 
N442 X-215.988 Y8.366 Z16.195 A359.1090 
N443 X-216.361 Y9.903 Z16.205 
N444 X-216.705 Y11.318 Z16.215 
N445 X-217.018 Y12.607 Z16.228 A359.0796 
N446 X-217.289 Y13.757 Z16.278 A358.8358 
N447 X-217.520 Y14.773 Z16.373 A358.3253 
N448 X-217.709 Y15.661 Z16.523 A357.4706 
N449 X-217.860 Y16.432 Z16.729 A356.2680 
N450 X-217.976 Y17.098 Z16.982 A354.7576 
N451 X-218.064 Y17.677 Z17.274 A352.9960 
N452 X-218.128 Y18.178 Z17.592 A351.0513 
N453 X-218.174 Y18.625 Z17.937 A348.9311 
N454 X-218.204 Y19.022 Z18.296 A346.7123 
N455 X-218.225 Y19.393 Z18.678 A344.3462 
N456 X-218.238 Y19.729 Z19.052 A342.0129 
N457 X-218.248 Y20.053 Z19.429 A339.6386 
N458 X-218.256 Y20.366 Z19.801 A337.2707 
N459 X-218.264 Y20.674 Z20.166 A334.9158 
N460 X-218.273 Y20.965 Z20.504 A332.6974 
N461 X-218.283 Y21.249 Z20.823 A330.5562 
N462 X-218.297 Y21.541 Z21.139 A328.3894 
N463 X-218.311 Y21.815 Z21.424 A326.3959 
N464 X-218.329 Y22.097 Z21.703 A324.3852 
N465 X-218.349 Y22.382 Z21.972 A322.3957 
N466 X-218.370 Y22.654 Z22.217 A320.5376 
N467 X-218.396 Y22.946 Z22.466 A318.5816 
N468 X-218.423 Y23.235 Z22.700 A316.6874 
N469 X-218.453 Y23.518 Z22.917 A314.8716 
N470 X-218.486 Y23.817 Z23.133 A312.9899 
N471 X-218.523 Y24.127 Z23.344 A311.0726 
N472 X-218.560 Y24.419 Z23.531 A309.2967 
N473 X-218.601 Y24.725 Z23.715 A307.4738 
N474 X-218.645 Y25.043 Z23.894 A305.6098 
N475 X-218.693 Y25.364 Z24.062 A303.7531 
N476 X-218.742 Y25.679 Z24.214 A301.9625 
N477 X-218.794 Y26.002 Z24.359 A300.1492 
N478 X-218.850 Y26.333 Z24.496 A298.3188 
N479 X-218.908 Y26.668 Z24.622 A296.4858 
N480 X-218.969 Y27.001 Z24.735 A294.6810 
N481 X-219.032 Y27.338 Z24.838 A292.8778 
N482 X-219.098 Y27.677 Z24.929 A291.0820 
N483 X-219.166 Y28.015 Z25.009 A289.2998 
N484 X-219.239 Y28.364 Z25.080 A287.4782 
N485 X-219.312 Y28.710 Z25.137 A285.6837 
N486 X-219.388 Y29.052 Z25.183 A283.9205 
N487 X-219.464 Y29.388 Z25.216 A282.1921 
N488 X-219.546 Y29.745 Z25.239 A280.3649 
N489 X-219.630 Y30.095 Z25.249 A278.5767 
N490 X-219.713 Y30.435 Z25.247 A276.8412 
N491 X-219.799 Y30.774 Z25.234 A275.1130 
N492 X-219.893 Y31.137 Z25.205 A273.2538 
N493 X-219.985 Y31.486 Z25.165 A271.4642 
N494 X-220.076 Y31.820 Z25.114 A269.7472 
N495 X-220.180 Y32.191 Z25.042 A267.8313 
N496 X-220.282 Y32.543 Z24.958 A265.9959 
N497 X-220.383 Y32.886 Z24.860 A264.1919 
N498 X-220.499 Y33.264 Z24.734 A262.1811 
N499 X-220.609 Y33.611 Z24.599 A260.3083 
N500 X-220.734 Y33.995 Z24.426 A258.2037 
N501 X-220.855 Y34.351 Z24.239 A256.2051 
N502 X-220.989 Y34.726 Z24.009 A254.0390 
N503 X-221.125 Y35.085 Z23.749 A251.8808 
N504 X-221.262 Y35.425 Z23.456 A249.7385 
N505 X-221.401 Y35.742 Z23.122 A247.6027 
N506 X-221.538 Y36.023 Z22.750 A245.5229 
N507 X-221.672 Y36.260 Z22.336 A243.5195 
N508 X-221.802 Y36.446 Z21.872 A241.5963 
N509 X-221.926 Y36.568 Z21.361 A239.7837 
N510 X-222.043 Y36.619 Z20.797 A238.0957 
N511 X-222.147 Y36.586 Z20.187 A236.5838 
N512 X-222.236 Y36.458 Z19.530 A235.2804 
N513 X-222.309 Y36.225 Z18.827 A234.2295 
N514 X-222.362 Y35.882 Z18.081 A233.4582 
N515 X-222.398 Y35.434 Z17.291 A232.9462 
N516 X-222.420 Y34.891 Z16.450 A232.6443 
N517 X-222.433 Y34.268 Z15.555 A232.4881 
N518 X-222.440 Y33.581 Z14.604 A232.4163 
N519 X-222.444 Y32.844 Z13.602 A232.3893 
N520 X-222.447 Y32.070 Z12.556 A232.3869 
N521 X-222.450 Y31.270 Z11.480 A232.3999 
N522 X-222.452 Y30.455 Z10.387 A232.4264 
N523 X-222.455 Y29.642 Z9.290 A232.4437 
N524 X-222.459 Y28.841 Z8.203 
N525 X-222.464 Y28.056 Z7.136 A232.4340 
N526 X-222.478 Y27.326 Z6.090 A232.2494 
N527 X-222.503 Y26.659 Z5.070 A231.8507 
N528 X-222.542 Y26.072 Z4.075 A231.1346 
N529 X-222.600 Y25.573 Z3.099 A230.0302 
N530 X-222.675 Y25.162 Z2.143 A228.5116 
N531 X-222.763 Y24.822 Z1.212 A226.6535 
N532 X-222.855 Y24.526 Z0.321 A224.6062 
N533 X-222.942 Y24.252 Z-0.517 A222.5149 
N534 X-223.021 Y23.987 Z-1.298 A220.4619 
N535 X-223.092 Y23.729 Z-2.025 A218.4660 
N536 X-223.155 Y23.475 Z-2.707 A216.5290 
N537 X-223.211 Y23.222 Z-3.347 A214.6512 
N538 X-223.260 Y22.967 Z-3.953 A212.8300 
N539 X-223.303 Y22.706 Z-4.530 A211.0602 
N540 X-223.339 Y22.437 Z-5.084 A209.3303 
N541 X-223.370 Y22.158 Z-5.621 A207.6249 
N542 X-223.395 Y21.865 Z-6.147 A205.9248 
N543 X-223.415 Y21.554 Z-6.668 A204.2109 
N544 X-223.429 Y21.222 Z-7.189 A202.4680 
N545 X-223.438 Y20.862 Z-7.712 A200.6828 
N546 X-223.439 Y20.466 Z-8.242 A198.8470 
N547 X-223.430 Y20.027 Z-8.780 A196.9531 
N548 X-223.411 Y19.536 Z-9.326 A194.9919 
N549 X-223.378 Y18.981 Z-9.885 A192.9438 
N550 X-223.329 Y18.352 Z-10.453 A190.8045 
N551 X-223.258 Y17.635 Z-11.020 A188.6116 
N552 X-223.158 Y16.817 Z-11.565 A186.4510 
N553 X-223.023 Y15.888 Z-12.063 A184.4290 
N554 X-222.846 Y14.844 Z-12.489 A182.6603 
N555 X-222.624 Y13.683 Z-12.821 A181.2510 
N556 X-222.355 Y12.409 Z-13.049 A180.2725 
N557 X-222.041 Y11.026 Z-13.181 A179.7176 
N558 X-221.690 Y9.543 Z-13.241 A179.4899 
N559 X-221.309 Y7.969 Z-13.263 A179.4548 
N560 X-220.908 Y6.317 Z-13.273 A179.4893 
N561 X-220.492 Y4.605 Z-13.285 A179.5261 
N562 X-220.067 Y2.854 Z-13.304 A179.5436 
N563 X-219.640 Y1.087 Z-13.327 A179.5471 
N564 X-219.216 Y-0.669 Z-13.351 
N565 X-218.800 Y-2.391 Z-13.377 
N566 X-218.398 Y-4.055 Z-13.403 
N567 X-218.015 Y-5.641 Z-13.428 
N568 X-217.656 Y-7.132 Z-13.451 
N569 X-217.322 Y-8.515 Z-13.475 A179.5326 
N570 X-217.022 Y-9.775 Z-13.520 A179.3807 
N571 X-216.758 Y-10.910 Z-13.589 A179.0657 
N572 X-216.531 Y-11.917 Z-13.694 A178.5206 
N573 X-216.342 Y-12.804 Z-13.840 A177.7035 
N574 X-216.188 Y-13.577 Z-14.033 A176.5852 
N575 X-216.068 Y-14.252 Z-14.275 A175.1512 
N576 X-215.978 Y-14.839 Z-14.565 A173.4120 
N577 X-215.913 Y-15.358 Z-14.900 A171.3862 
N578 X-215.867 Y-15.819 Z-15.264 A169.1671 
N579 X-215.835 Y-16.240 Z-15.647 A166.8080 
N580 X-215.811 Y-16.627 Z-16.033 A164.4051 
N581 X-215.793 Y-16.981 Z-16.404 A162.0613 
N582 X-215.777 Y-17.312 Z-16.761 A159.7815 
N583 X-215.764 Y-17.630 Z-17.107 A157.5322 
N584 X-215.750 Y-17.938 Z-17.443 A155.3179 
N585 X-215.736 Y-18.242 Z-17.772 A153.1147 
N586 X-215.722 Y-18.525 Z-18.072 A151.0709 
N587 X-215.706 Y-18.816 Z-18.371 A148.9912 
N588 X-215.688 Y-19.103 Z-18.654 A146.9705 
N589 X-215.668 Y-19.390 Z-18.927 A144.9803 
N590 X-215.646 Y-19.677 Z-19.188 A143.0258 
N591 X-215.621 Y-19.972 Z-19.442 A141.0592 
N592 X-215.594 Y-20.257 Z-19.676 A139.1932 
N593 X-215.564 Y-20.559 Z-19.911 A137.2561 
N594 X-215.532 Y-20.850 Z-20.125 A135.4235 
N595 X-215.497 Y-21.148 Z-20.332 A133.5787 
N596 X-215.459 Y-21.461 Z-20.536 A131.6830 
N597 X-215.419 Y-21.760 Z-20.719 A129.8974 
N598 X-215.376 Y-22.070 Z-20.897 A128.0811 
N599 X-215.330 Y-22.389 Z-21.068 A126.2340 
N600 X-215.282 Y-22.703 Z-21.224 A124.4493 
N601 X-215.231 Y-23.023 Z-21.372 A122.6542 
N602 X-215.177 Y-23.350 Z-21.511 A120.8426 
N603 X-215.120 Y-23.679 Z-21.639 A119.0471 
N604 X-215.061 Y-24.009 Z-21.757 A117.2612 
N605 X-214.999 Y-24.343 Z-21.863 A115.4742 
N606 X-214.934 Y-24.680 Z-21.960 A113.6860 
N607 X-214.867 Y-25.021 Z-22.045 A111.8956 
N608 X-214.797 Y-25.362 Z-22.119 A110.1191 
N609 X-214.725 Y-25.702 Z-22.181 A108.3611 
N610 X-214.649 Y-26.052 Z-22.233 A106.5569 
N611 X-214.572 Y-26.399 Z-22.273 A104.7827 
N612 X-214.494 Y-26.740 Z-22.300 A103.0438 
N613 X-214.410 Y-27.092 Z-22.315 A101.2500 
N614 X-214.326 Y-27.440 Z-22.318 A99.4848 
N615 X-214.242 Y-27.778 Z-22.309 A97.7717 
N616 X-214.152 Y-28.130 Z-22.287 A95.9841 
N617 X-214.061 Y-28.474 Z-22.252 A94.2384 
N618 X-213.971 Y-28.808 Z-22.205 A92.5345 
N619 X-213.874 Y-29.159 Z-22.141 A90.7385 
N620 X-213.779 Y-29.492 Z-22.067 A89.0232 
N621 X-213.678 Y-29.835 Z-21.976 A87.2438 
N622 X-213.577 Y-30.168 Z-21.871 A85.4960 
N623 X-213.473 Y-30.504 Z-21.750 A83.7190 
N624 X-213.367 Y-30.833 Z-21.612 A81.9483 
N625 X-213.257 Y-31.166 Z-21.453 A80.1307 
N626 X-213.147 Y-31.486 Z-21.280 A78.3499 
N627 X-213.026 Y-31.823 Z-21.072 A76.4256 
N628 X-212.903 Y-32.153 Z-20.841 A74.4873 
N629 X-212.776 Y-32.479 Z-20.581 A72.5076 
N630 X-212.643 Y-32.799 Z-20.285 A70.4690 
N631 X-212.506 Y-33.107 Z-19.948 A68.3842 
N632 X-212.367 Y-33.390 Z-19.572 A66.3062 
N633 X-212.230 Y-33.640 Z-19.155 A64.2566 
N634 X-212.093 Y-33.848 Z-18.690 A62.2434 
N635 X-211.963 Y-33.998 Z-18.180 A60.3288 
N636 X-211.841 Y-34.078 Z-17.626 A58.5540 
N637 X-211.732 Y-34.077 Z-17.030 A56.9611 
N638 X-211.636 Y-33.988 Z-16.391 A55.5605 
N639 X-211.555 Y-33.805 Z-15.708 A54.3634 
N640 X-211.489 Y-33.528 Z-14.980 A53.3686 
N641 X-211.438 Y-33.156 Z-14.206 A52.5693 
N642 X-211.400 Y-32.692 Z-13.385 A51.9518 
N643 X-211.374 Y-32.143 Z-12.519 A51.4941 
N644 X-211.359 Y-31.518 Z-11.606 A51.1708 
N645 X-211.353 Y-30.827 Z-10.653 A50.9565 
N646 X-211.353 Y-30.082 Z-9.663 A50.8265 
N647 X-211.357 Y-29.298 Z-8.645 A50.7575 
N648 X-211.364 Y-28.488 Z-7.608 A50.7260 
N649 X-211.372 Y-27.668 Z-6.563 A50.7063 
N650 X-211.379 Y-26.852 Z-5.518 A50.6657 
N651 X-211.383 Y-26.058 Z-4.482 A50.5603 
N652 X-211.380 Y-25.302 Z-3.461 A50.3289 
N653 X-211.366 Y-24.601 Z-2.457 A49.8936 
N654 X-211.340 Y-23.968 Z-1.472 A49.1868 
N655 X-211.299 Y-23.408 Z-0.507 A48.1710 
N656 X-211.246 Y-22.918 Z0.432 A46.8516 
N657 X-211.184 Y-22.488 Z1.341 A45.2817 
N658 X-211.116 Y-22.107 Z2.212 A43.5267 
N659 X-211.048 Y-21.763 Z3.041 A41.6497 
N660 X-210.981 Y-21.445 Z3.828 A39.7046 
N661 X-210.917 Y-21.147 Z4.572 A37.7337 
N662 X-210.858 Y-20.860 Z5.274 A35.7732 
N663 X-210.805 Y-20.578 Z5.937 A33.8455 
N664 X-210.758 Y-20.296 Z6.565 A31.9661 
N665 X-210.718 Y-20.010 Z7.163 A30.1293 
N666 X-210.684 Y-19.718 Z7.738 A28.3237 
N667 X-210.655 Y-19.414 Z8.295 A26.5358 
N668 X-210.632 Y-19.096 Z8.841 A24.7515 
N669 X-210.616 Y-18.758 Z9.381 A22.9570 
N670 X-210.606 Y-18.394 Z9.918 A21.1383 
N671 X-210.604 Y-17.997 Z10.458 A19.2800 
N672 X-210.610 Y-17.559 Z11.003 A17.3667 
N673 X-210.627 Y-17.072 Z11.558 A15.3844 
N674 X-210.657 Y-16.525 Z12.120 A13.3295 
N675 X-210.705 Y-15.906 Z12.684 A11.2268 
N676 X-210.775 Y-15.204 Z13.237 A9.1253 
N677 X-210.873 Y-14.407 Z13.763 A7.0901 
N678 X-211.003 Y-13.509 Z14.245 A5.1932 
N679 X-211.171 Y-12.505 Z14.666 A3.5070 
N680 X-211.379 Y-11.395 Z15.013 A2.0980 
N681 X-211.627 Y-10.181 Z15.275 A1.0229 
N682 X-211.915 Y-8.869 Z15.452 A0.3036 
N683 X-212.238 Y-7.467 Z15.557 A359.9031 
N684 X-212.590 Y-5.985 Z15.611 A359.7417 
N685 X-212.963 Y-4.438 Z15.637 A359.7164 
N686 X-213.350 Y-2.840 Z15.657 A359.7414 
N687 X-213.743 Y-1.212 Z15.677 A359.7714 
N688 X-214.139 Y0.425 Z15.702 A359.7909 
N689 X-214.531 Y2.050 Z15.729 A359.8085 
N690 X-214.913 Y3.639 Z15.759 A359.8202 
N691 X-215.282 Y5.174 Z15.792 
N692 X-215.634 Y6.640 Z15.824 
N693 X-215.967 Y8.025 Z15.856 A359.8042 
N694 X-216.268 Y9.307 Z15.923 A359.5707 
N695 X-216.536 Y10.481 Z16.021 A359.1311 
N696 X-216.771 Y11.543 Z16.154 A358.4392 
N697 X-216.973 Y12.495 Z16.322 A357.4961 
N698 X-217.143 Y13.342 Z16.525 A356.2963 
N699 X-217.283 Y14.093 Z16.762 A354.8486 
N700 X-217.396 Y14.760 Z17.029 A353.1754 
N701 X-217.487 Y15.353 Z17.322 A351.3141 
N702 X-217.559 Y15.881 Z17.632 A349.3205 
N703 X-217.618 Y16.363 Z17.955 A347.2157 
N704 X-217.664 Y16.802 Z18.282 A345.0649 
N705 X-217.703 Y17.203 Z18.606 A342.9122 
N706 X-217.736 Y17.584 Z18.930 A340.7303 
N707 X-217.765 Y17.935 Z19.239 A338.6259 
N708 X-217.793 Y18.274 Z19.540 A336.5389 
N709 X-217.819 Y18.598 Z19.829 A334.4969 
N710 X-217.844 Y18.913 Z20.108 A332.4989 
N711 X-217.870 Y19.221 Z20.377 A330.5273 
N712 X-217.897 Y19.528 Z20.639 A328.5692 
N713 X-217.924 Y19.826 Z20.888 A326.6684 
N714 X-217.952 Y20.122 Z21.127 A324.7960 
N715 X-217.983 Y20.426 Z21.364 A322.8912 
N716 X-218.014 Y20.721 Z21.584 A321.0634 
N717 X-218.049 Y21.025 Z21.802 A319.2021 
N718 X-218.084 Y21.327 Z22.009 A317.3735 
N719 X-218.123 Y21.636 Z22.211 A315.5244 
N720 X-218.163 Y21.944 Z22.401 A313.7094 
N721 X-218.206 Y22.261 Z22.587 A311.8602 
N722 X-218.251 Y22.573 Z22.758 A310.0675 
N723 X-218.299 Y22.898 Z22.926 A308.2264 
N724 X-218.349 Y23.218 Z23.080 A306.4343 
N725 X-218.402 Y23.546 Z23.227 A304.6211 
N726 X-218.458 Y23.877 Z23.365 A302.8087 
N727 X-218.516 Y24.208 Z23.491 A301.0179 
N728 X-218.577 Y24.546 Z23.608 A299.2083 
N729 X-218.639 Y24.883 Z23.714 A297.4201 
N730 X-218.705 Y25.224 Z23.809 A295.6317 
N731 X-218.773 Y25.567 Z23.894 A293.8423 
N732 X-218.844 Y25.912 Z23.968 A292.0602 
N733 X-218.917 Y26.257 Z24.030 A290.2871 
N734 X-218.992 Y26.605 Z24.081 A288.5109 
N735 X-219.070 Y26.953 Z24.120 A286.7414 
N736 X-219.149 Y27.297 Z24.147 A284.9968 
N737 X-219.233 Y27.650 Z24.163 A283.2173 
N738 X-219.317 Y27.996 Z24.166 A281.4708 
N739 X-219.403 Y28.344 Z24.157 A279.7181 
N740 X-219.493 Y28.693 Z24.135 A277.9610 
N741 X-219.582 Y29.035 Z24.101 A276.2384 
N742 X-219.677 Y29.387 Z24.053 A274.4565 
N743 X-219.771 Y29.726 Z23.992 A272.7348 
N744 X-219.871 Y30.076 Z23.916 A270.9448 
N745 X-219.969 Y30.412 Z23.828 A269.2182 
N746 X-220.073 Y30.758 Z23.721 A267.4217 
N747 X-220.176 Y31.090 Z23.602 A265.6839 
N748 X-220.286 Y31.433 Z23.461 A263.8588 
N749 X-220.397 Y31.768 Z23.303 A262.0532 
N750 X-220.509 Y32.096 Z23.128 A260.2509 
N751 X-220.628 Y32.430 Z22.924 A258.3685 
N752 X-220.750 Y32.756 Z22.697 A256.4831 
N753 X-220.874 Y33.075 Z22.443 A254.5768 
N754 X-221.003 Y33.385 Z22.156 A252.6373 
N755 X-221.134 Y33.683 Z21.835 A250.6729 
N756 X-221.267 Y33.958 Z21.480 A248.7225 
N757 X-221.404 Y34.213 Z21.076 A246.7361 
N758 X-221.537 Y34.428 Z20.637 A244.8186 
N759 X-221.669 Y34.601 Z20.149 A242.9391 
N760 X-221.796 Y34.720 Z19.615 A241.1385 
N761 X-221.915 Y34.774 Z19.039 A239.4594 
N762 X-222.025 Y34.755 Z18.417 A237.9219 
N763 X-222.123 Y34.656 Z17.754 A236.5537 
N764 X-222.207 Y34.471 Z17.051 A235.3703 
N765 X-222.277 Y34.200 Z16.309 A234.3788 
N766 X-222.333 Y33.843 Z15.532 A233.5826 
N767 X-222.375 Y33.403 Z14.722 A232.9851 
N768 X-222.403 Y32.886 Z13.884 A232.5803 
N769 X-222.419 Y32.303 Z13.020 A232.3457 
N770 X-222.427 Y31.668 Z12.134 A232.2487 
N771 X-222.429 Y30.995 Z11.229 A232.2422 
N772 X-222.428 Y30.301 Z10.311 A232.2878 
N773 X-222.429 Y29.606 Z9.383 A232.3129 
N774 X-222.432 Y28.917 Z8.452 
N775 X-222.441 Y28.251 Z7.521 A232.2110 
N776 X-222.461 Y27.635 Z6.591 A231.8717 
N777 X-222.496 Y27.079 Z5.664 A231.2533 
N778 X-222.546 Y26.589 Z4.743 A230.3060 
N779 X-222.610 Y26.164 Z3.831 A229.0225 
N780 X-222.686 Y25.798 Z2.932 A227.4237 
N781 X-222.769 Y25.478 Z2.053 A225.5781 
N782 X-222.854 Y25.186 Z1.204 A223.5914 
N783 X-222.934 Y24.905 Z0.397 A221.5691 
N784 X-223.005 Y24.626 Z-0.364 A219.5853 
N785 X-223.068 Y24.343 Z-1.080 A217.6679 
N786 X-223.122 Y24.056 Z-1.755 A215.8189 
N787 X-223.168 Y23.763 Z-2.394 A214.0301 
N788 X-223.207 Y23.462 Z-3.004 A212.2933 
N789 X-223.239 Y23.151 Z-3.590 A210.6008 
N790 X-223.264 Y22.828 Z-4.156 A208.9424 
N791 X-223.283 Y22.490 Z-4.706 A207.3073 
N792 X-223.295 Y22.134 Z-5.246 A205.6829 
N793 X-223.300 Y21.755 Z-5.779 A204.0555 
N794 X-223.299 Y21.351 Z-6.310 A202.4113 
N795 X-223.291 Y20.915 Z-6.842 A200.7372 
N796 X-223.274 Y20.442 Z-7.377 A199.0252 
N797 X-223.246 Y19.924 Z-7.917 A197.2671 
N798 X-223.207 Y19.353 Z-8.463 A195.4557 
N799 X-223.154 Y18.720 Z-9.016 A193.5758 
N800 X-223.085 Y18.015 Z-9.576 A191.6162 
N801 X-222.996 Y17.227 Z-10.137 A189.5943 
N802 X-222.881 Y16.347 Z-10.683 A187.5699 
N803 X-222.735 Y15.365 Z-11.193 A185.6241 
N804 X-222.553 Y14.277 Z-11.645 A183.8628 
N805 X-222.329 Y13.084 Z-12.012 A182.4118 
N806 X-222.062 Y11.790 Z-12.277 A181.3757 
N807 X-221.754 Y10.404 Z-12.445 A180.7712 
N808 X-221.412 Y8.935 Z-12.538 A180.5080 
N809 X-221.046 Y7.396 Z-12.591 A180.4478 
N810 X-220.664 Y5.801 Z-12.632 A180.4647 
N811 X-220.273 Y4.170 Z-12.673 A180.4917 
N812 X-219.878 Y2.521 Z-12.718 A180.5087 
N813 X-219.486 Y0.877 Z-12.766 A180.5201 
N814 X-219.099 Y-0.741 Z-12.814 A180.5362 
N815 X-218.725 Y-2.311 Z-12.865 A180.5384 
N816 X-218.367 Y-3.815 Z-12.916 
N817 X-218.028 Y-5.240 Z-12.964 
N818 X-217.711 Y-6.575 Z-13.013 A180.5148 
N819 X-217.426 Y-7.801 Z-13.091 A180.2992 
N820 X-217.174 Y-8.915 Z-13.202 A179.8587 
N821 X-216.959 Y-9.916 Z-13.360 A179.1017 
N822 X-216.779 Y-10.809 Z-13.571 A177.9859 
N823 X-216.634 Y-11.602 Z-13.834 A176.5096 
N824 X-216.518 Y-12.306 Z-14.136 A174.7421 
N825 X-216.424 Y-12.933 Z-14.461 A172.7770 
N826 X-216.349 Y-13.494 Z-14.795 A170.7041 
N827 X-216.287 Y-13.995 Z-15.125 A168.5987 
N828 X-216.236 Y-14.453 Z-15.455 A166.4605 
N829 X-216.193 Y-14.870 Z-15.778 A164.3310 
N830 X-216.157 Y-15.261 Z-16.097 A162.1936 
N831 X-216.125 Y-15.621 Z-16.402 A160.1238 
N832 X-216.095 Y-15.968 Z-16.703 A158.0500 
N833 X-216.068 Y-16.298 Z-16.993 A156.0220 
N834 X-216.042 Y-16.616 Z-17.272 A154.0372 
N835 X-216.016 Y-16.924 Z-17.539 A152.1013 
N836 X-215.989 Y-17.225 Z-17.797 A150.1926 
N837 X-215.962 Y-17.527 Z-18.049 A148.2906 
N838 X-215.934 Y-17.829 Z-18.296 A146.3856 
N839 X-215.904 Y-18.125 Z-18.528 A144.5382 
N840 X-215.873 Y-18.423 Z-18.754 A142.6952 
N841 X-215.839 Y-18.729 Z-18.978 A140.8192 
N842 X-215.805 Y-19.027 Z-19.186 A139.0124 
N843 X-215.767 Y-19.338 Z-19.393 A137.1520 
N844 X-215.728 Y-19.640 Z-19.585 A135.3609 
N845 X-215.686 Y-19.957 Z-19.775 A133.5145 
N846 X-215.643 Y-20.266 Z-19.950 A131.7333 
N847 X-215.596 Y-20.588 Z-20.122 A129.9017 
N848 X-215.547 Y-20.905 Z-20.280 A128.1202 
N849 X-215.496 Y-21.230 Z-20.432 A126.3120 
N850 X-215.442 Y-21.557 Z-20.574 A124.5173 
N851 X-215.386 Y-21.887 Z-20.706 A122.7278 
N852 X-215.327 Y-22.222 Z-20.829 A120.9247 
N853 X-215.266 Y-22.555 Z-20.941 A119.1516 
N854 X-215.202 Y-22.894 Z-21.043 A117.3652 
N855 X-215.135 Y-23.234 Z-21.134 A115.5879 
N856 X-215.067 Y-23.576 Z-21.215 A113.8150 
N857 X-214.996 Y-23.920 Z-21.285 A112.0431 
N858 X-214.922 Y-24.266 Z-21.344 A110.2744 
N859 X-214.846 Y-24.611 Z-21.391 A108.5175 
N860 X-214.768 Y-24.959 Z-21.427 A106.7554 
N861 X-214.688 Y-25.305 Z-21.452 A105.0028 
N862 X-214.606 Y-25.650 Z-21.464 A103.2646 
N863 X-214.521 Y-26.000 Z-21.465 A101.5039 
N864 X-214.435 Y-26.344 Z-21.454 A99.7787 
N865 X-214.345 Y-26.692 Z-21.430 A98.0249 
N866 X-214.255 Y-27.035 Z-21.394 A96.2984 
N867 X-214.162 Y-27.378 Z-21.345 A94.5641 
N868 X-214.067 Y-27.719 Z-21.283 A92.8348 
N869 X-213.971 Y-28.056 Z-21.208 A91.1138 
N870 X-213.873 Y-28.393 Z-21.119 A89.3813 
N871 X-213.772 Y-28.726 Z-21.017 A87.6570 
N872 X-213.670 Y-29.057 Z-20.899 A85.9261 
N873 X-213.565 Y-29.385 Z-20.767 A84.1852 
N874 X-213.461 Y-29.703 Z-20.621 A82.4732 
N875 X-213.351 Y-30.028 Z-20.453 A80.6992 
N876 X-213.240 Y-30.342 Z-20.270 A78.9428 
N877 X-213.128 Y-30.649 Z-20.069 A77.1876 
N878 X-213.011 Y-30.958 Z-19.842 A75.3722 
N879 X-212.892 Y-31.259 Z-19.592 A73.5427 
N880 X-212.770 Y-31.549 Z-19.316 A71.6990 
N881 X-212.646 Y-31.828 Z-19.012 A69.8380 
N882 X-212.520 Y-32.091 Z-18.678 A67.9695 
N883 X-212.390 Y-32.340 Z-18.302 A66.0505 
N884 X-212.260 Y-32.561 Z-17.890 A64.1383 
N885 X-212.130 Y-32.751 Z-17.435 A62.2328 
N886 X-212.004 Y-32.898 Z-16.941 A60.3721 
N887 X-211.881 Y-32.994 Z-16.403 A58.5700 
N888 X-211.765 Y-33.031 Z-15.821 A56.8414 
N889 X-211.658 Y-32.997 Z-15.196 A55.2266 
N890 X-211.563 Y-32.884 Z-14.530 A53.7569 
N891 X-211.483 Y-32.685 Z-13.829 A52.4671 
N892 X-211.419 Y-32.394 Z-13.094 A51.3716 
N893 X-211.371 Y-32.013 Z-12.327 A50.4780 
N894 X-211.339 Y-31.543 Z-11.532 A49.7864 
N895 X-211.323 Y-30.990 Z-10.710 A49.2933 
N896 X-211.321 Y-30.362 Z-9.865 A48.9822 
N897 X-211.330 Y-29.673 Z-8.997 A48.8171 
N898 X-211.346 Y-28.938 Z-8.107 A48.7476 
N899 X-211.365 Y-28.177 Z-7.197 A48.7115 
N900 X-211.382 Y-27.405 Z-6.270 A48.6487 
N901 X-211.396 Y-26.641 Z-5.329 A48.5054 
N902 X-211.403 Y-25.898 Z-4.381 A48.2294 
N903 X-211.401 Y-25.190 Z-3.430 A47.7684 
N904 X-211.389 Y-24.527 Z-2.482 A47.0827 
N905 X-211.366 Y-23.913 Z-1.542 A46.1532 
N906 X-211.334 Y-23.349 Z-0.617 A44.9881 
N907 X-211.295 Y-22.829 Z0.285 A43.6227 
N908 X-211.252 Y-22.347 Z1.157 A42.0971 
N909 X-211.207 Y-21.899 Z1.996 A40.4499 
N910 X-211.162 Y-21.477 Z2.799 A38.7170 
N911 X-211.119 Y-21.076 Z3.565 A36.9312 
N912 X-211.079 Y-20.690 Z4.295 A35.1223 
N913 X-211.044 Y-20.312 Z4.990 A33.3139 
N914 X-211.013 Y-19.938 Z5.653 A31.5182 
N915 X-210.988 Y-19.565 Z6.288 A29.7371 
N916 X-210.967 Y-19.186 Z6.900 A27.9655 
N917 X-210.953 Y-18.799 Z7.494 A26.1989 
N918 X-210.944 Y-18.397 Z8.075 A24.4278 
N919 X-210.942 Y-17.974 Z8.648 A22.6419 
N920 X-210.947 Y-17.525 Z9.217 A20.8292 
N921 X-210.961 Y-17.041 Z9.785 A18.9786 
N922 X-210.984 Y-16.515 Z10.355 A17.0791 
N923 X-211.020 Y-15.938 Z10.928 A15.1244 
N924 X-211.071 Y-15.299 Z11.501 A13.1248 
N925 X-211.140 Y-14.589 Z12.067 A11.1111 
N926 X-211.233 Y-13.798 Z12.613 A9.1284 
N927 X-211.353 Y-12.918 Z13.127 A7.2298 
N928 X-211.505 Y-11.947 Z13.593 A5.4797 
N929 X-211.691 Y-10.882 Z13.996 A3.9508 
N930 X-211.912 Y-9.728 Z14.323 A2.7173 
N931 X-212.170 Y-8.491 Z14.565 A1.8341 
N932 X-212.461 Y-7.179 Z14.728 A1.2946 
N933 X-212.777 Y-5.805 Z14.831 A1.0388 
N934 X-213.113 Y-4.381 Z14.896 A0.9704 
N935 X-213.460 Y-2.922 Z14.946 A0.9938 
N936 X-213.812 Y-1.447 Z14.993 A1.0417 
N937 X-214.163 Y0.027 Z15.043 A1.0860 
N938 X-214.507 Y1.480 Z15.103 A1.0867 
N939 X-214.842 Y2.899 Z15.163 
N940 X-215.166 Y4.269 Z15.221 
N941 X-215.471 Y5.571 Z15.294 A0.9776 
N942 X-215.750 Y6.790 Z15.396 A0.6744 
N943 X-216.001 Y7.920 Z15.534 A0.1237 
N944 X-216.221 Y8.956 Z15.712 A359.2834 
N945 X-216.411 Y9.899 Z15.928 A358.1538 
N946 X-216.575 Y10.752 Z16.174 A356.7716 
N947 X-216.713 Y11.521 Z16.441 A355.1842 
N948 X-216.831 Y12.215 Z16.724 A353.4354 
N949 X-216.930 Y12.840 Z17.017 A351.5716 
N950 X-217.013 Y13.407 Z17.314 A349.6210 
N951 X-217.085 Y13.927 Z17.614 A347.6131 
N952 X-217.147 Y14.400 Z17.908 A345.6060 
N953 X-217.201 Y14.839 Z18.196 A343.6000 
N954 X-217.250 Y15.251 Z18.479 A341.5956 
N955 X-217.293 Y15.634 Z18.751 A339.6376 
N956 X-217.334 Y16.004 Z19.020 A337.6730 
N957 X-217.372 Y16.352 Z19.275 A335.7693 
N958 X-217.409 Y16.692 Z19.525 A333.8726 
N959 X-217.445 Y17.023 Z19.768 A331.9937 
N960 X-217.481 Y17.348 Z20.003 A330.1341 
N961 X-217.518 Y17.668 Z20.231 A328.2886 
N962 X-217.555 Y17.987 Z20.452 A326.4499 
N963 X-217.593 Y18.305 Z20.667 A324.6153 
N964 X-217.632 Y18.624 Z20.876 A322.7829 
N965 X-217.673 Y18.937 Z21.074 A320.9898 
N966 X-217.715 Y19.255 Z21.267 A319.1821 
N967 X-217.759 Y19.578 Z21.454 A317.3577 
N968 X-217.805 Y19.898 Z21.631 A315.5692 
N969 X-217.853 Y20.222 Z21.801 A313.7708 
N970 X-217.903 Y20.551 Z21.964 A311.9617 
N971 X-217.955 Y20.878 Z22.116 A310.1776 
N972 X-218.010 Y21.213 Z22.262 A308.3700 
N973 X-218.067 Y21.546 Z22.396 A306.5922 
N974 X-218.126 Y21.884 Z22.523 A304.7990 
N975 X-218.187 Y22.223 Z22.639 A303.0206 
N976 X-218.251 Y22.565 Z22.746 A301.2368 
N977 X-218.318 Y22.909 Z22.842 A299.4611 
N978 X-218.386 Y23.255 Z22.928 A297.6850 
N979 X-218.457 Y23.602 Z23.003 A295.9154 
N980 X-218.531 Y23.951 Z23.068 A294.1471 
N981 X-218.606 Y24.301 Z23.121 A292.3850 
N982 X-218.684 Y24.653 Z23.164 A290.6243 
N983 X-218.765 Y25.004 Z23.194 A288.8709 
N984 X-218.847 Y25.356 Z23.213 A287.1183 
N985 X-218.932 Y25.707 Z23.220 A285.3754 
N986 X-219.019 Y26.059 Z23.214 A283.6291 
N987 X-219.107 Y26.408 Z23.196 A281.8977 
N988 X-219.199 Y26.760 Z23.166 A280.1545 
N989 X-219.291 Y27.105 Z23.123 A278.4383 
N990 X-219.387 Y27.454 Z23.066 A276.6946 
N991 X-219.483 Y27.798 Z22.997 A274.9757 
N992 X-219.583 Y28.143 Z22.912 A273.2382 
N993 X-219.685 Y28.485 Z22.814 A271.5045 
N994 X-219.787 Y28.819 Z22.702 A269.7941 
N995 X-219.894 Y29.157 Z22.572 A268.0427 
N996 X-220.001 Y29.489 Z22.427 A266.3036 
N997 X-220.111 Y29.815 Z22.265 A264.5704 
N998 X-220.223 Y30.138 Z22.085 A262.8225 
N999 X-220.339 Y30.460 Z21.882 A261.0429 
N1000 X-220.457 Y30.775 Z21.659 A259.2588 
N1001 X-220.577 Y31.081 Z21.412 A257.4653 
N1002 X-220.700 Y31.379 Z21.140 A255.6614 
N1003 X-220.824 Y31.664 Z20.840 A253.8487 
N1004 X-220.953 Y31.940 Z20.506 A251.9983 
N1005 X-221.084 Y32.198 Z20.137 A250.1460 
N1006 X-221.215 Y32.431 Z19.734 A248.3070 
N1007 X-221.346 Y32.634 Z19.293 A246.4885 
N1008 X-221.476 Y32.804 Z18.809 A244.6907 
N1009 X-221.604 Y32.931 Z18.282 A242.9356 
N1010 X-221.727 Y33.007 Z17.716 A241.2632 
N1011 X-221.843 Y33.023 Z17.109 A239.6870 
N1012 X-221.949 Y32.974 Z16.464 A238.2372 
N1013 X-222.045 Y32.854 Z15.785 A236.9344 
N1014 X-222.128 Y32.661 Z15.075 A235.7950 
N1015 X-222.199 Y32.393 Z14.337 A234.8332 
N1016 X-222.255 Y32.051 Z13.579 A234.0636 
N1017 X-222.297 Y31.640 Z12.804 A233.4901 
N1018 X-222.326 Y31.167 Z12.017 A233.0963 
N1019 X-222.345 Y30.646 Z11.219 A232.8504 
N1020 X-222.358 Y30.090 Z10.413 A232.7068 
N1021 X-222.367 Y29.515 Z9.601 A232.6121 
N1022 X-222.376 Y28.937 Z8.784 A232.5057 
N1023 X-222.389 Y28.374 Z7.962 A232.3130 
N1024 X-222.412 Y27.843 Z7.135 A231.9444 
N1025 X-222.447 Y27.358 Z6.301 A231.3222 
N1026 X-222.496 Y26.927 Z5.463 A230.3987 
N1027 X-222.558 Y26.549 Z4.623 A229.1712 
N1028 X-222.630 Y26.216 Z3.790 A227.6784 
N1029 X-222.708 Y25.919 Z2.969 A225.9743 
N1030 X-222.789 Y25.645 Z2.169 A224.1222 
N1031 X-222.867 Y25.384 Z1.394 A222.1876 
N1032 X-222.942 Y25.127 Z0.650 A220.2326 
N1033 X-223.008 Y24.866 Z-0.059 A218.3069 
N1034 X-223.067 Y24.597 Z-0.734 A216.4371 
N1035 X-223.117 Y24.318 Z-1.377 A214.6271 
N1036 X-223.159 Y24.027 Z-1.992 A212.8685 
N1037 X-223.194 Y23.723 Z-2.586 A211.1542 
N1038 X-223.221 Y23.403 Z-3.161 A209.4743 
N1039 X-223.242 Y23.064 Z-3.722 A207.8206 
N1040 X-223.255 Y22.703 Z-4.272 A206.1832 
N1041 X-223.261 Y22.317 Z-4.816 A204.5511 
N1042 X-223.258 Y21.902 Z-5.356 A202.9144 
N1043 X-223.248 Y21.451 Z-5.896 A201.2611 
N1044 X-223.227 Y20.960 Z-6.438 A199.5822 
N1045 X-223.196 Y20.420 Z-6.983 A197.8715 
N1046 X-223.151 Y19.824 Z-7.531 A196.1259 
N1047 X-223.091 Y19.163 Z-8.084 A194.3357 
N1048 X-223.015 Y18.429 Z-8.643 A192.4846 
N1049 X-222.918 Y17.613 Z-9.204 A190.5673 
N1050 X-222.798 Y16.704 Z-9.756 A188.6245 
N1051 X-222.648 Y15.695 Z-10.280 A186.7312 
N1052 X-222.463 Y14.580 Z-10.754 A184.9885 
N1053 X-222.237 Y13.360 Z-11.147 A183.5374 
N1054 X-221.969 Y12.040 Z-11.440 A182.5023 
N1055 X-221.660 Y10.629 Z-11.634 A181.9092 
N1056 X-221.318 Y9.139 Z-11.756 A181.6596 
N1057 X-220.953 Y7.583 Z-11.839 A181.6059 
N1058 X-220.574 Y5.977 Z-11.912 A181.6215 
N1059 X-220.188 Y4.340 Z-11.987 A181.6441 
N1060 X-219.800 Y2.691 Z-12.066 A181.6586 
N1061 X-219.415 Y1.054 Z-12.146 A181.6708 
N1062 X-219.037 Y-0.552 Z-12.225 A181.6900 
N1063 X-218.673 Y-2.104 Z-12.306 A181.6905 
N1064 X-218.325 Y-3.589 Z-12.386 
N1065 X-217.996 Y-4.993 Z-12.461 
N1066 X-217.691 Y-6.302 Z-12.543 A181.6144 
N1067 X-217.419 Y-7.502 Z-12.655 A181.3324 
N1068 X-217.180 Y-8.590 Z-12.805 A180.7816 
N1069 X-216.979 Y-9.568 Z-13.006 A179.8758 
N1070 X-216.813 Y-10.440 Z-13.262 A178.5812 
N1071 X-216.679 Y-11.217 Z-13.567 A176.9263 
N1072 X-216.571 Y-11.910 Z-13.902 A175.0107 
N1073 X-216.484 Y-12.530 Z-14.249 A172.9456 
N1074 X-216.411 Y-13.086 Z-14.594 A170.8261 
N1075 X-216.350 Y-13.586 Z-14.926 A168.7158 
N1076 X-216.298 Y-14.044 Z-15.251 A166.6054 
N1077 X-216.254 Y-14.463 Z-15.565 A164.5266 
N1078 X-216.214 Y-14.854 Z-15.870 A162.4661 
N1079 X-216.179 Y-15.218 Z-16.162 A160.4617 
N1080 X-216.146 Y-15.567 Z-16.447 A158.4690 
N1081 X-216.116 Y-15.896 Z-16.719 A156.5381 
N1082 X-216.086 Y-16.215 Z-16.982 A154.6358 
N1083 X-216.057 Y-16.527 Z-17.238 A152.7487 
N1084 X-216.028 Y-16.835 Z-17.487 A150.8769 
N1085 X-215.998 Y-17.136 Z-17.727 A149.0355 
N1086 X-215.968 Y-17.434 Z-17.958 A147.2221 
N1087 X-215.937 Y-17.733 Z-18.185 A145.3991 
N1088 X-215.903 Y-18.038 Z-18.408 A143.5573 
N1089 X-215.869 Y-18.336 Z-18.619 A141.7665 
N1090 X-215.833 Y-18.639 Z-18.825 A139.9614 
N1091 X-215.795 Y-18.947 Z-19.026 A138.1449 
N1092 X-215.755 Y-19.253 Z-19.216 A136.3607 
N1093 X-215.712 Y-19.568 Z-19.403 A134.5353 
N1094 X-215.669 Y-19.878 Z-19.577 A132.7654 
N1095 X-215.622 Y-20.200 Z-19.747 A130.9453 
N1096 X-215.573 Y-20.516 Z-19.905 A129.1807 
N1097 X-215.522 Y-20.842 Z-20.058 A127.3743 
N1098 X-215.469 Y-21.165 Z-20.199 A125.6050 
N1099 X-215.413 Y-21.496 Z-20.333 A123.8144 
N1100 X-215.355 Y-21.827 Z-20.456 A122.0366 
N1101 X-215.294 Y-22.161 Z-20.570 A120.2622 
N1102 X-215.231 Y-22.499 Z-20.675 A118.4794 
N1103 X-215.166 Y-22.835 Z-20.769 A116.7202 
N1104 X-215.098 Y-23.177 Z-20.854 A114.9470 
N1105 X-215.028 Y-23.518 Z-20.927 A113.1906 
N1106 X-214.956 Y-23.861 Z-20.991 A111.4341 
N1107 X-214.882 Y-24.205 Z-21.043 A109.6793 
N1108 X-214.805 Y-24.549 Z-21.085 A107.9316 
N1109 X-214.727 Y-24.893 Z-21.115 A106.1919 
N1110 X-214.646 Y-25.240 Z-21.135 A104.4458 
N1111 X-214.563 Y-25.584 Z-21.143 A102.7152 
N1112 X-214.479 Y-25.928 Z-21.140 A100.9830 
N1113 X-214.392 Y-26.272 Z-21.125 A99.2542 
N1114 X-214.304 Y-26.611 Z-21.099 A97.5447 
N1115 X-214.213 Y-26.955 Z-21.061 A95.8091 
N1116 X-214.122 Y-27.291 Z-21.012 A94.1116 
N1117 X-214.027 Y-27.631 Z-20.949 A92.3809 
N1118 X-213.933 Y-27.963 Z-20.875 A90.6837 
N1119 X-213.835 Y-28.298 Z-20.788 A88.9615 
N1120 X-213.737 Y-28.625 Z-20.689 A87.2627 
N1121 X-213.636 Y-28.953 Z-20.576 A85.5406 
N1122 X-213.534 Y-29.273 Z-20.450 A83.8409 
N1123 X-213.429 Y-29.597 Z-20.308 A82.0994 
N1124 X-213.325 Y-29.909 Z-20.155 A80.3944 
N1125 X-213.214 Y-30.230 Z-19.979 A78.6078 
N1126 X-213.103 Y-30.543 Z-19.789 A76.8323 
N1127 X-212.990 Y-30.847 Z-19.582 A75.0569 
N1128 X-212.871 Y-31.158 Z-19.346 A73.1920 
N1129 X-212.749 Y-31.462 Z-19.087 A71.3022 
N1130 X-212.624 Y-31.758 Z-18.800 A69.3753 
N1131 X-212.495 Y-32.046 Z-18.482 A67.4047 
N1132 X-212.364 Y-32.319 Z-18.131 A65.4049 
N1133 X-212.232 Y-32.569 Z-17.745 A63.3950 
N1134 X-212.096 Y-32.797 Z-17.310 A61.3369 
N1135 X-211.965 Y-32.983 Z-16.841 A59.3309 
N1136 X-211.836 Y-33.121 Z-16.329 A57.3618 
N1137 X-211.715 Y-33.199 Z-15.773 A55.4757 
N1138 X-211.606 Y-33.202 Z-15.186 A53.7473 
N1139 X-211.512 Y-33.121 Z-14.565 A52.1963 
N1140 X-211.435 Y-32.948 Z-13.915 A50.8587 
N1141 X-211.376 Y-32.680 Z-13.238 A49.7502 
N1142 X-211.335 Y-32.317 Z-12.535 A48.8745 
N1143 X-211.313 Y-31.859 Z-11.807 A48.2322 
N1144 X-211.308 Y-31.315 Z-11.056 A47.8083 
N1145 X-211.317 Y-30.693 Z-10.278 A47.5658 
N1146 X-211.335 Y-30.009 Z-9.471 A47.4531 
N1147 X-211.360 Y-29.278 Z-8.635 A47.4081 
N1148 X-211.386 Y-28.519 Z-7.769 A47.3708 
N1149 X-211.411 Y-27.746 Z-6.876 A47.2884 
N1150 X-211.431 Y-26.975 Z-5.961 A47.1097 
N1151 X-211.444 Y-26.220 Z-5.030 A46.7827 
N1152 X-211.448 Y-25.493 Z-4.087 A46.2660 
N1153 X-211.443 Y-24.802 Z-3.141 A45.5357 
N1154 X-211.429 Y-24.150 Z-2.201 A44.5895 
N1155 X-211.408 Y-23.537 Z-1.274 A43.4473 
N1156 X-211.383 Y-22.961 Z-0.369 A42.1344 
N1157 X-211.354 Y-22.419 Z0.508 A40.6768 
N1158 X-211.323 Y-21.906 Z1.355 A39.1038 
N1159 X-211.293 Y-21.419 Z2.168 A37.4472 
N1160 X-211.264 Y-20.951 Z2.946 A35.7378 
N1161 X-211.238 Y-20.497 Z3.689 A34.0008 
N1162 X-211.216 Y-20.053 Z4.399 A32.2516 
N1163 X-211.198 Y-19.613 Z5.080 A30.4965 
N1164 X-211.185 Y-19.174 Z5.735 A28.7376 
N1165 X-211.177 Y-18.729 Z6.370 A26.9741 
N1166 X-211.174 Y-18.273 Z6.989 A25.2006 
N1167 X-211.178 Y-17.799 Z7.596 A23.4091 
N1168 X-211.190 Y-17.301 Z8.196 A21.5911 
N1169 X-211.209 Y-16.772 Z8.792 A19.7390 
N1170 X-211.239 Y-16.202 Z9.386 A17.8463 
N1171 X-211.281 Y-15.584 Z9.978 A15.9127 
N1172 X-211.338 Y-14.908 Z10.565 A13.9544 
N1173 X-211.414 Y-14.164 Z11.139 A12.0021 
N1174 X-211.513 Y-13.347 Z11.691 A10.0958 
N1175 X-211.637 Y-12.450 Z12.208 A8.2833 
N1176 X-211.789 Y-11.472 Z12.677 A6.6254 
N1177 X-211.973 Y-10.412 Z13.085 A5.1911 
N1178 X-212.189 Y-9.277 Z13.418 A4.0518 
N1179 X-212.436 Y-8.074 Z13.672 A3.2471 
N1180 X-212.710 Y-6.814 Z13.855 A2.7606 
N1181 X-213.006 Y-5.508 Z13.983 A2.5321 
N1182 X-213.315 Y-4.171 Z14.077 A2.4769 
N1183 X-213.631 Y-2.818 Z14.157 A2.5065 
N1184 X-213.948 Y-1.463 Z14.231 A2.5719 
N1185 X-214.258 Y-0.128 Z14.319 A2.5733 
N1186 X-214.563 Y1.183 Z14.406 
N1187 X-214.853 Y2.449 Z14.508 A2.4666 
N1188 X-215.124 Y3.655 Z14.637 A2.1768 
N1189 X-215.372 Y4.790 Z14.794 A1.6783 
N1190 X-215.596 Y5.848 Z14.983 A0.9338 
N1191 X-215.794 Y6.826 Z15.204 A359.9252 
N1192 X-215.967 Y7.725 Z15.456 A358.6525 
N1193 X-216.117 Y8.547 Z15.732 A357.1494 
N1194 X-216.247 Y9.297 Z16.021 A355.4728 
N1195 X-216.360 Y9.982 Z16.318 A353.6747 
N1196 X-216.459 Y10.607 Z16.613 A351.8085 
N1197 X-216.545 Y11.181 Z16.904 A349.8975 
N1198 X-216.621 Y11.710 Z17.192 A347.9569 
N1199 X-216.689 Y12.198 Z17.471 A346.0208 
N1200 X-216.751 Y12.656 Z17.743 A344.0860 
N1201 X-216.807 Y13.083 Z18.005 A342.1791 
N1202 X-216.859 Y13.488 Z18.259 A340.2923 
N1203 X-216.909 Y13.878 Z18.506 A338.4096 
N1204 X-216.956 Y14.247 Z18.743 A336.5741 
N1205 X-217.002 Y14.610 Z18.975 A334.7318 
N1206 X-217.047 Y14.962 Z19.198 A332.9103 
N1207 X-217.091 Y15.305 Z19.413 A331.1159 
N1208 X-217.135 Y15.644 Z19.622 A329.3265 
N1209 X-217.180 Y15.980 Z19.825 A327.5404 
N1210 X-217.225 Y16.314 Z20.022 A325.7575 
N1211 X-217.272 Y16.647 Z20.212 A323.9770 
N1212 X-217.319 Y16.981 Z20.396 A322.1973 
N1213 X-217.368 Y17.315 Z20.573 A320.4180 
N1214 X-217.419 Y17.648 Z20.742 A318.6460 
N1215 X-217.471 Y17.982 Z20.904 A316.8833 
N1216 X-217.524 Y18.318 Z21.058 A315.1153 
N1217 X-217.580 Y18.656 Z21.205 A313.3430 
N1218 X-217.638 Y18.998 Z21.344 A311.5674 
N1219 X-217.697 Y19.338 Z21.473 A309.8110 
N1220 X-217.759 Y19.682 Z21.594 A308.0474 
N1221 X-217.823 Y20.028 Z21.707 A306.2784 
N1222 X-217.888 Y20.375 Z21.809 A304.5237 
N1223 X-217.957 Y20.723 Z21.902 A302.7677 
N1224 X-218.027 Y21.075 Z21.986 A301.0078 
N1225 X-218.099 Y21.426 Z22.059 A299.2593 
N1226 X-218.174 Y21.779 Z22.122 A297.5104 
N1227 X-218.251 Y22.133 Z22.174 A295.7623 
N1228 X-218.330 Y22.487 Z22.216 A294.0216 
N1229 X-218.411 Y22.842 Z22.246 A292.2822 
N1230 X-218.494 Y23.197 Z22.265 A290.5482 
N1231 X-218.580 Y23.553 Z22.273 A288.8158 
N1232 X-218.667 Y23.907 Z22.269 A287.0896 
N1233 X-218.756 Y24.261 Z22.253 A285.3673 
N1234 X-218.848 Y24.615 Z22.225 A283.6451 
N1235 X-218.941 Y24.966 Z22.184 A281.9315 
N1236 X-219.036 Y25.317 Z22.131 A280.2166 
N1237 X-219.134 Y25.666 Z22.065 A278.5005 
N1238 X-219.233 Y26.013 Z21.986 A276.7924 
N1239 X-219.334 Y26.356 Z21.893 A275.0870 
N1240 X-219.438 Y26.700 Z21.786 A273.3678 
N1241 X-219.543 Y27.039 Z21.665 A271.6567 
N1242 X-219.650 Y27.374 Z21.529 A269.9510 
N1243 X-219.758 Y27.704 Z21.378 A268.2449 
N1244 X-219.869 Y28.032 Z21.209 A266.5243 
N1245 X-219.983 Y28.356 Z21.023 A264.7971 
N1246 X-220.098 Y28.674 Z20.818 A263.0664 
N1247 X-220.215 Y28.986 Z20.594 A261.3300 
N1248 X-220.335 Y29.290 Z20.349 A259.5872 
N1249 X-220.456 Y29.585 Z20.082 A257.8398 
N1250 X-220.580 Y29.871 Z19.789 A256.0763 
N1251 X-220.707 Y30.149 Z19.465 A254.2834 
N1252 X-220.835 Y30.408 Z19.116 A252.5057 
N1253 X-220.965 Y30.652 Z18.733 A250.7100 
N1254 X-221.094 Y30.871 Z18.319 A248.9411 
N1255 X-221.224 Y31.063 Z17.869 A247.1801 
N1256 X-221.353 Y31.222 Z17.382 A245.4491 
N1257 X-221.478 Y31.343 Z16.858 A243.7626 
N1258 X-221.599 Y31.417 Z16.301 A242.1544 
N1259 X-221.713 Y31.439 Z15.709 A240.6349 
N1260 X-221.819 Y31.404 Z15.088 A239.2323 
N1261 X-221.915 Y31.308 Z14.440 A237.9610 
N1262 X-222.000 Y31.151 Z13.769 A236.8357 
N1263 X-222.073 Y30.930 Z13.079 A235.8718 
N1264 X-222.133 Y30.649 Z12.377 A235.0801 
N1265 X-222.181 Y30.311 Z11.667 A234.4574 
N1266 X-222.219 Y29.925 Z10.950 A233.9810 
N1267 X-222.248 Y29.503 Z10.229 A233.6117 
N1268 X-222.274 Y29.060 Z9.503 A233.2969 
N1269 X-222.297 Y28.608 Z8.774 A232.9809 
N1270 X-222.323 Y28.161 Z8.041 A232.6066 
N1271 X-222.354 Y27.733 Z7.304 A232.1112 
N1272 X-222.393 Y27.335 Z6.562 A231.4301 
N1273 X-222.443 Y26.975 Z5.814 A230.5146 
N1274 X-222.504 Y26.656 Z5.061 A229.3433 
N1275 X-222.574 Y26.375 Z4.308 A227.9306 
N1276 X-222.650 Y26.123 Z3.559 A226.3211 
N1277 X-222.728 Y25.891 Z2.822 A224.5672 
N1278 X-222.807 Y25.669 Z2.101 A222.7187 
N1279 X-222.883 Y25.451 Z1.400 A220.8250 
N1280 X-222.953 Y25.229 Z0.721 A218.9241 
N1281 X-223.017 Y24.999 Z0.068 A217.0491 
N1282 X-223.073 Y24.756 Z-0.560 A215.2190 
N1283 X-223.122 Y24.497 Z-1.166 A213.4374 
N1284 X-223.162 Y24.221 Z-1.753 A211.6979 
N1285 X-223.195 Y23.927 Z-2.324 A209.9919 
N1286 X-223.221 Y23.611 Z-2.884 A208.3098 
N1287 X-223.239 Y23.269 Z-3.436 A206.6434 
N1288 X-223.249 Y22.900 Z-3.982 A204.9850 
N1289 X-223.251 Y22.496 Z-4.527 A203.3241 
N1290 X-223.243 Y22.054 Z-5.072 A201.6514 
N1291 X-223.225 Y21.567 Z-5.619 A199.9612 
N1292 X-223.194 Y21.027 Z-6.169 A198.2472 
N1293 X-223.150 Y20.427 Z-6.723 A196.5090 
N1294 X-223.088 Y19.757 Z-7.279 A194.7485 
N1295 X-223.008 Y19.009 Z-7.835 A192.9568 
N1296 X-222.907 Y18.175 Z-8.393 A191.1189 
N1297 X-222.781 Y17.246 Z-8.945 A189.2532 
N1298 X-222.626 Y16.214 Z-9.470 A187.4386 
N1299 X-222.435 Y15.075 Z-9.946 A185.7771 
N1300 X-222.204 Y13.828 Z-10.347 A184.3989 
N1301 X-221.931 Y12.479 Z-10.652 A183.4206 
N1302 X-221.618 Y11.039 Z-10.863 A182.8690 
N1303 X-221.273 Y9.518 Z-11.007 A182.6453 
N1304 X-220.906 Y7.933 Z-11.117 A182.6034 
N1305 X-220.526 Y6.301 Z-11.220 A182.6215 
N1306 X-220.140 Y4.641 Z-11.325 A182.6424 
N1307 X-219.753 Y2.973 Z-11.433 A182.6547 
N1308 X-219.369 Y1.321 Z-11.543 A182.6649 
N1309 X-218.994 Y-0.296 Z-11.651 A182.6817 
N1310 X-218.633 Y-1.855 Z-11.759 A182.6837 
N1311 X-218.289 Y-3.342 Z-11.864 
N1312 X-217.965 Y-4.744 Z-11.963 
N1313 X-217.665 Y-6.050 Z-12.066 A182.6174 
N1314 X-217.398 Y-7.244 Z-12.200 A182.3299 
N1315 X-217.166 Y-8.324 Z-12.374 A181.7450 
N1316 X-216.972 Y-9.292 Z-12.605 A180.7663 
N1317 X-216.815 Y-10.155 Z-12.894 A179.3659 
N1318 X-216.689 Y-10.923 Z-13.231 A177.5973 
N1319 X-216.588 Y-11.609 Z-13.593 A175.5835 
N1320 X-216.505 Y-12.224 Z-13.959 A173.4494 
N1321 X-216.435 Y-12.777 Z-14.315 A171.2926 
N1322 X-216.376 Y-13.275 Z-14.655 A169.1661 
N1323 X-216.325 Y-13.733 Z-14.983 A167.0545 
N1324 X-216.280 Y-14.150 Z-15.296 A164.9972 
N1325 X-216.241 Y-14.538 Z-15.595 A162.9822 
N1326 X-216.204 Y-14.905 Z-15.885 A160.9977 
N1327 X-216.171 Y-15.250 Z-16.160 A159.0728 
N1328 X-216.139 Y-15.577 Z-16.424 A157.1949 
N1329 X-216.109 Y-15.896 Z-16.681 A155.3328 
N1330 X-216.079 Y-16.207 Z-16.931 A153.4894 
N1331 X-216.049 Y-16.513 Z-17.174 A151.6613 
N1332 X-216.018 Y-16.817 Z-17.410 A149.8423 
N1333 X-215.987 Y-17.119 Z-17.642 A148.0259 
N1334 X-215.955 Y-17.416 Z-17.863 A146.2410 
N1335 X-215.922 Y-17.714 Z-18.079 A144.4591 
N1336 X-215.887 Y-18.016 Z-18.292 A142.6603 
N1337 X-215.851 Y-18.319 Z-18.496 A140.8705 
N1338 X-215.813 Y-18.621 Z-18.693 A139.0973 
N1339 X-215.773 Y-18.932 Z-18.887 A137.2877 
N1340 X-215.732 Y-19.238 Z-19.069 A135.5270 
N1341 X-215.688 Y-19.552 Z-19.247 A133.7318 
N1342 X-215.642 Y-19.865 Z-19.415 A131.9638 
N1343 X-215.594 Y-20.185 Z-19.577 A130.1735 
N1344 X-215.544 Y-20.504 Z-19.730 A128.4053 
N1345 X-215.491 Y-20.831 Z-19.876 A126.6132 
N1346 X-215.437 Y-21.155 Z-20.011 A124.8530 
N1347 X-215.379 Y-21.489 Z-20.140 A123.0579 
N1348 X-215.320 Y-21.817 Z-20.257 A121.3091 
N1349 X-215.258 Y-22.153 Z-20.367 A119.5294 
N1350 X-215.195 Y-22.488 Z-20.465 A117.7728 
N1351 X-215.128 Y-22.827 Z-20.555 A116.0107 
N1352 X-215.060 Y-23.167 Z-20.634 A114.2478 
N1353 X-214.990 Y-23.507 Z-20.703 A112.5013 
N1354 X-214.917 Y-23.850 Z-20.762 A110.7456 
N1355 X-214.842 Y-24.192 Z-20.811 A109.0050 
N1356 X-214.765 Y-24.536 Z-20.848 A107.2654 
N1357 X-214.686 Y-24.879 Z-20.876 A105.5278 
N1358 X-214.605 Y-25.223 Z-20.892 A103.7958 
N1359 X-214.523 Y-25.565 Z-20.897 A102.0741 
N1360 X-214.438 Y-25.909 Z-20.892 A100.3428 
N1361 X-214.351 Y-26.249 Z-20.875 A98.6283 
N1362 X-214.263 Y-26.589 Z-20.847 A96.9133 
N1363 X-214.173 Y-26.928 Z-20.808 A95.2002 
N1364 X-214.083 Y-27.261 Z-20.758 A93.5097 
N1365 X-213.989 Y-27.599 Z-20.696 A91.7876 
N1366 X-213.895 Y-27.927 Z-20.623 A90.1037 
N1367 X-213.798 Y-28.259 Z-20.536 A88.3886 
N1368 X-213.701 Y-28.583 Z-20.440 A86.7036 
N1369 X-213.601 Y-28.908 Z-20.329 A84.9935 
N1370 X-213.501 Y-29.227 Z-20.207 A83.2969 
N1371 X-213.398 Y-29.548 Z-20.071 A81.5707 
N1372 X-213.294 Y-29.861 Z-19.922 A79.8587 
N1373 X-213.186 Y-30.178 Z-19.755 A78.0963 
N1374 X-213.078 Y-30.483 Z-19.576 A76.3620 
N1375 X-212.963 Y-30.800 Z-19.372 A74.5231 
N1376 X-212.847 Y-31.110 Z-19.150 A72.6733 
N1377 X-212.728 Y-31.414 Z-18.907 A70.7976 
N1378 X-212.602 Y-31.721 Z-18.633 A68.8347 
N1379 X-212.472 Y-32.024 Z-18.326 A66.8040 
N1380 X-212.339 Y-32.313 Z-17.988 A64.7376 
N1381 X-212.203 Y-32.588 Z-17.613 A62.6258 
N1382 X-212.063 Y-32.843 Z-17.189 A60.4438 
N1383 X-211.926 Y-33.060 Z-16.733 A58.3061 
N1384 X-211.792 Y-33.231 Z-16.230 A56.1861 
N1385 X-211.668 Y-33.336 Z-15.696 A54.1963 
N1386 X-211.557 Y-33.364 Z-15.132 A52.3716 
N1387 X-211.463 Y-33.305 Z-14.540 A50.7565 
N1388 X-211.388 Y-33.149 Z-13.926 A49.3848 
N1389 X-211.333 Y-32.895 Z-13.293 A48.2749 
N1390 X-211.300 Y-32.540 Z-12.641 A47.4392 
N1391 X-211.287 Y-32.088 Z-11.971 A46.8685 
N1392 X-211.292 Y-31.546 Z-11.278 A46.5264 
N1393 X-211.310 Y-30.929 Z-10.558 A46.3575 
N1394 X-211.338 Y-30.250 Z-9.804 A46.2958 
N1395 X-211.369 Y-29.526 Z-9.014 A46.2765 
N1396 X-211.402 Y-28.772 Z-8.188 A46.2434 
N1397 X-211.431 Y-28.003 Z-7.330 A46.1436 
N1398 X-211.456 Y-27.234 Z-6.442 A45.9236 
N1399 X-211.473 Y-26.479 Z-5.530 A45.5394 
N1400 X-211.481 Y-25.745 Z-4.602 A44.9638 
N1401 X-211.482 Y-25.040 Z-3.668 A44.1879 
N1402 X-211.475 Y-24.366 Z-2.737 A43.2213 
N1403 X-211.463 Y-23.724 Z-1.819 A42.0790 
N1404 X-211.447 Y-23.113 Z-0.919 A40.7780 
N1405 X-211.428 Y-22.531 Z-0.043 A39.3413 
N1406 X-211.408 Y-21.975 Z0.804 A37.7978 
N1407 X-211.388 Y-21.440 Z1.620 A36.1765 
N1408 X-211.371 Y-20.922 Z2.404 A34.5020 
N1409 X-211.356 Y-20.416 Z3.156 A32.7914 
N1410 X-211.345 Y-19.918 Z3.879 A31.0549 
N1411 X-211.338 Y-19.421 Z4.576 A29.2998 
N1412 X-211.336 Y-18.920 Z5.252 A27.5293 
N1413 X-211.339 Y-18.409 Z5.910 A25.7417 
N1414 X-211.350 Y-17.881 Z6.555 A23.9321 
N1415 X-211.368 Y-17.329 Z7.189 A22.0975 
N1416 X-211.395 Y-16.744 Z7.816 A20.2360 
N1417 X-211.434 Y-16.120 Z8.437 A18.3476 
N1418 X-211.486 Y-15.446 Z9.049 A16.4407 
N1419 X-211.554 Y-14.717 Z9.649 A14.5395 
N1420 X-211.641 Y-13.923 Z10.227 A12.6801 
N1421 X-211.751 Y-13.061 Z10.775 A10.9045 
N1422 X-211.886 Y-12.128 Z11.282 A9.2597 
N1423 X-212.047 Y-11.124 Z11.737 A7.7971 
N1424 X-212.236 Y-10.055 Z12.130 A6.5713 
N1425 X-212.453 Y-8.925 Z12.453 A5.6320 
N1426 X-212.694 Y-7.746 Z12.708 A4.9918 
N1427 X-212.955 Y-6.528 Z12.903 A4.6206 
N1428 X-213.231 Y-5.286 Z13.056 A4.4545 
N1429 X-213.514 Y-4.032 Z13.183 A4.4135 
N1430 X-213.797 Y-2.783 Z13.301 A4.4173 
N1431 X-214.076 Y-1.551 Z13.420 A4.4026 
N1432 X-214.344 Y-0.353 Z13.555 A4.2867 
N1433 X-214.596 Y0.800 Z13.714 A4.0041 
N1434 X-214.829 Y1.897 Z13.903 A3.5024 
N1435 X-215.041 Y2.930 Z14.124 A2.7542 
N1436 X-215.231 Y3.896 Z14.372 A1.7593 
N1437 X-215.401 Y4.793 Z14.643 A0.5328 
N1438 X-215.550 Y5.623 Z14.934 A359.0950 
N1439 X-215.681 Y6.388 Z15.238 A357.4754 
N1440 X-215.796 Y7.094 Z15.549 A355.7155 
N1441 X-215.898 Y7.745 Z15.861 A353.8640 
N1442 X-215.989 Y8.348 Z16.167 A351.9594 
N1443 X-216.070 Y8.907 Z16.464 A350.0409 
N1444 X-216.145 Y9.427 Z16.749 A348.1241 
N1445 X-216.214 Y9.916 Z17.025 A346.2131 
N1446 X-216.278 Y10.377 Z17.289 A344.3207 
N1447 X-216.338 Y10.814 Z17.541 A342.4567 
N1448 X-216.396 Y11.230 Z17.782 A340.6240 
N1449 X-216.451 Y11.630 Z18.013 A338.8151 
N1450 X-216.505 Y12.021 Z18.236 A337.0122 
N1451 X-216.558 Y12.397 Z18.449 A335.2449 
N1452 X-216.611 Y12.769 Z18.656 A333.4712 
N1453 X-216.663 Y13.132 Z18.853 A331.7247 
N1454 X-216.716 Y13.491 Z19.043 A329.9828 
N1455 X-216.769 Y13.847 Z19.227 A328.2392 
N1456 X-216.823 Y14.202 Z19.404 A326.4985 
N1457 X-216.878 Y14.555 Z19.574 A324.7648 
N1458 X-216.934 Y14.906 Z19.736 A323.0353 
N1459 X-216.991 Y15.257 Z19.891 A321.3067 
N1460 X-217.050 Y15.608 Z20.039 A319.5777 
N1461 X-217.110 Y15.960 Z20.179 A317.8484 
N1462 X-217.172 Y16.313 Z20.312 A316.1189 
N1463 X-217.235 Y16.666 Z20.436 A314.3898 
N1464 X-217.300 Y17.021 Z20.553 A312.6624 
N1465 X-217.367 Y17.376 Z20.661 A310.9364 
N1466 X-217.436 Y17.732 Z20.760 A309.2148 
N1467 X-217.506 Y18.088 Z20.850 A307.4936 
N1468 X-217.579 Y18.446 Z20.931 A305.7723 
N1469 X-217.653 Y18.805 Z21.003 A304.0510 
N1470 X-217.730 Y19.165 Z21.065 A302.3304 
N1471 X-217.808 Y19.526 Z21.118 A300.6115 
N1472 X-217.889 Y19.887 Z21.161 A298.8976 
N1473 X-217.971 Y20.247 Z21.193 A297.1861 
N1474 X-218.055 Y20.608 Z21.215 A295.4756 
N1475 X-218.141 Y20.969 Z21.227 A293.7671 
N1476 X-218.229 Y21.330 Z21.227 A292.0613 
N1477 X-218.319 Y21.690 Z21.217 A290.3586 
N1478 X-218.410 Y22.049 Z21.196 A288.6576 
N1479 X-218.504 Y22.408 Z21.163 A286.9588 
N1480 X-218.599 Y22.765 Z21.119 A285.2624 
N1481 X-218.696 Y23.120 Z21.063 A283.5684 
N1482 X-218.796 Y23.475 Z20.995 A281.8728 
N1483 X-218.897 Y23.827 Z20.914 A280.1762 
N1484 X-218.999 Y24.178 Z20.821 A278.4808 
N1485 X-219.104 Y24.525 Z20.715 A276.7864 
N1486 X-219.210 Y24.870 Z20.596 A275.0928 
N1487 X-219.318 Y25.211 Z20.463 A273.3988 
N1488 X-219.427 Y25.549 Z20.316 A271.7012 
N1489 X-219.539 Y25.884 Z20.153 A270.0022 
N1490 X-219.652 Y26.213 Z19.975 A268.2993 
N1491 X-219.767 Y26.538 Z19.781 A266.5937 
N1492 X-219.884 Y26.858 Z19.569 A264.8841 
N1493 X-220.003 Y27.171 Z19.339 A263.1686 
N1494 X-220.124 Y27.477 Z19.089 A261.4446 
N1495 X-220.247 Y27.776 Z18.818 A259.7107 
N1496 X-220.371 Y28.064 Z18.525 A257.9799 
N1497 X-220.496 Y28.339 Z18.210 A256.2539 
N1498 X-220.624 Y28.603 Z17.866 A254.5049 
N1499 X-220.751 Y28.849 Z17.499 A252.7806 
N1500 X-220.880 Y29.076 Z17.102 A251.0527 
N1501 X-221.008 Y29.279 Z16.676 A249.3502 
N1502 X-221.134 Y29.454 Z16.222 A247.6817 
N1503 X-221.258 Y29.597 Z15.739 A246.0572 
N1504 X-221.377 Y29.703 Z15.229 A244.4941 
N1505 X-221.492 Y29.768 Z14.691 A243.0000 
N1506 X-221.601 Y29.789 Z14.130 A241.6027 
N1507 X-221.701 Y29.762 Z13.548 A240.3087 
N1508 X-221.793 Y29.688 Z12.948 A239.1276 
N1509 X-221.877 Y29.566 Z12.334 A238.0633 
N1510 X-221.951 Y29.398 Z11.708 A237.1170 
N1511 X-222.016 Y29.187 Z11.074 A236.2859 
N1512 X-222.073 Y28.940 Z10.435 A235.5531 
N1513 X-222.124 Y28.664 Z9.792 A234.8918 
N1514 X-222.170 Y28.369 Z9.147 A234.2648 
N1515 X-222.215 Y28.064 Z8.497 A233.6285 
N1516 X-222.261 Y27.758 Z7.845 A232.9424 
N1517 X-222.308 Y27.460 Z7.190 A232.1693 
N1518 X-222.360 Y27.177 Z6.531 A231.2747 
N1519 X-222.417 Y26.913 Z5.870 A230.2312 
N1520 X-222.480 Y26.671 Z5.206 A229.0227 
N1521 X-222.549 Y26.450 Z4.541 A227.6502 
N1522 X-222.621 Y26.246 Z3.877 A226.1321 
N1523 X-222.695 Y26.054 Z3.219 A224.5012 
N1524 X-222.769 Y25.867 Z2.569 A222.7891 
N1525 X-222.841 Y25.681 Z1.930 A221.0273 
N1526 X-222.910 Y25.490 Z1.305 A219.2419 
N1527 X-222.973 Y25.290 Z0.693 A217.4523 
N1528 X-223.031 Y25.078 Z0.096 A215.6740 
N1529 X-223.083 Y24.851 Z-0.487 A213.9160 
N1530 X-223.128 Y24.606 Z-1.057 A212.1812 
N1531 X-223.167 Y24.341 Z-1.618 A210.4663 
N1532 X-223.198 Y24.052 Z-2.171 A208.7642 
N1533 X-223.222 Y23.737 Z-2.720 A207.0676 
N1534 X-223.238 Y23.391 Z-3.268 A205.3695 
N1535 X-223.246 Y23.009 Z-3.816 A203.6630 
N1536 X-223.243 Y22.585 Z-4.367 A201.9406 
N1537 X-223.230 Y22.113 Z-4.922 A200.1972 
N1538 X-223.204 Y21.584 Z-5.482 A198.4305 
N1539 X-223.162 Y20.990 Z-6.046 A196.6451 
N1540 X-223.103 Y20.320 Z-6.610 A194.8498 
N1541 X-223.022 Y19.566 Z-7.172 A193.0503 
N1542 X-222.918 Y18.719 Z-7.731 A191.2303 
N1543 X-222.789 Y17.774 Z-8.284 A189.3803 
N1544 X-222.628 Y16.720 Z-8.810 A187.5962 
N1545 X-222.428 Y15.553 Z-9.272 A186.0492 
N1546 X-222.185 Y14.275 Z-9.646 A184.8666 
N1547 X-221.899 Y12.894 Z-9.930 A184.0890 
N1548 X-221.577 Y11.419 Z-10.135 A183.6826 
N1549 X-221.226 Y9.865 Z-10.289 A183.5398 
N1550 X-220.855 Y8.247 Z-10.421 A183.5325 
N1551 X-220.472 Y6.584 Z-10.551 A183.5597 
N1552 X-220.085 Y4.897 Z-10.686 A183.5779 
N1553 X-219.698 Y3.208 Z-10.826 A183.5839 
N1554 X-219.316 Y1.537 Z-10.965 A183.5891 
N1555 X-218.943 Y-0.092 Z-11.101 A183.6042 
N1556 X-218.585 Y-1.659 Z-11.235 A183.6050 
N1557 X-218.244 Y-3.149 Z-11.365 
N1558 X-217.924 Y-4.552 Z-11.486 
N1559 X-217.630 Y-5.852 Z-11.616 A183.5059 
N1560 X-217.370 Y-7.038 Z-11.776 A183.1700 
N1561 X-217.147 Y-8.108 Z-11.981 A182.5061 
N1562 X-216.961 Y-9.064 Z-12.243 A181.4226 
N1563 X-216.813 Y-9.915 Z-12.565 A179.9019 
N1564 X-216.695 Y-10.673 Z-12.929 A178.0206 
N1565 X-216.599 Y-11.351 Z-13.313 A175.9197 
N1566 X-216.521 Y-11.960 Z-13.693 A173.7339 
N1567 X-216.453 Y-12.509 Z-14.055 A171.5596 
N1568 X-216.395 Y-13.003 Z-14.396 A169.4399 
N1569 X-216.344 Y-13.458 Z-14.722 A167.3545 
N1570 X-216.299 Y-13.874 Z-15.030 A165.3321 
N1571 X-216.258 Y-14.261 Z-15.323 A163.3583 
N1572 X-216.221 Y-14.627 Z-15.605 A161.4202 
N1573 X-216.186 Y-14.970 Z-15.873 A159.5454 
N1574 X-216.154 Y-15.298 Z-16.130 A157.7095 
N1575 X-216.122 Y-15.617 Z-16.381 A155.8871 
N1576 X-216.091 Y-15.928 Z-16.625 A154.0821 
N1577 X-216.060 Y-16.233 Z-16.862 A152.2928 
N1578 X-216.029 Y-16.534 Z-17.093 A150.5125 
N1579 X-215.997 Y-16.835 Z-17.319 A148.7321 
N1580 X-215.964 Y-17.136 Z-17.541 A146.9458 
N1581 X-215.931 Y-17.434 Z-17.754 A145.1835 
N1582 X-215.896 Y-17.732 Z-17.962 A143.4229 
N1583 X-215.860 Y-18.035 Z-18.167 A141.6426 
N1584 X-215.822 Y-18.338 Z-18.364 A139.8693 
N1585 X-215.783 Y-18.642 Z-18.554 A138.1075 
N1586 X-215.741 Y-18.955 Z-18.742 A136.3065 
N1587 X-215.698 Y-19.262 Z-18.918 A134.5556 
N1588 X-215.652 Y-19.578 Z-19.090 A132.7650 
N1589 X-215.606 Y-19.892 Z-19.252 A131.0071 
N1590 X-215.556 Y-20.214 Z-19.409 A129.2202 
N1591 X-215.505 Y-20.534 Z-19.555 A127.4617 
N1592 X-215.450 Y-20.863 Z-19.696 A125.6719 
N1593 X-215.395 Y-21.186 Z-19.825 A123.9242 
N1594 X-215.336 Y-21.521 Z-19.949 A122.1344 
N1595 X-215.276 Y-21.849 Z-20.060 A120.3939 
N1596 X-215.213 Y-22.185 Z-20.164 A118.6233 
N1597 X-215.149 Y-22.521 Z-20.258 A116.8684 
N1598 X-215.082 Y-22.858 Z-20.343 A115.1158 
N1599 X-215.012 Y-23.200 Z-20.418 A113.3525 
N1600 X-214.941 Y-23.538 Z-20.482 A111.6173 
N1601 X-214.868 Y-23.880 Z-20.537 A109.8688 
N1602 X-214.793 Y-24.222 Z-20.581 A108.1309 
N1603 X-214.715 Y-24.564 Z-20.615 A106.3972 
N1604 X-214.636 Y-24.907 Z-20.639 A104.6626 
N1605 X-214.555 Y-25.249 Z-20.652 A102.9358 
N1606 X-214.472 Y-25.590 Z-20.655 A101.2148 
N1607 X-214.387 Y-25.932 Z-20.646 A99.4937 
N1608 X-214.300 Y-26.271 Z-20.627 A97.7784 
N1609 X-214.213 Y-26.607 Z-20.598 A96.0801 
N1610 X-214.122 Y-26.947 Z-20.556 A94.3598 
N1611 X-214.031 Y-27.280 Z-20.505 A92.6643 
N1612 X-213.939 Y-27.612 Z-20.442 A90.9634 
N1613 X-213.844 Y-27.942 Z-20.367 A89.2661 
N1614 X-213.750 Y-28.265 Z-20.283 A87.5908 
N1615 X-213.652 Y-28.594 Z-20.184 A85.8752 
N1616 X-213.554 Y-28.911 Z-20.077 A84.2016 
N1617 X-213.453 Y-29.235 Z-19.954 A82.4722 
N1618 X-213.352 Y-29.547 Z-19.822 A80.7842 
N1619 X-213.247 Y-29.865 Z-19.672 A79.0388 
N1620 X-213.142 Y-30.173 Z-19.513 A77.3234 
N1621 X-213.032 Y-30.489 Z-19.332 A75.5238 
N1622 X-212.922 Y-30.794 Z-19.140 A73.7497 
N1623 X-212.804 Y-31.111 Z-18.919 A71.8562 
N1624 X-212.684 Y-31.422 Z-18.678 A69.9430 
N1625 X-212.561 Y-31.727 Z-18.416 A67.9978 
N1626 X-212.431 Y-32.033 Z-18.118 A65.9538 
N1627 X-212.296 Y-32.336 Z-17.783 A63.8149 
N1628 X-212.156 Y-32.627 Z-17.411 A61.6141 
N1629 X-212.013 Y-32.900 Z-16.993 A59.3425 
N1630 X-211.870 Y-33.139 Z-16.532 A57.0629 
N1631 X-211.734 Y-33.324 Z-16.041 A54.8731 
N1632 X-211.608 Y-33.445 Z-15.516 A52.8001 
N1633 X-211.495 Y-33.487 Z-14.960 A50.8893 
N1634 X-211.402 Y-33.439 Z-14.388 A49.2252 
N1635 X-211.330 Y-33.290 Z-13.799 A47.8319 
N1636 X-211.282 Y-33.036 Z-13.201 A46.7521 
N1637 X-211.258 Y-32.676 Z-12.594 A45.9968 
N1638 X-211.257 Y-32.217 Z-11.975 A45.5329 
N1639 X-211.273 Y-31.669 Z-11.335 A45.3006 
N1640 X-211.301 Y-31.049 Z-10.664 A45.2224 
N1641 X-211.336 Y-30.370 Z-9.957 A45.2293 
N1642 X-211.375 Y-29.651 Z-9.210 A45.2424 
N1643 X-211.414 Y-28.899 Z-8.424 
N1644 X-211.448 Y-28.137 Z-7.598 A45.1334 
N1645 X-211.476 Y-27.376 Z-6.737 A44.8807 
N1646 X-211.495 Y-26.626 Z-5.849 A44.4471 
N1647 X-211.507 Y-25.895 Z-4.942 A43.8186 
N1648 X-211.511 Y-25.189 Z-4.026 A42.9939 
N1649 X-211.509 Y-24.509 Z-3.110 A41.9798 
N1650 X-211.501 Y-23.857 Z-2.202 A40.7873 
N1651 X-211.489 Y-23.232 Z-1.310 A39.4374 
N1652 X-211.476 Y-22.630 Z-0.439 A37.9615 
N1653 X-211.463 Y-22.048 Z0.406 A36.3913 
N1654 X-211.452 Y-21.481 Z1.221 A34.7528 
N1655 X-211.443 Y-20.925 Z2.008 A33.0641 
N1656 X-211.437 Y-20.375 Z2.767 A31.3368 
N1657 X-211.436 Y-19.826 Z3.501 A29.5809 
N1658 X-211.441 Y-19.273 Z4.213 A27.8029 
N1659 X-211.451 Y-18.707 Z4.906 A26.0045 
N1660 X-211.469 Y-18.123 Z5.584 A24.1859 
N1661 X-211.496 Y-17.514 Z6.248 A22.3510 
N1662 X-211.533 Y-16.871 Z6.900 A20.5068 
N1663 X-211.583 Y-16.187 Z7.538 A18.6619 
N1664 X-211.647 Y-15.456 Z8.159 A16.8340 
N1665 X-211.729 Y-14.672 Z8.758 A15.0540 
N1666 X-211.830 Y-13.830 Z9.326 A13.3614 
N1667 X-211.953 Y-12.929 Z9.854 A11.7987 
N1668 X-212.098 Y-11.970 Z10.335 A10.4040 
N1669 X-212.267 Y-10.957 Z10.764 A9.2091 
N1670 X-212.458 Y-9.896 Z11.135 A8.2423 
N1671 X-212.669 Y-8.796 Z11.448 A7.5213 
N1672 X-212.897 Y-7.668 Z11.707 A7.0328 
N1673 X-213.137 Y-6.523 Z11.924 A6.7320 
N1674 X-213.382 Y-5.375 Z12.114 A6.5471 
N1675 X-213.627 Y-4.237 Z12.292 A6.3959 
N1676 X-213.866 Y-3.122 Z12.473 A6.2060 
N1677 X-214.095 Y-2.041 Z12.664 A5.9133 
N1678 X-214.310 Y-1.005 Z12.874 A5.4576 
N1679 X-214.507 Y-0.021 Z13.110 A4.7895 
N1680 X-214.685 Y0.906 Z13.374 A3.8778 
N1681 X-214.843 Y1.774 Z13.665 A2.7179 
N1682 X-214.984 Y2.583 Z13.976 A1.3368 
N1683 X-215.108 Y3.336 Z14.299 A359.7739 
N1684 X-215.219 Y4.037 Z14.628 A358.0683 
N1685 X-215.317 Y4.690 Z14.958 A356.2582 
N1686 X-215.406 Y5.299 Z15.284 A354.3761 
N1687 X-215.488 Y5.871 Z15.601 A352.4572 
N1688 X-215.563 Y6.408 Z15.906 A350.5313 
N1689 X-215.633 Y6.914 Z16.197 A348.6237 
N1690 X-215.700 Y7.396 Z16.473 A346.7341 
N1691 X-215.764 Y7.857 Z16.735 A344.8698 
N1692 X-215.827 Y8.299 Z16.984 A343.0359 
N1693 X-215.887 Y8.727 Z17.220 A341.2302 
N1694 X-215.948 Y9.140 Z17.442 A339.4547 
N1695 X-216.007 Y9.545 Z17.654 A337.6990 
N1696 X-216.068 Y9.944 Z17.856 A335.9540 
N1697 X-216.128 Y10.334 Z18.048 A334.2334 
N1698 X-216.189 Y10.721 Z18.230 A332.5151 
N1699 X-216.250 Y11.104 Z18.403 A330.8134 
N1700 X-216.313 Y11.485 Z18.568 A329.1111 
N1701 X-216.377 Y11.863 Z18.723 A327.4237 
N1702 X-216.442 Y12.241 Z18.871 A325.7338 
N1703 X-216.509 Y12.618 Z19.009 A324.0478 
N1704 X-216.577 Y12.993 Z19.139 A322.3710 
N1705 X-216.646 Y13.368 Z19.260 A320.6933 
N1706 X-216.717 Y13.744 Z19.373 A319.0153 
N1707 X-216.790 Y14.119 Z19.477 A317.3424 
N1708 X-216.863 Y14.493 Z19.572 A315.6744 
N1709 X-216.939 Y14.868 Z19.658 A314.0070 
N1710 X-217.016 Y15.242 Z19.735 A312.3401 
N1711 X-217.095 Y15.616 Z19.804 A310.6737 
N1712 X-217.175 Y15.991 Z19.864 A309.0078 
N1713 X-217.258 Y16.365 Z19.915 A307.3426 
N1714 X-217.341 Y16.739 Z19.957 A305.6789 
N1715 X-217.426 Y17.112 Z19.989 A304.0151 
N1716 X-217.513 Y17.485 Z20.013 A302.3516 
N1717 X-217.601 Y17.857 Z20.028 A300.6878 
N1718 X-217.691 Y18.229 Z20.033 A299.0236 
N1719 X-217.783 Y18.601 Z20.029 A297.3591 
N1720 X-217.876 Y18.971 Z20.015 A295.6943 
N1721 X-217.970 Y19.340 Z19.992 A294.0288 
N1722 X-218.066 Y19.709 Z19.959 A292.3620 
N1723 X-218.164 Y20.076 Z19.916 A290.6932 
N1724 X-218.263 Y20.442 Z19.863 A289.0219 
N1725 X-218.364 Y20.807 Z19.799 A287.3475 
N1726 X-218.466 Y21.171 Z19.725 A285.6700 
N1727 X-218.570 Y21.533 Z19.641 A283.9897 
N1728 X-218.676 Y21.893 Z19.545 A282.3071 
N1729 X-218.783 Y22.250 Z19.438 A280.6229 
N1730 X-218.891 Y22.605 Z19.318 A278.9374 
N1731 X-219.001 Y22.956 Z19.187 A277.2509 
N1732 X-219.113 Y23.304 Z19.043 A275.5636 
N1733 X-219.226 Y23.648 Z18.886 A273.8756 
N1734 X-219.340 Y23.988 Z18.715 A272.1869 
N1735 X-219.456 Y24.322 Z18.530 A270.4979 
N1736 X-219.573 Y24.651 Z18.331 A268.8088 
N1737 X-219.691 Y24.974 Z18.116 A267.1203 
N1738 X-219.811 Y25.290 Z17.886 A265.4338 
N1739 X-219.931 Y25.598 Z17.639 A263.7491 
N1740 X-220.054 Y25.899 Z17.374 A262.0582 
N1741 X-220.177 Y26.190 Z17.091 A260.3686 
N1742 X-220.300 Y26.468 Z16.791 A258.6955 
N1743 X-220.425 Y26.735 Z16.469 A257.0168 
N1744 X-220.549 Y26.988 Z16.128 A255.3546 
N1745 X-220.673 Y27.224 Z15.765 A253.7022 
N1746 X-220.797 Y27.441 Z15.383 A252.0786 
N1747 X-220.919 Y27.637 Z14.978 A250.4733 
N1748 X-221.040 Y27.811 Z14.552 A248.8989 
N1749 X-221.158 Y27.958 Z14.107 A247.3651 
N1750 X-221.272 Y28.078 Z13.642 A245.8780 
N1751 X-221.383 Y28.168 Z13.160 A244.4449 
N1752 X-221.489 Y28.227 Z12.661 A243.0700 
N1753 X-221.590 Y28.253 Z12.146 A241.7585 
N1754 X-221.686 Y28.247 Z11.621 A240.5158 
N1755 X-221.775 Y28.209 Z11.084 A239.3365 
N1756 X-221.859 Y28.142 Z10.538 A238.2183 
N1757 X-221.937 Y28.046 Z9.986 A237.1565 
N1758 X-222.010 Y27.927 Z9.430 A236.1390 
N1759 X-222.079 Y27.787 Z8.869 A235.1498 
N1760 X-222.145 Y27.631 Z8.305 A234.1697 
N1761 X-222.209 Y27.465 Z7.739 A233.1774 
N1762 X-222.271 Y27.293 Z7.170 A232.1531 
N1763 X-222.334 Y27.118 Z6.598 A231.0781 
N1764 X-222.397 Y26.944 Z6.024 A229.9360 
N1765 X-222.461 Y26.773 Z5.448 A228.7139 
N1766 X-222.527 Y26.607 Z4.870 A227.4048 
N1767 X-222.594 Y26.444 Z4.289 A226.0084 
N1768 X-222.662 Y26.284 Z3.709 A224.5316 
N1769 X-222.729 Y26.124 Z3.129 A222.9876 
N1770 X-222.795 Y25.961 Z2.553 A221.3911 
N1771 X-222.859 Y25.793 Z1.980 A219.7563 
N1772 X-222.920 Y25.615 Z1.412 A218.0953 
N1773 X-222.978 Y25.426 Z0.850 A216.4174 
N1774 X-223.031 Y25.223 Z0.293 A214.7311 
N1775 X-223.078 Y25.003 Z-0.259 A213.0410 
N1776 X-223.121 Y24.764 Z-0.807 A211.3505 
N1777 X-223.157 Y24.502 Z-1.351 A209.6580 
N1778 X-223.187 Y24.215 Z-1.894 A207.9602 
N1779 X-223.209 Y23.897 Z-2.438 A206.2528 
N1780 X-223.224 Y23.546 Z-2.984 A204.5312 
N1781 X-223.229 Y23.154 Z-3.534 A202.7914 
N1782 X-223.224 Y22.716 Z-4.090 A201.0281 
N1783 X-223.207 Y22.223 Z-4.651 A199.2419 
N1784 X-223.176 Y21.668 Z-5.216 A197.4337 
N1785 X-223.126 Y21.040 Z-5.783 A195.6169 
N1786 X-223.057 Y20.330 Z-6.346 A193.8098 
N1787 X-222.963 Y19.530 Z-6.900 A192.0232 
N1788 X-222.844 Y18.632 Z-7.445 A190.2412 
N1789 X-222.697 Y17.632 Z-7.976 A188.4686 
N1790 X-222.515 Y16.522 Z-8.460 A186.8592 
N1791 X-222.289 Y15.299 Z-8.857 A185.6184 
N1792 X-222.021 Y13.971 Z-9.161 A184.7972 
N1793 X-221.717 Y12.548 Z-9.395 A184.3062 
N1794 X-221.384 Y11.042 Z-9.586 A184.0309 
N1795 X-221.031 Y9.469 Z-9.755 A183.8831 
N1796 X-220.663 Y7.844 Z-9.913 A183.8044 
N1797 X-220.286 Y6.188 Z-10.067 A183.7650 
N1798 X-219.907 Y4.520 Z-10.218 A183.7574 
N1799 X-219.529 Y2.863 Z-10.366 A183.7888 
N1800 X-219.158 Y1.237 Z-10.508 A183.8592 
N1801 X-218.800 Y-0.336 Z-10.649 A183.9525 
N1802 X-218.459 Y-1.840 Z-10.792 A184.0293 
N1803 X-218.142 Y-3.256 Z-10.948 
N1804 X-217.844 Y-4.588 Z-11.098 
N1805 X-217.565 Y-5.835 Z-11.237 
N1806 X-217.315 Y-6.979 Z-11.399 A183.8213 
N1807 X-217.107 Y-8.004 Z-11.627 A183.1479 
N1808 X-216.936 Y-8.919 Z-11.912 A182.0367 
N1809 X-216.799 Y-9.732 Z-12.249 A180.5042 
N1810 X-216.690 Y-10.456 Z-12.616 A178.6751 
N1811 X-216.601 Y-11.102 Z-12.993 A176.6645 
N1812 X-216.528 Y-11.683 Z-13.365 A174.5749 
N1813 X-216.467 Y-12.205 Z-13.725 A172.4702 
N1814 X-216.414 Y-12.683 Z-14.073 A170.3674 
N1815 X-216.368 Y-13.120 Z-14.402 A168.3127 
N1816 X-216.326 Y-13.524 Z-14.713 A166.3171 
N1817 X-216.288 Y-13.899 Z-15.005 A164.3942 
N1818 X-216.253 Y-14.255 Z-15.284 A162.5092 
N1819 X-216.220 Y-14.590 Z-15.550 A160.6798 
N1820 X-216.188 Y-14.917 Z-15.809 A158.8591 
N1821 X-216.157 Y-15.233 Z-16.060 A157.0658 
N1822 X-216.126 Y-15.540 Z-16.302 A155.2971 
N1823 X-216.096 Y-15.842 Z-16.537 A153.5405 
N1824 X-216.065 Y-16.141 Z-16.767 A151.7889 
N1825 X-216.034 Y-16.436 Z-16.991 A150.0529 
N1826 X-216.002 Y-16.731 Z-17.209 A148.3142 
N1827 X-215.969 Y-17.027 Z-17.424 A146.5658 
N1828 X-215.935 Y-17.327 Z-17.635 A144.8061 
N1829 X-215.899 Y-17.625 Z-17.839 A143.0564 
N1830 X-215.863 Y-17.924 Z-18.036 A141.3147 
N1831 X-215.824 Y-18.229 Z-18.230 A139.5485 
N1832 X-215.784 Y-18.533 Z-18.417 A137.7966 
N1833 X-215.742 Y-18.840 Z-18.596 A136.0454 
N1834 X-215.698 Y-19.154 Z-18.772 A134.2662 
N1835 X-215.652 Y-19.464 Z-18.937 A132.5249 
N1836 X-215.603 Y-19.786 Z-19.099 A130.7349 
N1837 X-215.554 Y-20.100 Z-19.248 A129.0017 
N1838 X-215.501 Y-20.427 Z-19.394 A127.2136 
N1839 X-215.448 Y-20.746 Z-19.528 A125.4815 
N1840 X-215.391 Y-21.077 Z-19.657 A123.7036 
N1841 X-215.333 Y-21.403 Z-19.774 A121.9648 
N1842 X-215.271 Y-21.737 Z-19.885 A120.2016 
N1843 X-215.209 Y-22.070 Z-19.986 A118.4516 
N1844 X-215.144 Y-22.405 Z-20.077 A116.7045 
N1845 X-215.076 Y-22.745 Z-20.160 A114.9447 
N1846 X-215.007 Y-23.080 Z-20.232 A113.2159 
N1847 X-214.935 Y-23.422 Z-20.295 A111.4667 
N1848 X-214.862 Y-23.761 Z-20.348 A109.7361 
N1849 X-214.787 Y-24.102 Z-20.391 A108.0041 
N1850 X-214.709 Y-24.444 Z-20.424 A106.2685 
N1851 X-214.630 Y-24.784 Z-20.447 A104.5487 
N1852 X-214.549 Y-25.125 Z-20.459 A102.8267 
N1853 X-214.466 Y-25.466 Z-20.461 A101.1086 
N1854 X-214.382 Y-25.805 Z-20.453 A99.3969 
N1855 X-214.296 Y-26.143 Z-20.434 A97.6923 
N1856 X-214.208 Y-26.481 Z-20.404 A95.9815 
N1857 X-214.119 Y-26.815 Z-20.364 A94.2862 
N1858 X-214.028 Y-27.149 Z-20.313 A92.5896 
N1859 X-213.936 Y-27.480 Z-20.252 A90.8952 
N1860 X-213.844 Y-27.804 Z-20.180 A89.2250 
N1861 X-213.748 Y-28.134 Z-20.096 A87.5176 
N1862 X-213.652 Y-28.454 Z-20.003 A85.8427 
N1863 X-213.554 Y-28.775 Z-19.897 A84.1501 
N1864 X-213.456 Y-29.091 Z-19.780 A82.4647 
N1865 X-213.356 Y-29.403 Z-19.652 A80.7799 
N1866 X-213.253 Y-29.717 Z-19.510 A79.0613 
N1867 X-213.150 Y-30.024 Z-19.357 A77.3551 
N1868 X-213.042 Y-30.337 Z-19.186 A75.5811 
N1869 X-212.933 Y-30.644 Z-19.001 A73.8111 
N1870 X-212.819 Y-30.955 Z-18.795 A71.9694 
N1871 X-212.701 Y-31.267 Z-18.568 A70.0734 
N1872 X-212.581 Y-31.573 Z-18.321 A68.1539 
N1873 X-212.450 Y-31.894 Z-18.034 A66.0628 
N1874 X-212.314 Y-32.211 Z-17.715 A63.8888 
N1875 X-212.172 Y-32.521 Z-17.358 A61.6379 
N1876 X-212.028 Y-32.814 Z-16.961 A59.3259 
N1877 X-211.884 Y-33.078 Z-16.528 A57.0075 
N1878 X-211.738 Y-33.309 Z-16.041 A54.6311 
N1879 X-211.601 Y-33.481 Z-15.526 A52.3615 
N1880 X-211.476 Y-33.579 Z-14.978 A50.2244 
N1881 X-211.371 Y-33.584 Z-14.414 A48.3396 
N1882 X-211.293 Y-33.480 Z-13.850 A46.8130 
N1883 X-211.244 Y-33.258 Z-13.290 A45.6876 
N1884 X-211.223 Y-32.923 Z-12.733 A44.9482 
N1885 X-211.226 Y-32.487 Z-12.169 A44.5284 
N1886 X-211.247 Y-31.963 Z-11.584 A44.3375 
N1887 X-211.279 Y-31.367 Z-10.966 A44.2841 
N1888 X-211.318 Y-30.712 Z-10.309 A44.3009 
N1889 X-211.359 Y-30.015 Z-9.607 A44.3197 
N1890 X-211.401 Y-29.281 Z-8.863 
N1891 X-211.442 Y-28.525 Z-8.079 A44.2503 
N1892 X-211.477 Y-27.763 Z-7.258 A44.0546 
N1893 X-211.505 Y-27.004 Z-6.406 A43.7038 
N1894 X-211.526 Y-26.261 Z-5.528 A43.1596 
N1895 X-211.537 Y-25.540 Z-4.633 A42.3969 
N1896 X-211.539 Y-24.847 Z-3.726 A41.4070 
N1897 X-211.535 Y-24.180 Z-2.818 A40.2064 
N1898 X-211.527 Y-23.537 Z-1.919 A38.8370 
N1899 X-211.518 Y-22.913 Z-1.039 A37.3430 
N1900 X-211.509 Y-22.302 Z-0.183 A35.7594 
N1901 X-211.503 Y-21.703 Z0.646 A34.1101 
N1902 X-211.501 Y-21.110 Z1.448 A32.4106 
N1903 X-211.502 Y-20.520 Z2.223 A30.6757 
N1904 X-211.509 Y-19.926 Z2.972 A28.9175 
N1905 X-211.523 Y-19.324 Z3.699 A27.1429 
N1906 X-211.543 Y-18.707 Z4.406 A25.3567 
N1907 X-211.573 Y-18.069 Z5.093 A23.5674 
N1908 X-211.612 Y-17.404 Z5.761 A21.7855 
N1909 X-211.664 Y-16.705 Z6.410 A20.0222 
N1910 X-211.729 Y-15.967 Z7.037 A18.2938 
N1911 X-211.809 Y-15.186 Z7.638 A16.6251 
N1912 X-211.906 Y-14.360 Z8.206 A15.0472 
N1913 X-212.022 Y-13.488 Z8.737 A13.5928 
N1914 X-212.156 Y-12.571 Z9.224 A12.2883 
N1915 X-212.308 Y-11.615 Z9.665 A11.1524 
N1916 X-212.478 Y-10.624 Z10.058 A10.1985 
N1917 X-212.663 Y-9.607 Z10.403 A9.4315 
N1918 X-212.860 Y-8.573 Z10.705 A8.8350 
N1919 X-213.065 Y-7.533 Z10.972 A8.3707 
N1920 X-213.273 Y-6.498 Z11.215 A7.9793 
N1921 X-213.479 Y-5.478 Z11.449 A7.5929 
N1922 X-213.679 Y-4.484 Z11.681 A7.1519 
N1923 X-213.870 Y-3.524 Z11.921 A6.6052 
N1924 X-214.048 Y-2.605 Z12.174 A5.9093 
N1925 X-214.211 Y-1.733 Z12.445 A5.0301 
N1926 X-214.359 Y-0.909 Z12.735 A3.9475 
N1927 X-214.491 Y-0.134 Z13.043 A2.6602 
N1928 X-214.610 Y0.592 Z13.365 A1.1907 
N1929 X-214.716 Y1.275 Z13.695 A359.5734 
N1930 X-214.811 Y1.916 Z14.027 A357.8428 
N1931 X-214.898 Y2.519 Z14.356 A356.0311 
N1932 X-214.978 Y3.090 Z14.679 A354.1665 
N1933 X-215.053 Y3.631 Z14.992 A352.2746 
N1934 X-215.123 Y4.147 Z15.292 A350.3795 
N1935 X-215.191 Y4.641 Z15.579 A348.4955 
N1936 X-215.257 Y5.115 Z15.850 A346.6389 
N1937 X-215.322 Y5.574 Z16.107 A344.7999 
N1938 X-215.387 Y6.021 Z16.350 A342.9865 
N1939 X-215.451 Y6.456 Z16.579 A341.2004 
N1940 X-215.515 Y6.883 Z16.794 A339.4392 
N1941 X-215.581 Y7.303 Z16.997 A337.6982 
N1942 X-215.647 Y7.719 Z17.188 A335.9727 
N1943 X-215.715 Y8.131 Z17.367 A334.2630 
N1944 X-215.784 Y8.539 Z17.535 A332.5703 
N1945 X-215.854 Y8.946 Z17.692 A330.8851 
N1946 X-215.926 Y9.352 Z17.838 A329.2099 
N1947 X-216.000 Y9.755 Z17.973 A327.5473 
N1948 X-216.076 Y10.159 Z18.098 A325.8884 
N1949 X-216.153 Y10.561 Z18.211 A324.2410 
N1950 X-216.232 Y10.963 Z18.315 A322.5963 
N1951 X-216.313 Y11.364 Z18.408 A320.9623 
N1952 X-216.396 Y11.765 Z18.490 A319.3308 
N1953 X-216.480 Y12.164 Z18.562 A317.7084 
N1954 X-216.566 Y12.563 Z18.624 A316.0881 
N1955 X-216.654 Y12.960 Z18.676 A314.4737 
N1956 X-216.743 Y13.356 Z18.719 A312.8633 
N1957 X-216.833 Y13.752 Z18.752 A311.2531 
N1958 X-216.925 Y14.145 Z18.775 A309.6479 
N1959 X-217.018 Y14.538 Z18.790 A308.0410 
N1960 X-217.113 Y14.929 Z18.796 A306.4327 
N1961 X-217.208 Y15.319 Z18.793 A304.8262 
N1962 X-217.305 Y15.707 Z18.782 A303.2154 
N1963 X-217.404 Y16.095 Z18.762 A301.5996 
N1964 X-217.503 Y16.480 Z18.734 A299.9831 
N1965 X-217.603 Y16.864 Z18.697 A298.3629 
N1966 X-217.705 Y17.247 Z18.652 A296.7364 
N1967 X-217.808 Y17.628 Z18.599 A295.1041 
N1968 X-217.912 Y18.007 Z18.537 A293.4684 
N1969 X-218.017 Y18.385 Z18.467 A291.8279 
N1970 X-218.124 Y18.760 Z18.388 A290.1800 
N1971 X-218.231 Y19.135 Z18.300 A288.5251 
N1972 X-218.340 Y19.507 Z18.202 A286.8640 
N1973 X-218.450 Y19.877 Z18.095 A285.1990 
N1974 X-218.561 Y20.243 Z17.978 A283.5311 
N1975 X-218.673 Y20.607 Z17.851 A281.8609 
N1976 X-218.787 Y20.967 Z17.713 A280.1899 
N1977 X-218.901 Y21.323 Z17.565 A278.5194 
N1978 X-219.016 Y21.674 Z17.405 A276.8507 
N1979 X-219.132 Y22.019 Z17.234 A275.1846 
N1980 X-219.249 Y22.360 Z17.051 A273.5206 
N1981 X-219.366 Y22.695 Z16.856 A271.8582 
N1982 X-219.485 Y23.023 Z16.648 A270.2004 
N1983 X-219.604 Y23.344 Z16.428 A268.5487 
N1984 X-219.723 Y23.657 Z16.195 A266.9043 
N1985 X-219.843 Y23.963 Z15.949 A265.2624 
N1986 X-219.963 Y24.260 Z15.689 A263.6255 
N1987 X-220.083 Y24.546 Z15.416 A262.0013 
N1988 X-220.204 Y24.822 Z15.129 A260.3873 
N1989 X-220.324 Y25.088 Z14.827 A258.7766 
N1990 X-220.443 Y25.340 Z14.513 A257.1864 
N1991 X-220.563 Y25.580 Z14.183 A255.6015 
N1992 X-220.681 Y25.806 Z13.840 A254.0378 
N1993 X-220.798 Y26.017 Z13.483 A252.4851 
N1994 X-220.914 Y26.211 Z13.113 A250.9572 
N1995 X-221.028 Y26.390 Z12.728 A249.4424 
N1996 X-221.140 Y26.551 Z12.332 A247.9520 
N1997 X-221.250 Y26.693 Z11.924 A246.4863 
N1998 X-221.358 Y26.817 Z11.504 A245.0411 
N1999 X-221.463 Y26.922 Z11.073 A243.6197 
N2000 X-221.565 Y27.007 Z10.632 A242.2211 
N2001 X-221.663 Y27.073 Z10.182 A240.8458 
N2002 X-221.759 Y27.120 Z9.724 A239.4926 
N2003 X-221.852 Y27.148 Z9.259 A238.1586 
N2004 X-221.941 Y27.158 Z8.788 A236.8420 
N2005 X-222.027 Y27.151 Z8.311 A235.5384 
N2006 X-222.109 Y27.127 Z7.830 A234.2432 
N2007 X-222.189 Y27.089 Z7.344 A232.9524 
N2008 X-222.266 Y27.036 Z6.855 A231.6585 
N2009 X-222.341 Y26.971 Z6.362 A230.3555 
N2010 X-222.414 Y26.894 Z5.866 A229.0385 
N2011 X-222.484 Y26.807 Z5.367 A227.7008 
N2012 X-222.553 Y26.710 Z4.864 A226.3367 
N2013 X-222.620 Y26.604 Z4.359 A224.9433 
N2014 X-222.685 Y26.488 Z3.851 A223.5180 
N2015 X-222.748 Y26.362 Z3.339 A222.0615 
N2016 X-222.809 Y26.225 Z2.826 A220.5757 
N2017 X-222.868 Y26.077 Z2.311 A219.0633 
N2018 X-222.923 Y25.915 Z1.795 A217.5282 
N2019 X-222.975 Y25.739 Z1.278 A215.9723 
N2020 X-223.024 Y25.547 Z0.761 A214.4004 
N2021 X-223.068 Y25.336 Z0.243 A212.8131 
N2022 X-223.107 Y25.107 Z-0.275 A211.2151 
N2023 X-223.141 Y24.855 Z-0.794 A209.6060 
N2024 X-223.169 Y24.579 Z-1.313 A207.9860 
N2025 X-223.190 Y24.276 Z-1.832 A206.3587 
N2026 X-223.205 Y23.944 Z-2.352 A204.7230 
N2027 X-223.211 Y23.578 Z-2.872 A203.0808 
N2028 X-223.208 Y23.174 Z-3.392 A201.4350 
N2029 X-223.195 Y22.730 Z-3.910 A199.7906 
N2030 X-223.170 Y22.239 Z-4.427 A198.1474 
N2031 X-223.132 Y21.698 Z-4.940 A196.5093 
N2032 X-223.080 Y21.101 Z-5.447 A194.8838 
N2033 X-223.011 Y20.444 Z-5.945 A193.2841 
N2034 X-222.923 Y19.723 Z-6.428 A191.7240 
N2035 X-222.816 Y18.934 Z-6.894 A190.2115 
N2036 X-222.688 Y18.075 Z-7.339 A188.7564 
N2037 X-222.538 Y17.145 Z-7.758 A187.3773 
N2038 X-222.365 Y16.145 Z-8.146 A186.0844 
N2039 X-222.170 Y15.078 Z-8.502 A184.8837 
N2040 X-221.953 Y13.947 Z-8.823 A183.7827 
N2041 X-221.716 Y12.760 Z-9.109 A182.7828 
N2042 X-221.460 Y11.526 Z-9.357 A181.9032 
N2043 X-221.187 Y10.254 Z-9.565 A181.1745 
N2044 X-220.901 Y8.956 Z-9.732 A180.6214 
N2045 X-220.604 Y7.644 Z-9.860 A180.2586 
N2046 X-220.301 Y6.332 Z-9.953 A180.1057 
N2047 X-219.994 Y5.030 Z-10.015 A180.1715 
N2048 X-219.690 Y3.750 Z-10.060 A180.4207 
N2049 X-219.393 Y2.502 Z-10.104 A180.7897 
N2050 X-219.111 Y1.297 Z-10.172 A181.1558 
N2051 X-218.846 Y0.137 Z-10.270 A181.4798 
N2052 X-218.610 Y-0.957 Z-10.443 A181.5097 
N2053 X-218.388 Y-2.013 Z-10.636 
N2054 X-218.174 Y-3.040 Z-10.836 
N2055 X-217.967 Y-4.039 Z-11.035 
N2056 X-217.765 Y-5.009 Z-11.226 
N2057 X-217.568 Y-5.946 Z-11.398 
N2058 X-217.376 Y-6.844 Z-11.548 
N2059 X-217.206 Y-7.674 Z-11.727 A181.2182 
N2060 X-217.056 Y-8.436 Z-11.926 A180.6671 
N2061 X-216.926 Y-9.133 Z-12.141 A179.8956 
N2062 X-216.813 Y-9.765 Z-12.369 A178.9237 
N2063 X-216.717 Y-10.339 Z-12.607 A177.7789 
N2064 X-216.635 Y-10.861 Z-12.857 A176.4806 
N2065 X-216.567 Y-11.333 Z-13.115 A175.0615 
N2066 X-216.510 Y-11.768 Z-13.381 A173.5351 
N2067 X-216.462 Y-12.170 Z-13.652 A171.9329 
N2068 X-216.420 Y-12.547 Z-13.924 A170.2815 
N2069 X-216.382 Y-12.904 Z-14.195 A168.5945 
N2070 X-216.349 Y-13.242 Z-14.460 A166.9128 
N2071 X-216.317 Y-13.571 Z-14.723 A165.2066 
N2072 X-216.286 Y-13.886 Z-14.978 A163.5240 
N2073 X-216.257 Y-14.196 Z-15.228 A161.8301 
N2074 X-216.228 Y-14.501 Z-15.475 A160.1319 
N2075 X-216.199 Y-14.801 Z-15.714 A158.4437 
N2076 X-216.169 Y-15.097 Z-15.949 A156.7551 
N2077 X-216.140 Y-15.390 Z-16.180 A155.0642 
N2078 X-216.110 Y-15.683 Z-16.406 A153.3688 
N2079 X-216.080 Y-15.975 Z-16.628 A151.6665 
N2080 X-216.049 Y-16.266 Z-16.845 A149.9704 
N2081 X-216.017 Y-16.557 Z-17.058 A148.2664 
N2082 X-215.983 Y-16.852 Z-17.267 A146.5492 
N2083 X-215.948 Y-17.149 Z-17.472 A144.8180 
N2084 X-215.912 Y-17.447 Z-17.672 A143.0900 
N2085 X-215.875 Y-17.745 Z-17.864 A141.3704 
N2086 X-215.836 Y-18.048 Z-18.054 A139.6299 
N2087 X-215.795 Y-18.353 Z-18.236 A137.8904 
N2088 X-215.752 Y-18.658 Z-18.412 A136.1607 
N2089 X-215.707 Y-18.972 Z-18.584 A134.3952 
N2090 X-215.662 Y-19.281 Z-18.745 A132.6727 
N2091 X-215.613 Y-19.599 Z-18.903 A130.9139 
N2092 X-215.563 Y-19.915 Z-19.050 A129.1824 
N2093 X-215.510 Y-20.237 Z-19.193 A127.4255 
N2094 X-215.456 Y-20.559 Z-19.326 A125.6910 
N2095 X-215.399 Y-20.887 Z-19.452 A123.9303 
N2096 X-215.341 Y-21.212 Z-19.568 A122.2025 
N2097 X-215.280 Y-21.547 Z-19.679 A120.4357 
N2098 X-215.218 Y-21.874 Z-19.777 A118.7184 
N2099 X-215.153 Y-22.211 Z-19.869 A116.9647 
N2100 X-215.086 Y-22.545 Z-19.951 A115.2365 
N2101 X-215.017 Y-22.882 Z-20.024 A113.4995 
N2102 X-214.946 Y-23.222 Z-20.088 A111.7576 
N2103 X-214.873 Y-23.559 Z-20.142 A110.0385 
N2104 X-214.798 Y-23.901 Z-20.186 A108.2996 
N2105 X-214.722 Y-24.240 Z-20.221 A106.5828 
N2106 X-214.643 Y-24.580 Z-20.245 A104.8623 
N2107 X-214.563 Y-24.921 Z-20.260 A103.1391 
N2108 X-214.481 Y-25.259 Z-20.265 A101.4317 
N2109 X-214.397 Y-25.598 Z-20.259 A99.7216 
N2110 X-214.312 Y-25.936 Z-20.244 A98.0154 
N2111 X-214.225 Y-26.272 Z-20.218 A96.3158 
N2112 X-214.137 Y-26.605 Z-20.182 A94.6243 
N2113 X-214.047 Y-26.939 Z-20.135 A92.9269 
N2114 X-213.956 Y-27.268 Z-20.079 A91.2424 
N2115 X-213.864 Y-27.596 Z-20.012 A89.5586 
N2116 X-213.769 Y-27.923 Z-19.934 A87.8681 
N2117 X-213.675 Y-28.242 Z-19.847 A86.2022 
N2118 X-213.578 Y-28.564 Z-19.747 A84.5084 
N2119 X-213.481 Y-28.880 Z-19.638 A82.8323 
N2120 X-213.383 Y-29.193 Z-19.518 A81.1473 
N2121 X-213.281 Y-29.508 Z-19.384 A79.4334 
N2122 X-213.180 Y-29.814 Z-19.242 A77.7453 
N2123 X-213.073 Y-30.131 Z-19.080 A75.9664 
N2124 X-212.968 Y-30.433 Z-18.911 A74.2414 
N2125 X-212.854 Y-30.753 Z-18.715 A72.3781 
N2126 X-212.741 Y-31.059 Z-18.509 A70.5493 
N2127 X-212.618 Y-31.384 Z-18.268 A68.5490 
N2128 X-212.490 Y-31.707 Z-18.005 A66.4958 
N2129 X-212.358 Y-32.028 Z-17.714 A64.3759 
N2130 X-212.215 Y-32.358 Z-17.376 A62.0783 
N2131 X-212.068 Y-32.677 Z-16.999 A59.7038 
N2132 X-211.920 Y-32.972 Z-16.584 A57.3011 
N2133 X-211.771 Y-33.236 Z-16.126 A54.8710 
N2134 X-211.625 Y-33.453 Z-15.622 A52.4468 
N2135 X-211.493 Y-33.600 Z-15.097 A50.1855 
N2136 X-211.378 Y-33.660 Z-14.553 A48.1434 
N2137 X-211.288 Y-33.617 Z-14.005 A46.4274 
N2138 X-211.228 Y-33.458 Z-13.465 A45.1132 
N2139 X-211.198 Y-33.181 Z-12.936 A44.2221 
N2140 X-211.195 Y-32.796 Z-12.409 A43.7017 
N2141 X-211.213 Y-32.316 Z-11.870 A43.4607 
N2142 X-211.245 Y-31.757 Z-11.304 A43.3959 
N2143 X-211.286 Y-31.136 Z-10.699 A43.4144 
N2144 X-211.331 Y-30.462 Z-10.049 A43.4597 
N2145 X-211.375 Y-29.754 Z-9.350 
N2146 X-211.423 Y-29.005 Z-8.612 
N2147 X-211.465 Y-28.243 Z-7.831 A43.3428 
N2148 X-211.502 Y-27.476 Z-7.015 A43.0902 
N2149 X-211.532 Y-26.716 Z-6.166 A42.6585 
N2150 X-211.552 Y-25.974 Z-5.293 A42.0132 
N2151 X-211.564 Y-25.255 Z-4.400 A41.1326 
N2152 X-211.567 Y-24.562 Z-3.495 A40.0188 
N2153 X-211.564 Y-23.891 Z-2.591 A38.7033 
N2154 X-211.559 Y-23.238 Z-1.698 A37.2395 
N2155 X-211.555 Y-22.598 Z-0.826 A35.6753 
N2156 X-211.554 Y-21.966 Z0.020 A34.0464 
N2157 X-211.557 Y-21.338 Z0.838 A32.3741 
N2158 X-211.565 Y-20.712 Z1.628 A30.6720 
N2159 X-211.578 Y-20.084 Z2.390 A28.9544 
N2160 X-211.598 Y-19.448 Z3.124 A27.2339 
N2161 X-211.626 Y-18.801 Z3.833 A25.5189 
N2162 X-211.662 Y-18.137 Z4.517 A23.8175 
N2163 X-211.708 Y-17.453 Z5.177 A22.1413 
N2164 X-211.765 Y-16.743 Z5.810 A20.5041 
N2165 X-211.833 Y-16.005 Z6.417 A18.9202 
N2166 X-211.915 Y-15.238 Z6.994 A17.4043 
N2167 X-212.009 Y-14.440 Z7.539 A15.9720 
N2168 X-212.118 Y-13.612 Z8.050 A14.6398 
N2169 X-212.240 Y-12.756 Z8.523 A13.4242 
N2170 X-212.374 Y-11.877 Z8.957 A12.3332 
N2171 X-212.521 Y-10.980 Z9.354 A11.3628 
N2172 X-212.676 Y-10.072 Z9.717 A10.4996 
N2173 X-212.837 Y-9.160 Z10.049 A9.7213 
N2174 X-213.003 Y-8.251 Z10.357 A8.9999 
N2175 X-213.169 Y-7.353 Z10.647 A8.3020 
N2176 X-213.333 Y-6.473 Z10.925 A7.5882 
N2177 X-213.491 Y-5.618 Z11.200 A6.8152 
N2178 X-213.642 Y-4.792 Z11.477 A5.9460 
N2179 X-213.783 Y-3.999 Z11.759 A4.9544 
N2180 X-213.915 Y-3.242 Z12.050 A3.8275 
N2181 X-214.036 Y-2.521 Z12.348 A2.5641 
N2182 X-214.147 Y-1.836 Z12.653 A1.1709 
N2183 X-214.250 Y-1.185 Z12.962 A359.6586 
N2184 X-214.344 Y-0.565 Z13.273 A358.0421 
N2185 X-214.431 Y0.025 Z13.583 A356.3448 
N2186 X-214.513 Y0.589 Z13.889 A354.5896 
N2187 X-214.590 Y1.130 Z14.187 A352.7978 
N2188 X-214.664 Y1.651 Z14.475 A350.9872 
N2189 X-214.736 Y2.154 Z14.751 A349.1723 
N2190 X-214.807 Y2.643 Z15.017 A347.3543 
N2191 X-214.877 Y3.119 Z15.269 A345.5478 
N2192 X-214.946 Y3.584 Z15.507 A343.7578 
N2193 X-215.016 Y4.041 Z15.733 A341.9839 
N2194 X-215.087 Y4.491 Z15.945 A340.2268 
N2195 X-215.159 Y4.936 Z16.143 A338.4863 
N2196 X-215.233 Y5.377 Z16.329 A336.7617 
N2197 X-215.308 Y5.815 Z16.502 A335.0519 
N2198 X-215.385 Y6.251 Z16.662 A333.3562 
N2199 X-215.464 Y6.685 Z16.809 A331.6754 
N2200 X-215.546 Y7.118 Z16.943 A330.0078 
N2201 X-215.629 Y7.551 Z17.064 A328.3523 
N2202 X-215.714 Y7.983 Z17.173 A326.7070 
N2203 X-215.802 Y8.414 Z17.269 A325.0721 
N2204 X-215.892 Y8.844 Z17.353 A323.4490 
N2205 X-215.983 Y9.274 Z17.424 A321.8365 
N2206 X-216.077 Y9.702 Z17.484 A320.2327 
N2207 X-216.173 Y10.129 Z17.531 A318.6385 
N2208 X-216.270 Y10.555 Z17.566 A317.0539 
N2209 X-216.369 Y10.979 Z17.590 A315.4761 
N2210 X-216.470 Y11.400 Z17.603 A313.9056 
N2211 X-216.572 Y11.820 Z17.605 A312.3424 
N2212 X-216.675 Y12.237 Z17.598 A310.7816 
N2213 X-216.780 Y12.651 Z17.580 A309.2257 
N2214 X-216.885 Y13.062 Z17.553 A307.6713 
N2215 X-216.992 Y13.471 Z17.518 A306.1155 
N2216 X-217.099 Y13.877 Z17.474 A304.5608 
N2217 X-217.207 Y14.281 Z17.423 A302.9991 
N2218 X-217.315 Y14.681 Z17.364 A301.4358 
N2219 X-217.425 Y15.079 Z17.297 A299.8616 
N2220 X-217.535 Y15.475 Z17.224 A298.2837 
N2221 X-217.646 Y15.868 Z17.144 A296.6925 
N2222 X-217.757 Y16.259 Z17.057 A295.0961 
N2223 X-217.869 Y16.647 Z16.963 A293.4888 
N2224 X-217.982 Y17.033 Z16.862 A291.8713 
N2225 X-218.096 Y17.415 Z16.754 A290.2504 
N2226 X-218.210 Y17.795 Z16.638 A288.6189 
N2227 X-218.324 Y18.172 Z16.515 A286.9821 
N2228 X-218.439 Y18.544 Z16.385 A285.3447 
N2229 X-218.555 Y18.912 Z16.246 A283.7022 
N2230 X-218.671 Y19.276 Z16.099 A282.0572 
N2231 X-218.787 Y19.635 Z15.944 A280.4148 
N2232 X-218.903 Y19.989 Z15.780 A278.7737 
N2233 X-219.020 Y20.337 Z15.607 A277.1332 
N2234 X-219.137 Y20.680 Z15.425 A275.4947 
N2235 X-219.255 Y21.017 Z15.234 A273.8604 
N2236 X-219.372 Y21.347 Z15.034 A272.2302 
N2237 X-219.490 Y21.671 Z14.825 A270.6041 
N2238 X-219.607 Y21.988 Z14.606 A268.9832 
N2239 X-219.725 Y22.297 Z14.378 A267.3681 
N2240 X-219.842 Y22.598 Z14.141 A265.7584 
N2241 X-219.959 Y22.892 Z13.893 A264.1547 
N2242 X-220.076 Y23.177 Z13.637 A262.5583 
N2243 X-220.193 Y23.453 Z13.371 A260.9698 
N2244 X-220.309 Y23.720 Z13.095 A259.3864 
N2245 X-220.424 Y23.978 Z12.809 A257.8088 
N2246 X-220.539 Y24.226 Z12.515 A256.2403 
N2247 X-220.653 Y24.463 Z12.211 A254.6800 
N2248 X-220.766 Y24.690 Z11.897 A253.1235 
N2249 X-220.878 Y24.906 Z11.575 A251.5762 
N2250 X-220.989 Y25.111 Z11.244 A250.0385 
N2251 X-221.099 Y25.304 Z10.903 A248.5037 
N2252 X-221.207 Y25.485 Z10.555 A246.9799 
N2253 X-221.314 Y25.653 Z10.197 A245.4613 
N2254 X-221.419 Y25.809 Z9.831 A243.9482 
N2255 X-221.523 Y25.952 Z9.458 A242.4440 
N2256 X-221.625 Y26.082 Z9.076 A240.9416 
N2257 X-221.725 Y26.198 Z8.687 A239.4481 
N2258 X-221.823 Y26.300 Z8.291 A237.9579 
N2259 X-221.918 Y26.388 Z7.887 A236.4723 
N2260 X-222.012 Y26.462 Z7.478 A234.9941 
N2261 X-222.103 Y26.521 Z7.061 A233.5165 
N2262 X-222.191 Y26.564 Z6.639 A232.0444 
N2263 X-222.276 Y26.593 Z6.211 A230.5774 
N2264 X-222.359 Y26.606 Z5.778 A229.1113 
N2265 X-222.439 Y26.603 Z5.339 A227.6459 
N2266 X-222.516 Y26.584 Z4.896 A226.1826 
N2267 X-222.590 Y26.549 Z4.449 A224.7204 
N2268 X-222.660 Y26.497 Z3.997 A223.2580 
N2269 X-222.728 Y26.429 Z3.542 A221.7944 
N2270 X-222.791 Y26.344 Z3.083 A220.3289 
N2271 X-222.851 Y26.241 Z2.621 A218.8607 
N2272 X-222.907 Y26.121 Z2.156 A217.3899 
N2273 X-222.959 Y25.982 Z1.689 A215.9171 
N2274 X-223.007 Y25.825 Z1.221 A214.4426 
N2275 X-223.050 Y25.648 Z0.750 A212.9644 
N2276 X-223.089 Y25.451 Z0.279 A211.4822 
N2277 X-223.123 Y25.234 Z-0.193 A209.9980 
N2278 X-223.151 Y24.995 Z-0.666 A208.5112 
N2279 X-223.174 Y24.734 Z-1.138 A207.0198 
N2280 X-223.192 Y24.449 Z-1.610 A205.5275 
N2281 X-223.203 Y24.140 Z-2.081 A204.0308 
N2282 X-223.207 Y23.805 Z-2.551 A202.5281 
N2283 X-223.205 Y23.442 Z-3.020 A201.0182 
N2284 X-223.195 Y23.051 Z-3.488 A199.4939 
N2285 X-223.178 Y22.628 Z-3.958 A197.9475 
N2286 X-223.153 Y22.171 Z-4.427 A196.3772 
N2287 X-223.119 Y21.677 Z-4.895 A194.7883 
N2288 X-223.073 Y21.143 Z-5.359 A193.1879 
N2289 X-223.016 Y20.565 Z-5.815 A191.5863 
N2290 X-222.946 Y19.940 Z-6.262 A189.9847 
N2291 X-222.861 Y19.266 Z-6.698 A188.3820 
N2292 X-222.762 Y18.541 Z-7.119 A186.7848 
N2293 X-222.646 Y17.764 Z-7.520 A185.2174 
N2294 X-222.512 Y16.935 Z-7.894 A183.7025 
N2295 X-222.360 Y16.057 Z-8.234 A182.2634 
N2296 X-222.189 Y15.132 Z-8.534 A180.9344 
N2297 X-222.001 Y14.168 Z-8.789 A179.7373 
N2298 X-221.796 Y13.171 Z-8.999 A178.6855 
N2299 X-221.577 Y12.150 Z-9.163 A177.7927 
N2300 X-221.346 Y11.115 Z-9.283 A177.0698 
N2301 X-221.107 Y10.076 Z-9.365 A176.5146 
N2302 X-220.864 Y9.041 Z-9.415 A176.1165 
N2303 X-220.619 Y8.021 Z-9.440 A175.8685 
N2304 X-220.376 Y7.021 Z-9.446 A175.7642 
N2305 X-220.138 Y6.050 Z-9.442 A175.7919 
N2306 X-219.907 Y5.110 Z-9.433 A175.9373 
N2307 X-219.684 Y4.205 Z-9.425 A176.1813 
N2308 X-219.472 Y3.335 Z-9.427 A176.4958 
N2309 X-219.271 Y2.499 Z-9.446 A176.8467 
N2310 X-219.085 Y1.698 Z-9.495 A177.1638 
N2311 X-218.912 Y0.927 Z-9.579 A177.4222 
N2312 X-218.760 Y0.192 Z-9.731 A177.4433 
N2313 X-218.617 Y-0.529 Z-9.908 
N2314 X-218.478 Y-1.244 Z-10.104 
N2315 X-218.342 Y-1.958 Z-10.314 
N2316 X-218.208 Y-2.675 Z-10.536 
N2317 X-218.074 Y-3.394 Z-10.764 
N2318 X-217.940 Y-4.114 Z-10.991 
N2319 X-217.805 Y-4.831 Z-11.211 
N2320 X-217.670 Y-5.540 Z-11.419 
N2321 X-217.535 Y-6.238 Z-11.609 
N2322 X-217.400 Y-6.919 Z-11.779 
N2323 X-217.265 Y-7.580 Z-11.926 
N2324 X-217.132 Y-8.217 Z-12.049 
N2325 X-217.008 Y-8.819 Z-12.169 A177.3360 
N2326 X-216.890 Y-9.384 Z-12.280 A177.1554 
N2327 X-216.781 Y-9.914 Z-12.391 A176.8721 
N2328 X-216.682 Y-10.407 Z-12.507 A176.4670 
N2329 X-216.594 Y-10.862 Z-12.631 A175.9298 
N2330 X-216.517 Y-11.281 Z-12.771 A175.2392 
N2331 X-216.452 Y-11.669 Z-12.932 A174.3733 
N2332 X-216.398 Y-12.024 Z-13.114 A173.3517 
N2333 X-216.355 Y-12.356 Z-13.318 A172.1632 
N2334 X-216.321 Y-12.664 Z-13.541 A170.8445 
N2335 X-216.293 Y-12.960 Z-13.782 A169.3932 
N2336 X-216.270 Y-13.243 Z-14.034 A167.8579 
N2337 X-216.250 Y-13.517 Z-14.292 A166.2678 
N2338 X-216.232 Y-13.787 Z-14.552 A164.6341 
N2339 X-216.215 Y-14.055 Z-14.813 A162.9727 
N2340 X-216.197 Y-14.323 Z-15.071 A161.2959 
N2341 X-216.178 Y-14.590 Z-15.325 A159.6108 
N2342 X-216.159 Y-14.859 Z-15.575 A157.9207 
N2343 X-216.138 Y-15.129 Z-15.819 A156.2279 
N2344 X-216.115 Y-15.401 Z-16.058 A154.5358 
N2345 X-216.091 Y-15.672 Z-16.289 A152.8543 
N2346 X-216.066 Y-15.946 Z-16.515 A151.1681 
N2347 X-216.039 Y-16.224 Z-16.737 A149.4730 
N2348 X-216.010 Y-16.506 Z-16.954 A147.7673 
N2349 X-215.980 Y-16.788 Z-17.164 A146.0790 
N2350 X-215.948 Y-17.073 Z-17.367 A144.3842 
N2351 X-215.913 Y-17.364 Z-17.567 A142.6723 
N2352 X-215.877 Y-17.654 Z-17.758 A140.9763 
N2353 X-215.840 Y-17.949 Z-17.944 A139.2756 
N2354 X-215.799 Y-18.250 Z-18.125 A137.5495 
