; PROGRAM NAME: C99999937
; ORDER       : C999999
; OPER. NAME  : Side Milling:133
; OPER. DESCR.: Side Milling/rowek wyk
; OPER. TYPE  : sideMill
; GEO. OPTION : 3
; MACHINE     : HSTM_500M_SIM840D_Py
;             : HSTM500 Morelia- HAMUEL: 5-axis milling machine-SIM840D Traori PP_Script
; CONTROL     : SINUMERIK 840D
; created:   2022-11-16 12:01:22.235146
;----------------------------------------
;-------DODATKOWE DANE-------------------
; PROGRAMISTA : Mariusz Malec
; PARTID      : 301T002159P1002_-
;  ap         : 5.0
;  ae         : 5.0
;  lean_angle : 0.0
;  fin_offset : 0.0
;----------------------------------------
;RAPORT("TC999999","Side Milling:133")
N10 TRAFOOF
N11 D0
N12 G90 G94
N13 G0 G53 D0 Z550
N14 STOPRE
M9 ; chlodziwo wyl
; --- Side Milling:133 - Side Milling/rowek wyk ---
N16 ;ToolChange : concat=None ,current_tdmid=None, PP.tdmId=940707
N17 TRAFOOF
N18 G0 G53 D0 X-200 Y150 Z550 B0
N19 T="7740707"
;RAPORT("TC999999","ToolChangeStart 7740707")
N20 M6
;RAPORT("TC999999","ToolChangeEnd")
N21 STOPRE
N22 MSG(" TLID=940707 D=8.0 R=1.6 Ang=0.0 Len=111.0 ")
N23 S7161 M03
N24 STOPRE
N25 TOL(0.1,1,1)
N26 G0 G53 A234.0000 B0.0000
N27 TRAORI
N28 G54 D1
;tol5=0.15
STOPRE
E_ZDARZ=300010
;ACS_FINISH_SLOT=7740707
STOPRE
;UWAGA : ZMIENIONA TOLERANCJA OSI A i B, ruchy osi A i B beda usuniete : TOL5=0.15
N29 ; DELTA A > 40.1
N30 TRAFOOF
N31 D1
N32 STOPRE
N33 G00 G54 Z275.000
N34 G01 A234.0000 F10000
N35 TRAORI
N36 G54 D1
N37 STOPRE
N38 TRANS 
N39 G00 X-152.662 Y77.460 Z1.306 A234.0000 
N40 M342 ; chlodziwo woda
N41 X-152.662 Y37.009 Z30.695 
N42 ;rowek od strony mocowania
N43 D2 
N44 G01 G41 X-152.356 Y31.134 Z22.609 F716
N45 G01 X-152.356 Y31.134 Z22.609 F716 
N46 X-152.345 Y30.914 Z22.306 
N47 X-152.333 Y30.694 Z22.002 
N48 X-152.322 Y30.473 Z21.699 
N49 X-152.311 Y30.253 Z21.396 
N50 X-152.299 Y30.033 Z21.093 
N51 X-152.288 Y29.812 Z20.790 
N52 X-152.276 Y29.592 Z20.486 
N53 X-152.265 Y29.372 Z20.183 
N54 X-152.253 Y29.158 Z19.889 
N55 X-152.242 Y28.944 Z19.595 
N56 X-152.231 Y28.731 Z19.301 
N57 X-152.220 Y28.517 Z19.007 
N58 X-152.209 Y28.304 Z18.713 
N59 X-152.198 Y28.090 Z18.419 
N60 X-152.187 Y27.876 Z18.125 
N61 X-152.176 Y27.663 Z17.831 
N62 X-152.164 Y27.449 Z17.537 
N63 X-152.153 Y27.235 Z17.243 
N64 X-152.142 Y27.022 Z16.949 
N65 X-152.131 Y26.812 Z16.660 
N66 X-152.120 Y26.602 Z16.371 
N67 X-152.110 Y26.392 Z16.082 
N68 X-152.099 Y26.182 Z15.793 
N69 X-152.089 Y25.972 Z15.504 
N70 X-152.078 Y25.762 Z15.215 
N71 X-152.068 Y25.553 Z14.927 
N72 X-152.058 Y25.343 Z14.638 
N73 X-152.048 Y25.133 Z14.349 
N74 X-152.039 Y24.923 Z14.060 
N75 X-152.029 Y24.713 Z13.771 
N76 X-152.020 Y24.503 Z13.482 
N77 X-152.010 Y24.293 Z13.193 
N78 X-152.001 Y24.083 Z12.904 
N79 X-151.992 Y23.874 Z12.615 
N80 X-151.983 Y23.664 Z12.327 
N81 X-151.974 Y23.454 Z12.038 
N82 X-151.966 Y23.244 Z11.749 
N83 X-151.957 Y23.034 Z11.460 
N84 X-151.949 Y22.824 Z11.171 
N85 X-151.941 Y22.614 Z10.882 
N86 X-151.933 Y22.404 Z10.593 
N87 X-151.925 Y22.194 Z10.304 
N88 X-151.917 Y21.984 Z10.015 
N89 X-151.910 Y21.775 Z9.726 
N90 X-151.902 Y21.565 Z9.438 
N91 X-151.895 Y21.355 Z9.149 
N92 X-151.888 Y21.145 Z8.860 
N93 X-151.881 Y20.935 Z8.571 
N94 X-151.874 Y20.725 Z8.282 
N95 X-151.867 Y20.515 Z7.993 
N96 X-151.860 Y20.305 Z7.704 
N97 X-151.854 Y20.095 Z7.415 
N98 X-151.847 Y19.885 Z7.126 
N99 X-151.841 Y19.675 Z6.837 
N100 X-151.835 Y19.465 Z6.548 
N101 X-151.829 Y19.255 Z6.259 
N102 X-151.823 Y19.046 Z5.970 
N103 X-151.818 Y18.836 Z5.681 
N104 X-151.812 Y18.626 Z5.392 
N105 X-151.807 Y18.416 Z5.103 
N106 X-151.802 Y18.206 Z4.815 
N107 X-151.797 Y17.996 Z4.526 
N108 X-151.792 Y17.786 Z4.237 
N109 X-151.787 Y17.576 Z3.948 
N110 X-151.782 Y17.366 Z3.659 
N111 X-151.778 Y17.156 Z3.370 
N112 X-151.773 Y16.946 Z3.081 
N113 X-151.769 Y16.736 Z2.792 
N114 X-151.765 Y16.526 Z2.503 
N115 X-151.761 Y16.316 Z2.214 
N116 X-151.757 Y16.106 Z1.925 
N117 X-151.754 Y15.896 Z1.636 
N118 X-151.750 Y15.686 Z1.347 
N119 X-151.747 Y15.477 Z1.058 
N120 X-151.744 Y15.267 Z0.769 
N121 X-151.741 Y15.057 Z0.480 
N122 X-151.738 Y14.847 Z0.191 
N123 X-151.735 Y14.637 Z-0.098 
N124 X-151.732 Y14.427 Z-0.387 
N125 X-151.730 Y14.217 Z-0.676 
N126 X-151.727 Y14.007 Z-0.965 
N127 X-151.725 Y13.797 Z-1.254 
N128 X-151.723 Y13.587 Z-1.543 
N129 X-151.721 Y13.377 Z-1.832 
N130 X-151.719 Y13.167 Z-2.121 
N131 X-151.717 Y12.957 Z-2.410 
N132 X-151.716 Y12.747 Z-2.699 
N133 X-151.714 Y12.537 Z-2.988 
N134 X-151.713 Y12.327 Z-3.277 
N135 X-151.712 Y12.117 Z-3.566 
N136 X-151.711 Y11.907 Z-3.855 
N137 X-151.710 Y11.697 Z-4.144 
N138 X-151.710 Y11.487 Z-4.433 
N139 X-151.709 Y11.277 Z-4.722 
N140 X-151.709 Y11.067 Z-5.011 
N141 X-151.708 Y10.858 Z-5.300 
N142 X-151.708 Y10.648 Z-5.588 
N143 X-151.708 Y10.438 Z-5.877 
N144 X-151.708 Y10.228 Z-6.166 
N145 X-151.709 Y10.018 Z-6.455 
N146 X-151.709 Y9.808 Z-6.744 
N147 X-151.710 Y9.598 Z-7.033 
N148 X-151.710 Y9.388 Z-7.322 
N149 X-151.711 Y9.178 Z-7.611 
N150 X-151.712 Y8.968 Z-7.900 
N151 X-151.713 Y8.758 Z-8.189 
N152 X-151.715 Y8.548 Z-8.478 
N153 X-151.716 Y8.338 Z-8.767 
N154 X-151.718 Y8.128 Z-9.056 
N155 X-151.719 Y7.918 Z-9.345 
N156 X-151.721 Y7.708 Z-9.634 
N157 X-151.723 Y7.498 Z-9.923 
N158 X-151.725 Y7.288 Z-10.212 
N159 X-151.728 Y7.078 Z-10.501 
N160 X-151.730 Y6.868 Z-10.790 
N161 X-151.733 Y6.658 Z-11.079 
N162 X-151.735 Y6.448 Z-11.368 
N163 X-151.738 Y6.239 Z-11.657 
N164 X-151.741 Y6.029 Z-11.946 
N165 X-151.744 Y5.819 Z-12.235 
N166 X-151.748 Y5.609 Z-12.524 
N167 X-151.751 Y5.399 Z-12.813 
N168 X-151.755 Y5.189 Z-13.102 
N169 X-151.758 Y4.979 Z-13.391 
N170 X-151.762 Y4.769 Z-13.680 
N171 X-151.766 Y4.559 Z-13.969 
N172 X-151.770 Y4.349 Z-14.258 
N173 X-151.774 Y4.139 Z-14.547 
N174 X-151.779 Y3.929 Z-14.836 
N175 X-151.783 Y3.715 Z-15.130 
N176 X-151.788 Y3.502 Z-15.424 
N177 X-151.792 Y3.288 Z-15.718 
N178 X-151.796 Y3.074 Z-16.012 
N179 X-151.801 Y2.860 Z-16.307 
N180 X-151.805 Y2.647 Z-16.601 
N181 X-151.810 Y2.433 Z-16.895 
N182 X-151.814 Y2.219 Z-17.189 
N183 X-151.819 Y2.006 Z-17.483 
N184 X-151.823 Y1.792 Z-17.777 
N185 X-151.827 Y1.578 Z-18.072 
N186 G40 X-151.832 Y1.356 Z-18.377 F958
N187 X-151.832 Y1.356 Z-18.377 
N188 X-151.839 Y0.999 Z-18.868 F1685 
N189 X-151.854 Y0.372 Z-19.731 F2897 
N190 X-151.881 Y-0.614 Z-21.089 F4110 
N191 X-151.933 Y-1.871 Z-22.819 F4837 
N192 X-152.048 Y-3.262 Z-24.733 F5079 
N193 X-152.425 Y-4.728 Z-26.751 
N194 X-152.723 Y-3.478 Z-25.030 F4837 
N195 X-152.729 Y-2.201 Z-23.273 F4110 
N196 X-152.716 Y-1.231 Z-21.938 F2897 
N197 X-152.705 Y-0.618 Z-21.094 F1685 
N198 X-152.698 Y-0.261 Z-20.603 F958 
N199 ;rowek od strony piora
N200 D1 
N201 G01 G41 X-152.694 Y-0.028 Z-20.282 F716
N202 X-152.694 Y-0.028 Z-20.282 F716 
N203 X-152.689 Y0.192 Z-19.979 
N204 X-152.685 Y0.413 Z-19.675 
N205 X-152.680 Y0.633 Z-19.372 
N206 X-152.676 Y0.854 Z-19.069 
N207 X-152.671 Y1.074 Z-18.765 
N208 X-152.667 Y1.294 Z-18.462 
N209 X-152.662 Y1.515 Z-18.159 
N210 X-152.658 Y1.735 Z-17.855 
N211 X-152.654 Y1.949 Z-17.561 
N212 X-152.649 Y2.163 Z-17.267 
N213 X-152.645 Y2.376 Z-16.973 
N214 X-152.641 Y2.590 Z-16.679 
N215 X-152.636 Y2.804 Z-16.384 
N216 X-152.632 Y3.018 Z-16.090 
N217 X-152.628 Y3.231 Z-15.796 
N218 X-152.623 Y3.445 Z-15.502 
N219 X-152.619 Y3.659 Z-15.208 
N220 X-152.615 Y3.872 Z-14.914 
N221 X-152.611 Y4.086 Z-14.619 
N222 X-152.606 Y4.296 Z-14.331 
N223 X-152.602 Y4.506 Z-14.042 
N224 X-152.598 Y4.716 Z-13.753 
N225 X-152.594 Y4.926 Z-13.464 
N226 X-152.591 Y5.135 Z-13.175 
N227 X-152.587 Y5.345 Z-12.886 
N228 X-152.584 Y5.555 Z-12.598 
N229 X-152.580 Y5.765 Z-12.309 
N230 X-152.577 Y5.975 Z-12.020 
N231 X-152.574 Y6.185 Z-11.731 
N232 X-152.571 Y6.395 Z-11.442 
N233 X-152.568 Y6.605 Z-11.153 
N234 X-152.566 Y6.814 Z-10.864 
N235 X-152.563 Y7.024 Z-10.576 
N236 X-152.561 Y7.234 Z-10.287 
N237 X-152.559 Y7.444 Z-9.998 
N238 X-152.557 Y7.654 Z-9.709 
N239 X-152.555 Y7.864 Z-9.420 
N240 X-152.553 Y8.074 Z-9.131 
N241 X-152.552 Y8.283 Z-8.842 
N242 X-152.550 Y8.493 Z-8.554 
N243 X-152.549 Y8.703 Z-8.265 
N244 X-152.548 Y8.913 Z-7.976 
N245 X-152.547 Y9.123 Z-7.687 
N246 X-152.546 Y9.333 Z-7.398 
N247 X-152.545 Y9.543 Z-7.109 
N248 X-152.544 Y9.752 Z-6.820 
N249 X-152.544 Y9.962 Z-6.532 
N250 X-152.543 Y10.172 Z-6.243 
N251 X-152.543 Y10.382 Z-5.954 
N252 X-152.543 Y10.592 Z-5.665 
N253 X-152.543 Y10.802 Z-5.376 
N254 X-152.544 Y11.012 Z-5.087 
N255 X-152.544 Y11.222 Z-4.798 
N256 X-152.544 Y11.431 Z-4.510 
N257 X-152.545 Y11.641 Z-4.221 
N258 X-152.546 Y11.851 Z-3.932 
N259 X-152.547 Y12.061 Z-3.643 
N260 X-152.548 Y12.271 Z-3.354 
N261 X-152.549 Y12.481 Z-3.065 
N262 X-152.550 Y12.691 Z-2.776 
N263 X-152.552 Y12.901 Z-2.488 
N264 X-152.554 Y13.110 Z-2.199 
N265 X-152.555 Y13.320 Z-1.910 
N266 X-152.557 Y13.530 Z-1.621 
N267 X-152.559 Y13.740 Z-1.332 
N268 X-152.562 Y13.950 Z-1.043 
N269 X-152.564 Y14.160 Z-0.754 
N270 X-152.566 Y14.370 Z-0.466 
N271 X-152.569 Y14.579 Z-0.177 
N272 X-152.572 Y14.789 Z0.112 
N273 X-152.575 Y14.999 Z0.401 
N274 X-152.578 Y15.209 Z0.690 
N275 X-152.581 Y15.419 Z0.979 
N276 X-152.584 Y15.629 Z1.267 
N277 X-152.588 Y15.839 Z1.556 
N278 X-152.591 Y16.048 Z1.845 
N279 X-152.595 Y16.258 Z2.134 
N280 X-152.599 Y16.468 Z2.423 
N281 X-152.603 Y16.678 Z2.712 
N282 X-152.607 Y16.888 Z3.001 
N283 X-152.612 Y17.098 Z3.289 
N284 X-152.616 Y17.308 Z3.578 
N285 X-152.621 Y17.517 Z3.867 
N286 X-152.625 Y17.727 Z4.156 
N287 X-152.630 Y17.937 Z4.445 
N288 X-152.635 Y18.147 Z4.734 
N289 X-152.641 Y18.357 Z5.022 
N290 X-152.646 Y18.567 Z5.311 
N291 X-152.651 Y18.777 Z5.600 
N292 X-152.657 Y18.986 Z5.889 
N293 X-152.663 Y19.196 Z6.178 
N294 X-152.669 Y19.406 Z6.467 
N295 X-152.675 Y19.616 Z6.755 
N296 X-152.681 Y19.826 Z7.044 
N297 X-152.687 Y20.036 Z7.333 
N298 X-152.694 Y20.245 Z7.622 
N299 X-152.700 Y20.455 Z7.911 
N300 X-152.707 Y20.665 Z8.199 
N301 X-152.714 Y20.875 Z8.488 
N302 X-152.721 Y21.085 Z8.777 
N303 X-152.728 Y21.295 Z9.066 
N304 X-152.735 Y21.504 Z9.355 
N305 X-152.743 Y21.714 Z9.643 
N306 X-152.750 Y21.924 Z9.932 
N307 X-152.758 Y22.134 Z10.221 
N308 X-152.766 Y22.344 Z10.510 
N309 X-152.774 Y22.553 Z10.799 
N310 X-152.782 Y22.763 Z11.087 
N311 X-152.790 Y22.973 Z11.376 
N312 X-152.799 Y23.183 Z11.665 
N313 X-152.807 Y23.393 Z11.954 
N314 X-152.816 Y23.603 Z12.242 
N315 X-152.825 Y23.812 Z12.531 
N316 X-152.834 Y24.022 Z12.820 
N317 X-152.843 Y24.232 Z13.109 
N318 X-152.852 Y24.442 Z13.398 
N319 X-152.862 Y24.652 Z13.686 
N320 X-152.871 Y24.861 Z13.975 
N321 X-152.881 Y25.071 Z14.264 
N322 X-152.891 Y25.281 Z14.553 
N323 X-152.901 Y25.491 Z14.841 
N324 X-152.911 Y25.700 Z15.130 
N325 X-152.921 Y25.910 Z15.419 
N326 X-152.931 Y26.120 Z15.707 
N327 X-152.942 Y26.330 Z15.996 
N328 X-152.953 Y26.540 Z16.285 
N329 X-152.963 Y26.749 Z16.574 
N330 X-152.974 Y26.959 Z16.862 
N331 X-152.985 Y27.169 Z17.151 
N332 X-152.997 Y27.383 Z17.445 
N333 X-153.008 Y27.596 Z17.739 
N334 X-153.019 Y27.810 Z18.033 
N335 X-153.030 Y28.023 Z18.327 
N336 X-153.042 Y28.237 Z18.621 
N337 X-153.053 Y28.451 Z18.915 
N338 X-153.064 Y28.664 Z19.209 
N339 X-153.075 Y28.878 Z19.504 
N340 X-153.087 Y29.092 Z19.798 
N341 X-153.098 Y29.305 Z20.092 
N342 X-153.109 Y29.519 Z20.386 
N343 G40 X-153.418 Y35.394 Z28.472 F716
N344 X-153.418 Y35.394 Z28.472 
N345 G00 X-153.418 Y75.845 Z-0.917 
;RAPORT("TC999999","Side Milling:133 End")
;trailer : concat=None
; points cnt = 295
N347 MSG (" --- GROUPED OF SUBPROGRAM --- ")
N348 FGROUP()
N349 TRAFOOF
; PROGRAM NAME: C99999937
; ORDER       : C999999
; OPER. NAME  : Side Milling:134
; OPER. DESCR.: finish slot NGE
; OPER. TYPE  : sideMill
; GEO. OPTION : 3
; MACHINE     : HSTM_500M_SIM840D_Py
;             : HSTM500 Morelia- HAMUEL: 5-axis milling machine-SIM840D Traori PP_Script
; CONTROL     : SINUMERIK 840D
; created:   2022-11-16 12:01:25.663853
;----------------------------------------
;-------DODATKOWE DANE-------------------
; PROGRAMISTA : Mariusz Malec
; PARTID      : 301T002159P1002_-
;  ap         : 5.0
;  ae         : 5.0
;  lean_angle : 0.0
;  fin_offset : 0.03
;----------------------------------------
;RAPORT("TC999999","Side Milling:134")
N10 TRAFOOF
N11 D0
N12 G90 G94
N13 G0 G53 D0 Z550
N14 STOPRE
M9 ; chlodziwo wyl
; --- Side Milling:134 - finish slot NGE ---
N16 ;ToolChange : concat=None ,current_tdmid=None, PP.tdmId=940707
N17 TRAFOOF
N18 G0 G53 D0 Z550 B0
N19 STOPRE
N20 MSG(" TLID=940707 D=8.0 R=1.6 Ang=0.0 Len=111.0 ")
N21 S7161 M03
N22 STOPRE
N23 TOL(0.1,1,1)
N24 G0 G53 A234.0000 B0.0000
N25 TRAORI
N26 G54 D1
;tol5=0.15
STOPRE
E_ZDARZ=300010
;ACS_FINISH_SLOT=7740707
STOPRE
;UWAGA : ZMIENIONA TOLERANCJA OSI A i B, ruchy osi A i B beda usuniete : TOL5=0.15
N27 ; DELTA A > 40.1
N28 TRAFOOF
N29 D1
N30 STOPRE
N31 G00 G54 Z275.000
N32 G01 A234.0000 F10000
N33 TRAORI
N34 G54 D1
N35 STOPRE
N36 TRANS 
N37 G00 X-152.642 Y77.485 Z1.289 A234.0000 
N38 M342 ; chlodziwo woda
N39 X-152.642 Y37.034 Z30.678 
N40 ;rowek od strony mocowania
N41 D2 
N42 G01 G41 X-152.336 Y31.159 Z22.592 F716
N43 G01 X-152.336 Y31.159 Z22.592 F716 
N44 X-152.325 Y30.939 Z22.289 
N45 X-152.313 Y30.718 Z21.985 
N46 X-152.302 Y30.498 Z21.682 
N47 X-152.291 Y30.278 Z21.379 
N48 X-152.279 Y30.057 Z21.076 
N49 X-152.268 Y29.837 Z20.772 
N50 X-152.256 Y29.617 Z20.469 
N51 X-152.245 Y29.396 Z20.166 
N52 X-152.234 Y29.183 Z19.872 
N53 X-152.222 Y28.969 Z19.578 
N54 X-152.211 Y28.755 Z19.284 
N55 X-152.200 Y28.542 Z18.990 
N56 X-152.189 Y28.328 Z18.696 
N57 X-152.178 Y28.115 Z18.402 
N58 X-152.167 Y27.901 Z18.108 
N59 X-152.156 Y27.687 Z17.814 
N60 X-152.144 Y27.474 Z17.519 
N61 X-152.133 Y27.260 Z17.225 
N62 X-152.122 Y27.046 Z16.931 
N63 X-152.111 Y26.836 Z16.643 
N64 X-152.100 Y26.627 Z16.354 
N65 X-152.090 Y26.417 Z16.065 
N66 X-152.079 Y26.207 Z15.776 
N67 X-152.069 Y25.997 Z15.487 
N68 X-152.058 Y25.787 Z15.198 
N69 X-152.048 Y25.577 Z14.909 
N70 X-152.038 Y25.367 Z14.620 
N71 X-152.028 Y25.157 Z14.332 
N72 X-152.019 Y24.948 Z14.043 
N73 X-152.009 Y24.738 Z13.754 
N74 X-152.000 Y24.528 Z13.465 
N75 X-151.990 Y24.318 Z13.176 
N76 X-151.981 Y24.108 Z12.887 
N77 X-151.972 Y23.898 Z12.598 
N78 X-151.963 Y23.688 Z12.309 
N79 X-151.954 Y23.478 Z12.020 
N80 X-151.946 Y23.268 Z11.732 
N81 X-151.937 Y23.059 Z11.443 
N82 X-151.929 Y22.849 Z11.154 
N83 X-151.921 Y22.639 Z10.865 
N84 X-151.913 Y22.429 Z10.576 
N85 X-151.905 Y22.219 Z10.287 
N86 X-151.897 Y22.009 Z9.998 
N87 X-151.890 Y21.799 Z9.709 
N88 X-151.882 Y21.589 Z9.420 
N89 X-151.875 Y21.379 Z9.131 
N90 X-151.868 Y21.169 Z8.842 
N91 X-151.861 Y20.959 Z8.553 
N92 X-151.854 Y20.749 Z8.264 
N93 X-151.847 Y20.540 Z7.976 
N94 X-151.840 Y20.330 Z7.687 
N95 X-151.834 Y20.120 Z7.398 
N96 X-151.827 Y19.910 Z7.109 
N97 X-151.821 Y19.700 Z6.820 
N98 X-151.815 Y19.490 Z6.531 
N99 X-151.809 Y19.280 Z6.242 
N100 X-151.803 Y19.070 Z5.953 
N101 X-151.798 Y18.860 Z5.664 
N102 X-151.792 Y18.650 Z5.375 
N103 X-151.787 Y18.440 Z5.086 
N104 X-151.782 Y18.230 Z4.797 
N105 X-151.777 Y18.020 Z4.508 
N106 X-151.772 Y17.810 Z4.219 
N107 X-151.767 Y17.600 Z3.930 
N108 X-151.762 Y17.390 Z3.641 
N109 X-151.758 Y17.181 Z3.352 
N110 X-151.753 Y16.971 Z3.063 
N111 X-151.749 Y16.761 Z2.774 
N112 X-151.745 Y16.551 Z2.485 
N113 X-151.741 Y16.341 Z2.196 
N114 X-151.737 Y16.131 Z1.907 
N115 X-151.734 Y15.921 Z1.618 
N116 X-151.730 Y15.711 Z1.330 
N117 X-151.727 Y15.501 Z1.041 
N118 X-151.724 Y15.291 Z0.752 
N119 X-151.721 Y15.081 Z0.463 
N120 X-151.718 Y14.871 Z0.174 
N121 X-151.715 Y14.661 Z-0.115 
N122 X-151.712 Y14.451 Z-0.404 
N123 X-151.710 Y14.241 Z-0.693 
N124 X-151.707 Y14.031 Z-0.982 
N125 X-151.705 Y13.821 Z-1.271 
N126 X-151.703 Y13.611 Z-1.560 
N127 X-151.701 Y13.401 Z-1.849 
N128 X-151.699 Y13.191 Z-2.138 
N129 X-151.697 Y12.981 Z-2.427 
N130 X-151.696 Y12.771 Z-2.716 
N131 X-151.694 Y12.562 Z-3.005 
N132 X-151.693 Y12.352 Z-3.294 
N133 X-151.692 Y12.142 Z-3.583 
N134 X-151.691 Y11.932 Z-3.872 
N135 X-151.690 Y11.722 Z-4.161 
N136 X-151.690 Y11.512 Z-4.450 
N137 X-151.689 Y11.302 Z-4.739 
N138 X-151.689 Y11.092 Z-5.028 
N139 X-151.688 Y10.882 Z-5.317 
N140 X-151.688 Y10.672 Z-5.606 
N141 X-151.688 Y10.462 Z-5.895 
N142 X-151.688 Y10.252 Z-6.184 
N143 X-151.689 Y10.042 Z-6.473 
N144 X-151.689 Y9.832 Z-6.762 
N145 X-151.690 Y9.622 Z-7.051 
N146 X-151.690 Y9.412 Z-7.340 
N147 X-151.691 Y9.202 Z-7.629 
N148 X-151.692 Y8.992 Z-7.918 
N149 X-151.693 Y8.782 Z-8.207 
N150 X-151.695 Y8.572 Z-8.496 
N151 X-151.696 Y8.362 Z-8.785 
N152 X-151.698 Y8.152 Z-9.074 
N153 X-151.699 Y7.942 Z-9.363 
N154 X-151.701 Y7.732 Z-9.652 
N155 X-151.703 Y7.522 Z-9.941 
N156 X-151.705 Y7.312 Z-10.230 
N157 X-151.708 Y7.103 Z-10.519 
N158 X-151.710 Y6.893 Z-10.808 
N159 X-151.713 Y6.683 Z-11.097 
N160 X-151.715 Y6.473 Z-11.386 
N161 X-151.718 Y6.263 Z-11.675 
N162 X-151.721 Y6.053 Z-11.964 
N163 X-151.724 Y5.843 Z-12.253 
N164 X-151.728 Y5.633 Z-12.542 
N165 X-151.731 Y5.423 Z-12.831 
N166 X-151.735 Y5.213 Z-13.120 
N167 X-151.738 Y5.003 Z-13.409 
N168 X-151.742 Y4.793 Z-13.698 
N169 X-151.746 Y4.583 Z-13.987 
N170 X-151.750 Y4.373 Z-14.276 
N171 X-151.754 Y4.163 Z-14.565 
N172 X-151.759 Y3.953 Z-14.854 
N173 X-151.763 Y3.740 Z-15.148 
N174 X-151.768 Y3.526 Z-15.442 
N175 X-151.772 Y3.312 Z-15.736 
N176 X-151.776 Y3.098 Z-16.030 
N177 X-151.781 Y2.885 Z-16.324 
N178 X-151.785 Y2.671 Z-16.619 
N179 X-151.790 Y2.457 Z-16.913 
N180 X-151.794 Y2.243 Z-17.207 
N181 X-151.799 Y2.030 Z-17.501 
N182 X-151.803 Y1.816 Z-17.795 
N183 X-151.807 Y1.602 Z-18.089 
N184 G40 X-151.812 Y1.380 Z-18.395 F958
N185 X-151.812 Y1.380 Z-18.395 
N186 X-151.819 Y1.023 Z-18.886 F1686 
N187 X-151.834 Y0.396 Z-19.750 F2898 
N188 X-151.861 Y-0.591 Z-21.109 F4111 
N189 X-151.915 Y-1.849 Z-22.839 F4838 
N190 X-152.034 Y-3.240 Z-24.754 F5081 
N191 X-152.428 Y-4.704 Z-26.769 
N192 X-152.741 Y-3.455 Z-25.050 F4838 
N193 X-152.748 Y-2.178 Z-23.293 F4111 
N194 X-152.736 Y-1.207 Z-21.956 F2898 
N195 X-152.725 Y-0.593 Z-21.111 F1686 
N196 X-152.718 Y-0.236 Z-20.620 F958 
N197 ;rowek od strony piora
N198 D1 
N199 G01 G41 X-152.714 Y-0.004 Z-20.300 F716
N200 X-152.714 Y-0.004 Z-20.300 F716 
N201 X-152.709 Y0.217 Z-19.996 
N202 X-152.705 Y0.437 Z-19.693 
N203 X-152.700 Y0.658 Z-19.390 
N204 X-152.696 Y0.878 Z-19.086 
N205 X-152.691 Y1.098 Z-18.783 
N206 X-152.687 Y1.319 Z-18.479 
N207 X-152.682 Y1.539 Z-18.176 
N208 X-152.678 Y1.760 Z-17.873 
N209 X-152.674 Y1.973 Z-17.579 
N210 X-152.669 Y2.187 Z-17.284 
N211 X-152.665 Y2.401 Z-16.990 
N212 X-152.661 Y2.615 Z-16.696 
N213 X-152.656 Y2.828 Z-16.402 
N214 X-152.652 Y3.042 Z-16.108 
N215 X-152.648 Y3.256 Z-15.814 
N216 X-152.643 Y3.469 Z-15.519 
N217 X-152.639 Y3.683 Z-15.225 
N218 X-152.635 Y3.897 Z-14.931 
N219 X-152.631 Y4.111 Z-14.637 
N220 X-152.626 Y4.320 Z-14.348 
N221 X-152.622 Y4.530 Z-14.059 
N222 X-152.618 Y4.740 Z-13.770 
N223 X-152.614 Y4.950 Z-13.482 
N224 X-152.611 Y5.160 Z-13.193 
N225 X-152.607 Y5.370 Z-12.904 
N226 X-152.604 Y5.580 Z-12.615 
N227 X-152.600 Y5.789 Z-12.326 
N228 X-152.597 Y5.999 Z-12.037 
N229 X-152.594 Y6.209 Z-11.749 
N230 X-152.591 Y6.419 Z-11.460 
N231 X-152.588 Y6.629 Z-11.171 
N232 X-152.586 Y6.839 Z-10.882 
N233 X-152.583 Y7.049 Z-10.593 
N234 X-152.581 Y7.258 Z-10.304 
N235 X-152.579 Y7.468 Z-10.015 
N236 X-152.577 Y7.678 Z-9.727 
N237 X-152.575 Y7.888 Z-9.438 
N238 X-152.573 Y8.098 Z-9.149 
N239 X-152.572 Y8.308 Z-8.860 
N240 X-152.570 Y8.518 Z-8.571 
N241 X-152.569 Y8.727 Z-8.282 
N242 X-152.568 Y8.937 Z-7.993 
N243 X-152.567 Y9.147 Z-7.705 
N244 X-152.566 Y9.357 Z-7.416 
N245 X-152.565 Y9.567 Z-7.127 
N246 X-152.564 Y9.777 Z-6.838 
N247 X-152.564 Y9.987 Z-6.549 
N248 X-152.563 Y10.197 Z-6.260 
N249 X-152.563 Y10.406 Z-5.972 
N250 X-152.563 Y10.616 Z-5.683 
N251 X-152.563 Y10.826 Z-5.394 
N252 X-152.564 Y11.036 Z-5.105 
N253 X-152.564 Y11.246 Z-4.816 
N254 X-152.564 Y11.456 Z-4.527 
N255 X-152.565 Y11.666 Z-4.238 
N256 X-152.566 Y11.875 Z-3.950 
N257 X-152.567 Y12.085 Z-3.661 
N258 X-152.568 Y12.295 Z-3.372 
N259 X-152.569 Y12.505 Z-3.083 
N260 X-152.570 Y12.715 Z-2.794 
N261 X-152.572 Y12.925 Z-2.505 
N262 X-152.574 Y13.135 Z-2.216 
N263 X-152.575 Y13.344 Z-1.928 
N264 X-152.577 Y13.554 Z-1.639 
N265 X-152.579 Y13.764 Z-1.350 
N266 X-152.582 Y13.974 Z-1.061 
N267 X-152.584 Y14.184 Z-0.772 
N268 X-152.586 Y14.394 Z-0.483 
N269 X-152.589 Y14.604 Z-0.195 
N270 X-152.592 Y14.813 Z0.094 
N271 X-152.595 Y15.023 Z0.383 
N272 X-152.598 Y15.233 Z0.672 
N273 X-152.601 Y15.443 Z0.961 
N274 X-152.604 Y15.653 Z1.250 
N275 X-152.608 Y15.863 Z1.539 
N276 X-152.611 Y16.073 Z1.827 
N277 X-152.615 Y16.282 Z2.116 
N278 X-152.619 Y16.492 Z2.405 
N279 X-152.623 Y16.702 Z2.694 
N280 X-152.627 Y16.912 Z2.983 
N281 X-152.632 Y17.122 Z3.272 
N282 X-152.636 Y17.332 Z3.560 
N283 X-152.641 Y17.542 Z3.849 
N284 X-152.645 Y17.751 Z4.138 
N285 X-152.650 Y17.961 Z4.427 
N286 X-152.655 Y18.171 Z4.716 
N287 X-152.661 Y18.381 Z5.005 
N288 X-152.666 Y18.591 Z5.293 
N289 X-152.671 Y18.801 Z5.582 
N290 X-152.677 Y19.010 Z5.871 
N291 X-152.683 Y19.220 Z6.160 
N292 X-152.689 Y19.430 Z6.449 
N293 X-152.695 Y19.640 Z6.737 
N294 X-152.701 Y19.850 Z7.026 
N295 X-152.707 Y20.060 Z7.315 
N296 X-152.714 Y20.269 Z7.604 
N297 X-152.720 Y20.479 Z7.893 
N298 X-152.727 Y20.689 Z8.181 
N299 X-152.734 Y20.899 Z8.470 
N300 X-152.741 Y21.109 Z8.759 
N301 X-152.748 Y21.319 Z9.048 
N302 X-152.755 Y21.528 Z9.337 
N303 X-152.763 Y21.738 Z9.625 
N304 X-152.770 Y21.948 Z9.914 
N305 X-152.778 Y22.158 Z10.203 
N306 X-152.786 Y22.368 Z10.492 
N307 X-152.794 Y22.577 Z10.781 
N308 X-152.802 Y22.787 Z11.069 
N309 X-152.810 Y22.997 Z11.358 
N310 X-152.819 Y23.207 Z11.647 
N311 X-152.827 Y23.417 Z11.936 
N312 X-152.836 Y23.626 Z12.224 
N313 X-152.845 Y23.836 Z12.513 
N314 X-152.854 Y24.046 Z12.802 
N315 X-152.863 Y24.256 Z13.091 
N316 X-152.872 Y24.466 Z13.379 
N317 X-152.882 Y24.675 Z13.668 
N318 X-152.891 Y24.885 Z13.957 
N319 X-152.901 Y25.095 Z14.246 
N320 X-152.911 Y25.305 Z14.534 
N321 X-152.921 Y25.515 Z14.823 
N322 X-152.931 Y25.724 Z15.112 
N323 X-152.941 Y25.934 Z15.401 
N324 X-152.951 Y26.144 Z15.689 
N325 X-152.962 Y26.354 Z15.978 
N326 X-152.973 Y26.563 Z16.267 
N327 X-152.983 Y26.773 Z16.556 
N328 X-152.994 Y26.983 Z16.844 
N329 X-153.005 Y27.193 Z17.133 
N330 X-153.017 Y27.406 Z17.427 
N331 X-153.028 Y27.620 Z17.721 
N332 X-153.039 Y27.834 Z18.015 
N333 X-153.050 Y28.047 Z18.309 
N334 X-153.062 Y28.261 Z18.603 
N335 X-153.073 Y28.475 Z18.897 
N336 X-153.084 Y28.688 Z19.191 
N337 X-153.095 Y28.902 Z19.485 
N338 X-153.107 Y29.116 Z19.779 
N339 X-153.118 Y29.329 Z20.073 
N340 X-153.129 Y29.543 Z20.368 
N341 G40 X-153.438 Y35.418 Z28.454 F716
N342 X-153.438 Y35.418 Z28.454 
N343 G00 X-153.438 Y75.869 Z-0.935 
;RAPORT("TC999999","Side Milling:134 End")
;trailer : concat=None
; points cnt = 295
N345 MSG (" --- GROUPED OF SUBPROGRAM --- ")
N346 FGROUP()
N347 TRAFOOF
; PROGRAM NAME: C99999937
; ORDER       : C999999
; OPER. NAME  : Side Milling:135
; OPER. DESCR.: semifinish slot NGA
; OPER. TYPE  : sideMill
; GEO. OPTION : 3
; MACHINE     : HSTM_500M_SIM840D_Py
;             : HSTM500 Morelia- HAMUEL: 5-axis milling machine-SIM840D Traori PP_Script
; CONTROL     : SINUMERIK 840D
; created:   2022-11-16 12:01:28.637567
;----------------------------------------
;-------DODATKOWE DANE-------------------
; PROGRAMISTA : Mariusz Malec
; PARTID      : 301T002159P1002_-
;  ap         : 5.0
;  ae         : 5.0
;  lean_angle : 0.0
;  fin_offset : 0.0
;----------------------------------------
;RAPORT("TC999999","Side Milling:135")
N10 TRAFOOF
N11 D0
N12 G90 G94
N13 G0 G53 D0 Z550
N14 STOPRE
M9 ; chlodziwo wyl
; --- Side Milling:135 - semifinish slot NGA ---
N16 ;ToolChange : concat=None ,current_tdmid=None, PP.tdmId=940707
N17 TRAFOOF
N18 G0 G53 D0 Z550 B0
N19 STOPRE
N20 MSG(" TLID=940707 D=8.0 R=1.6 Ang=0.0 Len=111.0 ")
N21 S7161 M03
N22 STOPRE
N23 TOL(0.1,1,1)
N24 G0 G53 A54.0000 B-0.0000
N25 TRAORI
N26 G54 D1
;tol5=0.15
STOPRE
E_ZDARZ=300010
;ACS_FINISH_SLOT=7740707
STOPRE
;UWAGA : ZMIENIONA TOLERANCJA OSI A i B, ruchy osi A i B beda usuniete : TOL5=0.15
N27 ; DELTA A > 40.1
N28 TRAFOOF
N29 D1
N30 STOPRE
N31 G00 G54 Z275.000
N32 G01 A54.0000 F10000
N33 TRAORI
N34 G54 D1
N35 STOPRE
N36 TRANS 
N37 G00 X-152.807 Y-77.242 Z-1.001 A54.0000 
N38 M342 ; chlodziwo woda
N39 X-152.807 Y-36.791 Z-30.391 
N40 ;rowek od strony mocowania
N41 D4 
N42 G01 G41 X-152.470 Y-30.916 Z-22.305 F716
N43 G01 X-152.470 Y-30.916 Z-22.305 F716 
N44 X-152.458 Y-30.696 Z-22.002 
N45 X-152.445 Y-30.476 Z-21.699 
N46 X-152.432 Y-30.255 Z-21.395 
N47 X-152.420 Y-30.035 Z-21.092 
N48 X-152.407 Y-29.815 Z-20.789 
N49 X-152.394 Y-29.594 Z-20.486 
N50 X-152.382 Y-29.374 Z-20.183 
N51 X-152.369 Y-29.154 Z-19.879 
N52 X-152.357 Y-28.940 Z-19.585 
N53 X-152.345 Y-28.727 Z-19.291 
N54 X-152.332 Y-28.513 Z-18.997 
N55 X-152.320 Y-28.299 Z-18.703 
N56 X-152.308 Y-28.086 Z-18.409 
N57 X-152.296 Y-27.872 Z-18.115 
N58 X-152.283 Y-27.658 Z-17.821 
N59 X-152.271 Y-27.445 Z-17.527 
N60 X-152.259 Y-27.231 Z-17.233 
N61 X-152.247 Y-27.018 Z-16.939 
N62 X-152.234 Y-26.804 Z-16.645 
N63 X-152.222 Y-26.594 Z-16.356 
N64 X-152.210 Y-26.384 Z-16.068 
N65 X-152.198 Y-26.174 Z-15.779 
N66 X-152.187 Y-25.965 Z-15.490 
N67 X-152.175 Y-25.755 Z-15.201 
N68 X-152.164 Y-25.545 Z-14.912 
N69 X-152.152 Y-25.335 Z-14.623 
N70 X-152.141 Y-25.125 Z-14.335 
N71 X-152.130 Y-24.915 Z-14.046 
N72 X-152.120 Y-24.706 Z-13.757 
N73 X-152.109 Y-24.496 Z-13.468 
N74 X-152.098 Y-24.286 Z-13.179 
N75 X-152.088 Y-24.076 Z-12.890 
N76 X-152.077 Y-23.866 Z-12.601 
N77 X-152.067 Y-23.656 Z-12.313 
N78 X-152.057 Y-23.446 Z-12.024 
N79 X-152.047 Y-23.236 Z-11.735 
N80 X-152.038 Y-23.027 Z-11.446 
N81 X-152.028 Y-22.817 Z-11.157 
N82 X-152.019 Y-22.607 Z-10.868 
N83 X-152.009 Y-22.397 Z-10.579 
N84 X-152.000 Y-22.187 Z-10.290 
N85 X-151.991 Y-21.977 Z-10.002 
N86 X-151.982 Y-21.767 Z-9.713 
N87 X-151.974 Y-21.557 Z-9.424 
N88 X-151.965 Y-21.347 Z-9.135 
N89 X-151.957 Y-21.138 Z-8.846 
N90 X-151.948 Y-20.928 Z-8.557 
N91 X-151.940 Y-20.718 Z-8.268 
N92 X-151.932 Y-20.508 Z-7.979 
N93 X-151.924 Y-20.298 Z-7.690 
N94 X-151.917 Y-20.088 Z-7.401 
N95 X-151.909 Y-19.878 Z-7.113 
N96 X-151.901 Y-19.668 Z-6.824 
N97 X-151.894 Y-19.458 Z-6.535 
N98 X-151.887 Y-19.248 Z-6.246 
N99 X-151.880 Y-19.038 Z-5.957 
N100 X-151.873 Y-18.829 Z-5.668 
N101 X-151.866 Y-18.619 Z-5.379 
N102 X-151.860 Y-18.409 Z-5.090 
N103 X-151.853 Y-18.199 Z-4.801 
N104 X-151.847 Y-17.989 Z-4.512 
N105 X-151.841 Y-17.779 Z-4.223 
N106 X-151.835 Y-17.569 Z-3.934 
N107 X-151.829 Y-17.359 Z-3.645 
N108 X-151.823 Y-17.149 Z-3.356 
N109 X-151.817 Y-16.939 Z-3.067 
N110 X-151.812 Y-16.729 Z-2.779 
N111 X-151.807 Y-16.519 Z-2.490 
N112 X-151.801 Y-16.309 Z-2.201 
N113 X-151.796 Y-16.099 Z-1.912 
N114 X-151.791 Y-15.890 Z-1.623 
N115 X-151.787 Y-15.680 Z-1.334 
N116 X-151.782 Y-15.470 Z-1.045 
N117 X-151.777 Y-15.260 Z-0.756 
N118 X-151.773 Y-15.050 Z-0.467 
N119 X-151.769 Y-14.840 Z-0.178 
N120 X-151.765 Y-14.630 Z0.111 
N121 X-151.761 Y-14.420 Z0.400 
N122 X-151.757 Y-14.210 Z0.689 
N123 X-151.753 Y-14.000 Z0.978 
N124 X-151.750 Y-13.790 Z1.267 
N125 X-151.747 Y-13.580 Z1.556 
N126 X-151.743 Y-13.370 Z1.845 
N127 X-151.740 Y-13.160 Z2.134 
N128 X-151.737 Y-12.950 Z2.423 
N129 X-151.735 Y-12.740 Z2.712 
N130 X-151.732 Y-12.530 Z3.001 
N131 X-151.729 Y-12.320 Z3.290 
N132 X-151.727 Y-12.111 Z3.579 
N133 X-151.725 Y-11.901 Z3.868 
N134 X-151.723 Y-11.691 Z4.157 
N135 X-151.721 Y-11.481 Z4.446 
N136 X-151.719 Y-11.271 Z4.735 
N137 X-151.717 Y-11.061 Z5.024 
N138 X-151.716 Y-10.851 Z5.313 
N139 X-151.714 Y-10.641 Z5.601 
N140 X-151.713 Y-10.431 Z5.890 
N141 X-151.712 Y-10.221 Z6.179 
N142 X-151.711 Y-10.011 Z6.468 
N143 X-151.710 Y-9.801 Z6.757 
N144 X-151.710 Y-9.591 Z7.046 
N145 X-151.709 Y-9.381 Z7.335 
N146 X-151.709 Y-9.171 Z7.624 
N147 X-151.708 Y-8.961 Z7.913 
N148 X-151.708 Y-8.751 Z8.202 
N149 X-151.708 Y-8.541 Z8.491 
N150 X-151.708 Y-8.331 Z8.780 
N151 X-151.709 Y-8.121 Z9.069 
N152 X-151.709 Y-7.911 Z9.358 
N153 X-151.710 Y-7.701 Z9.647 
N154 X-151.711 Y-7.491 Z9.936 
N155 X-151.711 Y-7.282 Z10.225 
N156 X-151.712 Y-7.072 Z10.514 
N157 X-151.714 Y-6.862 Z10.803 
N158 X-151.715 Y-6.652 Z11.092 
N159 X-151.716 Y-6.442 Z11.381 
N160 X-151.718 Y-6.232 Z11.670 
N161 X-151.720 Y-6.022 Z11.959 
N162 X-151.722 Y-5.812 Z12.248 
N163 X-151.723 Y-5.602 Z12.537 
N164 X-151.726 Y-5.392 Z12.826 
N165 X-151.728 Y-5.182 Z13.115 
N166 X-151.730 Y-4.972 Z13.404 
N167 X-151.733 Y-4.762 Z13.693 
N168 X-151.736 Y-4.552 Z13.982 
N169 X-151.739 Y-4.342 Z14.271 
N170 X-151.741 Y-4.132 Z14.560 
N171 X-151.745 Y-3.922 Z14.849 
N172 X-151.748 Y-3.712 Z15.138 
N173 X-151.751 Y-3.499 Z15.432 
N174 X-151.754 Y-3.285 Z15.726 
N175 X-151.758 Y-3.071 Z16.020 
N176 X-151.761 Y-2.857 Z16.314 
N177 X-151.764 Y-2.644 Z16.609 
N178 X-151.767 Y-2.430 Z16.903 
N179 X-151.771 Y-2.216 Z17.197 
N180 X-151.774 Y-2.002 Z17.491 
N181 X-151.777 Y-1.789 Z17.785 
N182 X-151.780 Y-1.575 Z18.080 
N183 X-151.784 Y-1.361 Z18.374 
N184 G40 X-151.787 Y-1.139 Z18.680 F959
N185 X-151.787 Y-1.139 Z18.680 
N186 X-151.793 Y-0.780 Z19.174 F1690 
N187 X-151.804 Y-0.149 Z20.042 F2909 
N188 X-151.826 Y0.845 Z21.410 F4128 
N189 X-151.873 Y2.111 Z23.153 F4859 
N190 X-151.981 Y3.512 Z25.081 F5103 
N191 X-152.312 Y4.991 Z27.116 
N192 X-152.658 Y3.903 Z25.620 F4859 
N193 X-152.671 Y2.628 Z23.864 F4128 
N194 X-152.663 Y1.637 Z22.500 F2909 
N195 X-152.656 Y1.026 Z21.660 F1690 
N196 X-152.650 Y0.674 Z21.175 F959 
N197 ;rowek od strony piora
N198 D3 
N199 G01 G41 X-152.647 Y0.447 Z20.862 F716
N200 X-152.647 Y0.447 Z20.862 F716 
N201 X-152.644 Y0.226 Z20.559 
N202 X-152.640 Y0.006 Z20.255 
N203 X-152.637 Y-0.215 Z19.952 
N204 X-152.633 Y-0.435 Z19.648 
N205 X-152.630 Y-0.656 Z19.345 
N206 X-152.627 Y-0.876 Z19.042 
N207 X-152.623 Y-1.096 Z18.738 
N208 X-152.620 Y-1.317 Z18.435 
N209 X-152.617 Y-1.531 Z18.141 
N210 X-152.613 Y-1.744 Z17.847 
N211 X-152.610 Y-1.958 Z17.552 
N212 X-152.607 Y-2.172 Z17.258 
N213 X-152.603 Y-2.385 Z16.964 
N214 X-152.600 Y-2.599 Z16.670 
N215 X-152.597 Y-2.813 Z16.376 
N216 X-152.593 Y-3.027 Z16.082 
N217 X-152.590 Y-3.240 Z15.787 
N218 X-152.587 Y-3.454 Z15.493 
N219 X-152.584 Y-3.668 Z15.199 
N220 X-152.580 Y-3.878 Z14.910 
N221 X-152.577 Y-4.088 Z14.621 
N222 X-152.574 Y-4.297 Z14.332 
N223 X-152.571 Y-4.507 Z14.044 
N224 X-152.569 Y-4.717 Z13.755 
N225 X-152.566 Y-4.927 Z13.466 
N226 X-152.563 Y-5.137 Z13.177 
N227 X-152.561 Y-5.347 Z12.888 
N228 X-152.559 Y-5.557 Z12.599 
N229 X-152.557 Y-5.766 Z12.311 
N230 X-152.555 Y-5.976 Z12.022 
N231 X-152.553 Y-6.186 Z11.733 
N232 X-152.552 Y-6.396 Z11.444 
N233 X-152.550 Y-6.606 Z11.155 
N234 X-152.549 Y-6.816 Z10.866 
N235 X-152.548 Y-7.026 Z10.577 
N236 X-152.547 Y-7.236 Z10.289 
N237 X-152.546 Y-7.445 Z10.000 
N238 X-152.545 Y-7.655 Z9.711 
N239 X-152.544 Y-7.865 Z9.422 
N240 X-152.544 Y-8.075 Z9.133 
N241 X-152.543 Y-8.285 Z8.844 
N242 X-152.543 Y-8.495 Z8.555 
N243 X-152.543 Y-8.705 Z8.267 
N244 X-152.543 Y-8.914 Z7.978 
N245 X-152.544 Y-9.124 Z7.689 
N246 X-152.544 Y-9.334 Z7.400 
N247 X-152.544 Y-9.544 Z7.111 
N248 X-152.545 Y-9.754 Z6.822 
N249 X-152.546 Y-9.964 Z6.533 
N250 X-152.547 Y-10.174 Z6.245 
N251 X-152.548 Y-10.384 Z5.956 
N252 X-152.549 Y-10.593 Z5.667 
N253 X-152.550 Y-10.803 Z5.378 
N254 X-152.552 Y-11.013 Z5.089 
N255 X-152.554 Y-11.223 Z4.800 
N256 X-152.555 Y-11.433 Z4.511 
N257 X-152.557 Y-11.643 Z4.223 
N258 X-152.559 Y-11.853 Z3.934 
N259 X-152.562 Y-12.062 Z3.645 
N260 X-152.564 Y-12.272 Z3.356 
N261 X-152.566 Y-12.482 Z3.067 
N262 X-152.569 Y-12.692 Z2.778 
N263 X-152.572 Y-12.902 Z2.489 
N264 X-152.575 Y-13.112 Z2.201 
N265 X-152.578 Y-13.322 Z1.912 
N266 X-152.581 Y-13.531 Z1.623 
N267 X-152.584 Y-13.741 Z1.334 
N268 X-152.588 Y-13.951 Z1.045 
N269 X-152.591 Y-14.161 Z0.756 
N270 X-152.595 Y-14.371 Z0.468 
N271 X-152.599 Y-14.581 Z0.179 
N272 X-152.603 Y-14.791 Z-0.110 
N273 X-152.607 Y-15.000 Z-0.399 
N274 X-152.611 Y-15.210 Z-0.688 
N275 X-152.616 Y-15.420 Z-0.977 
N276 X-152.621 Y-15.630 Z-1.266 
N277 X-152.625 Y-15.840 Z-1.554 
N278 X-152.630 Y-16.050 Z-1.843 
N279 X-152.635 Y-16.260 Z-2.132 
N280 X-152.640 Y-16.469 Z-2.421 
N281 X-152.646 Y-16.679 Z-2.710 
N282 X-152.651 Y-16.889 Z-2.998 
N283 X-152.657 Y-17.099 Z-3.287 
N284 X-152.662 Y-17.309 Z-3.576 
N285 X-152.668 Y-17.519 Z-3.865 
N286 X-152.674 Y-17.728 Z-4.154 
N287 X-152.681 Y-17.938 Z-4.443 
N288 X-152.687 Y-18.148 Z-4.731 
N289 X-152.693 Y-18.358 Z-5.020 
N290 X-152.700 Y-18.568 Z-5.309 
N291 X-152.707 Y-18.778 Z-5.598 
N292 X-152.713 Y-18.987 Z-5.887 
N293 X-152.720 Y-19.197 Z-6.175 
N294 X-152.728 Y-19.407 Z-6.464 
N295 X-152.735 Y-19.617 Z-6.753 
N296 X-152.742 Y-19.827 Z-7.042 
N297 X-152.750 Y-20.037 Z-7.331 
N298 X-152.758 Y-20.246 Z-7.619 
N299 X-152.765 Y-20.456 Z-7.908 
N300 X-152.773 Y-20.666 Z-8.197 
N301 X-152.782 Y-20.876 Z-8.486 
N302 X-152.790 Y-21.086 Z-8.775 
N303 X-152.798 Y-21.295 Z-9.063 
N304 X-152.807 Y-21.505 Z-9.352 
N305 X-152.815 Y-21.715 Z-9.641 
N306 X-152.824 Y-21.925 Z-9.930 
N307 X-152.833 Y-22.135 Z-10.218 
N308 X-152.842 Y-22.344 Z-10.507 
N309 X-152.852 Y-22.554 Z-10.796 
N310 X-152.861 Y-22.764 Z-11.085 
N311 X-152.871 Y-22.974 Z-11.373 
N312 X-152.880 Y-23.184 Z-11.662 
N313 X-152.890 Y-23.393 Z-11.951 
N314 X-152.900 Y-23.603 Z-12.240 
N315 X-152.910 Y-23.813 Z-12.528 
N316 X-152.921 Y-24.023 Z-12.817 
N317 X-152.931 Y-24.233 Z-13.106 
N318 X-152.941 Y-24.442 Z-13.395 
N319 X-152.952 Y-24.652 Z-13.683 
N320 X-152.963 Y-24.862 Z-13.972 
N321 X-152.974 Y-25.072 Z-14.261 
N322 X-152.985 Y-25.281 Z-14.550 
N323 X-152.996 Y-25.491 Z-14.838 
N324 X-153.008 Y-25.701 Z-15.127 
N325 X-153.019 Y-25.911 Z-15.416 
N326 X-153.031 Y-26.120 Z-15.704 
N327 X-153.043 Y-26.330 Z-15.993 
N328 X-153.055 Y-26.540 Z-16.282 
N329 X-153.067 Y-26.750 Z-16.570 
N330 X-153.079 Y-26.963 Z-16.864 
N331 X-153.091 Y-27.177 Z-17.159 
N332 X-153.103 Y-27.391 Z-17.453 
N333 X-153.116 Y-27.604 Z-17.747 
N334 X-153.128 Y-27.818 Z-18.041 
N335 X-153.140 Y-28.031 Z-18.335 
N336 X-153.152 Y-28.245 Z-18.629 
N337 X-153.164 Y-28.459 Z-18.923 
N338 X-153.177 Y-28.672 Z-19.217 
N339 X-153.189 Y-28.886 Z-19.511 
N340 X-153.201 Y-29.100 Z-19.805 
N341 G40 X-153.538 Y-34.974 Z-27.890 F716
N342 X-153.538 Y-34.974 Z-27.890 
N343 G00 X-153.538 Y-75.425 Z1.499 
;RAPORT("TC999999","Side Milling:135 End")
;trailer : concat=None
; points cnt = 295
N345 MSG (" --- GROUPED OF SUBPROGRAM --- ")
N346 FGROUP()
N347 TRAFOOF
; PROGRAM NAME: C99999937
; ORDER       : C999999
; OPER. NAME  : Side Milling:136
; OPER. DESCR.: finish slot NGA
; OPER. TYPE  : sideMill
; GEO. OPTION : 3
; MACHINE     : HSTM_500M_SIM840D_Py
;             : HSTM500 Morelia- HAMUEL: 5-axis milling machine-SIM840D Traori PP_Script
; CONTROL     : SINUMERIK 840D
; created:   2022-11-16 12:01:31.599716
;----------------------------------------
;-------DODATKOWE DANE-------------------
; PROGRAMISTA : Mariusz Malec
; PARTID      : 301T002159P1002_-
;  ap         : 5.0
;  ae         : 5.0
;  lean_angle : 0.0
;  fin_offset : 0.03
;----------------------------------------
;RAPORT("TC999999","Side Milling:136")
N10 TRAFOOF
N11 D0
N12 G90 G94
N13 G0 G53 D0 Z550
N14 STOPRE
M9 ; chlodziwo wyl
; --- Side Milling:136 - finish slot NGA ---
N16 ;ToolChange : concat=None ,current_tdmid=None, PP.tdmId=940707
N17 TRAFOOF
N18 G0 G53 D0 Z550 B0
N19 STOPRE
N20 MSG(" TLID=940707 D=8.0 R=1.6 Ang=0.0 Len=111.0 ")
N21 S7161 M03
N22 STOPRE
N23 TOL(0.1,1,1)
N24 G0 G53 A54.0000 B-0.0000
N25 TRAORI
N26 G54 D1
;tol5=0.15
STOPRE
E_ZDARZ=300010
;ACS_FINISH_SLOT=7740707
STOPRE
;UWAGA : ZMIENIONA TOLERANCJA OSI A i B, ruchy osi A i B beda usuniete : TOL5=0.15
N27 ; DELTA A > 40.1
N28 TRAFOOF
N29 D1
N30 STOPRE
N31 G00 G54 Z275.000
N32 G01 A54.0000 F10000
N33 TRAORI
N34 G54 D1
N35 STOPRE
N36 TRANS 
N37 G00 X-152.787 Y-77.266 Z-0.984 A54.0000 
N38 M342 ; chlodziwo woda
N39 X-152.787 Y-36.815 Z-30.374 
N40 ;rowek od strony mocowania
N41 D4 
N42 G01 G41 X-152.450 Y-30.941 Z-22.288 F716
N43 G01 X-152.450 Y-30.941 Z-22.288 F716 
N44 X-152.438 Y-30.721 Z-21.985 
N45 X-152.425 Y-30.500 Z-21.682 
N46 X-152.412 Y-30.280 Z-21.378 
N47 X-152.400 Y-30.060 Z-21.075 
N48 X-152.387 Y-29.839 Z-20.772 
N49 X-152.374 Y-29.619 Z-20.469 
N50 X-152.362 Y-29.399 Z-20.166 
N51 X-152.349 Y-29.178 Z-19.862 
N52 X-152.337 Y-28.965 Z-19.568 
N53 X-152.325 Y-28.751 Z-19.274 
N54 X-152.312 Y-28.538 Z-18.980 
N55 X-152.300 Y-28.324 Z-18.686 
N56 X-152.288 Y-28.110 Z-18.392 
N57 X-152.276 Y-27.897 Z-18.098 
N58 X-152.263 Y-27.683 Z-17.804 
N59 X-152.251 Y-27.470 Z-17.510 
N60 X-152.239 Y-27.256 Z-17.216 
N61 X-152.227 Y-27.042 Z-16.922 
N62 X-152.214 Y-26.829 Z-16.628 
N63 X-152.202 Y-26.619 Z-16.339 
N64 X-152.190 Y-26.409 Z-16.050 
N65 X-152.178 Y-26.199 Z-15.762 
N66 X-152.167 Y-25.989 Z-15.473 
N67 X-152.155 Y-25.779 Z-15.184 
N68 X-152.144 Y-25.570 Z-14.895 
N69 X-152.132 Y-25.360 Z-14.606 
N70 X-152.121 Y-25.150 Z-14.317 
N71 X-152.110 Y-24.940 Z-14.029 
N72 X-152.100 Y-24.730 Z-13.740 
N73 X-152.089 Y-24.520 Z-13.451 
N74 X-152.078 Y-24.310 Z-13.162 
N75 X-152.068 Y-24.101 Z-12.873 
N76 X-152.058 Y-23.891 Z-12.584 
N77 X-152.047 Y-23.681 Z-12.295 
N78 X-152.037 Y-23.471 Z-12.007 
N79 X-152.027 Y-23.261 Z-11.718 
N80 X-152.018 Y-23.051 Z-11.429 
N81 X-152.008 Y-22.841 Z-11.140 
N82 X-151.999 Y-22.631 Z-10.851 
N83 X-151.989 Y-22.421 Z-10.562 
N84 X-151.980 Y-22.212 Z-10.273 
N85 X-151.971 Y-22.002 Z-9.984 
N86 X-151.962 Y-21.792 Z-9.695 
N87 X-151.954 Y-21.582 Z-9.407 
N88 X-151.945 Y-21.372 Z-9.118 
N89 X-151.937 Y-21.162 Z-8.829 
N90 X-151.928 Y-20.952 Z-8.540 
N91 X-151.920 Y-20.742 Z-8.251 
N92 X-151.912 Y-20.532 Z-7.962 
N93 X-151.904 Y-20.322 Z-7.673 
N94 X-151.897 Y-20.113 Z-7.384 
N95 X-151.889 Y-19.903 Z-7.095 
N96 X-151.881 Y-19.693 Z-6.806 
N97 X-151.874 Y-19.483 Z-6.517 
N98 X-151.867 Y-19.273 Z-6.228 
N99 X-151.860 Y-19.063 Z-5.940 
N100 X-151.853 Y-18.853 Z-5.651 
N101 X-151.846 Y-18.643 Z-5.362 
N102 X-151.840 Y-18.433 Z-5.073 
N103 X-151.833 Y-18.223 Z-4.784 
N104 X-151.827 Y-18.013 Z-4.495 
N105 X-151.821 Y-17.803 Z-4.206 
N106 X-151.815 Y-17.593 Z-3.917 
N107 X-151.809 Y-17.384 Z-3.628 
N108 X-151.803 Y-17.174 Z-3.339 
N109 X-151.797 Y-16.964 Z-3.050 
N110 X-151.792 Y-16.754 Z-2.761 
N111 X-151.787 Y-16.544 Z-2.472 
N112 X-151.781 Y-16.334 Z-2.183 
N113 X-151.776 Y-16.124 Z-1.894 
N114 X-151.771 Y-15.914 Z-1.605 
N115 X-151.767 Y-15.704 Z-1.316 
N116 X-151.762 Y-15.494 Z-1.027 
N117 X-151.757 Y-15.284 Z-0.738 
N118 X-151.753 Y-15.074 Z-0.449 
N119 X-151.749 Y-14.864 Z-0.161 
N120 X-151.745 Y-14.654 Z0.128 
N121 X-151.741 Y-14.444 Z0.417 
N122 X-151.737 Y-14.234 Z0.706 
N123 X-151.733 Y-14.024 Z0.995 
N124 X-151.730 Y-13.815 Z1.284 
N125 X-151.727 Y-13.605 Z1.573 
N126 X-151.723 Y-13.395 Z1.862 
N127 X-151.720 Y-13.185 Z2.151 
N128 X-151.717 Y-12.975 Z2.440 
N129 X-151.715 Y-12.765 Z2.729 
N130 X-151.712 Y-12.555 Z3.018 
N131 X-151.709 Y-12.345 Z3.307 
N132 X-151.707 Y-12.135 Z3.596 
N133 X-151.705 Y-11.925 Z3.885 
N134 X-151.703 Y-11.715 Z4.174 
N135 X-151.701 Y-11.505 Z4.463 
N136 X-151.699 Y-11.295 Z4.752 
N137 X-151.697 Y-11.085 Z5.041 
N138 X-151.696 Y-10.875 Z5.330 
N139 X-151.694 Y-10.665 Z5.619 
N140 X-151.693 Y-10.455 Z5.908 
N141 X-151.692 Y-10.245 Z6.197 
N142 X-151.691 Y-10.035 Z6.486 
N143 X-151.690 Y-9.825 Z6.775 
N144 X-151.690 Y-9.615 Z7.064 
N145 X-151.689 Y-9.405 Z7.353 
N146 X-151.689 Y-9.195 Z7.642 
N147 X-151.688 Y-8.985 Z7.931 
N148 X-151.688 Y-8.776 Z8.220 
N149 X-151.688 Y-8.566 Z8.509 
N150 X-151.688 Y-8.356 Z8.798 
N151 X-151.689 Y-8.146 Z9.087 
N152 X-151.689 Y-7.936 Z9.376 
N153 X-151.690 Y-7.726 Z9.665 
N154 X-151.691 Y-7.516 Z9.954 
N155 X-151.691 Y-7.306 Z10.243 
N156 X-151.692 Y-7.096 Z10.532 
N157 X-151.694 Y-6.886 Z10.821 
N158 X-151.695 Y-6.676 Z11.110 
N159 X-151.696 Y-6.466 Z11.399 
N160 X-151.698 Y-6.256 Z11.688 
N161 X-151.700 Y-6.046 Z11.977 
N162 X-151.702 Y-5.836 Z12.266 
N163 X-151.703 Y-5.626 Z12.555 
N164 X-151.706 Y-5.416 Z12.844 
N165 X-151.708 Y-5.206 Z13.133 
N166 X-151.710 Y-4.996 Z13.422 
N167 X-151.713 Y-4.786 Z13.711 
N168 X-151.716 Y-4.576 Z14.000 
N169 X-151.719 Y-4.366 Z14.289 
N170 X-151.721 Y-4.156 Z14.578 
N171 X-151.725 Y-3.946 Z14.867 
N172 X-151.728 Y-3.737 Z15.156 
N173 X-151.731 Y-3.523 Z15.450 
N174 X-151.734 Y-3.309 Z15.744 
N175 X-151.738 Y-3.095 Z16.038 
N176 X-151.741 Y-2.882 Z16.332 
N177 X-151.744 Y-2.668 Z16.626 
N178 X-151.747 Y-2.454 Z16.921 
N179 X-151.751 Y-2.240 Z17.215 
N180 X-151.754 Y-2.027 Z17.509 
N181 X-151.757 Y-1.813 Z17.803 
N182 X-151.760 Y-1.599 Z18.097 
N183 X-151.764 Y-1.385 Z18.391 
N184 G40 X-151.767 Y-1.163 Z18.698 F959
N185 X-151.767 Y-1.163 Z18.698 
N186 X-151.773 Y-0.804 Z19.192 F1691 
N187 X-151.784 Y-0.173 Z20.061 F2910 
N188 X-151.807 Y0.822 Z21.429 F4129 
N189 X-151.854 Y2.088 Z23.173 F4861 
N190 X-151.967 Y3.490 Z25.101 F5104 
N191 X-152.313 Y4.968 Z27.136 
N192 X-152.676 Y3.881 Z25.640 F4861 
N193 X-152.691 Y2.606 Z23.885 F4129 
N194 X-152.683 Y1.614 Z22.519 F2910 
N195 X-152.676 Y1.002 Z21.677 F1691 
N196 X-152.670 Y0.649 Z21.192 F959 
N197 ;rowek od strony piora
N198 D3 
N199 G01 G41 X-152.667 Y0.422 Z20.879 F716
N200 X-152.667 Y0.422 Z20.879 F716 
N201 X-152.664 Y0.202 Z20.576 
N202 X-152.660 Y-0.019 Z20.273 
N203 X-152.657 Y-0.239 Z19.969 
N204 X-152.653 Y-0.460 Z19.666 
N205 X-152.650 Y-0.680 Z19.363 
N206 X-152.647 Y-0.900 Z19.059 
N207 X-152.643 Y-1.121 Z18.756 
N208 X-152.640 Y-1.341 Z18.452 
N209 X-152.637 Y-1.555 Z18.158 
N210 X-152.633 Y-1.769 Z17.864 
N211 X-152.630 Y-1.982 Z17.570 
N212 X-152.627 Y-2.196 Z17.276 
N213 X-152.623 Y-2.410 Z16.982 
N214 X-152.620 Y-2.624 Z16.687 
N215 X-152.617 Y-2.837 Z16.393 
N216 X-152.613 Y-3.051 Z16.099 
N217 X-152.610 Y-3.265 Z15.805 
N218 X-152.607 Y-3.478 Z15.511 
N219 X-152.604 Y-3.692 Z15.216 
N220 X-152.600 Y-3.902 Z14.928 
N221 X-152.597 Y-4.112 Z14.639 
N222 X-152.594 Y-4.322 Z14.350 
N223 X-152.591 Y-4.532 Z14.061 
N224 X-152.589 Y-4.741 Z13.772 
N225 X-152.586 Y-4.951 Z13.483 
N226 X-152.583 Y-5.161 Z13.195 
N227 X-152.581 Y-5.371 Z12.906 
N228 X-152.579 Y-5.581 Z12.617 
N229 X-152.577 Y-5.791 Z12.328 
N230 X-152.575 Y-6.001 Z12.039 
N231 X-152.573 Y-6.211 Z11.750 
N232 X-152.572 Y-6.420 Z11.462 
N233 X-152.570 Y-6.630 Z11.173 
N234 X-152.569 Y-6.840 Z10.884 
N235 X-152.568 Y-7.050 Z10.595 
N236 X-152.567 Y-7.260 Z10.306 
N237 X-152.566 Y-7.470 Z10.017 
N238 X-152.565 Y-7.680 Z9.728 
N239 X-152.564 Y-7.889 Z9.440 
N240 X-152.564 Y-8.099 Z9.151 
N241 X-152.563 Y-8.309 Z8.862 
N242 X-152.563 Y-8.519 Z8.573 
N243 X-152.563 Y-8.729 Z8.284 
N244 X-152.563 Y-8.939 Z7.995 
N245 X-152.564 Y-9.149 Z7.706 
N246 X-152.564 Y-9.358 Z7.418 
N247 X-152.564 Y-9.568 Z7.129 
N248 X-152.565 Y-9.778 Z6.840 
N249 X-152.566 Y-9.988 Z6.551 
N250 X-152.567 Y-10.198 Z6.262 
N251 X-152.568 Y-10.408 Z5.973 
N252 X-152.569 Y-10.618 Z5.684 
N253 X-152.570 Y-10.827 Z5.396 
N254 X-152.572 Y-11.037 Z5.107 
N255 X-152.574 Y-11.247 Z4.818 
N256 X-152.575 Y-11.457 Z4.529 
N257 X-152.577 Y-11.667 Z4.240 
N258 X-152.579 Y-11.877 Z3.951 
N259 X-152.582 Y-12.087 Z3.663 
N260 X-152.584 Y-12.296 Z3.374 
N261 X-152.586 Y-12.506 Z3.085 
N262 X-152.589 Y-12.716 Z2.796 
N263 X-152.592 Y-12.926 Z2.507 
N264 X-152.595 Y-13.136 Z2.218 
N265 X-152.598 Y-13.346 Z1.930 
N266 X-152.601 Y-13.556 Z1.641 
N267 X-152.604 Y-13.765 Z1.352 
N268 X-152.608 Y-13.975 Z1.063 
N269 X-152.611 Y-14.185 Z0.774 
N270 X-152.615 Y-14.395 Z0.485 
N271 X-152.619 Y-14.605 Z0.196 
N272 X-152.623 Y-14.815 Z-0.092 
N273 X-152.627 Y-15.025 Z-0.381 
N274 X-152.631 Y-15.234 Z-0.670 
N275 X-152.636 Y-15.444 Z-0.959 
N276 X-152.641 Y-15.654 Z-1.248 
N277 X-152.645 Y-15.864 Z-1.537 
N278 X-152.650 Y-16.074 Z-1.825 
N279 X-152.655 Y-16.284 Z-2.114 
N280 X-152.660 Y-16.494 Z-2.403 
N281 X-152.666 Y-16.703 Z-2.692 
N282 X-152.671 Y-16.913 Z-2.981 
N283 X-152.677 Y-17.123 Z-3.269 
N284 X-152.682 Y-17.333 Z-3.558 
N285 X-152.688 Y-17.543 Z-3.847 
N286 X-152.694 Y-17.753 Z-4.136 
N287 X-152.701 Y-17.962 Z-4.425 
N288 X-152.707 Y-18.172 Z-4.713 
N289 X-152.713 Y-18.382 Z-5.002 
N290 X-152.720 Y-18.592 Z-5.291 
N291 X-152.727 Y-18.802 Z-5.580 
N292 X-152.733 Y-19.011 Z-5.869 
N293 X-152.740 Y-19.221 Z-6.157 
N294 X-152.748 Y-19.431 Z-6.446 
N295 X-152.755 Y-19.641 Z-6.735 
N296 X-152.762 Y-19.851 Z-7.024 
N297 X-152.770 Y-20.061 Z-7.313 
N298 X-152.778 Y-20.270 Z-7.601 
N299 X-152.785 Y-20.480 Z-7.890 
N300 X-152.793 Y-20.690 Z-8.179 
N301 X-152.802 Y-20.900 Z-8.468 
N302 X-152.810 Y-21.110 Z-8.757 
N303 X-152.818 Y-21.319 Z-9.045 
N304 X-152.827 Y-21.529 Z-9.334 
N305 X-152.835 Y-21.739 Z-9.623 
N306 X-152.844 Y-21.949 Z-9.912 
N307 X-152.853 Y-22.159 Z-10.200 
N308 X-152.862 Y-22.368 Z-10.489 
N309 X-152.872 Y-22.578 Z-10.778 
N310 X-152.881 Y-22.788 Z-11.067 
N311 X-152.891 Y-22.998 Z-11.355 
N312 X-152.900 Y-23.208 Z-11.644 
N313 X-152.910 Y-23.417 Z-11.933 
N314 X-152.920 Y-23.627 Z-12.222 
N315 X-152.930 Y-23.837 Z-12.510 
N316 X-152.941 Y-24.047 Z-12.799 
N317 X-152.951 Y-24.256 Z-13.088 
N318 X-152.961 Y-24.466 Z-13.377 
N319 X-152.972 Y-24.676 Z-13.665 
N320 X-152.983 Y-24.886 Z-13.954 
N321 X-152.994 Y-25.096 Z-14.243 
N322 X-153.005 Y-25.305 Z-14.531 
N323 X-153.016 Y-25.515 Z-14.820 
N324 X-153.028 Y-25.725 Z-15.109 
N325 X-153.039 Y-25.935 Z-15.398 
N326 X-153.051 Y-26.144 Z-15.686 
N327 X-153.063 Y-26.354 Z-15.975 
N328 X-153.075 Y-26.564 Z-16.264 
N329 X-153.087 Y-26.774 Z-16.552 
N330 X-153.099 Y-26.987 Z-16.846 
N331 X-153.111 Y-27.201 Z-17.140 
N332 X-153.123 Y-27.414 Z-17.434 
N333 X-153.136 Y-27.628 Z-17.728 
N334 X-153.148 Y-27.842 Z-18.022 
N335 X-153.160 Y-28.055 Z-18.316 
N336 X-153.172 Y-28.269 Z-18.610 
N337 X-153.184 Y-28.483 Z-18.904 
N338 X-153.197 Y-28.696 Z-19.198 
N339 X-153.209 Y-28.910 Z-19.493 
N340 X-153.221 Y-29.123 Z-19.787 
N341 G40 X-153.558 Y-34.998 Z-27.872 F716
N342 X-153.558 Y-34.998 Z-27.872 
N343 G00 X-153.558 Y-75.449 Z1.517 
;RAPORT("TC999999","Side Milling:136 End")
;trailer : concat=None
; points cnt = 295
N345 M9 ; chlodziwo wyl.
N346 MSG (" --- KONIEC PODPROGRAMU --- ")
N347 FGROUP()
N348 TRAFOOF
N349 STOPRE
N350 G0 G53 D0 Z550.0 M9 M5
N351 G0 G53 Y150 A0 B0
N352 M17
