; PROGRAM NAME: C99999913
; ORDER       : C999999
; OPER. NAME  : Spiral Rough Airfoil:104
; OPER. DESCR.: spiral roughing airfoil/pioro zgr
; OPER. TYPE  : rouAirfoil
; GEO. OPTION : 6
; MACHINE     : HSTM_500M_SIM840D_Py
;             : HSTM500 Morelia- HAMUEL: 5-axis milling machine-SIM840D Traori PP_Script
; CONTROL     : SINUMERIK 840D
; created:   2022-11-16 11:59:26.174150
;----------------------------------------
;-------DODATKOWE DANE-------------------
; PROGRAMISTA : Mariusz Malec
; PARTID      : 301T002159P1002_-
;  ap         : 1.5
;  ae         : 35.0
;  lean_angle : 1.0
;  airf_offset: 1.0
;----------------------------------------
;RAPORT("TC999999","Spiral Rough Airfoil:104")
N10 TRAFOOF
N11 D0
N12 G90 G94
N13 G0 G53 D0 Z550
N14 STOPRE
M9 ; chlodziwo wyl
; --- Spiral Rough Airfoil:104 - spiral roughing airfoil/pioro zgr ---
N16 ;ToolChange : concat=None ,current_tdmid=None, PP.tdmId=941291
N17 TRAFOOF
N18 G0 G53 D0 X-200 Y150 Z550 B0
N19 T="7741291"
;RAPORT("TC999999","ToolChangeStart 7741291")
N20 M6
;RAPORT("TC999999","ToolChangeEnd")
N21 STOPRE
N22 MSG(" TLID=941291 D=50.0 R=6.0 Ang=0.0 Len=90.0 ")
N23 S1718 M03
N24 STOPRE
N25 TOL(0.1,1,1)
N26 G0 G53 A1.1737 B-0.0000
N27 TRAORI
N28 G54 D1
N29 D1 
N30 X-230.255 Y66.546 Z81.606 A1.1737 
N31 M346 ; chlodziwo mgla
N32 X-230.255 Y67.570 Z31.616 
N33 G01 X-230.255 Y67.090 Z28.525 F2834 
N34 X-230.255 Y65.678 Z25.733 
N35 X-230.255 Y63.473 Z23.514 
N36 X-230.255 Y60.689 Z22.085 
N37 X-230.255 Y57.601 Z21.586 
N38 X-230.255 Y50.617 Z21.583 A1.2386 
N39 X-230.255 Y43.726 Z21.554 A1.1737 
N40 X-230.255 Y37.004 Z21.550 
N41 X-230.255 Y30.543 Z21.547 A1.1768 
N42 X-230.255 Y24.413 Z21.543 A1.1757 
N43 X-230.255 Y18.675 Z21.538 A1.1744 
N44 X-230.255 Y13.377 Z21.535 A1.1738 
N45 X-230.255 Y8.550 Z21.532 A1.1767 
N46 X-230.255 Y4.214 Z21.532 A1.1850 
N47 X-230.255 Y0.372 Z21.533 A1.1976 
N48 X-230.255 Y-2.984 Z21.533 A1.2065 
N49 X-230.255 Y-5.875 Z21.531 A1.2048 
N50 X-230.255 Y-8.332 Z21.523 A1.1823 
N51 X-230.255 Y-10.389 Z21.522 A1.1737 
N52 X-230.255 Y-12.094 Z21.524 
N53 X-230.255 Y-13.497 Z21.541 A1.2246 
N54 X-230.255 Y-14.630 Z21.692 A1.6917 
N55 X-230.255 Y-15.551 Z22.083 A2.9200 
N56 X-230.255 Y-16.329 Z22.897 A5.4789 
N57 X-230.255 Y-17.085 Z24.274 A9.8349 
N58 X-230.255 Y-17.977 Z26.166 A15.9362 
N59 X-230.255 Y-19.101 Z28.271 A22.9961 
N60 X-230.255 Y-20.443 Z30.297 A30.2176 
N61 X-230.255 Y-21.955 Z32.113 A37.2550 
N62 X-230.255 Y-23.539 Z33.624 A43.7803 
N63 X-230.255 Y-25.217 Z34.901 A50.0627 
N64 X-230.255 Y-27.053 Z35.999 A56.4377 
N65 X-230.255 Y-29.072 Z36.901 A63.0229 
N66 X-230.255 Y-31.202 Z37.536 A69.6273 
N67 X-230.255 Y-33.345 Z37.858 A76.0428 
N68 X-230.255 Y-35.240 Z37.832 A81.5875 
N69 X-230.255 Y-36.665 Z37.511 A85.7109 
N70 X-230.255 Y-37.595 Z36.977 A88.3862 
N71 X-230.255 Y-38.134 Z36.283 A89.9394 
N72 X-230.255 Y-38.415 Z35.441 A90.7562 
N73 X-230.255 Y-38.542 Z34.446 A91.1366 
N74 X-230.255 Y-38.586 Z33.288 A91.2790 
N75 X-230.255 Y-38.588 Z31.961 A91.3032 
N76 X-230.255 Y-38.575 Z30.462 A91.2823 
N77 X-230.255 Y-38.561 Z28.798 A91.2573 
N78 X-230.255 Y-38.556 Z26.982 
N79 X-230.255 Y-38.553 Z25.033 
N80 X-230.255 Y-38.549 Z22.979 
N81 X-230.255 Y-38.545 Z20.853 
N82 X-230.255 Y-38.541 Z18.694 A91.2595 
N83 X-230.255 Y-38.538 Z16.541 A91.2630 
N84 X-230.255 Y-38.536 Z14.433 A91.2697 
N85 X-230.255 Y-38.535 Z12.407 A91.2816 
N86 X-230.255 Y-38.536 Z10.494 A91.2985 
N87 X-230.255 Y-38.536 Z8.722 A91.3117 
N88 X-230.255 Y-38.533 Z7.108 A91.3116 
N89 X-230.255 Y-38.521 Z5.664 A91.2767 
N90 X-230.255 Y-38.515 Z4.396 A91.2573 
N91 X-230.255 Y-38.517 Z3.294 
N92 X-230.255 Y-38.552 Z2.336 A91.3616 
N93 X-230.255 Y-38.784 Z1.531 A92.0768 
N94 X-230.255 Y-39.288 Z0.841 A93.6453 
N95 X-230.255 Y-40.160 Z0.218 A96.3801 
N96 X-230.255 Y-41.433 Z-0.418 A100.4061 
N97 X-230.255 Y-43.087 Z-1.173 A105.7292 
N98 X-230.255 Y-45.045 Z-2.160 A112.2306 
N99 X-230.255 Y-47.133 Z-3.452 A119.5459 
N100 X-230.255 Y-49.014 Z-4.939 A126.6997 
N101 X-230.255 Y-50.598 Z-6.534 A133.4087 
N102 X-230.255 Y-51.990 Z-8.303 A140.1259 
N103 X-230.255 Y-53.212 Z-10.318 A147.1587 
N104 X-230.255 Y-54.212 Z-12.604 A154.6010 
N105 X-230.255 Y-54.908 Z-15.148 A162.4576 
N106 X-230.255 Y-55.136 Z-17.491 A169.4308 
N107 X-230.255 Y-54.941 Z-19.231 A174.5009 
N108 X-230.255 Y-54.468 Z-20.355 A177.7460 
N109 X-230.255 Y-53.796 Z-21.019 A179.6594 
N110 X-230.255 Y-52.938 Z-21.372 A180.6843 
N111 X-230.255 Y-51.879 Z-21.525 A181.1384 
N112 X-230.255 Y-50.592 Z-21.563 A181.2663 
N113 X-230.255 Y-49.048 Z-21.553 A181.2500 
N114 X-230.255 Y-47.220 Z-21.534 A181.2044 
N115 X-230.255 Y-45.093 Z-21.533 A181.2029 
N116 X-230.255 Y-42.653 Z-21.533 
N117 X-230.255 Y-39.903 Z-21.534 
N118 X-230.255 Y-36.857 Z-21.535 A181.2042 
N119 X-230.255 Y-33.543 Z-21.536 A181.2072 
N120 X-230.255 Y-30.000 Z-21.536 A181.2069 
N121 X-230.255 Y-26.276 Z-21.536 A181.2057 
N122 X-230.255 Y-22.430 Z-21.535 A181.2043 
N123 X-230.255 Y-18.529 Z-21.535 A181.2033 
N124 X-230.255 Y-14.639 Z-21.534 A181.2029 
N125 X-230.255 Y-10.829 Z-21.534 
N126 X-230.255 Y-7.162 Z-21.534 A181.2035 
N127 X-230.255 Y-3.692 Z-21.536 A181.2107 
N128 X-230.255 Y-0.468 Z-21.541 A181.2257 
N129 X-230.255 Y2.477 Z-21.547 A181.2480 
N130 X-230.255 Y5.121 Z-21.552 A181.2639 
N131 X-230.255 Y7.455 Z-21.551 A181.2618 
N132 X-230.255 Y9.482 Z-21.538 A181.2141 
N133 X-230.255 Y11.210 Z-21.539 A181.2029 
N134 X-230.255 Y12.673 Z-21.544 
N135 X-230.255 Y13.903 Z-21.596 A181.3534 
N136 X-230.255 Y14.912 Z-21.840 A182.1086 
N137 X-230.255 Y15.750 Z-22.336 A183.6673 
N138 X-230.255 Y16.477 Z-23.192 A186.3705 
N139 X-230.255 Y17.197 Z-24.509 A190.5639 
N140 X-230.255 Y18.063 Z-26.338 A196.4764 
N141 X-230.255 Y19.204 Z-28.488 A203.6920 
N142 X-230.255 Y20.565 Z-30.521 A210.9722 
N143 X-230.255 Y22.036 Z-32.252 A217.7394 
N144 X-230.255 Y23.609 Z-33.738 A224.1898 
N145 X-230.255 Y25.290 Z-35.006 A230.4675 
N146 X-230.255 Y27.123 Z-36.090 A236.8132 
N147 X-230.255 Y29.212 Z-37.014 A243.6173 
N148 X-230.255 Y31.418 Z-37.653 A250.4485 
N149 X-230.255 Y33.489 Z-37.927 A256.6261 
N150 X-230.255 Y35.283 Z-37.868 A261.8657 
N151 X-230.255 Y36.679 Z-37.536 A265.9014 
N152 X-230.255 Y37.631 Z-36.998 A268.6497 
N153 X-230.255 Y38.178 Z-36.298 A270.2382 
N154 X-230.255 Y38.432 Z-35.451 A270.9844 
N155 X-230.255 Y38.512 Z-34.452 A271.2313 
N156 X-230.255 Y38.515 Z-33.290 A271.2536 
N157 X-230.255 Y38.500 Z-31.956 A271.2180 
N158 X-230.255 Y38.490 Z-30.450 A271.1978 
N159 X-230.255 Y38.489 Z-28.778 
N160 X-230.255 Y38.488 Z-26.951 
N161 X-230.255 Y38.487 Z-24.992 
N162 X-230.255 Y38.486 Z-22.930 
N163 X-230.255 Y38.485 Z-20.798 
N164 X-230.255 Y38.485 Z-18.634 A271.2009 
N165 X-230.255 Y38.485 Z-16.477 A271.2057 
N166 X-230.255 Y38.485 Z-14.367 A271.2119 
N167 X-230.255 Y38.485 Z-12.340 A271.2176 
N168 X-230.255 Y38.485 Z-10.428 A271.2194 
N169 X-230.255 Y38.483 Z-8.656 A271.2162 
N170 X-230.255 Y38.479 Z-7.044 A271.2053 
N171 X-230.255 Y38.477 Z-5.602 A271.1978 
N172 X-230.255 Y38.479 Z-4.333 
N173 X-230.255 Y38.479 Z-3.228 
N174 X-230.255 Y38.534 Z-2.282 A271.3657 
N175 X-230.255 Y38.732 Z-1.484 A271.9804 
N176 X-230.255 Y39.191 Z-0.805 A273.4107 
N177 X-230.255 Y40.072 Z-0.190 A276.1615 
N178 X-230.255 Y41.478 Z0.462 A280.5915 
N179 X-230.255 Y43.345 Z1.282 A286.5906 
N180 X-230.255 Y45.381 Z2.339 A293.4003 
N181 X-230.255 Y47.351 Z3.619 A300.3959 
N182 X-230.255 Y49.115 Z5.063 A307.1922 
N183 X-230.255 Y50.724 Z6.711 A314.0665 
N184 X-230.255 Y52.142 Z8.561 A321.0248 
N185 X-230.255 Y53.329 Z10.598 A328.0590 
N186 X-230.255 Y54.226 Z12.771 A335.0627 
N187 X-230.255 Y54.860 Z15.215 A342.5760 
N188 X-230.255 Y55.068 Z17.535 A349.4694 
N189 X-230.255 Y54.861 Z19.294 A354.5926 
N190 X-230.255 Y54.372 Z20.470 A357.9927 
N191 X-230.255 Y53.678 Z21.151 A359.9653 
N192 X-230.255 Y52.797 Z21.471 A0.9036 
N193 X-230.255 Y51.715 Z21.579 A1.2328 
N194 X-230.255 Y50.401 Z21.590 A1.2825 
N195 X-230.255 Y48.828 Z21.575 A1.2540 
N196 X-230.255 Y46.972 Z21.565 A1.2385 
N197 X-230.255 Y44.815 Z21.560 
N198 X-230.255 Y42.348 Z21.555 
N199 X-230.255 Y39.577 Z21.549 
N200 X-230.255 Y36.516 Z21.542 A1.2386 
N201 X-230.255 Y33.194 Z21.535 A1.2391 
N202 X-230.255 Y29.650 Z21.527 A1.2390 
N203 X-230.255 Y25.936 Z21.519 A1.2388 
N204 X-230.255 Y22.109 Z21.510 A1.2385 
N205 X-230.255 Y18.236 Z21.501 
N206 X-230.255 Y14.384 Z21.491 A1.2394 
N207 X-230.255 Y10.618 Z21.483 A1.2418 
N208 X-230.255 Y7.002 Z21.475 A1.2465 
N209 X-230.255 Y3.588 Z21.468 A1.2532 
N210 X-230.255 Y0.421 Z21.462 A1.2581 
N211 X-230.255 Y-2.467 Z21.454 A1.2577 
N212 X-230.255 Y-5.059 Z21.443 A1.2396 
N213 X-230.255 Y-7.343 Z21.438 A1.2385 
N214 X-230.255 Y-9.331 Z21.435 
N215 X-230.255 Y-11.036 Z21.463 A1.3337 
N216 X-230.255 Y-12.474 Z21.577 A1.7086 
N217 X-230.255 Y-13.676 Z21.822 A2.5074 
N218 X-230.255 Y-14.682 Z22.267 A3.9525 
N219 X-230.255 Y-15.547 Z22.997 A6.3164 
N220 X-230.255 Y-16.354 Z24.103 A9.9023 
N221 X-230.255 Y-17.216 Z25.610 A14.8400 
N222 X-230.255 Y-18.235 Z27.402 A20.8700 
N223 X-230.255 Y-19.444 Z29.253 A27.4021 
N224 X-230.255 Y-20.818 Z30.995 A33.9855 
N225 X-230.255 Y-22.281 Z32.504 A40.2301 
N226 X-230.255 Y-23.805 Z33.780 A46.1382 
N227 X-230.255 Y-25.426 Z34.876 A51.9542 
N228 X-230.255 Y-27.195 Z35.819 A57.9117 
N229 X-230.255 Y-29.103 Z36.570 A63.9967 
N230 X-230.255 Y-31.086 Z37.074 A70.0510 
N231 X-230.255 Y-33.018 Z37.286 A75.7619 
N232 X-230.255 Y-34.692 Z37.190 A80.6005 
N233 X-230.255 Y-35.998 Z36.833 A84.3199 
N234 X-230.255 Y-36.944 Z36.271 A86.9905 
N235 X-230.255 Y-37.592 Z35.540 A88.8172 
N236 X-230.255 Y-38.011 Z34.653 A90.0042 
N237 X-230.255 Y-38.260 Z33.609 A90.7165 
N238 X-230.255 Y-38.388 Z32.405 A91.0977 
N239 X-230.255 Y-38.441 Z31.040 A91.2685 
N240 X-230.255 Y-38.451 Z29.514 A91.3247 
N241 X-230.255 Y-38.445 Z27.837 A91.3324 
N242 X-230.255 Y-38.432 Z26.025 A91.3254 
N243 X-230.255 Y-38.421 Z24.099 A91.3210 
N244 X-230.255 Y-38.410 Z22.088 
N245 X-230.255 Y-38.402 Z20.025 A91.3280 
N246 X-230.255 Y-38.396 Z17.946 A91.3407 
N247 X-230.255 Y-38.389 Z15.889 A91.3508 
N248 X-230.255 Y-38.379 Z13.889 A91.3511 
N249 X-230.255 Y-38.365 Z11.978 A91.3342 
N250 X-230.255 Y-38.354 Z10.185 A91.3210 
N251 X-230.255 Y-38.349 Z8.528 
N252 X-230.255 Y-38.347 Z7.017 A91.3282 
N253 X-230.255 Y-38.405 Z5.670 A91.5267 
N254 X-230.255 Y-38.536 Z4.482 A91.9610 
N255 X-230.255 Y-38.778 Z3.448 A92.7536 
N256 X-230.255 Y-39.168 Z2.550 A94.0322 
N257 X-230.255 Y-39.760 Z1.758 A95.9653 
N258 X-230.255 Y-40.604 Z1.028 A98.7188 
N259 X-230.255 Y-41.730 Z0.297 A102.4124 
N260 X-230.255 Y-43.136 Z-0.512 A107.0834 
N261 X-230.255 Y-44.769 Z-1.480 A112.6571 
N262 X-230.255 Y-46.514 Z-2.658 A118.8895 
N263 X-230.255 Y-48.160 Z-4.001 A125.1996 
N264 X-230.255 Y-49.605 Z-5.447 A131.2785 
N265 X-230.255 Y-50.889 Z-7.027 A137.3338 
N266 X-230.255 Y-52.025 Z-8.778 A143.5428 
N267 X-230.255 Y-52.994 Z-10.737 A150.0413 
N268 X-230.255 Y-53.729 Z-12.878 A156.7584 
N269 X-230.255 Y-54.133 Z-15.036 A163.2434 
N270 X-230.255 Y-54.156 Z-16.937 A168.7756 
N271 X-230.255 Y-53.851 Z-18.456 A173.1077 
N272 X-230.255 Y-53.283 Z-19.589 A176.3033 
N273 X-230.255 Y-52.492 Z-20.372 A178.5030 
N274 X-230.255 Y-51.485 Z-20.860 A179.8765 
N275 X-230.255 Y-50.256 Z-21.127 A180.6335 
N276 X-230.255 Y-48.783 Z-21.251 A180.9923 
N277 X-230.255 Y-47.043 Z-21.295 A181.1303 
N278 X-230.255 Y-45.020 Z-21.302 A181.1658 
N279 X-230.255 Y-42.702 Z-21.295 A181.1627 
N280 X-230.255 Y-40.089 Z-21.286 A181.1503 
N281 X-230.255 Y-37.191 Z-21.280 A181.1465 
N282 X-230.255 Y-34.030 Z-21.276 
N283 X-230.255 Y-30.641 Z-21.271 
N284 X-230.255 Y-27.068 Z-21.267 
N285 X-230.255 Y-23.368 Z-21.263 A181.1465 
N286 X-230.255 Y-19.602 Z-21.258 A181.1470 
N287 X-230.255 Y-15.833 Z-21.254 A181.1486 
N288 X-230.255 Y-12.128 Z-21.250 A181.1531 
N289 X-230.255 Y-8.546 Z-21.248 A181.1604 
N290 X-230.255 Y-5.144 Z-21.246 A181.1682 
N291 X-230.255 Y-1.966 Z-21.243 A181.1703 
N292 X-230.255 Y0.952 Z-21.238 A181.1654 
N293 X-230.255 Y3.588 Z-21.231 A181.1473 
N294 X-230.255 Y5.931 Z-21.231 A181.1465 
N295 X-230.255 Y7.984 Z-21.232 
N296 X-230.255 Y9.763 Z-21.250 A181.2026 
N297 X-230.255 Y11.275 Z-21.371 A181.5848 
N298 X-230.255 Y12.555 Z-21.669 A182.5425 
N299 X-230.255 Y13.645 Z-22.256 A184.4327 
N300 X-230.255 Y14.615 Z-23.200 A187.4993 
N301 X-230.255 Y15.551 Z-24.482 A191.7166 
N302 X-230.255 Y16.533 Z-25.988 A196.7866 
N303 X-230.255 Y17.611 Z-27.594 A202.3821 
N304 X-230.255 Y18.809 Z-29.194 A208.2342 
N305 X-230.255 Y20.088 Z-30.655 A213.9517 
N306 X-230.255 Y21.410 Z-31.928 A219.3671 
N307 X-230.255 Y22.771 Z-33.029 A224.5405 
N308 X-230.255 Y24.185 Z-33.978 A229.5695 
N309 X-230.255 Y25.672 Z-34.791 A234.5757 
N310 X-230.255 Y27.258 Z-35.469 A239.6590 
N311 X-230.255 Y28.938 Z-35.987 A244.8274 
N312 X-230.255 Y30.660 Z-36.302 A249.9421 
N313 X-230.255 Y32.371 Z-36.390 A254.8929 
N314 X-230.255 Y33.979 Z-36.233 A259.4684 
N315 X-230.255 Y35.350 Z-35.830 A263.3273 
N316 X-230.255 Y36.412 Z-35.212 A266.2990 
N317 X-230.255 Y37.169 Z-34.411 A268.4146 
N318 X-230.255 Y37.670 Z-33.448 A269.8272 
N319 X-230.255 Y37.975 Z-32.331 A270.7013 
N320 X-230.255 Y38.135 Z-31.064 A271.1768 
N321 X-230.255 Y38.196 Z-29.648 A271.3788 
N322 X-230.255 Y38.199 Z-28.091 A271.4181 
N323 X-230.255 Y38.179 Z-26.404 A271.3884 
N324 X-230.255 Y38.160 Z-24.604 A271.3551 
N325 X-230.255 Y38.154 Z-22.717 
N326 X-230.255 Y38.148 Z-20.768 
N327 X-230.255 Y38.144 Z-18.790 A271.3587 
N328 X-230.255 Y38.146 Z-16.820 A271.3798 
N329 X-230.255 Y38.146 Z-14.891 A271.3977 
N330 X-230.255 Y38.143 Z-13.034 A271.4053 
N331 X-230.255 Y38.134 Z-11.277 A271.3908 
N332 X-230.255 Y38.120 Z-9.642 A271.3551 
N333 X-230.255 Y38.119 Z-8.144 
N334 X-230.255 Y38.119 Z-6.779 
N335 X-230.255 Y38.228 Z-5.561 A271.6979 
N336 X-230.255 Y38.524 Z-4.483 A272.6374 
N337 X-230.255 Y39.074 Z-3.524 A274.4050 
N338 X-230.255 Y39.911 Z-2.644 A277.1168 
N339 X-230.255 Y41.022 Z-1.787 A280.7690 
N340 X-230.255 Y42.365 Z-0.890 A285.2656 
N341 X-230.255 Y43.859 Z0.102 A290.4149 
N342 X-230.255 Y45.315 Z1.173 A295.6717 
N343 X-230.255 Y46.623 Z2.284 A300.6834 
N344 X-230.255 Y47.808 Z3.441 A305.5416 
N345 X-230.255 Y48.870 Z4.642 A310.2519 
N346 X-230.255 Y49.826 Z5.904 A314.9091 
N347 X-230.255 Y50.683 Z7.247 A319.5982 
N348 X-230.255 Y51.442 Z8.703 A324.4271 
N349 X-230.255 Y52.088 Z10.293 A329.4671 
N350 X-230.255 Y52.585 Z12.025 A334.7363 
N351 X-230.255 Y52.886 Z13.891 A340.2345 
N352 X-230.255 Y52.943 Z15.866 A345.9269 
N353 X-230.255 Y52.689 Z17.808 A351.4624 
N354 X-230.255 Y52.089 Z19.322 A355.7418 
N355 X-230.255 Y51.211 Z20.297 A358.4899 
N356 X-230.255 Y50.102 Z20.856 A0.0737 
N357 X-230.255 Y48.766 Z21.144 A0.9046 
N358 X-230.255 Y47.189 Z21.263 A1.2704 
N359 X-230.255 Y45.350 Z21.288 A1.3751 
N360 X-230.255 Y43.236 Z21.273 A1.3648 
N361 X-230.255 Y40.839 Z21.251 A1.3313 
N362 X-230.255 Y38.164 Z21.241 A1.3313 
N363 X-230.255 Y35.223 Z21.231 
N364 X-230.255 Y32.043 Z21.221 
N365 X-230.255 Y28.664 Z21.210 A1.3316 
N366 X-230.255 Y25.133 Z21.198 A1.3330 
N367 X-230.255 Y21.505 Z21.185 A1.3329 
N368 X-230.255 Y17.842 Z21.172 A1.3338 
N369 X-230.255 Y14.206 Z21.159 A1.3368 
N370 X-230.255 Y10.657 Z21.148 A1.3426 
N371 X-230.255 Y7.251 Z21.137 A1.3512 
N372 X-230.255 Y4.037 Z21.127 A1.3584 
N373 X-230.255 Y1.055 Z21.117 A1.3611 
N374 X-230.255 Y-1.669 Z21.101 A1.3408 
N375 X-230.255 Y-4.116 Z21.091 A1.3313 
N376 X-230.255 Y-6.287 Z21.086 
N377 X-230.255 Y-8.191 Z21.121 A1.4542 
N378 X-230.255 Y-9.833 Z21.296 A2.0319 
N379 X-230.255 Y-11.245 Z21.671 A3.2663 
N380 X-230.255 Y-12.468 Z22.307 A5.3753 
N381 X-230.255 Y-13.567 Z23.236 A8.4784 
N382 X-230.255 Y-14.625 Z24.463 A12.6303 
N383 X-230.255 Y-15.722 Z25.924 A17.6803 
N384 X-230.255 Y-16.890 Z27.440 A23.1321 
N385 X-230.255 Y-18.088 Z28.822 A28.4032 
N386 X-230.255 Y-19.297 Z30.039 A33.3748 
N387 X-230.255 Y-20.519 Z31.112 A38.1106 
N388 X-230.255 Y-21.750 Z32.046 A42.6194 
N389 X-230.255 Y-23.007 Z32.861 A46.9947 
N390 X-230.255 Y-24.305 Z33.568 A51.3122 
N391 X-230.255 Y-25.671 Z34.175 A55.6714 
N392 X-230.255 Y-27.117 Z34.671 A60.1183 
N393 X-230.255 Y-28.662 Z35.044 A64.7245 
N394 X-230.255 Y-30.293 Z35.262 A69.4652 
N395 X-230.255 Y-31.936 Z35.277 A74.1359 
N396 X-230.255 Y-33.505 Z35.065 A78.5316 
N397 X-230.255 Y-34.919 Z34.623 A82.4657 
N398 X-230.255 Y-36.085 Z33.963 A85.7031 
N399 X-230.255 Y-36.950 Z33.112 A88.1145 
N400 X-230.255 Y-37.523 Z32.098 A89.7260 
N401 X-230.255 Y-37.864 Z30.936 A90.7035 
N402 X-230.255 Y-38.042 Z29.634 A91.2391 
N403 X-230.255 Y-38.119 Z28.198 A91.4983 
N404 X-230.255 Y-38.138 Z26.638 A91.5971 
N405 X-230.255 Y-38.125 Z24.967 A91.6118 
N406 X-230.255 Y-38.102 Z23.206 A91.5948 
N407 X-230.255 Y-38.081 Z21.378 A91.5808 
N408 X-230.255 Y-38.066 Z19.511 A91.5828 
N409 X-230.255 Y-38.054 Z17.638 A91.5961 
N410 X-230.255 Y-38.043 Z15.788 A91.6051 
N411 X-230.255 Y-38.025 Z13.991 A91.5925 
N412 X-230.255 Y-38.010 Z12.276 A91.5786 
N413 X-230.255 Y-38.001 Z10.661 
N414 X-230.255 Y-37.992 Z9.154 
N415 X-230.255 Y-38.072 Z7.782 A91.8584 
N416 X-230.255 Y-38.257 Z6.543 A92.4813 
N417 X-230.255 Y-38.594 Z5.432 A93.6037 
N418 X-230.255 Y-39.122 Z4.431 A95.3611 
N419 X-230.255 Y-39.886 Z3.507 A97.9084 
N420 X-230.255 Y-40.909 Z2.609 A101.3404 
N421 X-230.255 Y-42.149 Z1.682 A105.5712 
N422 X-230.255 Y-43.494 Z0.693 A110.2911 
N423 X-230.255 Y-44.815 Z-0.353 A115.1350 
N424 X-230.255 Y-46.064 Z-1.453 A119.9615 
N425 X-230.255 Y-47.212 Z-2.599 A124.6907 
N426 X-230.255 Y-48.240 Z-3.781 A129.2696 
N427 X-230.255 Y-49.164 Z-5.013 A133.7803 
N428 X-230.255 Y-49.993 Z-6.315 A138.3005 
N429 X-230.255 Y-50.731 Z-7.714 A142.9328 
N430 X-230.255 Y-51.365 Z-9.234 A147.7466 
N431 X-230.255 Y-51.876 Z-10.905 A152.8419 
N432 X-230.255 Y-52.213 Z-12.720 A158.1940 
N433 X-230.255 Y-52.306 Z-14.586 A163.5479 
N434 X-230.255 Y-52.106 Z-16.389 A168.6265 
N435 X-230.255 Y-51.598 Z-17.974 A173.0435 
N436 X-230.255 Y-50.798 Z-19.195 A176.4296 
N437 X-230.255 Y-49.743 Z-20.014 A178.7012 
N438 X-230.255 Y-48.451 Z-20.500 A180.0541 
N439 X-230.255 Y-46.920 Z-20.755 A180.7732 
N440 X-230.255 Y-45.137 Z-20.866 A181.1011 
N441 X-230.255 Y-43.088 Z-20.896 A181.2083 
N442 X-230.255 Y-40.766 Z-20.890 A181.2103 
N443 X-230.255 Y-38.174 Z-20.875 A181.1806 
N444 X-230.255 Y-35.325 Z-20.868 A181.1709 
N445 X-230.255 Y-32.241 Z-20.867 
N446 X-230.255 Y-28.957 Z-20.865 
N447 X-230.255 Y-25.519 Z-20.864 
N448 X-230.255 Y-21.981 Z-20.863 A181.1724 
N449 X-230.255 Y-18.402 Z-20.862 A181.1754 
N450 X-230.255 Y-14.840 Z-20.863 A181.1830 
N451 X-230.255 Y-11.357 Z-20.865 A181.1968 
N452 X-230.255 Y-8.007 Z-20.868 A181.2116 
N453 X-230.255 Y-4.837 Z-20.867 A181.2161 
N454 X-230.255 Y-1.888 Z-20.862 A181.1997 
N455 X-230.255 Y0.813 Z-20.855 A181.1709 
N456 X-230.255 Y3.249 Z-20.860 
N457 X-230.255 Y5.424 Z-20.865 
N458 X-230.255 Y7.334 Z-20.936 A181.3891 
N459 X-230.255 Y8.991 Z-21.134 A182.0302 
N460 X-230.255 Y10.421 Z-21.531 A183.3334 
N461 X-230.255 Y11.671 Z-22.216 A185.6012 
N462 X-230.255 Y12.814 Z-23.243 A189.0305 
N463 X-230.255 Y13.931 Z-24.552 A193.4866 
N464 X-230.255 Y15.070 Z-25.974 A198.4885 
N465 X-230.255 Y16.236 Z-27.356 A203.5798 
N466 X-230.255 Y17.427 Z-28.640 A208.5833 
N467 X-230.255 Y18.628 Z-29.788 A213.3650 
N468 X-230.255 Y19.826 Z-30.790 A217.8827 
N469 X-230.255 Y21.032 Z-31.668 A222.2075 
N470 X-230.255 Y22.253 Z-32.431 A226.3864 
N471 X-230.255 Y23.509 Z-33.094 A230.5051 
N472 X-230.255 Y24.813 Z-33.658 A234.6228 
N473 X-230.255 Y26.186 Z-34.121 A238.8096 
N474 X-230.255 Y27.630 Z-34.466 A243.0772 
N475 X-230.255 Y29.138 Z-34.671 A247.4192 
N476 X-230.255 Y30.697 Z-34.712 A251.8235 
N477 X-230.255 Y32.248 Z-34.557 A256.1374 
N478 X-230.255 Y33.687 Z-34.182 A260.0972 
N479 X-230.255 Y34.944 Z-33.592 A263.5403 
N480 X-230.255 Y35.977 Z-32.806 A266.3784 
N481 X-230.255 Y36.761 Z-31.847 A268.5535 
N482 X-230.255 Y37.291 Z-30.734 A270.0458 
N483 X-230.255 Y37.590 Z-29.483 A270.9111 
N484 X-230.255 Y37.717 Z-28.107 A271.3027 
N485 X-230.255 Y37.742 Z-26.614 A271.4032 
N486 X-230.255 Y37.727 Z-25.018 A271.3855 
N487 X-230.255 Y37.708 Z-23.334 A271.3500 
N488 X-230.255 Y37.701 Z-21.587 A271.3472 
N489 X-230.255 Y37.696 Z-19.800 
N490 X-230.255 Y37.694 Z-18.003 A271.3546 
N491 X-230.255 Y37.690 Z-16.224 A271.3521 
N492 X-230.255 Y37.686 Z-14.492 A271.3472 
N493 X-230.255 Y37.685 Z-12.831 
N494 X-230.255 Y37.685 Z-11.258 
N495 X-230.255 Y37.692 Z-9.786 A271.3757 
N496 X-230.255 Y37.789 Z-8.437 A271.6908 
N497 X-230.255 Y38.025 Z-7.208 A272.4556 
N498 X-230.255 Y38.484 Z-6.092 A273.9518 
N499 X-230.255 Y39.228 Z-5.058 A276.3964 
N500 X-230.255 Y40.243 Z-4.060 A279.7817 
N501 X-230.255 Y41.421 Z-3.060 A283.8115 
N502 X-230.255 Y42.625 Z-2.048 A288.0825 
N503 X-230.255 Y43.807 Z-1.013 A292.4531 
N504 X-230.255 Y44.931 Z0.047 A296.8173 
N505 X-230.255 Y45.967 Z1.122 A301.0748 
N506 X-230.255 Y46.914 Z2.217 A305.2283 
N507 X-230.255 Y47.769 Z3.332 A309.2744 
N508 X-230.255 Y48.543 Z4.482 A313.2757 
N509 X-230.255 Y49.241 Z5.683 A317.2914 
N510 X-230.255 Y49.864 Z6.957 A321.3889 
N511 X-230.255 Y50.402 Z8.320 A325.6149 
N512 X-230.255 Y50.834 Z9.784 A330.0014 
N513 X-230.255 Y51.132 Z11.356 A334.5680 
N514 X-230.255 Y51.258 Z13.027 A339.3011 
N515 X-230.255 Y51.175 Z14.787 A344.2075 
N516 X-230.255 Y50.835 Z16.581 A349.1749 
N517 X-230.255 Y50.181 Z18.157 A353.5135 
N518 X-230.255 Y49.231 Z19.379 A356.8782 
N519 X-230.255 Y48.020 Z20.223 A359.2281 
N520 X-230.255 Y46.567 Z20.719 A0.6404 
N521 X-230.255 Y44.875 Z20.940 A1.3028 
N522 X-230.255 Y42.935 Z20.992 A1.4996 
N523 X-230.255 Y40.737 Z20.973 A1.4930 
N524 X-230.255 Y38.280 Z20.942 A1.4488 
N525 X-230.255 Y35.575 Z20.928 A1.4486 
N526 X-230.255 Y32.636 Z20.913 
N527 X-230.255 Y29.497 Z20.898 
N528 X-230.255 Y26.199 Z20.882 
N529 X-230.255 Y22.791 Z20.865 A1.4510 
N530 X-230.255 Y19.327 Z20.849 A1.4559 
N531 X-230.255 Y15.865 Z20.833 A1.4643 
N532 X-230.255 Y12.461 Z20.818 A1.4737 
N533 X-230.255 Y9.170 Z20.800 A1.4769 
N534 X-230.255 Y6.038 Z20.782 A1.4705 
N535 X-230.255 Y3.105 Z20.760 A1.4486 
N536 X-230.255 Y0.402 Z20.749 
N537 X-230.255 Y-2.057 Z20.740 
N538 X-230.255 Y-4.266 Z20.750 A1.5141 
N539 X-230.255 Y-6.219 Z20.863 A1.9107 
N540 X-230.255 Y-7.934 Z21.146 A2.8694 
N541 X-230.255 Y-9.441 Z21.687 A4.6996 
N542 X-230.255 Y-10.796 Z22.525 A7.5571 
N543 X-230.255 Y-12.060 Z23.607 A11.3182 
N544 X-230.255 Y-13.284 Z24.820 A15.6586 
N545 X-230.255 Y-14.498 Z26.061 A20.2801 
N546 X-230.255 Y-15.711 Z27.258 A24.9583 
N547 X-230.255 Y-16.913 Z28.346 A29.4799 
N548 X-230.255 Y-18.098 Z29.314 A33.7901 
N549 X-230.255 Y-19.275 Z30.173 A37.9212 
N550 X-230.255 Y-20.446 Z30.926 A41.8851 
N551 X-230.255 Y-21.624 Z31.584 A45.7348 
N552 X-230.255 Y-22.822 Z32.154 A49.5211 
N553 X-230.255 Y-24.056 Z32.639 A53.3031 
N554 X-230.255 Y-25.340 Z33.037 A57.1266 
N555 X-230.255 Y-26.682 Z33.337 A61.0199 
N556 X-230.255 Y-28.086 Z33.523 A65.0002 
N557 X-230.255 Y-29.535 Z33.571 A69.0322 
N558 X-230.255 Y-31.011 Z33.460 A73.0828 
N559 X-230.255 Y-32.492 Z33.171 A77.1204 
N560 X-230.255 Y-33.900 Z32.684 A80.9522 
N561 X-230.255 Y-35.125 Z31.993 A84.2888 
N562 X-230.255 Y-36.097 Z31.115 A86.9507 
N563 X-230.255 Y-36.810 Z30.078 A88.9250 
N564 X-230.255 Y-37.296 Z28.905 A90.2982 
N565 X-230.255 Y-37.593 Z27.610 A91.1752 
N566 X-230.255 Y-37.745 Z26.209 A91.6644 
N567 X-230.255 Y-37.797 Z24.713 A91.8800 
N568 X-230.255 Y-37.790 Z23.138 A91.9315 
N569 X-230.255 Y-37.761 Z21.503 A91.9166 
N570 X-230.255 Y-37.729 Z19.830 A91.8925 
N571 X-230.255 Y-37.703 Z18.144 A91.8832 
N572 X-230.255 Y-37.683 Z16.470 
N573 X-230.255 Y-37.663 Z14.833 
N574 X-230.255 Y-37.645 Z13.254 
N575 X-230.255 Y-37.631 Z11.748 A91.8935 
N576 X-230.255 Y-37.700 Z10.339 A92.1658 
N577 X-230.255 Y-37.882 Z9.033 A92.8053 
N578 X-230.255 Y-38.224 Z7.831 A93.9743 
N579 X-230.255 Y-38.747 Z6.720 A95.7587 
N580 X-230.255 Y-39.454 Z5.680 A98.1887 
N581 X-230.255 Y-40.338 Z4.679 A101.2606 
N582 X-230.255 Y-41.372 Z3.681 A104.9189 
N583 X-230.255 Y-42.501 Z2.658 A109.0153 
N584 X-230.255 Y-43.631 Z1.608 A113.2828 
N585 X-230.255 Y-44.696 Z0.540 A117.5130 
N586 X-230.255 Y-45.685 Z-0.546 A121.6794 
N587 X-230.255 Y-46.598 Z-1.656 A125.7825 
N588 X-230.255 Y-47.425 Z-2.791 A129.8095 
N589 X-230.255 Y-48.172 Z-3.962 A133.8027 
N590 X-230.255 Y-48.841 Z-5.184 A137.8079 
N591 X-230.255 Y-49.430 Z-6.476 A141.8899 
N592 X-230.255 Y-49.931 Z-7.857 A146.1046 
N593 X-230.255 Y-50.325 Z-9.344 A150.4965 
N594 X-230.255 Y-50.582 Z-10.940 A155.0813 
N595 X-230.255 Y-50.655 Z-12.619 A159.7883 
N596 X-230.255 Y-50.504 Z-14.343 A164.5405 
N597 X-230.255 Y-50.085 Z-16.024 A169.1273 
N598 X-230.255 Y-49.370 Z-17.498 A173.1212 
N599 X-230.255 Y-48.371 Z-18.652 A176.2407 
N600 X-230.255 Y-47.114 Z-19.472 A178.4624 
N601 X-230.255 Y-45.613 Z-20.001 A179.9099 
N602 X-230.255 Y-43.870 Z-20.295 A180.7343 
N603 X-230.255 Y-41.880 Z-20.421 A181.1048 
N604 X-230.255 Y-39.642 Z-20.448 A181.2007 
N605 X-230.255 Y-37.155 Z-20.436 A181.1807 
N606 X-230.255 Y-34.433 Z-20.422 A181.1487 
N607 X-230.255 Y-31.498 Z-20.421 
N608 X-230.255 Y-28.380 Z-20.422 
N609 X-230.255 Y-25.122 Z-20.423 
N610 X-230.255 Y-21.774 Z-20.424 A181.1507 
N611 X-230.255 Y-18.389 Z-20.427 A181.1582 
N612 X-230.255 Y-15.024 Z-20.431 A181.1723 
N613 X-230.255 Y-11.733 Z-20.437 A181.1932 
N614 X-230.255 Y-8.565 Z-20.442 A181.2079 
N615 X-230.255 Y-5.566 Z-20.441 A181.2040 
N616 X-230.255 Y-2.769 Z-20.426 A181.1497 
N617 X-230.255 Y-0.204 Z-20.433 A181.1487 
N618 X-230.255 Y2.131 Z-20.441 
N619 X-230.255 Y4.225 Z-20.522 A181.3888 
N620 X-230.255 Y6.076 Z-20.772 A182.1925 
N621 X-230.255 Y7.708 Z-21.220 A183.6846 
N622 X-230.255 Y9.156 Z-21.896 A185.9875 
N623 X-230.255 Y10.476 Z-22.806 A189.1440 
N624 X-230.255 Y11.728 Z-23.919 A193.0843 
N625 X-230.255 Y12.957 Z-25.133 A197.5227 
N626 X-230.255 Y14.171 Z-26.319 A202.0602 
N627 X-230.255 Y15.369 Z-27.419 A206.5134 
N628 X-230.255 Y16.557 Z-28.426 A210.8423 
N629 X-230.255 Y17.733 Z-29.326 A215.0002 
N630 X-230.255 Y18.901 Z-30.122 A218.9914 
N631 X-230.255 Y20.069 Z-30.822 A222.8504 
N632 X-230.255 Y21.247 Z-31.431 A226.6136 
N633 X-230.255 Y22.449 Z-31.956 A230.3342 
N634 X-230.255 Y23.685 Z-32.394 A234.0499 
N635 X-230.255 Y24.969 Z-32.743 A237.8027 
N636 X-230.255 Y26.302 Z-32.989 A241.6041 
N637 X-230.255 Y27.680 Z-33.117 A245.4495 
N638 X-230.255 Y29.093 Z-33.107 A249.3241 
N639 X-230.255 Y30.512 Z-32.939 A253.1609 
N640 X-230.255 Y31.891 Z-32.594 A256.8549 
N641 X-230.255 Y33.194 Z-32.066 A260.3336 
N642 X-230.255 Y34.369 Z-31.356 A263.4812 
N643 X-230.255 Y35.353 Z-30.473 A266.1326 
N644 X-230.255 Y36.101 Z-29.434 A268.1662 
N645 X-230.255 Y36.613 Z-28.264 A269.5757 
N646 X-230.255 Y36.932 Z-26.981 A270.4674 
N647 X-230.255 Y37.110 Z-25.602 A270.9823 
N648 X-230.255 Y37.197 Z-24.140 A271.2523 
N649 X-230.255 Y37.229 Z-22.612 A271.3704 
N650 X-230.255 Y37.229 Z-21.037 A271.3935 
N651 X-230.255 Y37.214 Z-19.438 A271.3670 
N652 X-230.255 Y37.191 Z-17.835 A271.3075 
N653 X-230.255 Y37.188 Z-16.256 A271.2979 
N654 X-230.255 Y37.190 Z-14.710 
N655 X-230.255 Y37.192 Z-13.207 A271.2982 
N656 X-230.255 Y37.308 Z-11.788 A271.6647 
N657 X-230.255 Y37.536 Z-10.453 A272.4061 
N658 X-230.255 Y37.908 Z-9.209 A273.6445 
N659 X-230.255 Y38.440 Z-8.047 A275.4434 
N660 X-230.255 Y39.146 Z-6.948 A277.8706 
N661 X-230.255 Y40.017 Z-5.885 A280.9195 
N662 X-230.255 Y40.999 Z-4.832 A284.4390 
N663 X-230.255 Y42.000 Z-3.784 A288.1654 
N664 X-230.255 Y42.978 Z-2.737 A291.9631 
N665 X-230.255 Y43.922 Z-1.683 A295.8012 
N666 X-230.255 Y44.811 Z-0.620 A299.6156 
N667 X-230.255 Y45.634 Z0.452 A303.3759 
N668 X-230.255 Y46.387 Z1.537 A307.0731 
N669 X-230.255 Y47.070 Z2.640 A310.7210 
N670 X-230.255 Y47.685 Z3.773 A314.3572 
N671 X-230.255 Y48.231 Z4.948 A318.0134 
N672 X-230.255 Y48.706 Z6.180 A321.7346 
N673 X-230.255 Y49.100 Z7.484 A325.5595 
N674 X-230.255 Y49.396 Z8.867 A329.5126 
N675 X-230.255 Y49.569 Z10.334 A333.6012 
N676 X-230.255 Y49.589 Z11.882 A337.8268 
N677 X-230.255 Y49.419 Z13.485 A342.1359 
N678 X-230.255 Y49.023 Z15.106 A346.4542 
N679 X-230.255 Y48.366 Z16.670 A350.6127 
N680 X-230.255 Y47.431 Z18.101 A354.4517 
N681 X-230.255 Y46.213 Z19.246 A357.5634 
N682 X-230.255 Y44.735 Z20.001 A359.6502 
N683 X-230.255 Y43.018 Z20.402 A0.7884 
N684 X-230.255 Y41.067 Z20.567 A1.2930 
N685 X-230.255 Y38.881 Z20.610 A1.4655 
N686 X-230.255 Y36.462 Z20.602 A1.5000 
N687 X-230.255 Y33.820 Z20.577 A1.4895 
N688 X-230.255 Y30.977 Z20.550 A1.4734 
N689 X-230.255 Y27.964 Z20.529 
N690 X-230.255 Y24.816 Z20.507 
N691 X-230.255 Y21.582 Z20.486 A1.4756 
N692 X-230.255 Y18.313 Z20.469 A1.4929 
N693 X-230.255 Y15.060 Z20.451 A1.5115 
N694 X-230.255 Y11.875 Z20.431 A1.5216 
N695 X-230.255 Y8.807 Z20.407 A1.5119 
N696 X-230.255 Y5.894 Z20.376 A1.4734 
N697 X-230.255 Y3.174 Z20.362 
N698 X-230.255 Y0.656 Z20.349 
N699 X-230.255 Y-1.633 Z20.409 A1.7046 
N700 X-230.255 Y-3.693 Z20.583 A2.3218 
N701 X-230.255 Y-5.532 Z20.923 A3.5151 
N702 X-230.255 Y-7.178 Z21.485 A5.4904 
N703 X-230.255 Y-8.677 Z22.298 A8.3727 
N704 X-230.255 Y-10.082 Z23.308 A12.0306 
N705 X-230.255 Y-11.423 Z24.388 A16.0917 
N706 X-230.255 Y-12.710 Z25.430 A20.2166 
N707 X-230.255 Y-13.956 Z26.415 A24.3240 
N708 X-230.255 Y-15.173 Z27.333 A28.3745 
N709 X-230.255 Y-16.364 Z28.170 A32.3121 
N710 X-230.255 Y-17.536 Z28.922 A36.1249 
N711 X-230.255 Y-18.695 Z29.590 A39.8164 
N712 X-230.255 Y-19.849 Z30.177 A43.4096 
N713 X-230.255 Y-21.012 Z30.689 A46.9420 
N714 X-230.255 Y-22.193 Z31.127 A50.4470 
N715 X-230.255 Y-23.405 Z31.491 A53.9636 
N716 X-230.255 Y-24.656 Z31.772 A57.5155 
N717 X-230.255 Y-25.951 Z31.963 A61.1235 
N718 X-230.255 Y-27.291 Z32.048 A64.7907 
N719 X-230.255 Y-28.661 Z32.010 A68.4893 
N720 X-230.255 Y-30.046 Z31.830 A72.1881 
N721 X-230.255 Y-31.422 Z31.494 A75.8422 
N722 X-230.255 Y-32.735 Z30.987 A79.3233 
N723 X-230.255 Y-33.929 Z30.306 A82.4926 
N724 X-230.255 Y-34.964 Z29.460 A85.2628 
N725 X-230.255 Y-35.814 Z28.466 A87.5690 
N726 X-230.255 Y-36.462 Z27.344 A89.3645 
N727 X-230.255 Y-36.905 Z26.114 A90.6319 
N728 X-230.255 Y-37.169 Z24.794 A91.4288 
N729 X-230.255 Y-37.297 Z23.402 A91.8621 
N730 X-230.255 Y-37.336 Z21.953 A92.0533 
N731 X-230.255 Y-37.327 Z20.463 A92.1102 
N732 X-230.255 Y-37.295 Z18.952 A92.1013 
N733 X-230.255 Y-37.266 Z17.440 A92.1002 
N734 X-230.255 Y-37.245 Z15.945 A92.1207 
N735 X-230.255 Y-37.262 Z14.489 A92.2610 
N736 X-230.255 Y-37.334 Z13.087 A92.5805 
N737 X-230.255 Y-37.494 Z11.754 A93.1879 
N738 X-230.255 Y-37.772 Z10.494 A94.1976 
N739 X-230.255 Y-38.198 Z9.305 A95.7128 
N740 X-230.255 Y-38.777 Z8.177 A97.7776 
N741 X-230.255 Y-39.492 Z7.096 A100.3536 
N742 X-230.255 Y-40.314 Z6.041 A103.3675 
N743 X-230.255 Y-41.211 Z4.996 A106.7364 
N744 X-230.255 Y-42.151 Z3.945 A110.3764 
N745 X-230.255 Y-43.091 Z2.883 A114.1572 
N746 X-230.255 Y-43.992 Z1.809 A117.9706 
N747 X-230.255 Y-44.843 Z0.722 A121.7808 
N748 X-230.255 Y-45.633 Z-0.383 A125.5634 
N749 X-230.255 Y-46.353 Z-1.507 A129.3033 
N750 X-230.255 Y-47.002 Z-2.659 A133.0209 
N751 X-230.255 Y-47.581 Z-3.848 A136.7451 
N752 X-230.255 Y-48.085 Z-5.089 A140.5142 
N753 X-230.255 Y-48.507 Z-6.397 A144.3725 
N754 X-230.255 Y-48.833 Z-7.782 A148.3480 
N755 X-230.255 Y-49.041 Z-9.251 A152.4604 
N756 X-230.255 Y-49.096 Z-10.793 A156.6770 
N757 X-230.255 Y-48.967 Z-12.391 A160.9733 
N758 X-230.255 Y-48.618 Z-14.015 A165.2916 
N759 X-230.255 Y-48.010 Z-15.573 A169.4065 
N760 X-230.255 Y-47.126 Z-16.962 A173.0694 
N761 X-230.255 Y-45.968 Z-18.113 A176.1174 
N762 X-230.255 Y-44.552 Z-18.974 A178.4253 
N763 X-230.255 Y-42.891 Z-19.529 A179.9396 
N764 X-230.255 Y-40.996 Z-19.818 A180.7462 
N765 X-230.255 Y-38.870 Z-19.926 A181.0612 
N766 X-230.255 Y-36.516 Z-19.943 A181.1223 
N767 X-230.255 Y-33.944 Z-19.934 A181.1030 
N768 X-230.255 Y-31.173 Z-19.927 A181.0839 
N769 X-230.255 Y-28.233 Z-19.927 
N770 X-230.255 Y-25.159 Z-19.929 
N771 X-230.255 Y-21.995 Z-19.931 
N772 X-230.255 Y-18.793 Z-19.936 A181.0942 
N773 X-230.255 Y-15.602 Z-19.943 A181.1090 
N774 X-230.255 Y-12.473 Z-19.949 A181.1237 
N775 X-230.255 Y-9.453 Z-19.953 A181.1313 
N776 X-230.255 Y-6.583 Z-19.950 A181.1107 
N777 X-230.255 Y-3.897 Z-19.947 A181.0839 
N778 X-230.255 Y-1.416 Z-19.955 
N779 X-230.255 Y0.857 Z-19.989 A181.1692 
N780 X-230.255 Y2.899 Z-20.183 A181.7804 
N781 X-230.255 Y4.727 Z-20.572 A183.0679 
N782 X-230.255 Y6.365 Z-21.186 A185.1622 
N783 X-230.255 Y7.854 Z-21.994 A188.0019 
N784 X-230.255 Y9.238 Z-22.954 A191.4711 
N785 X-230.255 Y10.557 Z-24.007 A195.4039 
N786 X-230.255 Y11.836 Z-25.074 A199.5602 
N787 X-230.255 Y13.078 Z-26.084 A203.7083 
N788 X-230.255 Y14.291 Z-27.022 A207.7858 
N789 X-230.255 Y15.486 Z-27.883 A211.7735 
N790 X-230.255 Y16.664 Z-28.657 A215.6374 
N791 X-230.255 Y17.834 Z-29.345 A219.3846 
N792 X-230.255 Y19.002 Z-29.951 A223.0333 
N793 X-230.255 Y20.178 Z-30.476 A226.6123 
N794 X-230.255 Y21.372 Z-30.922 A230.1561 
N795 X-230.255 Y22.593 Z-31.287 A233.6895 
N796 X-230.255 Y23.848 Z-31.564 A237.2371 
N797 X-230.255 Y25.137 Z-31.745 A240.8034 
N798 X-230.255 Y26.454 Z-31.814 A244.3791 
N799 X-230.255 Y27.789 Z-31.759 A247.9436 
N800 X-230.255 Y29.118 Z-31.562 A251.4467 
N801 X-230.255 Y30.411 Z-31.212 A254.8163 
N802 X-230.255 Y31.638 Z-30.704 A257.9981 
N803 X-230.255 Y32.768 Z-30.039 A260.9210 
N804 X-230.255 Y33.763 Z-29.221 A263.5000 
N805 X-230.255 Y34.601 Z-28.263 A265.6789 
N806 X-230.255 Y35.275 Z-27.183 A267.4450 
N807 X-230.255 Y35.790 Z-25.998 A268.8136 
N808 X-230.255 Y36.158 Z-24.724 A269.8060 
N809 X-230.255 Y36.396 Z-23.380 A270.4603 
N810 X-230.255 Y36.532 Z-21.983 A270.8451 
N811 X-230.255 Y36.601 Z-20.550 A271.0492 
N812 X-230.255 Y36.639 Z-19.098 A271.1716 
N813 X-230.255 Y36.676 Z-17.646 A271.3014 
N814 X-230.255 Y36.740 Z-16.212 A271.5235 
N815 X-230.255 Y36.860 Z-14.813 A271.9328 
N816 X-230.255 Y37.061 Z-13.461 A272.6256 
N817 X-230.255 Y37.365 Z-12.165 A273.6817 
N818 X-230.255 Y37.781 Z-10.927 A275.1434 
N819 X-230.255 Y38.301 Z-9.745 A277.0101 
N820 X-230.255 Y38.922 Z-8.611 A279.2769 
N821 X-230.255 Y39.634 Z-7.512 A281.9313 
N822 X-230.255 Y40.419 Z-6.433 A284.9257 
N823 X-230.255 Y41.241 Z-5.366 A288.1576 
N824 X-230.255 Y42.073 Z-4.302 A291.5497 
N825 X-230.255 Y42.895 Z-3.233 A295.0470 
N826 X-230.255 Y43.684 Z-2.159 A298.5786 
N827 X-230.255 Y44.426 Z-1.078 A302.1080 
N828 X-230.255 Y45.112 Z0.013 A305.6139 
N829 X-230.255 Y45.738 Z1.118 A309.0900 
N830 X-230.255 Y46.303 Z2.246 A312.5564 
N831 X-230.255 Y46.803 Z3.402 A316.0285 
N832 X-230.255 Y47.236 Z4.598 A319.5312 
N833 X-230.255 Y47.593 Z5.843 A323.0913 
N834 X-230.255 Y47.864 Z7.148 A326.7330 
N835 X-230.255 Y48.031 Z8.515 A330.4665 
N836 X-230.255 Y48.074 Z9.949 A334.3047 
N837 X-230.255 Y47.963 Z11.441 A338.2324 
N838 X-230.255 Y47.668 Z12.965 A342.1950 
N839 X-230.255 Y47.156 Z14.484 A346.1142 
N840 X-230.255 Y46.408 Z15.985 A350.0012 
N841 X-230.255 Y45.402 Z17.401 A353.7212 
N842 X-230.255 Y44.122 Z18.561 A356.8082 
N843 X-230.255 Y42.586 Z19.377 A359.0105 
N844 X-230.255 Y40.818 Z19.881 A0.4102 
N845 X-230.255 Y38.830 Z20.152 A1.2058 
N846 X-230.255 Y36.628 Z20.261 A1.5802 
N847 X-230.255 Y34.219 Z20.273 A1.6938 
N848 X-230.255 Y31.619 Z20.241 A1.6831 
N849 X-230.255 Y28.849 Z20.201 A1.6461 
N850 X-230.255 Y25.942 Z20.174 
N851 X-230.255 Y22.932 Z20.148 
N852 X-230.255 Y19.865 Z20.127 A1.6602 
N853 X-230.255 Y16.790 Z20.108 A1.6873 
N854 X-230.255 Y13.754 Z20.086 A1.7033 
N855 X-230.255 Y10.803 Z20.058 A1.6975 
N856 X-230.255 Y7.974 Z20.019 A1.6461 
N857 X-230.255 Y5.307 Z20.001 
N858 X-230.255 Y2.810 Z19.985 
N859 X-230.255 Y0.511 Z20.065 A1.9523 
N860 X-230.255 Y-1.582 Z20.295 A2.7729 
N861 X-230.255 Y-3.479 Z20.704 A4.2316 
N862 X-230.255 Y-5.201 Z21.300 A6.3934 
N863 X-230.255 Y-6.784 Z22.074 A9.2543 
N864 X-230.255 Y-8.267 Z22.980 A12.6954 
N865 X-230.255 Y-9.674 Z23.930 A16.4551 
N866 X-230.255 Y-11.013 Z24.845 A20.2703 
N867 X-230.255 Y-12.297 Z25.707 A24.0712 
N868 X-230.255 Y-13.542 Z26.517 A27.8474 
N869 X-230.255 Y-14.756 Z27.263 A31.5585 
N870 X-230.255 Y-15.945 Z27.939 A35.1818 
N871 X-230.255 Y-17.118 Z28.544 A38.7160 
N872 X-230.255 Y-18.282 Z29.077 A42.1702 
N873 X-230.255 Y-19.447 Z29.542 A45.5692 
N874 X-230.255 Y-20.622 Z29.937 A48.9345 
N875 X-230.255 Y-21.815 Z30.261 A52.2905 
N876 X-230.255 Y-23.032 Z30.510 A55.6554 
N877 X-230.255 Y-24.277 Z30.675 A59.0389 
N878 X-230.255 Y-25.549 Z30.747 A62.4444 
N879 X-230.255 Y-26.840 Z30.713 A65.8567 
N880 X-230.255 Y-28.136 Z30.560 A69.2412 
N881 X-230.255 Y-29.418 Z30.276 A72.5587 
N882 X-230.255 Y-30.658 Z29.853 A75.7547 
N883 X-230.255 Y-31.826 Z29.286 A78.7546 
N884 X-230.255 Y-32.895 Z28.578 A81.5039 
N885 X-230.255 Y-33.843 Z27.738 A83.9607 
N886 X-230.255 Y-34.655 Z26.778 A86.0851 
N887 X-230.255 Y-35.318 Z25.713 A87.8470 
N888 X-230.255 Y-35.835 Z24.560 A89.2476 
N889 X-230.255 Y-36.218 Z23.336 A90.3225 
N890 X-230.255 Y-36.490 Z22.057 A91.1193 
N891 X-230.255 Y-36.671 Z20.740 A91.6935 
N892 X-230.255 Y-36.791 Z19.400 A92.1160 
N893 X-230.255 Y-36.880 Z18.052 A92.4762 
N894 X-230.255 Y-36.977 Z16.713 A92.8813 
N895 X-230.255 Y-37.109 Z15.395 A93.4266 
N896 X-230.255 Y-37.300 Z14.109 A94.1855 
N897 X-230.255 Y-37.563 Z12.865 A95.2127 
N898 X-230.255 Y-37.910 Z11.667 A96.5519 
N899 X-230.255 Y-38.347 Z10.514 A98.2398 
N900 X-230.255 Y-38.877 Z9.400 A100.2881 
N901 X-230.255 Y-39.486 Z8.319 A102.6744 
N902 X-230.255 Y-40.162 Z7.260 A105.3630 
N903 X-230.255 Y-40.888 Z6.212 A108.3160 
N904 X-230.255 Y-41.649 Z5.163 A111.4916 
N905 X-230.255 Y-42.419 Z4.108 A114.8239 
N906 X-230.255 Y-43.177 Z3.042 A118.2540 
N907 X-230.255 Y-43.908 Z1.960 A121.7443 
N908 X-230.255 Y-44.596 Z0.860 A125.2592 
N909 X-230.255 Y-45.232 Z-0.261 A128.7790 
N910 X-230.255 Y-45.810 Z-1.408 A132.3067 
N911 X-230.255 Y-46.324 Z-2.589 A135.8543 
N912 X-230.255 Y-46.770 Z-3.814 A139.4424 
N913 X-230.255 Y-47.139 Z-5.093 A143.1015 
N914 X-230.255 Y-47.418 Z-6.435 A146.8512 
N915 X-230.255 Y-47.589 Z-7.847 A150.7085 
N916 X-230.255 Y-47.624 Z-9.322 A154.6551 
N917 X-230.255 Y-47.494 Z-10.845 A158.6578 
N918 X-230.255 Y-47.168 Z-12.393 A162.6751 
N919 X-230.255 Y-46.617 Z-13.921 A166.6111 
N920 X-230.255 Y-45.816 Z-15.376 A170.3534 
N921 X-230.255 Y-44.755 Z-16.697 A173.7815 
N922 X-230.255 Y-43.430 Z-17.792 A176.6530 
N923 X-230.255 Y-41.854 Z-18.580 A178.7502 
N924 X-230.255 Y-40.047 Z-19.059 A180.0417 
N925 X-230.255 Y-38.021 Z-19.302 A180.7068 
N926 X-230.255 Y-35.785 Z-19.399 A180.9835 
N927 X-230.255 Y-33.348 Z-19.426 A181.0655 
N928 X-230.255 Y-30.727 Z-19.425 A181.0668 
N929 X-230.255 Y-27.949 Z-19.418 A181.0455 
N930 X-230.255 Y-25.047 Z-19.417 A181.0383 
N931 X-230.255 Y-22.060 Z-19.420 
N932 X-230.255 Y-19.033 Z-19.427 A181.0452 
N933 X-230.255 Y-16.012 Z-19.435 A181.0573 
N934 X-230.255 Y-13.045 Z-19.440 A181.0617 
N935 X-230.255 Y-10.175 Z-19.442 A181.0524 
N936 X-230.255 Y-7.439 Z-19.444 A181.0383 
N937 X-230.255 Y-4.868 Z-19.452 
N938 X-230.255 Y-2.475 Z-19.466 A181.0608 
N939 X-230.255 Y-0.288 Z-19.593 A181.4555 
N940 X-230.255 Y1.698 Z-19.888 A182.4220 
N941 X-230.255 Y3.494 Z-20.407 A184.1806 
N942 X-230.255 Y5.132 Z-21.131 A186.7203 
N943 X-230.255 Y6.647 Z-21.998 A189.8701 
N944 X-230.255 Y8.068 Z-22.936 A193.4189 
N945 X-230.255 Y9.424 Z-23.901 A197.2276 
N946 X-230.255 Y10.729 Z-24.848 A201.1473 
N947 X-230.255 Y11.994 Z-25.743 A205.0603 
N948 X-230.255 Y13.230 Z-26.575 A208.9255 
N949 X-230.255 Y14.442 Z-27.335 A212.7114 
N950 X-230.255 Y15.636 Z-28.016 A216.3940 
N951 X-230.255 Y16.820 Z-28.619 A219.9820 
N952 X-230.255 Y18.000 Z-29.144 A223.4863 
N953 X-230.255 Y19.184 Z-29.593 A226.9282 
N954 X-230.255 Y20.380 Z-29.964 A230.3281 
N955 X-230.255 Y21.592 Z-30.253 A233.6998 
N956 X-230.255 Y22.822 Z-30.456 A237.0533 
N957 X-230.255 Y24.067 Z-30.563 A240.3857 
N958 X-230.255 Y25.322 Z-30.565 A243.6828 
N959 X-230.255 Y26.575 Z-30.454 A246.9240 
N960 X-230.255 Y27.809 Z-30.219 A250.0756 
N961 X-230.255 Y29.003 Z-29.854 A253.0917 
N962 X-230.255 Y30.138 Z-29.358 A255.9362 
N963 X-230.255 Y31.196 Z-28.731 A258.5723 
N964 X-230.255 Y32.156 Z-27.980 A260.9618 
N965 X-230.255 Y33.008 Z-27.113 A263.0804 
N966 X-230.255 Y33.745 Z-26.143 A264.9230 
N967 X-230.255 Y34.370 Z-25.083 A266.4978 
N968 X-230.255 Y34.887 Z-23.947 A267.8176 
N969 X-230.255 Y35.306 Z-22.750 A268.9102 
N970 X-230.255 Y35.646 Z-21.508 A269.8241 
N971 X-230.255 Y35.929 Z-20.235 A270.6212 
N972 X-230.255 Y36.178 Z-18.946 A271.3685 
N973 X-230.255 Y36.415 Z-17.655 A272.1287 
N974 X-230.255 Y36.659 Z-16.375 A272.9645 
N975 X-230.255 Y36.931 Z-15.115 A273.9415 
N976 X-230.255 Y37.249 Z-13.884 A275.1194 
N977 X-230.255 Y37.625 Z-12.687 A276.5428 
N978 X-230.255 Y38.062 Z-11.525 A278.2300 
N979 X-230.255 Y38.559 Z-10.397 A280.1890 
N980 X-230.255 Y39.117 Z-9.296 A282.4253 
N981 X-230.255 Y39.730 Z-8.216 A284.9287 
N982 X-230.255 Y40.383 Z-7.149 A287.6609 
N983 X-230.255 Y41.060 Z-6.088 A290.5784 
N984 X-230.255 Y41.747 Z-5.025 A293.6479 
N985 X-230.255 Y42.425 Z-3.958 A296.8169 
N986 X-230.255 Y43.082 Z-2.883 A300.0494 
N987 X-230.255 Y43.704 Z-1.797 A303.3172 
N988 X-230.255 Y44.283 Z-0.699 A306.5975 
N989 X-230.255 Y44.813 Z0.418 A309.8907 
N990 X-230.255 Y45.290 Z1.559 A313.2033 
N991 X-230.255 Y45.708 Z2.729 A316.5411 
N992 X-230.255 Y46.061 Z3.937 A319.9185 
N993 X-230.255 Y46.339 Z5.187 A323.3494 
N994 X-230.255 Y46.532 Z6.488 A326.8484 
N995 X-230.255 Y46.621 Z7.841 A330.4208 
N996 X-230.255 Y46.589 Z9.249 A334.0774 
N997 X-230.255 Y46.410 Z10.702 A337.8023 
N998 X-230.255 Y46.056 Z12.182 A341.5524 
N999 X-230.255 Y45.500 Z13.655 A345.2645 
N1000 X-230.255 Y44.725 Z15.109 A348.9415 
N1001 X-230.255 Y43.709 Z16.499 A352.5055 
N1002 X-230.255 Y42.435 Z17.702 A355.6330 
N1003 X-230.255 Y40.915 Z18.639 A358.1141 
N1004 X-230.255 Y39.167 Z19.297 A359.9094 
N1005 X-230.255 Y37.209 Z19.694 A1.0546 
N1006 X-230.255 Y35.055 Z19.875 A1.6386 
N1007 X-230.255 Y32.717 Z19.910 A1.8316 
N1008 X-230.255 Y30.212 Z19.876 A1.8290 
N1009 X-230.255 Y27.559 Z19.827 A1.7805 
N1010 X-230.255 Y24.790 Z19.796 A1.7784 
N1011 X-230.255 Y21.936 Z19.766 
N1012 X-230.255 Y19.042 Z19.741 A1.7937 
N1013 X-230.255 Y16.151 Z19.717 A1.8113 
N1014 X-230.255 Y13.306 Z19.689 A1.8170 
N1015 X-230.255 Y10.546 Z19.652 A1.7860 
N1016 X-230.255 Y7.909 Z19.626 A1.7784 
N1017 X-230.255 Y5.414 Z19.605 
N1018 X-230.255 Y3.080 Z19.644 A1.9702 
N1019 X-230.255 Y0.930 Z19.849 A2.7157 
N1020 X-230.255 Y-1.044 Z20.249 A4.1496 
N1021 X-230.255 Y-2.857 Z20.841 A6.3094 
N1022 X-230.255 Y-4.535 Z21.573 A9.0678 
N1023 X-230.255 Y-6.103 Z22.391 A12.2730 
N1024 X-230.255 Y-7.585 Z23.248 A15.7761 
N1025 X-230.255 Y-8.995 Z24.091 A19.4053 
N1026 X-230.255 Y-10.342 Z24.888 A23.0453 
N1027 X-230.255 Y-11.640 Z25.636 A26.6715 
N1028 X-230.255 Y-12.900 Z26.329 A30.2571 
N1029 X-230.255 Y-14.129 Z26.957 A33.7720 
N1030 X-230.255 Y-15.335 Z27.520 A37.2111 
N1031 X-230.255 Y-16.525 Z28.015 A40.5753 
N1032 X-230.255 Y-17.707 Z28.442 A43.8767 
N1033 X-230.255 Y-18.888 Z28.802 A47.1314 
N1034 X-230.255 Y-20.075 Z29.093 A50.3522 
N1035 X-230.255 Y-21.272 Z29.311 A53.5518 
N1036 X-230.255 Y-22.479 Z29.451 A56.7355 
N1037 X-230.255 Y-23.697 Z29.507 A59.9014 
N1038 X-230.255 Y-24.920 Z29.472 A63.0410 
N1039 X-230.255 Y-26.139 Z29.336 A66.1360 
N1040 X-230.255 Y-27.341 Z29.094 A69.1580 
N1041 X-230.255 Y-28.511 Z28.739 A72.0789 
N1042 X-230.255 Y-29.633 Z28.271 A74.8665 
N1043 X-230.255 Y-30.689 Z27.690 A77.4855 
N1044 X-230.255 Y-31.667 Z27.000 A79.9107 
N1045 X-230.255 Y-32.556 Z26.208 A82.1264 
N1046 X-230.255 Y-33.349 Z25.325 A84.1234 
N1047 X-230.255 Y-34.046 Z24.362 A85.9002 
N1048 X-230.255 Y-34.648 Z23.331 A87.4710 
N1049 X-230.255 Y-35.166 Z22.245 A88.8637 
N1050 X-230.255 Y-35.613 Z21.117 A90.1128 
N1051 X-230.255 Y-36.001 Z19.960 A91.2582 
N1052 X-230.255 Y-36.347 Z18.785 A92.3463 
N1053 X-230.255 Y-36.669 Z17.604 A93.4297 
N1054 X-230.255 Y-36.986 Z16.427 A94.5620 
N1055 X-230.255 Y-37.312 Z15.262 A95.7901 
N1056 X-230.255 Y-37.659 Z14.114 A97.1533 
N1057 X-230.255 Y-38.036 Z12.989 A98.6838 
N1058 X-230.255 Y-38.453 Z11.887 A100.4085 
N1059 X-230.255 Y-38.912 Z10.807 A102.3449 
N1060 X-230.255 Y-39.412 Z9.746 A104.4948 
N1061 X-230.255 Y-39.951 Z8.700 A106.8516 
N1062 X-230.255 Y-40.522 Z7.661 A109.4043 
N1063 X-230.255 Y-41.117 Z6.624 A112.1362 
N1064 X-230.255 Y-41.726 Z5.582 A115.0205 
N1065 X-230.255 Y-42.335 Z4.531 A118.0286 
N1066 X-230.255 Y-42.934 Z3.464 A121.1378 
N1067 X-230.255 Y-43.512 Z2.379 A124.3238 
N1068 X-230.255 Y-44.057 Z1.271 A127.5670 
N1069 X-230.255 Y-44.561 Z0.137 A130.8588 
N1070 X-230.255 Y-45.015 Z-1.029 A134.1976 
N1071 X-230.255 Y-45.411 Z-2.233 A137.5888 
N1072 X-230.255 Y-45.742 Z-3.483 A141.0476 
N1073 X-230.255 Y-45.994 Z-4.785 A144.5880 
N1074 X-230.255 Y-46.154 Z-6.147 A148.2215 
N1075 X-230.255 Y-46.198 Z-7.567 A151.9479 
N1076 X-230.255 Y-46.102 Z-9.037 A155.7396 
N1077 X-230.255 Y-45.838 Z-10.539 A159.5633 
N1078 X-230.255 Y-45.377 Z-12.046 A163.3651 
N1079 X-230.255 Y-44.697 Z-13.526 A167.0866 
N1080 X-230.255 Y-43.780 Z-14.949 A170.6856 
N1081 X-230.255 Y-42.612 Z-16.239 A173.9897 
N1082 X-230.255 Y-41.190 Z-17.291 A176.7153 
N1083 X-230.255 Y-39.532 Z-18.042 A178.6847 
N1084 X-230.255 Y-37.659 Z-18.515 A179.9430 
N1085 X-230.255 Y-35.586 Z-18.775 A180.6528 
N1086 X-230.255 Y-33.327 Z-18.894 A180.9870 
N1087 X-230.255 Y-30.895 Z-18.927 A181.0899 
N1088 X-230.255 Y-28.312 Z-18.923 A181.0805 
N1089 X-230.255 Y-25.606 Z-18.912 A181.0450 
N1090 X-230.255 Y-22.813 Z-18.916 A181.0425 
N1091 X-230.255 Y-19.967 Z-18.921 
N1092 X-230.255 Y-17.115 Z-18.932 A181.0559 
N1093 X-230.255 Y-14.297 Z-18.940 A181.0554 
N1094 X-230.255 Y-11.554 Z-18.944 A181.0425 
N1095 X-230.255 Y-8.924 Z-18.954 
N1096 X-230.255 Y-6.429 Z-18.964 
N1097 X-230.255 Y-4.094 Z-19.005 A181.1510 
N1098 X-230.255 Y-1.941 Z-19.161 A181.6432 
N1099 X-230.255 Y0.031 Z-19.489 A182.7327 
N1100 X-230.255 Y1.834 Z-20.041 A184.6291 
N1101 X-230.255 Y3.499 Z-20.795 A187.3073 
N1102 X-230.255 Y5.054 Z-21.667 A190.5332 
N1103 X-230.255 Y6.520 Z-22.567 A194.0401 
N1104 X-230.255 Y7.915 Z-23.463 A197.7082 
N1105 X-230.255 Y9.257 Z-24.333 A201.4631 
N1106 X-230.255 Y10.557 Z-25.155 A205.2252 
N1107 X-230.255 Y11.823 Z-25.917 A208.9475 
N1108 X-230.255 Y13.062 Z-26.610 A212.5968 
N1109 X-230.255 Y14.280 Z-27.227 A216.1513 
N1110 X-230.255 Y15.483 Z-27.768 A219.6150 
N1111 X-230.255 Y16.676 Z-28.232 A222.9939 
N1112 X-230.255 Y17.866 Z-28.620 A226.3001 
N1113 X-230.255 Y19.057 Z-28.931 A229.5463 
N1114 X-230.255 Y20.251 Z-29.161 A232.7387 
N1115 X-230.255 Y21.449 Z-29.306 A235.8807 
N1116 X-230.255 Y22.647 Z-29.362 A238.9690 
N1117 X-230.255 Y23.840 Z-29.324 A241.9933 
N1118 X-230.255 Y25.019 Z-29.186 A244.9396 
N1119 X-230.255 Y26.176 Z-28.945 A247.7920 
N1120 X-230.255 Y27.297 Z-28.598 A250.5294 
N1121 X-230.255 Y28.373 Z-28.145 A253.1333 
N1122 X-230.255 Y29.394 Z-27.589 A255.5902 
N1123 X-230.255 Y30.350 Z-26.934 A257.8877 
N1124 X-230.255 Y31.236 Z-26.187 A260.0188 
N1125 X-230.255 Y32.047 Z-25.356 A261.9844 
N1126 X-230.255 Y32.786 Z-24.449 A263.7935 
N1127 X-230.255 Y33.453 Z-23.478 A265.4594 
N1128 X-230.255 Y34.054 Z-22.453 A267.0010 
N1129 X-230.255 Y34.597 Z-21.386 A268.4446 
N1130 X-230.255 Y35.092 Z-20.287 A269.8215 
N1131 X-230.255 Y35.550 Z-19.166 A271.1656 
N1132 X-230.255 Y35.982 Z-18.035 A272.5122 
N1133 X-230.255 Y36.401 Z-16.900 A273.8977 
N1134 X-230.255 Y36.817 Z-15.770 A275.3584 
N1135 X-230.255 Y37.242 Z-14.649 A276.9285 
N1136 X-230.255 Y37.683 Z-13.541 A278.6341 
N1137 X-230.255 Y38.145 Z-12.448 A280.4899 
N1138 X-230.255 Y38.629 Z-11.368 A282.5068 
N1139 X-230.255 Y39.137 Z-10.301 A284.6920 
N1140 X-230.255 Y39.667 Z-9.242 A287.0415 
N1141 X-230.255 Y40.211 Z-8.189 A289.5391 
N1142 X-230.255 Y40.764 Z-7.136 A292.1713 
N1143 X-230.255 Y41.318 Z-6.081 A294.9191 
N1144 X-230.255 Y41.863 Z-5.020 A297.7574 
N1145 X-230.255 Y42.391 Z-3.950 A300.6698 
N1146 X-230.255 Y42.893 Z-2.869 A303.6368 
N1147 X-230.255 Y43.362 Z-1.774 A306.6441 
N1148 X-230.255 Y43.793 Z-0.660 A309.6916 
N1149 X-230.255 Y44.181 Z0.476 A312.7821 
N1150 X-230.255 Y44.519 Z1.641 A315.9187 
N1151 X-230.255 Y44.801 Z2.839 A319.1090 
N1152 X-230.255 Y45.018 Z4.076 A322.3597 
N1153 X-230.255 Y45.157 Z5.357 A325.6805 
N1154 X-230.255 Y45.204 Z6.684 A329.0760 
N1155 X-230.255 Y45.143 Z8.061 A332.5541 
N1156 X-230.255 Y44.953 Z9.484 A336.1138 
N1157 X-230.255 Y44.607 Z10.940 A339.7267 
N1158 X-230.255 Y44.081 Z12.405 A343.3461 
N1159 X-230.255 Y43.352 Z13.857 A346.9407 
N1160 X-230.255 Y42.405 Z15.283 A350.5195 
N1161 X-230.255 Y41.219 Z16.601 A353.8874 
N1162 X-230.255 Y39.789 Z17.701 A356.7536 
N1163 X-230.255 Y38.133 Z18.532 A358.9772 
N1164 X-230.255 Y36.273 Z19.088 A0.5292 
N1165 X-230.255 Y34.230 Z19.390 A1.4388 
N1166 X-230.255 Y32.020 Z19.497 A1.8341 
N1167 X-230.255 Y29.659 Z19.490 A1.9158 
N1168 X-230.255 Y27.164 Z19.442 A1.8798 
N1169 X-230.255 Y24.564 Z19.399 A1.8528 
N1170 X-230.255 Y21.887 Z19.366 
N1171 X-230.255 Y19.171 Z19.336 A1.8577 
N1172 X-230.255 Y16.456 Z19.306 A1.8607 
N1173 X-230.255 Y13.780 Z19.274 A1.8528 
N1174 X-230.255 Y11.178 Z19.247 
N1175 X-230.255 Y8.677 Z19.221 
N1176 X-230.255 Y6.303 Z19.230 A1.9664 
N1177 X-230.255 Y4.081 Z19.350 A2.4470 
N1178 X-230.255 Y2.015 Z19.637 A3.5031 
N1179 X-230.255 Y0.098 Z20.136 A5.3282 
N1180 X-230.255 Y-1.692 Z20.820 A7.8884 
N1181 X-230.255 Y-3.374 Z21.604 A10.9476 
N1182 X-230.255 Y-4.961 Z22.403 A14.2504 
N1183 X-230.255 Y-6.466 Z23.187 A17.6856 
N1184 X-230.255 Y-7.903 Z23.940 A21.1892 
N1185 X-230.255 Y-9.281 Z24.646 A24.6982 
N1186 X-230.255 Y-10.612 Z25.298 A28.1772 
N1187 X-230.255 Y-11.902 Z25.889 A31.5993 
N1188 X-230.255 Y-13.159 Z26.415 A34.9447 
N1189 X-230.255 Y-14.389 Z26.874 A38.2133 
N1190 X-230.255 Y-15.600 Z27.267 A41.4075 
N1191 X-230.255 Y-16.797 Z27.592 A44.5357 
N1192 X-230.255 Y-17.986 Z27.851 A47.6086 
N1193 X-230.255 Y-19.171 Z28.041 A50.6334 
N1194 X-230.255 Y-20.352 Z28.159 A53.6158 
N1195 X-230.255 Y-21.530 Z28.204 A56.5575 
N1196 X-230.255 Y-22.703 Z28.171 A59.4544 
N1197 X-230.255 Y-23.865 Z28.057 A62.2989 
N1198 X-230.255 Y-25.011 Z27.858 A65.0804 
N1199 X-230.255 Y-26.133 Z27.572 A67.7852 
N1200 X-230.255 Y-27.223 Z27.198 A70.4004 
N1201 X-230.255 Y-28.273 Z26.739 A72.9153 
N1202 X-230.255 Y-29.275 Z26.195 A75.3204 
N1203 X-230.255 Y-30.225 Z25.571 A77.6097 
N1204 X-230.255 Y-31.118 Z24.874 A79.7823 
N1205 X-230.255 Y-31.953 Z24.109 A81.8419 
N1206 X-230.255 Y-32.729 Z23.284 A83.7957 
N1207 X-230.255 Y-33.449 Z22.407 A85.6552 
N1208 X-230.255 Y-34.117 Z21.486 A87.4370 
N1209 X-230.255 Y-34.737 Z20.530 A89.1599 
N1210 X-230.255 Y-35.316 Z19.547 A90.8447 
N1211 X-230.255 Y-35.860 Z18.543 A92.5140 
N1212 X-230.255 Y-36.378 Z17.526 A94.1905 
N1213 X-230.255 Y-36.876 Z16.501 A95.8963 
N1214 X-230.255 Y-37.360 Z15.473 A97.6521 
N1215 X-230.255 Y-37.837 Z14.446 A99.4758 
N1216 X-230.255 Y-38.311 Z13.422 A101.3815 
N1217 X-230.255 Y-38.786 Z12.402 A103.3815 
N1218 X-230.255 Y-39.265 Z11.386 A105.4845 
N1219 X-230.255 Y-39.747 Z10.373 A107.6949 
N1220 X-230.255 Y-40.234 Z9.360 A110.0143 
N1221 X-230.255 Y-40.723 Z8.346 A112.4426 
N1222 X-230.255 Y-41.212 Z7.326 A114.9770 
N1223 X-230.255 Y-41.697 Z6.296 A117.6118 
N1224 X-230.255 Y-42.174 Z5.254 A120.3410 
N1225 X-230.255 Y-42.636 Z4.194 A123.1585 
N1226 X-230.255 Y-43.078 Z3.113 A126.0564 
N1227 X-230.255 Y-43.492 Z2.007 A129.0279 
N1228 X-230.255 Y-43.870 Z0.872 A132.0693 
N1229 X-230.255 Y-44.204 Z-0.295 A135.1790 
N1230 X-230.255 Y-44.486 Z-1.501 A138.3601 
N1231 X-230.255 Y-44.706 Z-2.750 A141.6205 
N1232 X-230.255 Y-44.851 Z-4.048 A144.9679 
N1233 X-230.255 Y-44.906 Z-5.399 A148.4085 
N1234 X-230.255 Y-44.852 Z-6.801 A151.9374 
N1235 X-230.255 Y-44.663 Z-8.245 A155.5300 
N1236 X-230.255 Y-44.316 Z-9.716 A159.1565 
N1237 X-230.255 Y-43.784 Z-11.192 A162.7721 
N1238 X-230.255 Y-43.048 Z-12.649 A166.3400 
N1239 X-230.255 Y-42.091 Z-14.063 A169.8368 
N1240 X-230.255 Y-40.898 Z-15.368 A173.1108 
N1241 X-230.255 Y-39.464 Z-16.466 A175.9025 
N1242 X-230.255 Y-37.804 Z-17.296 A178.0417 
N1243 X-230.255 Y-35.941 Z-17.862 A179.5266 
N1244 X-230.255 Y-33.895 Z-18.202 A180.4427 
N1245 X-230.255 Y-31.684 Z-18.368 A180.9060 
N1246 X-230.255 Y-29.325 Z-18.421 A181.0601 
N1247 X-230.255 Y-26.840 Z-18.420 A181.0572 
N1248 X-230.255 Y-24.257 Z-18.411 A181.0219 
N1249 X-230.255 Y-21.607 Z-18.413 A181.0127 
N1250 X-230.255 Y-18.927 Z-18.424 A181.0248 
N1251 X-230.255 Y-16.254 Z-18.435 A181.0301 
N1252 X-230.255 Y-13.627 Z-18.440 A181.0127 
N1253 X-230.255 Y-11.081 Z-18.453 
N1254 X-230.255 Y-8.635 Z-18.466 
N1255 X-230.255 Y-6.319 Z-18.522 A181.1598 
N1256 X-230.255 Y-4.159 Z-18.690 A181.6906 
N1257 X-230.255 Y-2.158 Z-19.004 A182.7440 
N1258 X-230.255 Y-0.308 Z-19.513 A184.5084 
N1259 X-230.255 Y1.413 Z-20.219 A187.0412 
N1260 X-230.255 Y3.035 Z-21.059 A190.1776 
N1261 X-230.255 Y4.571 Z-21.932 A193.6179 
N1262 X-230.255 Y6.033 Z-22.776 A197.1582 
N1263 X-230.255 Y7.435 Z-23.584 A200.7565 
N1264 X-230.255 Y8.788 Z-24.344 A204.3673 
N1265 X-230.255 Y10.100 Z-25.043 A207.9389 
N1266 X-230.255 Y11.378 Z-25.674 A211.4392 
N1267 X-230.255 Y12.627 Z-26.231 A214.8460 
N1268 X-230.255 Y13.851 Z-26.713 A218.1556 
N1269 X-230.255 Y15.056 Z-27.121 A221.3742 
N1270 X-230.255 Y16.248 Z-27.455 A224.5081 
N1271 X-230.255 Y17.428 Z-27.716 A227.5665 
N1272 X-230.255 Y18.601 Z-27.901 A230.5557 
N1273 X-230.255 Y19.766 Z-28.011 A233.4789 
N1274 X-230.255 Y20.922 Z-28.043 A236.3371 
N1275 X-230.255 Y22.066 Z-27.995 A239.1287 
N1276 X-230.255 Y23.195 Z-27.866 A241.8498 
N1277 X-230.255 Y24.303 Z-27.655 A244.4965 
N1278 X-230.255 Y25.387 Z-27.363 A247.0647 
N1279 X-230.255 Y26.441 Z-26.990 A249.5500 
N1280 X-230.255 Y27.460 Z-26.538 A251.9499 
N1281 X-230.255 Y28.441 Z-26.010 A254.2635 
N1282 X-230.255 Y29.380 Z-25.410 A256.4915 
N1283 X-230.255 Y30.274 Z-24.743 A258.6367 
N1284 X-230.255 Y31.123 Z-24.015 A260.7046 
N1285 X-230.255 Y31.926 Z-23.231 A262.7030 
N1286 X-230.255 Y32.685 Z-22.398 A264.6413 
N1287 X-230.255 Y33.401 Z-21.523 A266.5314 
N1288 X-230.255 Y34.077 Z-20.612 A268.3869 
N1289 X-230.255 Y34.716 Z-19.673 A270.2221 
N1290 X-230.255 Y35.324 Z-18.710 A272.0526 
N1291 X-230.255 Y35.905 Z-17.729 A273.8943 
N1292 X-230.255 Y36.462 Z-16.736 A275.7617 
N1293 X-230.255 Y37.001 Z-15.733 A277.6695 
N1294 X-230.255 Y37.526 Z-14.725 A279.6321 
N1295 X-230.255 Y38.040 Z-13.712 A281.6605 
N1296 X-230.255 Y38.546 Z-12.697 A283.7632 
N1297 X-230.255 Y39.045 Z-11.678 A285.9479 
N1298 X-230.255 Y39.538 Z-10.656 A288.2182 
N1299 X-230.255 Y40.024 Z-9.629 A290.5716 
N1300 X-230.255 Y40.500 Z-8.597 A293.0055 
N1301 X-230.255 Y40.964 Z-7.556 A295.5165 
N1302 X-230.255 Y41.411 Z-6.507 A298.0960 
N1303 X-230.255 Y41.839 Z-5.446 A300.7385 
N1304 X-230.255 Y42.242 Z-4.372 A303.4376 
N1305 X-230.255 Y42.616 Z-3.283 A306.1853 
N1306 X-230.255 Y42.955 Z-2.178 A308.9794 
N1307 X-230.255 Y43.257 Z-1.051 A311.8234 
N1308 X-230.255 Y43.517 Z0.100 A314.7213 
N1309 X-230.255 Y43.727 Z1.279 A317.6784 
N1310 X-230.255 Y43.882 Z2.492 A320.6984 
N1311 X-230.255 Y43.970 Z3.740 A323.7827 
N1312 X-230.255 Y43.979 Z5.026 A326.9358 
N1313 X-230.255 Y43.897 Z6.353 A330.1622 
N1314 X-230.255 Y43.707 Z7.722 A333.4717 
N1315 X-230.255 Y43.390 Z9.130 A336.8595 
N1316 X-230.255 Y42.924 Z10.563 A340.2999 
N1317 X-230.255 Y42.284 Z12.000 A343.7538 
N1318 X-230.255 Y41.451 Z13.418 A347.1861 
N1319 X-230.255 Y40.412 Z14.797 A350.5792 
N1320 X-230.255 Y39.150 Z16.070 A353.7757 
N1321 X-230.255 Y37.666 Z17.155 A356.5668 
N1322 X-230.255 Y35.974 Z18.004 A358.8210 
N1323 X-230.255 Y34.098 Z18.590 A0.4502 
N1324 X-230.255 Y32.060 Z18.916 A1.4276 
N1325 X-230.255 Y29.883 Z19.037 A1.8683 
N1326 X-230.255 Y27.582 Z19.038 A1.9790 
N1327 X-230.255 Y25.180 Z18.995 A1.9680 
N1328 X-230.255 Y22.701 Z18.952 A1.9509 
N1329 X-230.255 Y20.176 Z18.917 A1.9545 
N1330 X-230.255 Y17.638 Z18.881 A1.9505 
N1331 X-230.255 Y15.121 Z18.844 A1.9359 
N1332 X-230.255 Y12.657 Z18.815 
N1333 X-230.255 Y10.262 Z18.787 
N1334 X-230.255 Y7.976 Z18.849 A2.2286 
N1335 X-230.255 Y5.811 Z19.027 A2.9235 
N1336 X-230.255 Y3.777 Z19.356 A4.1678 
N1337 X-230.255 Y1.866 Z19.858 A6.0708 
N1338 X-230.255 Y0.061 Z20.523 A8.6430 
N1339 X-230.255 Y-1.655 Z21.281 A11.7040 
N1340 X-230.255 Y-3.289 Z22.043 A14.9836 
N1341 X-230.255 Y-4.844 Z22.764 A18.3228 
N1342 X-230.255 Y-6.332 Z23.441 A21.6943 
N1343 X-230.255 Y-7.761 Z24.067 A25.0625 
N1344 X-230.255 Y-9.139 Z24.633 A28.3867 
N1345 X-230.255 Y-10.472 Z25.135 A31.6420 
N1346 X-230.255 Y-11.765 Z25.570 A34.8127 
N1347 X-230.255 Y-13.023 Z25.938 A37.8975 
N1348 X-230.255 Y-14.254 Z26.240 A40.9013 
N1349 X-230.255 Y-15.462 Z26.478 A43.8299 
N1350 X-230.255 Y-16.650 Z26.651 A46.6924 
N1351 X-230.255 Y-17.824 Z26.762 A49.4965 
N1352 X-230.255 Y-18.984 Z26.809 A52.2483 
N1353 X-230.255 Y-20.131 Z26.793 A54.9517 
N1354 X-230.255 Y-21.264 Z26.712 A57.6082 
N1355 X-230.255 Y-22.381 Z26.567 A60.2176 
N1356 X-230.255 Y-23.481 Z26.357 A62.7782 
N1357 X-230.255 Y-24.560 Z26.082 A65.2881 
N1358 X-230.255 Y-25.614 Z25.743 A67.7459 
N1359 X-230.255 Y-26.642 Z25.342 A70.1511 
N1360 X-230.255 Y-27.639 Z24.882 A72.5044 
N1361 X-230.255 Y-28.605 Z24.364 A74.8075 
N1362 X-230.255 Y-29.537 Z23.793 A77.0633 
N1363 X-230.255 Y-30.435 Z23.173 A79.2761 
N1364 X-230.255 Y-31.298 Z22.506 A81.4515 
N1365 X-230.255 Y-32.126 Z21.798 A83.5957 
N1366 X-230.255 Y-32.920 Z21.052 A85.7159 
N1367 X-230.255 Y-33.681 Z20.273 A87.8199 
N1368 X-230.255 Y-34.411 Z19.464 A89.9154 
N1369 X-230.255 Y-35.110 Z18.629 A92.0104 
N1370 X-230.255 Y-35.780 Z17.772 A94.1128 
N1371 X-230.255 Y-36.424 Z16.895 A96.2295 
N1372 X-230.255 Y-37.042 Z16.000 A98.3673 
N1373 X-230.255 Y-37.637 Z15.091 A100.5322 
N1374 X-230.255 Y-38.209 Z14.168 A102.7289 
N1375 X-230.255 Y-38.759 Z13.232 A104.9616 
N1376 X-230.255 Y-39.288 Z12.285 A107.2337 
N1377 X-230.255 Y-39.796 Z11.327 A109.5480 
N1378 X-230.255 Y-40.284 Z10.357 A111.9068 
N1379 X-230.255 Y-40.750 Z9.375 A114.3123 
N1380 X-230.255 Y-41.195 Z8.379 A116.7665 
N1381 X-230.255 Y-41.618 Z7.368 A119.2715 
N1382 X-230.255 Y-42.015 Z6.341 A121.8295 
N1383 X-230.255 Y-42.387 Z5.294 A124.4430 
N1384 X-230.255 Y-42.729 Z4.226 A127.1145 
N1385 X-230.255 Y-43.039 Z3.132 A129.8467 
N1386 X-230.255 Y-43.311 Z2.011 A132.6423 
N1387 X-230.255 Y-43.539 Z0.859 A135.5028 
N1388 X-230.255 Y-43.715 Z-0.328 A138.4294 
N1389 X-230.255 Y-43.832 Z-1.552 A141.4272 
N1390 X-230.255 Y-43.879 Z-2.818 A144.5052 
N1391 X-230.255 Y-43.843 Z-4.130 A147.6722 
N1392 X-230.255 Y-43.710 Z-5.488 A150.9282 
N1393 X-230.255 Y-43.457 Z-6.885 A154.2556 
N1394 X-230.255 Y-43.063 Z-8.310 A157.6302 
N1395 X-230.255 Y-42.507 Z-9.746 A161.0182 
N1396 X-230.255 Y-41.767 Z-11.170 A164.3783 
N1397 X-230.255 Y-40.829 Z-12.559 A167.6789 
N1398 X-230.255 Y-39.680 Z-13.875 A170.8457 
N1399 X-230.255 Y-38.310 Z-15.054 A173.7241 
N1400 X-230.255 Y-36.728 Z-16.043 A176.1798 
N1401 X-230.255 Y-34.949 Z-16.812 A178.1282 
N1402 X-230.255 Y-32.995 Z-17.350 A179.5239 
N1403 X-230.255 Y-30.889 Z-17.671 A180.3747 
N1404 X-230.255 Y-28.652 Z-17.824 A180.7883 
N1405 X-230.255 Y-26.306 Z-17.877 A180.9282 
N1406 X-230.255 Y-23.876 Z-17.889 A180.9523 
N1407 X-230.255 Y-21.390 Z-17.891 A180.9458 
N1408 X-230.255 Y-18.881 Z-17.895 A180.9358 
N1409 X-230.255 Y-16.379 Z-17.894 A180.9027 
N1410 X-230.255 Y-13.921 Z-17.906 
N1411 X-230.255 Y-11.524 Z-17.920 
N1412 X-230.255 Y-9.218 Z-17.987 A181.0780 
N1413 X-230.255 Y-7.031 Z-18.178 A181.6770 
N1414 X-230.255 Y-4.970 Z-18.506 A182.7830 
N1415 X-230.255 Y-3.038 Z-18.981 A184.4625 
N1416 X-230.255 Y-1.222 Z-19.591 A186.7132 
N1417 X-230.255 Y0.494 Z-20.307 A189.4752 
N1418 X-230.255 Y2.126 Z-21.073 A192.5883 
N1419 X-230.255 Y3.681 Z-21.830 A195.8638 
N1420 X-230.255 Y5.166 Z-22.552 A199.2064 
N1421 X-230.255 Y6.594 Z-23.231 A202.5763 
N1422 X-230.255 Y7.970 Z-23.855 A205.9257 
N1423 X-230.255 Y9.301 Z-24.418 A209.2194 
N1424 X-230.255 Y10.591 Z-24.914 A212.4375 
N1425 X-230.255 Y11.847 Z-25.343 A215.5680 
N1426 X-230.255 Y13.073 Z-25.706 A218.6127 
N1427 X-230.255 Y14.275 Z-26.003 A221.5772 
N1428 X-230.255 Y15.456 Z-26.236 A224.4685 
N1429 X-230.255 Y16.620 Z-26.405 A227.2939 
N1430 X-230.255 Y17.770 Z-26.512 A230.0587 
N1431 X-230.255 Y18.905 Z-26.555 A232.7676 
N1432 X-230.255 Y20.027 Z-26.536 A235.4244 
N1433 X-230.255 Y21.135 Z-26.455 A238.0322 
N1434 X-230.255 Y22.227 Z-26.311 A240.5935 
N1435 X-230.255 Y23.302 Z-26.106 A243.1105 
N1436 X-230.255 Y24.358 Z-25.840 A245.5854 
N1437 X-230.255 Y25.394 Z-25.515 A248.0202 
N1438 X-230.255 Y26.407 Z-25.133 A250.4167 
N1439 X-230.255 Y27.396 Z-24.694 A252.7772 
N1440 X-230.255 Y28.358 Z-24.202 A255.1042 
N1441 X-230.255 Y29.293 Z-23.658 A257.4003 
N1442 X-230.255 Y30.198 Z-23.065 A259.6689 
N1443 X-230.255 Y31.073 Z-22.427 A261.9131 
N1444 X-230.255 Y31.917 Z-21.746 A264.1368 
N1445 X-230.255 Y32.730 Z-21.025 A266.3438 
N1446 X-230.255 Y33.509 Z-20.268 A268.5380 
N1447 X-230.255 Y34.257 Z-19.478 A270.7234 
N1448 X-230.255 Y34.973 Z-18.657 A272.9050 
N1449 X-230.255 Y35.657 Z-17.809 A275.0884 
N1450 X-230.255 Y36.311 Z-16.935 A277.2790 
N1451 X-230.255 Y36.936 Z-16.039 A279.4831 
N1452 X-230.255 Y37.533 Z-15.123 A281.7062 
N1453 X-230.255 Y38.102 Z-14.187 A283.9526 
N1454 X-230.255 Y38.644 Z-13.233 A286.2260 
N1455 X-230.255 Y39.159 Z-12.262 A288.5296 
N1456 X-230.255 Y39.647 Z-11.275 A290.8645 
N1457 X-230.255 Y40.106 Z-10.272 A293.2305 
N1458 X-230.255 Y40.537 Z-9.255 A295.6288 
N1459 X-230.255 Y40.937 Z-8.223 A298.0587 
N1460 X-230.255 Y41.306 Z-7.176 A300.5194 
N1461 X-230.255 Y41.641 Z-6.115 A303.0116 
N1462 X-230.255 Y41.941 Z-5.038 A305.5354 
N1463 X-230.255 Y42.203 Z-3.946 A308.0911 
N1464 X-230.255 Y42.426 Z-2.836 A310.6817 
N1465 X-230.255 Y42.606 Z-1.708 A313.3115 
N1466 X-230.255 Y42.741 Z-0.557 A315.9857 
N1467 X-230.255 Y42.826 Z0.618 A318.7118 
N1468 X-230.255 Y42.856 Z1.821 A321.4985 
N1469 X-230.255 Y42.823 Z3.056 A324.3539 
N1470 X-230.255 Y42.717 Z4.326 A327.2871 
N1471 X-230.255 Y42.528 Z5.635 A330.3054 
N1472 X-230.255 Y42.240 Z6.983 A333.4197 
N1473 X-230.255 Y41.837 Z8.370 A336.6291 
N1474 X-230.255 Y41.298 Z9.783 A339.9150 
N1475 X-230.255 Y40.602 Z11.206 A343.2481 
N1476 X-230.255 Y39.728 Z12.613 A346.5809 
N1477 X-230.255 Y38.663 Z13.977 A349.8660 
N1478 X-230.255 Y37.394 Z15.247 A352.9919 
N1479 X-230.255 Y35.922 Z16.362 A355.8129 
N1480 X-230.255 Y34.260 Z17.277 A358.2103 
N1481 X-230.255 Y32.428 Z17.949 A0.0504 
N1482 X-230.255 Y30.451 Z18.358 A1.2470 
N1483 X-230.255 Y28.355 Z18.545 A1.8717 
N1484 X-230.255 Y26.159 Z18.586 A2.1120 
N1485 X-230.255 Y23.882 Z18.561 A2.1686 
N1486 X-230.255 Y21.548 Z18.514 A2.1664 
N1487 X-230.255 Y19.183 Z18.464 A2.1488 
N1488 X-230.255 Y16.817 Z18.415 A2.1325 
N1489 X-230.255 Y14.477 Z18.375 
N1490 X-230.255 Y12.182 Z18.346 A2.1691 
N1491 X-230.255 Y9.966 Z18.421 A2.5374 
N1492 X-230.255 Y7.841 Z18.625 A3.3548 
N1493 X-230.255 Y5.816 Z18.982 A4.7390 
N1494 X-230.255 Y3.890 Z19.472 A6.6708 
N1495 X-230.255 Y2.056 Z20.065 A9.0909 
N1496 X-230.255 Y0.303 Z20.723 A11.9004 
N1497 X-230.255 Y-1.375 Z21.398 A14.9599 
N1498 X-230.255 Y-2.981 Z22.047 A18.1243 
N1499 X-230.255 Y-4.520 Z22.653 A21.3264 
N1500 X-230.255 Y-5.997 Z23.209 A24.5264 
N1501 X-230.255 Y-7.419 Z23.706 A27.6847 
N1502 X-230.255 Y-8.789 Z24.141 A30.7779 
N1503 X-230.255 Y-10.112 Z24.513 A33.7941 
N1504 X-230.255 Y-11.395 Z24.823 A36.7287 
N1505 X-230.255 Y-12.643 Z25.073 A39.5865 
N1506 X-230.255 Y-13.860 Z25.264 A42.3736 
N1507 X-230.255 Y-15.052 Z25.400 A45.0979 
N1508 X-230.255 Y-16.222 Z25.481 A47.7681 
N1509 X-230.255 Y-17.372 Z25.508 A50.3914 
N1510 X-230.255 Y-18.505 Z25.484 A52.9742 
N1511 X-230.255 Y-19.622 Z25.408 A55.5216 
N1512 X-230.255 Y-20.723 Z25.281 A58.0375 
N1513 X-230.255 Y-21.807 Z25.103 A60.5248 
N1514 X-230.255 Y-22.874 Z24.877 A62.9860 
N1515 X-230.255 Y-23.923 Z24.602 A65.4230 
N1516 X-230.255 Y-24.953 Z24.279 A67.8379 
N1517 X-230.255 Y-25.962 Z23.911 A70.2325 
N1518 X-230.255 Y-26.950 Z23.498 A72.6089 
N1519 X-230.255 Y-27.915 Z23.043 A74.9693 
N1520 X-230.255 Y-28.856 Z22.546 A77.3159 
N1521 X-230.255 Y-29.772 Z22.010 A79.6513 
N1522 X-230.255 Y-30.663 Z21.436 A81.9778 
N1523 X-230.255 Y-31.528 Z20.827 A84.2981 
N1524 X-230.255 Y-32.367 Z20.184 A86.6148 
N1525 X-230.255 Y-33.178 Z19.510 A88.9307 
N1526 X-230.255 Y-33.962 Z18.805 A91.2483 
N1527 X-230.255 Y-34.718 Z18.072 A93.5702 
N1528 X-230.255 Y-35.447 Z17.311 A95.8990 
N1529 X-230.255 Y-36.147 Z16.525 A98.2369 
N1530 X-230.255 Y-36.819 Z15.714 A100.5863 
N1531 X-230.255 Y-37.462 Z14.880 A102.9493 
N1532 X-230.255 Y-38.076 Z14.023 A105.3277 
N1533 X-230.255 Y-38.661 Z13.144 A107.7236 
N1534 X-230.255 Y-39.216 Z12.243 A110.1387 
N1535 X-230.255 Y-39.740 Z11.321 A112.5747 
N1536 X-230.255 Y-40.232 Z10.378 A115.0335 
N1537 X-230.255 Y-40.692 Z9.413 A117.5168 
N1538 X-230.255 Y-41.119 Z8.427 A120.0267 
N1539 X-230.255 Y-41.509 Z7.418 A122.5655 
N1540 X-230.255 Y-41.863 Z6.386 A125.1356 
N1541 X-230.255 Y-42.177 Z5.329 A127.7399 
N1542 X-230.255 Y-42.448 Z4.247 A130.3813 
N1543 X-230.255 Y-42.672 Z3.138 A133.0629 
N1544 X-230.255 Y-42.846 Z2.000 A135.7880 
N1545 X-230.255 Y-42.962 Z0.831 A138.5599 
N1546 X-230.255 Y-43.015 Z-0.371 A141.3834 
N1547 X-230.255 Y-42.995 Z-1.609 A144.2645 
N1548 X-230.255 Y-42.893 Z-2.882 A147.2081 
N1549 X-230.255 Y-42.696 Z-4.192 A150.2147 
N1550 X-230.255 Y-42.389 Z-5.533 A153.2746 
N1551 X-230.255 Y-41.953 Z-6.898 A156.3737 
N1552 X-230.255 Y-41.373 Z-8.274 A159.4920 
N1553 X-230.255 Y-40.632 Z-9.644 A162.5974 
N1554 X-230.255 Y-39.713 Z-10.986 A165.6515 
N1555 X-230.255 Y-38.606 Z-12.273 A168.6051 
N1556 X-230.255 Y-37.306 Z-13.468 A171.3820 
N1557 X-230.255 Y-35.812 Z-14.539 A173.9137 
N1558 X-230.255 Y-34.135 Z-15.453 A176.1187 
N1559 X-230.255 Y-32.291 Z-16.176 A177.9017 
N1560 X-230.255 Y-30.300 Z-16.693 A179.2037 
N1561 X-230.255 Y-28.188 Z-17.027 A180.0575 
N1562 X-230.255 Y-25.977 Z-17.218 A180.5509 
N1563 X-230.255 Y-23.693 Z-17.308 A180.7829 
N1564 X-230.255 Y-21.360 Z-17.337 A180.8473 
N1565 X-230.255 Y-19.005 Z-17.338 A180.8254 
N1566 X-230.255 Y-16.659 Z-17.347 
N1567 X-230.255 Y-14.341 Z-17.372 A180.8780 
N1568 X-230.255 Y-12.086 Z-17.466 A181.1570 
N1569 X-230.255 Y-9.910 Z-17.651 A181.7590 
N1570 X-230.255 Y-7.830 Z-17.951 A182.7913 
N1571 X-230.255 Y-5.853 Z-18.364 A184.2864 
N1572 X-230.255 Y-3.978 Z-18.873 A186.2216 
N1573 X-230.255 Y-2.200 Z-19.457 A188.5509 
N1574 X-230.255 Y-0.511 Z-20.089 A191.2042 
N1575 X-230.255 Y1.099 Z-20.738 A194.0811 
N1576 X-230.255 Y2.634 Z-21.375 A197.0896 
N1577 X-230.255 Y4.104 Z-21.989 A200.1803 
N1578 X-230.255 Y5.516 Z-22.569 A203.3051 
N1579 X-230.255 Y6.877 Z-23.104 A206.4244 
N1580 X-230.255 Y8.193 Z-23.591 A209.5130 
N1581 X-230.255 Y9.468 Z-24.024 A212.5534 
N1582 X-230.255 Y10.710 Z-24.403 A215.5368 
N1583 X-230.255 Y11.923 Z-24.727 A218.4632 
N1584 X-230.255 Y13.112 Z-24.998 A221.3343 
N1585 X-230.255 Y14.281 Z-25.215 A224.1547 
N1586 X-230.255 Y15.433 Z-25.379 A226.9292 
N1587 X-230.255 Y16.571 Z-25.489 A229.6617 
N1588 X-230.255 Y17.697 Z-25.545 A232.3562 
N1589 X-230.255 Y18.809 Z-25.547 A235.0155 
N1590 X-230.255 Y19.910 Z-25.495 A237.6417 
N1591 X-230.255 Y20.997 Z-25.389 A240.2364 
N1592 X-230.255 Y22.070 Z-25.228 A242.8008 
N1593 X-230.255 Y23.127 Z-25.013 A245.3356 
N1594 X-230.255 Y24.166 Z-24.744 A247.8416 
N1595 X-230.255 Y25.186 Z-24.422 A250.3192 
N1596 X-230.255 Y26.184 Z-24.048 A252.7690 
N1597 X-230.255 Y27.159 Z-23.623 A255.1920 
N1598 X-230.255 Y28.109 Z-23.149 A257.5894 
N1599 X-230.255 Y29.031 Z-22.627 A259.9625 
N1600 X-230.255 Y29.925 Z-22.060 A262.3131 
N1601 X-230.255 Y30.789 Z-21.449 A264.6428 
N1602 X-230.255 Y31.622 Z-20.797 A266.9525 
N1603 X-230.255 Y32.421 Z-20.106 A269.2427 
N1604 X-230.255 Y33.187 Z-19.379 A271.5161 
N1605 X-230.255 Y33.919 Z-18.619 A273.7774 
N1606 X-230.255 Y34.619 Z-17.827 A276.0332 
N1607 X-230.255 Y35.287 Z-17.006 A278.2903 
N1608 X-230.255 Y35.925 Z-16.158 A280.5553 
N1609 X-230.255 Y36.532 Z-15.284 A282.8326 
N1610 X-230.255 Y37.110 Z-14.385 A285.1262 
N1611 X-230.255 Y37.657 Z-13.464 A287.4386 
N1612 X-230.255 Y38.174 Z-12.521 A289.7708 
N1613 X-230.255 Y38.658 Z-11.557 A292.1231 
N1614 X-230.255 Y39.110 Z-10.574 A294.4965 
N1615 X-230.255 Y39.528 Z-9.572 A296.8919 
N1616 X-230.255 Y39.912 Z-8.552 A299.3095 
N1617 X-230.255 Y40.260 Z-7.515 A301.7506 
N1618 X-230.255 Y40.570 Z-6.461 A304.2165 
N1619 X-230.255 Y40.842 Z-5.389 A306.7084 
N1620 X-230.255 Y41.074 Z-4.299 A309.2287 
N1621 X-230.255 Y41.263 Z-3.191 A311.7816 
N1622 X-230.255 Y41.408 Z-2.062 A314.3721 
N1623 X-230.255 Y41.504 Z-0.911 A317.0069 
N1624 X-230.255 Y41.549 Z0.266 A319.6937 
N1625 X-230.255 Y41.536 Z1.470 A322.4386 
N1626 X-230.255 Y41.457 Z2.704 A325.2477 
N1627 X-230.255 Y41.304 Z3.970 A328.1257 
N1628 X-230.255 Y41.066 Z5.269 A331.0793 
N1629 X-230.255 Y40.729 Z6.602 A334.1154 
N1630 X-230.255 Y40.277 Z7.962 A337.2256 
N1631 X-230.255 Y39.694 Z9.341 A340.3942 
N1632 X-230.255 Y38.960 Z10.720 A343.5897 
N1633 X-230.255 Y38.060 Z12.074 A346.7640 
N1634 X-230.255 Y36.982 Z13.372 A349.8530 
N1635 X-230.255 Y35.718 Z14.568 A352.7560 
N1636 X-230.255 Y34.274 Z15.627 A355.3903 
N1637 X-230.255 Y32.660 Z16.510 A357.6583 
N1638 X-230.255 Y30.894 Z17.188 A359.4695 
N1639 X-230.255 Y29.000 Z17.659 A0.7998 
N1640 X-230.255 Y26.998 Z17.948 A1.6950 
N1641 X-230.255 Y24.910 Z18.087 A2.2209 
N1642 X-230.255 Y22.758 Z18.116 A2.4610 
N1643 X-230.255 Y20.563 Z18.078 A2.5206 
N1644 X-230.255 Y18.347 Z18.020 A2.5223 
N1645 X-230.255 Y16.135 Z17.981 A2.5827 
N1646 X-230.255 Y13.948 Z17.994 A2.8154 
N1647 X-230.255 Y11.808 Z18.094 A3.3432 
N1648 X-230.255 Y9.732 Z18.302 A4.2697 
N1649 X-230.255 Y7.728 Z18.624 A5.6427 
N1650 X-230.255 Y5.802 Z19.039 A7.4357 
N1651 X-230.255 Y3.956 Z19.524 A9.5983 
N1652 X-230.255 Y2.185 Z20.055 A12.0718 
N1653 X-230.255 Y0.487 Z20.606 A14.7801 
N1654 X-230.255 Y-1.141 Z21.152 A17.6377 
N1655 X-230.255 Y-2.705 Z21.675 A20.5856 
N1656 X-230.255 Y-4.206 Z22.163 A23.5716 
N1657 X-230.255 Y-5.651 Z22.607 A26.5535 
N1658 X-230.255 Y-7.042 Z23.003 A29.5060 
N1659 X-230.255 Y-8.384 Z23.347 A32.4125 
N1660 X-230.255 Y-9.683 Z23.641 A35.2638 
N1661 X-230.255 Y-10.944 Z23.883 A38.0591 
N1662 X-230.255 Y-12.170 Z24.076 A40.8002 
N1663 X-230.255 Y-13.368 Z24.221 A43.4918 
N1664 X-230.255 Y-14.541 Z24.320 A46.1401 
N1665 X-230.255 Y-15.691 Z24.373 A48.7510 
N1666 X-230.255 Y-16.822 Z24.382 A51.3300 
N1667 X-230.255 Y-17.936 Z24.346 A53.8821 
N1668 X-230.255 Y-19.033 Z24.268 A56.4112 
N1669 X-230.255 Y-20.114 Z24.147 A58.9208 
N1670 X-230.255 Y-21.179 Z23.983 A61.4136 
N1671 X-230.255 Y-22.229 Z23.778 A63.8919 
N1672 X-230.255 Y-23.262 Z23.532 A66.3576 
N1673 X-230.255 Y-24.278 Z23.245 A68.8125 
N1674 X-230.255 Y-25.276 Z22.918 A71.2582 
N1675 X-230.255 Y-26.256 Z22.552 A73.6960 
N1676 X-230.255 Y-27.216 Z22.148 A76.1274 
N1677 X-230.255 Y-28.155 Z21.707 A78.5539 
N1678 X-230.255 Y-29.074 Z21.229 A80.9768 
N1679 X-230.255 Y-29.970 Z20.715 A83.3975 
N1680 X-230.255 Y-30.843 Z20.167 A85.8173 
N1681 X-230.255 Y-31.692 Z19.585 A88.2373 
N1682 X-230.255 Y-32.517 Z18.970 A90.6589 
N1683 X-230.255 Y-33.315 Z18.322 A93.0832 
N1684 X-230.255 Y-34.087 Z17.644 A95.5115 
N1685 X-230.255 Y-34.831 Z16.935 A97.9452 
N1686 X-230.255 Y-35.547 Z16.196 A100.3854 
N1687 X-230.255 Y-36.233 Z15.428 A102.8331 
N1688 X-230.255 Y-36.889 Z14.632 A105.2893 
N1689 X-230.255 Y-37.514 Z13.808 A107.7555 
N1690 X-230.255 Y-38.105 Z12.956 A110.2328 
N1691 X-230.255 Y-38.663 Z12.077 A112.7228 
N1692 X-230.255 Y-39.186 Z11.172 A115.2271 
N1693 X-230.255 Y-39.672 Z10.239 A117.7474 
N1694 X-230.255 Y-40.120 Z9.280 A120.2857 
N1695 X-230.255 Y-40.528 Z8.293 A122.8442 
N1696 X-230.255 Y-40.893 Z7.279 A125.4251 
N1697 X-230.255 Y-41.214 Z6.237 A128.0309 
N1698 X-230.255 Y-41.486 Z5.166 A130.6636 
N1699 X-230.255 Y-41.706 Z4.066 A133.3251 
N1700 X-230.255 Y-41.868 Z2.937 A136.0170 
N1701 X-230.255 Y-41.967 Z1.778 A138.7405 
N1702 X-230.255 Y-41.998 Z0.588 A141.4985 
N1703 X-230.255 Y-41.951 Z-0.633 A144.2945 
N1704 X-230.255 Y-41.818 Z-1.885 A147.1306 
N1705 X-230.255 Y-41.589 Z-3.165 A150.0035 
N1706 X-230.255 Y-41.249 Z-4.469 A152.9026 
N1707 X-230.255 Y-40.786 Z-5.787 A155.8156 
N1708 X-230.255 Y-40.187 Z-7.110 A158.7274 
N1709 X-230.255 Y-39.438 Z-8.424 A161.6148 
N1710 X-230.255 Y-38.529 Z-9.712 A164.4483 
N1711 X-230.255 Y-37.450 Z-10.950 A167.1895 
N1712 X-230.255 Y-36.198 Z-12.114 A169.7862 
N1713 X-230.255 Y-34.774 Z-13.179 A172.1914 
N1714 X-230.255 Y-33.184 Z-14.119 A174.3489 
N1715 X-230.255 Y-31.442 Z-14.913 A176.1980 
N1716 X-230.255 Y-29.565 Z-15.546 A177.6996 
N1717 X-230.255 Y-27.576 Z-16.024 A178.8501 
N1718 X-230.255 Y-25.497 Z-16.357 A179.6631 
N1719 X-230.255 Y-23.353 Z-16.569 A180.1790 
N1720 X-230.255 Y-21.167 Z-16.694 A180.4802 
N1721 X-230.255 Y-18.965 Z-16.777 A180.6822 
N1722 X-230.255 Y-16.770 Z-16.859 A180.9031 
N1723 X-230.255 Y-14.605 Z-16.972 A181.2472 
N1724 X-230.255 Y-12.493 Z-17.143 A181.8176 
N1725 X-230.255 Y-10.448 Z-17.395 A182.7033 
N1726 X-230.255 Y-8.484 Z-17.734 A183.9564 
N1727 X-230.255 Y-6.605 Z-18.152 A185.5740 
N1728 X-230.255 Y-4.813 Z-18.634 A187.5302 
N1729 X-230.255 Y-3.106 Z-19.166 A189.7901 
N1730 X-230.255 Y-1.477 Z-19.729 A192.3020 
N1731 X-230.255 Y0.079 Z-20.302 A195.0011 
N1732 X-230.255 Y1.568 Z-20.872 A197.8357 
N1733 X-230.255 Y2.999 Z-21.427 A200.7598 
N1734 X-230.255 Y4.376 Z-21.953 A203.7289 
N1735 X-230.255 Y5.707 Z-22.446 A206.7127 
N1736 X-230.255 Y6.996 Z-22.899 A209.6879 
N1737 X-230.255 Y8.250 Z-23.307 A212.6374 
N1738 X-230.255 Y9.473 Z-23.670 A215.5525 
N1739 X-230.255 Y10.670 Z-23.986 A218.4287 
N1740 X-230.255 Y11.845 Z-24.254 A221.2649 
N1741 X-230.255 Y13.001 Z-24.474 A224.0628 
N1742 X-230.255 Y14.142 Z-24.645 A226.8248 
N1743 X-230.255 Y15.269 Z-24.767 A229.5537 
N1744 X-230.255 Y16.384 Z-24.839 A232.2520 
N1745 X-230.255 Y17.487 Z-24.862 A234.9214 
N1746 X-230.255 Y18.578 Z-24.834 A237.5634 
N1747 X-230.255 Y19.658 Z-24.755 A240.1788 
N1748 X-230.255 Y20.723 Z-24.625 A242.7685 
N1749 X-230.255 Y21.774 Z-24.444 A245.3328 
N1750 X-230.255 Y22.809 Z-24.212 A247.8722 
N1751 X-230.255 Y23.826 Z-23.929 A250.3871 
N1752 X-230.255 Y24.823 Z-23.596 A252.8778 
N1753 X-230.255 Y25.798 Z-23.215 A255.3451 
N1754 X-230.255 Y26.750 Z-22.785 A257.7898 
N1755 X-230.255 Y27.678 Z-22.309 A260.2136 
N1756 X-230.255 Y28.578 Z-21.788 A262.6178 
N1757 X-230.255 Y29.451 Z-21.224 A265.0032 
N1758 X-230.255 Y30.293 Z-20.619 A267.3690 
N1759 X-230.255 Y31.104 Z-19.974 A269.7151 
N1760 X-230.255 Y31.881 Z-19.291 A272.0431 
N1761 X-230.255 Y32.625 Z-18.574 A274.3557 
N1762 X-230.255 Y33.336 Z-17.825 A276.6572 
N1763 X-230.255 Y34.014 Z-17.044 A278.9535 
N1764 X-230.255 Y34.659 Z-16.235 A281.2505 
N1765 X-230.255 Y35.274 Z-15.397 A283.5538 
N1766 X-230.255 Y35.857 Z-14.534 A285.8684 
N1767 X-230.255 Y36.410 Z-13.646 A288.1972 
N1768 X-230.255 Y36.931 Z-12.733 A290.5425 
N1769 X-230.255 Y37.420 Z-11.798 A292.9066 
N1770 X-230.255 Y37.876 Z-10.840 A295.2919 
N1771 X-230.255 Y38.298 Z-9.861 A297.7000 
N1772 X-230.255 Y38.686 Z-8.860 A300.1324 
N1773 X-230.255 Y39.037 Z-7.839 A302.5911 
N1774 X-230.255 Y39.351 Z-6.797 A305.0773 
N1775 X-230.255 Y39.625 Z-5.733 A307.5925 
N1776 X-230.255 Y39.857 Z-4.649 A310.1394 
N1777 X-230.255 Y40.045 Z-3.542 A312.7214 
N1778 X-230.255 Y40.185 Z-2.411 A315.3426 
N1779 X-230.255 Y40.274 Z-1.256 A318.0080 
N1780 X-230.255 Y40.305 Z-0.074 A320.7205 
N1781 X-230.255 Y40.273 Z1.134 A323.4809 
N1782 X-230.255 Y40.169 Z2.369 A326.2901 
N1783 X-230.255 Y39.984 Z3.631 A329.1500 
N1784 X-230.255 Y39.709 Z4.919 A332.0656 
N1785 X-230.255 Y39.331 Z6.229 A335.0321 
N1786 X-230.255 Y38.837 Z7.553 A338.0338 
N1787 X-230.255 Y38.211 Z8.879 A341.0491 
N1788 X-230.255 Y37.441 Z10.187 A344.0406 
N1789 X-230.255 Y36.516 Z11.454 A346.9643 
N1790 X-230.255 Y35.428 Z12.652 A349.7589 
N1791 X-230.255 Y34.178 Z13.753 A352.3680 
N1792 X-230.255 Y32.770 Z14.734 A354.7399 
N1793 X-230.255 Y31.215 Z15.572 A356.8217 
N1794 X-230.255 Y29.528 Z16.255 A358.5816 
N1795 X-230.255 Y27.726 Z16.783 A0.0060 
N1796 X-230.255 Y25.831 Z17.158 A1.0874 
N1797 X-230.255 Y23.862 Z17.396 A1.8540 
N1798 X-230.255 Y21.840 Z17.532 A2.3818 
N1799 X-230.255 Y19.785 Z17.606 A2.7730 
N1800 X-230.255 Y17.716 Z17.655 A3.1312 
N1801 X-230.255 Y15.653 Z17.714 A3.5617 
N1802 X-230.255 Y13.614 Z17.818 A4.1764 
N1803 X-230.255 Y11.614 Z17.989 A5.0653 
N1804 X-230.255 Y9.666 Z18.237 A6.2777 
N1805 X-230.255 Y7.777 Z18.556 A7.8228 
N1806 X-230.255 Y5.952 Z18.938 A9.6948 
N1807 X-230.255 Y4.191 Z19.369 A11.8626 
N1808 X-230.255 Y2.494 Z19.827 A14.2700 
N1809 X-230.255 Y0.860 Z20.294 A16.8560 
N1810 X-230.255 Y-0.714 Z20.755 A19.5701 
N1811 X-230.255 Y-2.230 Z21.194 A22.3596 
N1812 X-230.255 Y-3.690 Z21.602 A25.1831 
N1813 X-230.255 Y-5.098 Z21.973 A28.0117 
N1814 X-230.255 Y-6.458 Z22.303 A30.8227 
N1815 X-230.255 Y-7.773 Z22.590 A33.6026 
N1816 X-230.255 Y-9.048 Z22.834 A36.3447 
N1817 X-230.255 Y-10.286 Z23.034 A39.0459 
N1818 X-230.255 Y-11.492 Z23.192 A41.7072 
N1819 X-230.255 Y-12.669 Z23.310 A44.3320 
N1820 X-230.255 Y-13.821 Z23.387 A46.9245 
N1821 X-230.255 Y-14.951 Z23.425 A49.4899 
N1822 X-230.255 Y-16.061 Z23.426 A52.0330 
N1823 X-230.255 Y-17.154 Z23.389 A54.5586 
N1824 X-230.255 Y-18.230 Z23.316 A57.0713 
N1825 X-230.255 Y-19.292 Z23.206 A59.5748 
N1826 X-230.255 Y-20.340 Z23.061 A62.0722 
N1827 X-230.255 Y-21.373 Z22.880 A64.5655 
N1828 X-230.255 Y-22.392 Z22.664 A67.0562 
N1829 X-230.255 Y-23.397 Z22.412 A69.5453 
N1830 X-230.255 Y-24.387 Z22.125 A72.0336 
N1831 X-230.255 Y-25.361 Z21.802 A74.5220 
N1832 X-230.255 Y-26.318 Z21.445 A77.0112 
N1833 X-230.255 Y-27.258 Z21.052 A79.5018 
N1834 X-230.255 Y-28.180 Z20.624 A81.9942 
N1835 X-230.255 Y-29.083 Z20.162 A84.4891 
N1836 X-230.255 Y-29.964 Z19.666 A86.9868 
N1837 X-230.255 Y-30.825 Z19.136 A89.4876 
N1838 X-230.255 Y-31.662 Z18.571 A91.9920 
N1839 X-230.255 Y-32.476 Z17.974 A94.5003 
N1840 X-230.255 Y-33.264 Z17.342 A97.0129 
N1841 X-230.255 Y-34.025 Z16.678 A99.5300 
N1842 X-230.255 Y-34.758 Z15.982 A102.0518 
N1843 X-230.255 Y-35.461 Z15.253 A104.5789 
N1844 X-230.255 Y-36.133 Z14.493 A107.1115 
N1845 X-230.255 Y-36.772 Z13.701 A109.6503 
N1846 X-230.255 Y-37.376 Z12.878 A112.1959 
N1847 X-230.255 Y-37.944 Z12.024 A114.7487 
N1848 X-230.255 Y-38.473 Z11.140 A117.3097 
N1849 X-230.255 Y-38.962 Z10.226 A119.8801 
N1850 X-230.255 Y-39.409 Z9.282 A122.4617 
N1851 X-230.255 Y-39.811 Z8.308 A125.0567 
N1852 X-230.255 Y-40.166 Z7.304 A127.6683 
N1853 X-230.255 Y-40.471 Z6.269 A130.2997 
N1854 X-230.255 Y-40.722 Z5.203 A132.9542 
N1855 X-230.255 Y-40.914 Z4.105 A135.6338 
N1856 X-230.255 Y-41.043 Z2.975 A138.3401 
N1857 X-230.255 Y-41.101 Z1.813 A141.0751 
N1858 X-230.255 Y-41.082 Z0.619 A143.8406 
N1859 X-230.255 Y-40.977 Z-0.607 A146.6389 
N1860 X-230.255 Y-40.775 Z-1.862 A149.4719 
N1861 X-230.255 Y-40.467 Z-3.145 A152.3379 
N1862 X-230.255 Y-40.038 Z-4.449 A155.2290 
N1863 X-230.255 Y-39.475 Z-5.763 A158.1268 
N1864 X-230.255 Y-38.765 Z-7.072 A161.0050 
N1865 X-230.255 Y-37.897 Z-8.359 A163.8350 
N1866 X-230.255 Y-36.862 Z-9.601 A166.5772 
N1867 X-230.255 Y-35.655 Z-10.772 A169.1804 
N1868 X-230.255 Y-34.280 Z-11.848 A171.5959 
N1869 X-230.255 Y-32.742 Z-12.800 A173.7561 
N1870 X-230.255 Y-31.055 Z-13.602 A175.5932 
N1871 X-230.255 Y-29.238 Z-14.242 A177.0662 
N1872 X-230.255 Y-27.314 Z-14.721 A178.1626 
N1873 X-230.255 Y-25.306 Z-15.048 A178.8851 
N1874 X-230.255 Y-23.237 Z-15.250 A179.2862 
N1875 X-230.255 Y-21.134 Z-15.373 A179.4777 
N1876 X-230.255 Y-19.019 Z-15.470 A179.6095 
N1877 X-230.255 Y-16.917 Z-15.587 A179.8155 
N1878 X-230.255 Y-14.850 Z-15.754 A180.2082 
N1879 X-230.255 Y-12.836 Z-15.998 A180.8890 
N1880 X-230.255 Y-10.892 Z-16.333 A181.9335 
N1881 X-230.255 Y-9.025 Z-16.759 A183.3676 
N1882 X-230.255 Y-7.240 Z-17.258 A185.1629 
N1883 X-230.255 Y-5.535 Z-17.812 A187.2796 
N1884 X-230.255 Y-3.907 Z-18.403 A189.6715 
N1885 X-230.255 Y-2.352 Z-19.013 A192.2781 
N1886 X-230.255 Y-0.863 Z-19.621 A195.0357 
N1887 X-230.255 Y0.565 Z-20.217 A197.8997 
N1888 X-230.255 Y1.940 Z-20.789 A200.8251 
N1889 X-230.255 Y3.265 Z-21.328 A203.7758 
N1890 X-230.255 Y4.548 Z-21.830 A206.7279 
N1891 X-230.255 Y5.793 Z-22.291 A209.6626 
N1892 X-230.255 Y7.006 Z-22.707 A212.5682 
N1893 X-230.255 Y8.191 Z-23.079 A215.4396 
N1894 X-230.255 Y9.354 Z-23.404 A218.2740 
N1895 X-230.255 Y10.497 Z-23.684 A221.0722 
N1896 X-230.255 Y11.624 Z-23.918 A223.8362 
N1897 X-230.255 Y12.738 Z-24.105 A226.5686 
N1898 X-230.255 Y13.841 Z-24.246 A229.2728 
N1899 X-230.255 Y14.934 Z-24.340 A231.9514 
N1900 X-230.255 Y16.017 Z-24.386 A234.6066 
N1901 X-230.255 Y17.091 Z-24.384 A237.2401 
N1902 X-230.255 Y18.155 Z-24.334 A239.8526 
N1903 X-230.255 Y19.207 Z-24.236 A242.4445 
N1904 X-230.255 Y20.248 Z-24.088 A245.0160 
N1905 X-230.255 Y21.274 Z-23.892 A247.5673 
N1906 X-230.255 Y22.285 Z-23.647 A250.0984 
N1907 X-230.255 Y23.279 Z-23.354 A252.6093 
N1908 X-230.255 Y24.253 Z-23.013 A255.1005 
N1909 X-230.255 Y25.206 Z-22.626 A257.5723 
N1910 X-230.255 Y26.136 Z-22.193 A260.0256 
N1911 X-230.255 Y27.042 Z-21.715 A262.4610 
N1912 X-230.255 Y27.922 Z-21.194 A264.8787 
N1913 X-230.255 Y28.773 Z-20.632 A267.2787 
N1914 X-230.255 Y29.595 Z-20.031 A269.6613 
N1915 X-230.255 Y30.385 Z-19.391 A272.0275 
N1916 X-230.255 Y31.144 Z-18.716 A274.3787 
N1917 X-230.255 Y31.870 Z-18.007 A276.7185 
N1918 X-230.255 Y32.564 Z-17.265 A279.0527 
N1919 X-230.255 Y33.227 Z-16.493 A281.3873 
N1920 X-230.255 Y33.859 Z-15.691 A283.7280 
N1921 X-230.255 Y34.461 Z-14.860 A286.0787 
N1922 X-230.255 Y35.032 Z-14.002 A288.4421 
N1923 X-230.255 Y35.570 Z-13.118 A290.8205 
N1924 X-230.255 Y36.076 Z-12.207 A293.2164 
N1925 X-230.255 Y36.548 Z-11.272 A295.6315 
N1926 X-230.255 Y36.985 Z-10.312 A298.0674 
N1927 X-230.255 Y37.386 Z-9.328 A300.5256 
N1928 X-230.255 Y37.749 Z-8.320 A303.0072 
N1929 X-230.255 Y38.072 Z-7.289 A305.5136 
N1930 X-230.255 Y38.353 Z-6.235 A308.0459 
N1931 X-230.255 Y38.589 Z-5.157 A310.6060 
N1932 X-230.255 Y38.777 Z-4.055 A313.1954 
N1933 X-230.255 Y38.913 Z-2.930 A315.8169 
N1934 X-230.255 Y38.994 Z-1.780 A318.4740 
N1935 X-230.255 Y39.015 Z-0.605 A321.1680 
N1936 X-230.255 Y38.968 Z0.595 A323.8987 
N1937 X-230.255 Y38.847 Z1.818 A326.6654 
N1938 X-230.255 Y38.644 Z3.063 A329.4699 
N1939 X-230.255 Y38.350 Z4.329 A332.3129 
N1940 X-230.255 Y37.954 Z5.609 A335.1830 
N1941 X-230.255 Y37.445 Z6.894 A338.0648 
N1942 X-230.255 Y36.812 Z8.172 A340.9349 
N1943 X-230.255 Y36.044 Z9.424 A343.7595 
N1944 X-230.255 Y35.134 Z10.632 A346.5007 
N1945 X-230.255 Y34.080 Z11.774 A349.1150 
N1946 X-230.255 Y32.882 Z12.832 A351.5703 
N1947 X-230.255 Y31.546 Z13.787 A353.8307 
N1948 X-230.255 Y30.080 Z14.627 A355.8673 
N1949 X-230.255 Y28.498 Z15.342 A357.6572 
N1950 X-230.255 Y26.815 Z15.924 A359.1772 
N1951 X-230.255 Y25.048 Z16.375 A0.4190 
N1952 X-230.255 Y23.217 Z16.709 A1.4144 
N1953 X-230.255 Y21.341 Z16.950 A2.2210 
N1954 X-230.255 Y19.436 Z17.128 A2.9107 
N1955 X-230.255 Y17.520 Z17.273 A3.5682 
N1956 X-230.255 Y15.610 Z17.417 A4.2938 
N1957 X-230.255 Y13.719 Z17.590 A5.1793 
N1958 X-230.255 Y11.858 Z17.809 A6.2922 
N1959 X-230.255 Y10.037 Z18.083 A7.6759 
N1960 X-230.255 Y8.261 Z18.414 A9.3550 
N1961 X-230.255 Y6.531 Z18.795 A11.3230 
N1962 X-230.255 Y4.851 Z19.211 A13.5410 
N1963 X-230.255 Y3.219 Z19.642 A15.9593 
N1964 X-230.255 Y1.637 Z20.073 A18.5264 
N1965 X-230.255 Y0.104 Z20.487 A21.1866 
N1966 X-230.255 Y-1.379 Z20.872 A23.8925 
N1967 X-230.255 Y-2.812 Z21.221 A26.6110 
N1968 X-230.255 Y-4.198 Z21.528 A29.3155 
N1969 X-230.255 Y-5.536 Z21.792 A31.9901 
N1970 X-230.255 Y-6.831 Z22.013 A34.6275 
N1971 X-230.255 Y-8.086 Z22.194 A37.2255 
N1972 X-230.255 Y-9.304 Z22.335 A39.7867 
N1973 X-230.255 Y-10.491 Z22.440 A42.3173 
N1974 X-230.255 Y-11.649 Z22.510 A44.8244 
N1975 X-230.255 Y-12.784 Z22.549 A47.3158 
N1976 X-230.255 Y-13.898 Z22.557 A49.7984 
N1977 X-230.255 Y-14.995 Z22.536 A52.2779 
N1978 X-230.255 Y-16.076 Z22.486 A54.7590 
N1979 X-230.255 Y-17.143 Z22.406 A57.2448 
N1980 X-230.255 Y-18.198 Z22.297 A59.7375 
N1981 X-230.255 Y-19.241 Z22.159 A62.2382 
N1982 X-230.255 Y-20.271 Z21.990 A64.7473 
N1983 X-230.255 Y-21.290 Z21.791 A67.2644 
N1984 X-230.255 Y-22.297 Z21.560 A69.7890 
N1985 X-230.255 Y-23.290 Z21.297 A72.3200 
N1986 X-230.255 Y-24.268 Z21.002 A74.8563 
N1987 X-230.255 Y-25.232 Z20.674 A77.3970 
N1988 X-230.255 Y-26.179 Z20.312 A79.9410 
N1989 X-230.255 Y-27.109 Z19.917 A82.4876 
N1990 X-230.255 Y-28.020 Z19.488 A85.0361 
N1991 X-230.255 Y-28.911 Z19.026 A87.5861 
N1992 X-230.255 Y-29.780 Z18.530 A90.1371 
N1993 X-230.255 Y-30.627 Z18.000 A92.6889 
N1994 X-230.255 Y-31.450 Z17.437 A95.2414 
N1995 X-230.255 Y-32.247 Z16.841 A97.7946 
N1996 X-230.255 Y-33.018 Z16.212 A100.3484 
N1997 X-230.255 Y-33.760 Z15.551 A102.9027 
N1998 X-230.255 Y-34.473 Z14.858 A105.4579 
N1999 X-230.255 Y-35.154 Z14.133 A108.0141 
N2000 X-230.255 Y-35.802 Z13.377 A110.5719 
N2001 X-230.255 Y-36.416 Z12.591 A113.1318 
N2002 X-230.255 Y-36.994 Z11.775 A115.6947 
N2003 X-230.255 Y-37.533 Z10.929 A118.2619 
N2004 X-230.255 Y-38.034 Z10.054 A120.8351 
N2005 X-230.255 Y-38.494 Z9.151 A123.4163 
N2006 X-230.255 Y-38.910 Z8.218 A126.0086 
N2007 X-230.255 Y-39.282 Z7.256 A128.6152 
N2008 X-230.255 Y-39.606 Z6.264 A131.2411 
N2009 X-230.255 Y-39.880 Z5.241 A133.8933 
N2010 X-230.255 Y-40.101 Z4.184 A136.5808 
N2011 X-230.255 Y-40.265 Z3.091 A139.3120 
N2012 X-230.255 Y-40.365 Z1.960 A142.0931 
N2013 X-230.255 Y-40.393 Z0.791 A144.9269 
N2014 X-230.255 Y-40.339 Z-0.416 A147.8167 
N2015 X-230.255 Y-40.192 Z-1.661 A150.7622 
N2016 X-230.255 Y-39.939 Z-2.939 A153.7604 
N2017 X-230.255 Y-39.565 Z-4.245 A156.8042 
N2018 X-230.255 Y-39.055 Z-5.567 A159.8749 
N2019 X-230.255 Y-38.393 Z-6.888 A162.9435 
N2020 X-230.255 Y-37.567 Z-8.186 A165.9715 
N2021 X-230.255 Y-36.566 Z-9.429 A168.8930 
N2022 X-230.255 Y-35.387 Z-10.583 A171.6389 
N2023 X-230.255 Y-34.035 Z-11.612 A174.1257 
N2024 X-230.255 Y-32.520 Z-12.474 A176.2412 
N2025 X-230.255 Y-30.862 Z-13.140 A177.8935 
N2026 X-230.255 Y-29.086 Z-13.606 A179.0541 
N2027 X-230.255 Y-27.215 Z-13.889 A179.7336 
N2028 X-230.255 Y-25.274 Z-14.013 A179.9663 
N2029 X-230.255 Y-23.284 Z-14.041 A179.8946 
N2030 X-230.255 Y-21.265 Z-14.034 A179.6744 
N2031 X-230.255 Y-19.248 Z-14.098 A179.6199 
N2032 X-230.255 Y-17.228 Z-14.189 
N2033 X-230.255 Y-15.210 Z-14.281 
N2034 X-230.255 Y-13.234 Z-14.446 A179.8873 
N2035 X-230.255 Y-11.345 Z-14.780 A180.7539 
N2036 X-230.255 Y-9.541 Z-15.227 A182.0947 
N2037 X-230.255 Y-7.828 Z-15.777 A183.8974 
N2038 X-230.255 Y-6.201 Z-16.394 A186.0700 
N2039 X-230.255 Y-4.653 Z-17.054 A188.5429 
N2040 X-230.255 Y-3.177 Z-17.729 A191.2246 
N2041 X-230.255 Y-1.764 Z-18.400 A194.0497 
N2042 X-230.255 Y-0.408 Z-19.054 A196.9644 
N2043 X-230.255 Y0.897 Z-19.677 A199.9214 
N2044 X-230.255 Y2.156 Z-20.265 A202.8910 
N2045 X-230.255 Y3.377 Z-20.813 A205.8511 
N2046 X-230.255 Y4.564 Z-21.318 A208.7855 
N2047 X-230.255 Y5.722 Z-21.778 A211.6866 
N2048 X-230.255 Y6.856 Z-22.193 A214.5509 
N2049 X-230.255 Y7.971 Z-22.564 A217.3781 
N2050 X-230.255 Y9.071 Z-22.890 A220.1707 
N2051 X-230.255 Y10.158 Z-23.171 A222.9319 
N2052 X-230.255 Y11.236 Z-23.407 A225.6650 
N2053 X-230.255 Y12.305 Z-23.599 A228.3733 
N2054 X-230.255 Y13.369 Z-23.745 A231.0593 
N2055 X-230.255 Y14.426 Z-23.845 A233.7252 
N2056 X-230.255 Y15.477 Z-23.899 A236.3725 
N2057 X-230.255 Y16.522 Z-23.906 A239.0023 
N2058 X-230.255 Y17.559 Z-23.866 A241.6153 
N2059 X-230.255 Y18.587 Z-23.777 A244.2117 
N2060 X-230.255 Y19.605 Z-23.640 A246.7916 
N2061 X-230.255 Y20.611 Z-23.456 A249.3548 
N2062 X-230.255 Y21.603 Z-23.223 A251.9014 
N2063 X-230.255 Y22.579 Z-22.942 A254.4310 
N2064 X-230.255 Y23.537 Z-22.613 A256.9437 
N2065 X-230.255 Y24.476 Z-22.238 A259.4394 
N2066 X-230.255 Y25.393 Z-21.817 A261.9182 
N2067 X-230.255 Y26.285 Z-21.351 A264.3803 
N2068 X-230.255 Y27.152 Z-20.842 A266.8259 
N2069 X-230.255 Y27.991 Z-20.290 A269.2545 
N2070 X-230.255 Y28.801 Z-19.698 A271.6649 
N2071 X-230.255 Y29.578 Z-19.067 A274.0567 
N2072 X-230.255 Y30.322 Z-18.399 A276.4322 
N2073 X-230.255 Y31.034 Z-17.696 A278.7950 
N2074 X-230.255 Y31.712 Z-16.960 A281.1496 
N2075 X-230.255 Y32.358 Z-16.193 A283.5008 
N2076 X-230.255 Y32.970 Z-15.394 A285.8527 
N2077 X-230.255 Y33.550 Z-14.567 A288.2091 
N2078 X-230.255 Y34.096 Z-13.711 A290.5743 
N2079 X-230.255 Y34.609 Z-12.827 A292.9520 
N2080 X-230.255 Y35.088 Z-11.917 A295.3460 
N2081 X-230.255 Y35.532 Z-10.981 A297.7598 
N2082 X-230.255 Y35.941 Z-10.018 A300.1972 
N2083 X-230.255 Y36.312 Z-9.029 A302.6608 
N2084 X-230.255 Y36.646 Z-8.015 A305.1527 
N2085 X-230.255 Y36.937 Z-6.975 A307.6747 
N2086 X-230.255 Y37.186 Z-5.908 A310.2288 
N2087 X-230.255 Y37.387 Z-4.816 A312.8172 
N2088 X-230.255 Y37.538 Z-3.698 A315.4418 
N2089 X-230.255 Y37.634 Z-2.554 A318.1012 
N2090 X-230.255 Y37.668 Z-1.386 A320.7900 
N2091 X-230.255 Y37.634 Z-0.197 A323.5028 
N2092 X-230.255 Y37.525 Z1.010 A326.2364 
N2093 X-230.255 Y37.335 Z2.235 A328.9913 
N2094 X-230.255 Y37.056 Z3.474 A331.7618 
N2095 X-230.255 Y36.679 Z4.717 A334.5333 
N2096 X-230.255 Y36.197 Z5.958 A337.2914 
N2097 X-230.255 Y35.601 Z7.184 A340.0152 
N2098 X-230.255 Y34.886 Z8.383 A342.6816 
N2099 X-230.255 Y34.046 Z9.542 A345.2681 
N2100 X-230.255 Y33.081 Z10.647 A347.7548 
N2101 X-230.255 Y31.992 Z11.688 A350.1280 
N2102 X-230.255 Y30.783 Z12.653 A352.3674 
N2103 X-230.255 Y29.460 Z13.530 A354.4534 
N2104 X-230.255 Y28.031 Z14.309 A356.3644 
N2105 X-230.255 Y26.510 Z14.981 A358.0760 
N2106 X-230.255 Y24.911 Z15.543 A359.5797 
N2107 X-230.255 Y23.248 Z16.003 A0.8945 
N2108 X-230.255 Y21.537 Z16.376 A2.0571 
N2109 X-230.255 Y19.794 Z16.681 A3.1182 
N2110 X-230.255 Y18.032 Z16.942 A4.1428 
N2111 X-230.255 Y16.265 Z17.184 A5.2041 
N2112 X-230.255 Y14.503 Z17.426 A6.3674 
N2113 X-230.255 Y12.756 Z17.684 A7.6871 
N2114 X-230.255 Y11.030 Z17.969 A9.2045 
N2115 X-230.255 Y9.331 Z18.285 A10.9408 
N2116 X-230.255 Y7.663 Z18.625 A12.8888 
N2117 X-230.255 Y6.029 Z18.980 A15.0232 
N2118 X-230.255 Y4.432 Z19.337 A17.3095 
N2119 X-230.255 Y2.874 Z19.684 A19.7058 
N2120 X-230.255 Y1.359 Z20.008 A22.1692 
N2121 X-230.255 Y-0.111 Z20.303 A24.6671 
N2122 X-230.255 Y-1.535 Z20.563 A27.1744 
N2123 X-230.255 Y-2.913 Z20.787 A29.6733 
N2124 X-230.255 Y-4.247 Z20.974 A32.1552 
N2125 X-230.255 Y-5.538 Z21.128 A34.6177 
N2126 X-230.255 Y-6.789 Z21.250 A37.0626 
N2127 X-230.255 Y-8.006 Z21.343 A39.4961 
N2128 X-230.255 Y-9.192 Z21.412 A41.9269 
N2129 X-230.255 Y-10.353 Z21.457 A44.3642 
N2130 X-230.255 Y-11.492 Z21.482 A46.8156 
N2131 X-230.255 Y-12.615 Z21.485 A49.2862 
N2132 X-230.255 Y-13.722 Z21.467 A51.7779 
N2133 X-230.255 Y-14.816 Z21.427 A54.2913 
N2134 X-230.255 Y-15.898 Z21.363 A56.8248 
N2135 X-230.255 Y-16.969 Z21.273 A59.3758 
N2136 X-230.255 Y-18.029 Z21.157 A61.9408 
N2137 X-230.255 Y-19.076 Z21.011 A64.5164 
N2138 X-230.255 Y-20.110 Z20.835 A67.0989 
N2139 X-230.255 Y-21.130 Z20.628 A69.6844 
N2140 X-230.255 Y-22.135 Z20.388 A72.2696 
N2141 X-230.255 Y-23.123 Z20.116 A74.8516 
N2142 X-230.255 Y-24.092 Z19.810 A77.4280 
N2143 X-230.255 Y-25.043 Z19.471 A79.9972 
N2144 X-230.255 Y-25.973 Z19.098 A82.5583 
N2145 X-230.255 Y-26.881 Z18.693 A85.1109 
N2146 X-230.255 Y-27.768 Z18.254 A87.6550 
N2147 X-230.255 Y-28.631 Z17.784 A90.1912 
N2148 X-230.255 Y-29.470 Z17.282 A92.7199 
N2149 X-230.255 Y-30.284 Z16.749 A95.2422 
N2150 X-230.255 Y-31.073 Z16.185 A97.7591 
N2151 X-230.255 Y-31.835 Z15.591 A100.2722 
N2152 X-230.255 Y-32.571 Z14.969 A102.7830 
N2153 X-230.255 Y-33.279 Z14.317 A105.2935 
N2154 X-230.255 Y-33.959 Z13.637 A107.8053 
N2155 X-230.255 Y-34.610 Z12.930 A110.3206 
N2156 X-230.255 Y-35.232 Z12.195 A112.8417 
N2157 X-230.255 Y-35.824 Z11.433 A115.3709 
N2158 X-230.255 Y-36.384 Z10.644 A117.9107 
N2159 X-230.255 Y-36.912 Z9.828 A120.4640 
N2160 X-230.255 Y-37.408 Z8.985 A123.0338 
N2161 X-230.255 Y-37.868 Z8.114 A125.6235 
N2162 X-230.255 Y-38.293 Z7.214 A128.2379 
N2163 X-230.255 Y-38.679 Z6.285 A130.8821 
N2164 X-230.255 Y-39.026 Z5.325 A133.5622 
N2165 X-230.255 Y-39.330 Z4.332 A136.2850 
N2166 X-230.255 Y-39.586 Z3.304 A139.0574 
N2167 X-230.255 Y-39.791 Z2.238 A141.8855 
N2168 X-230.255 Y-39.936 Z1.135 A144.7727 
N2169 X-230.255 Y-40.014 Z-0.008 A147.7216 
N2170 X-230.255 Y-40.014 Z-1.190 A150.7366 
N2171 X-230.255 Y-39.926 Z-2.410 A153.8192 
N2172 X-230.255 Y-39.736 Z-3.664 A156.9659 
N2173 X-230.255 Y-39.429 Z-4.944 A160.1643 
N2174 X-230.255 Y-38.990 Z-6.234 A163.3855 
N2175 X-230.255 Y-38.402 Z-7.512 A166.5873 
N2176 X-230.255 Y-37.656 Z-8.753 A169.7197 
N2177 X-230.255 Y-36.744 Z-9.919 A172.7042 
N2178 X-230.255 Y-35.666 Z-10.975 A175.4629 
N2179 X-230.255 Y-34.431 Z-11.886 A177.9119 
N2180 X-230.255 Y-33.054 Z-12.614 A179.9428 
N2181 X-230.255 Y-31.558 Z-13.131 A181.4645 
N2182 X-230.255 Y-29.966 Z-13.444 A182.4572 
N2183 X-230.255 Y-28.299 Z-13.574 A182.9442 
N2184 X-230.255 Y-26.576 Z-13.555 A182.9682 
N2185 X-230.255 Y-24.811 Z-13.459 A182.6927 
N2186 X-230.255 Y-23.013 Z-13.359 A182.3062 
N2187 X-230.255 Y-21.202 Z-13.364 A182.1141 
N2188 X-230.255 Y-19.379 Z-13.467 
N2189 X-230.255 Y-17.533 Z-13.594 
N2190 X-230.255 Y-15.674 Z-13.730 
N2191 X-230.255 Y-13.815 Z-13.856 
N2192 X-230.255 Y-11.975 Z-13.954 
N2193 X-230.255 Y-10.220 Z-14.179 A182.6237 
N2194 X-230.255 Y-8.564 Z-14.528 A183.6572 
N2195 X-230.255 Y-7.007 Z-14.982 A185.1720 
N2196 X-230.255 Y-5.548 Z-15.534 A187.1498 
N2197 X-230.255 Y-4.172 Z-16.157 A189.4980 
N2198 X-230.255 Y-2.865 Z-16.826 A192.1286 
N2199 X-230.255 Y-1.613 Z-17.507 A194.9319 
N2200 X-230.255 Y-0.405 Z-18.179 A197.8354 
N2201 X-230.255 Y0.765 Z-18.826 A200.7804 
N2202 X-230.255 Y1.904 Z-19.437 A203.7258 
N2203 X-230.255 Y3.017 Z-20.008 A206.6557 
N2204 X-230.255 Y4.108 Z-20.538 A209.5608 
N2205 X-230.255 Y5.181 Z-21.025 A212.4354 
N2206 X-230.255 Y6.241 Z-21.468 A215.2787 
N2207 X-230.255 Y7.291 Z-21.869 A218.0916 
N2208 X-230.255 Y8.333 Z-22.227 A220.8760 
N2209 X-230.255 Y9.370 Z-22.540 A223.6347 
N2210 X-230.255 Y10.403 Z-22.810 A226.3703 
N2211 X-230.255 Y11.434 Z-23.036 A229.0849 
N2212 X-230.255 Y12.463 Z-23.216 A231.7803 
N2213 X-230.255 Y13.489 Z-23.350 A234.4580 
N2214 X-230.255 Y14.512 Z-23.439 A237.1191 
N2215 X-230.255 Y15.532 Z-23.480 A239.7642 
N2216 X-230.255 Y16.548 Z-23.473 A242.3939 
N2217 X-230.255 Y17.557 Z-23.418 A245.0084 
N2218 X-230.255 Y18.558 Z-23.315 A247.6078 
N2219 X-230.255 Y19.549 Z-23.164 A250.1919 
N2220 X-230.255 Y20.529 Z-22.963 A252.7606 
N2221 X-230.255 Y21.494 Z-22.714 A255.3135 
N2222 X-230.255 Y22.444 Z-22.417 A257.8506 
N2223 X-230.255 Y23.376 Z-22.071 A260.3715 
N2224 X-230.255 Y24.287 Z-21.679 A262.8762 
N2225 X-230.255 Y25.175 Z-21.240 A265.3645 
N2226 X-230.255 Y26.039 Z-20.757 A267.8363 
N2227 X-230.255 Y26.875 Z-20.229 A270.2913 
N2228 X-230.255 Y27.683 Z-19.659 A272.7293 
N2229 X-230.255 Y28.460 Z-19.048 A275.1500 
N2230 X-230.255 Y29.203 Z-18.399 A277.5528 
N2231 X-230.255 Y29.912 Z-17.712 A279.9384 
N2232 X-230.255 Y30.586 Z-16.991 A282.3092 
N2233 X-230.255 Y31.225 Z-16.236 A284.6684 
N2234 X-230.255 Y31.827 Z-15.449 A287.0203 
N2235 X-230.255 Y32.394 Z-14.632 A289.3698 
N2236 X-230.255 Y32.926 Z-13.786 A291.7218 
N2237 X-230.255 Y33.422 Z-12.912 A294.0817 
N2238 X-230.255 Y33.884 Z-12.010 A296.4553 
N2239 X-230.255 Y34.310 Z-11.081 A298.8485 
N2240 X-230.255 Y34.700 Z-10.124 A301.2665 
N2241 X-230.255 Y35.054 Z-9.139 A303.7142 
N2242 X-230.255 Y35.370 Z-8.126 A306.1957 
N2243 X-230.255 Y35.645 Z-7.086 A308.7148 
N2244 X-230.255 Y35.877 Z-6.016 A311.2751 
N2245 X-230.255 Y36.063 Z-4.918 A313.8780 
N2246 X-230.255 Y36.197 Z-3.793 A316.5190 
N2247 X-230.255 Y36.272 Z-2.644 A319.1879 
N2248 X-230.255 Y36.281 Z-1.474 A321.8751 
N2249 X-230.255 Y36.219 Z-0.288 A324.5739 
N2250 X-230.255 Y36.080 Z0.912 A327.2813 
N2251 X-230.255 Y35.858 Z2.121 A329.9884 
N2252 X-230.255 Y35.545 Z3.331 A332.6784 
N2253 X-230.255 Y35.137 Z4.533 A335.3368 
N2254 X-230.255 Y34.628 Z5.719 A337.9473 
N2255 X-230.255 Y34.013 Z6.878 A340.4927 
N2256 X-230.255 Y33.292 Z8.002 A342.9635 
N2257 X-230.255 Y32.465 Z9.086 A345.3572 
N2258 X-230.255 Y31.532 Z10.126 A347.6802 
N2259 X-230.255 Y30.497 Z11.118 A349.9345 
N2260 X-230.255 Y29.363 Z12.056 A352.1170 
N2261 X-230.255 Y28.133 Z12.931 A354.2138 
N2262 X-230.255 Y26.814 Z13.729 A356.1984 
N2263 X-230.255 Y25.416 Z14.441 A358.0465 
N2264 X-230.255 Y23.948 Z15.065 A359.7554 
N2265 X-230.255 Y22.424 Z15.604 A1.3389 
N2266 X-230.255 Y20.855 Z16.069 A2.8228 
N2267 X-230.255 Y19.253 Z16.472 A4.2429 
N2268 X-230.255 Y17.629 Z16.827 A5.6412 
N2269 X-230.255 Y15.993 Z17.149 A7.0599 
N2270 X-230.255 Y14.353 Z17.451 A8.5398 
N2271 X-230.255 Y12.716 Z17.743 A10.1164 
N2272 X-230.255 Y11.089 Z18.032 A11.8135 
N2273 X-230.255 Y9.477 Z18.319 A13.6400 
N2274 X-230.255 Y7.885 Z18.604 A15.5934 
N2275 X-230.255 Y6.316 Z18.881 A17.6615 
N2276 X-230.255 Y4.775 Z19.146 A19.8234 
N2277 X-230.255 Y3.267 Z19.390 A22.0557 
N2278 X-230.255 Y1.794 Z19.611 A24.3370 
N2279 X-230.255 Y0.360 Z19.805 A26.6483 
N2280 X-230.255 Y-1.034 Z19.969 A28.9743 
N2281 X-230.255 Y-2.388 Z20.105 A31.3057 
N2282 X-230.255 Y-3.701 Z20.212 A33.6379 
N2283 X-230.255 Y-4.976 Z20.295 A35.9710 
N2284 X-230.255 Y-6.216 Z20.355 A38.3095 
N2285 X-230.255 Y-7.424 Z20.396 A40.6617 
N2286 X-230.255 Y-8.606 Z20.422 A43.0383 
N2287 X-230.255 Y-9.767 Z20.433 A45.4480 
N2288 X-230.255 Y-10.909 Z20.431 A47.8951 
N2289 X-230.255 Y-12.037 Z20.414 A50.3794 
N2290 X-230.255 Y-13.151 Z20.380 A52.8978 
N2291 X-230.255 Y-14.252 Z20.327 A55.4448 
N2292 X-230.255 Y-15.340 Z20.251 A58.0134 
N2293 X-230.255 Y-16.414 Z20.151 A60.5961 
N2294 X-230.255 Y-17.473 Z20.024 A63.1862 
N2295 X-230.255 Y-18.516 Z19.869 A65.7780 
N2296 X-230.255 Y-19.541 Z19.685 A68.3660 
N2297 X-230.255 Y-20.549 Z19.470 A70.9465 
N2298 X-230.255 Y-21.537 Z19.226 A73.5170 
N2299 X-230.255 Y-22.505 Z18.951 A76.0757 
N2300 X-230.255 Y-23.453 Z18.645 A78.6222 
N2301 X-230.255 Y-24.380 Z18.310 A81.1570 
N2302 X-230.255 Y-25.286 Z17.946 A83.6811 
N2303 X-230.255 Y-26.171 Z17.553 A86.1963 
N2304 X-230.255 Y-27.035 Z17.131 A88.7043 
N2305 X-230.255 Y-27.878 Z16.681 A91.2070 
N2306 X-230.255 Y-28.699 Z16.205 A93.7062 
N2307 X-230.255 Y-29.499 Z15.701 A96.2040 
N2308 X-230.255 Y-30.277 Z15.170 A98.7030 
N2309 X-230.255 Y-31.034 Z14.613 A101.2055 
N2310 X-230.255 Y-31.769 Z14.029 A103.7142 
N2311 X-230.255 Y-32.482 Z13.419 A106.2317 
N2312 X-230.255 Y-33.173 Z12.783 A108.7601 
N2313 X-230.255 Y-33.840 Z12.120 A111.3017 
N2314 X-230.255 Y-34.484 Z11.431 A113.8588 
N2315 X-230.255 Y-35.104 Z10.714 A116.4332 
N2316 X-230.255 Y-35.697 Z9.971 A119.0272 
N2317 X-230.255 Y-36.264 Z9.199 A121.6429 
N2318 X-230.255 Y-36.802 Z8.399 A124.2826 
N2319 X-230.255 Y-37.310 Z7.569 A126.9498 
N2320 X-230.255 Y-37.786 Z6.709 A129.6489 
N2321 X-230.255 Y-38.228 Z5.818 A132.3851 
N2322 X-230.255 Y-38.633 Z4.892 A135.1627 
N2323 X-230.255 Y-38.998 Z3.932 A137.9846 
N2324 X-230.255 Y-39.317 Z2.937 A140.8529 
N2325 X-230.255 Y-39.585 Z1.905 A143.7723 
N2326 X-230.255 Y-39.795 Z0.834 A146.7488 
N2327 X-230.255 Y-39.942 Z-0.277 A149.7890 
N2328 X-230.255 Y-40.015 Z-1.428 A152.8987 
N2329 X-230.255 Y-40.004 Z-2.617 A156.0774 
N2330 X-230.255 Y-39.895 Z-3.840 A159.3168 
N2331 X-230.255 Y-39.674 Z-5.085 A162.6007 
N2332 X-230.255 Y-39.328 Z-6.337 A165.8976 
N2333 X-230.255 Y-38.841 Z-7.571 A169.1587 
N2334 X-230.255 Y-38.206 Z-8.760 A172.3328 
N2335 X-230.255 Y-37.417 Z-9.872 A175.3494 
N2336 X-230.255 Y-36.476 Z-10.871 A178.1304 
N2337 X-230.255 Y-35.392 Z-11.728 A180.6079 
N2338 X-230.255 Y-34.180 Z-12.410 A182.6951 
N2339 X-230.255 Y-32.860 Z-12.892 A184.3007 
N2340 X-230.255 Y-31.456 Z-13.168 A185.3826 
N2341 X-230.255 Y-29.985 Z-13.261 A185.9586 
N2342 X-230.255 Y-28.463 Z-13.199 A186.0595 
N2343 X-230.255 Y-26.897 Z-13.033 A185.7865 
N2344 X-230.255 Y-25.293 Z-12.851 A185.3492 
N2345 X-230.255 Y-23.651 Z-12.721 A184.9283 
N2346 X-230.255 Y-21.991 Z-12.767 A184.8845 
N2347 X-230.255 Y-20.295 Z-12.870 
N2348 X-230.255 Y-18.565 Z-13.005 
N2349 X-230.255 Y-16.816 Z-13.156 
N2350 X-230.255 Y-15.061 Z-13.308 
N2351 X-230.255 Y-13.319 Z-13.441 
N2352 X-230.255 Y-11.605 Z-13.542 
N2353 X-230.255 Y-9.938 Z-13.611 A184.9222 
N2354 X-230.255 Y-8.374 Z-13.835 A185.5734 
N2355 X-230.255 Y-6.903 Z-14.141 A186.6336 
N2356 X-230.255 Y-5.532 Z-14.557 A188.1819 
N2357 X-230.255 Y-4.250 Z-15.072 A190.1761 
N2358 X-230.255 Y-3.043 Z-15.668 A192.5436 
N2359 X-230.255 Y-1.891 Z-16.317 A195.1931 
N2360 X-230.255 Y-0.781 Z-16.985 A198.0115 
N2361 X-230.255 Y0.298 Z-17.647 A200.9199 
N2362 X-230.255 Y1.354 Z-18.286 A203.8598 
