; PROGRAM NAME: C99999911
; ORDER       : C999999
; OPER. NAME  : Spiral Rough Rhombic:102
; OPER. DESCR.: spiral roughing rhombic/nozka zgr
; OPER. TYPE  : rouRoot
; GEO. OPTION : 4
; MACHINE     : HSTM_500M_SIM840D_Py
;             : HSTM500 Morelia- HAMUEL: 5-axis milling machine-SIM840D Traori PP_Script
; CONTROL     : SINUMERIK 840D
; created:   2022-11-16 11:58:48.458323
;----------------------------------------
;-------DODATKOWE DANE-------------------
; PROGRAMISTA : Mariusz Malec
; PARTID      : 301T002159P1002_-
;  ap         : 2.5
;  ae         : 30.0
;  lean_angle : 1.0
;  fin_offset : 0.6
;----------------------------------------
;RAPORT("TC999999","Spiral Rough Rhombic:102")
N10 TRAFOOF
N11 D0
N12 G90 G94
N13 G0 G53 D0 Z550
N14 STOPRE
M9 ; chlodziwo wyl
; --- Spiral Rough Rhombic:102 - spiral roughing rhombic/nozka zgr ---
N16 ;ToolChange : concat=None ,current_tdmid=None, PP.tdmId=941290
N17 TRAFOOF
N18 G0 G53 D0 X-200 Y150 Z550 B0
N19 T="7741290"
;RAPORT("TC999999","ToolChangeStart 7741290")
N20 M6
;RAPORT("TC999999","ToolChangeEnd")
N21 STOPRE
N22 MSG(" TLID=941290 D=50.0 R=6.0 Ang=0.0 Len=90.0 ")
N23 S1718 M03
N24 STOPRE
N25 TOL(0.1,1,1)
N26 G0 G53 A270.9327 B0.0000
N27 TRAORI
N28 G54 D1
N29 D2 
N30 ; DELTA A > 40.1
N31 TRAFOOF
N32 D2
N33 STOPRE
N34 G00 G54 Z296.000
N35 G01 A270.9327 F10000
N36 TRAORI
N37 G54 D2
N38 STOPRE
N39 TRANS 
N40 G00 X-152.002 Y98.411 Z-49.800 A270.9327 
N41 M346 ; chlodziwo mgla
N42 X-152.002 Y48.417 Z-50.614 
N43 G01 X-152.002 Y45.328 Z-50.121 F2834 
N44 X-152.002 Y42.542 Z-48.697 
N45 X-152.002 Y40.332 Z-46.482 
N46 X-152.002 Y38.915 Z-43.693 
N47 X-152.002 Y38.429 Z-40.602 
N48 X-152.002 Y38.434 Z-36.439 
N49 X-152.002 Y38.439 Z-32.348 
N50 X-152.002 Y38.443 Z-28.394 
N51 X-152.002 Y38.448 Z-24.638 
N52 X-152.002 Y38.452 Z-21.128 
N53 X-152.002 Y38.456 Z-17.904 
N54 X-152.002 Y38.459 Z-14.990 
N55 X-152.002 Y38.462 Z-12.399 
N56 X-152.002 Y38.465 Z-10.132 
N57 X-152.002 Y38.467 Z-8.177 
N58 X-152.002 Y38.470 Z-6.516 A270.9348 
N59 X-152.002 Y38.525 Z-5.123 A271.0973 
N60 X-152.002 Y38.825 Z-3.962 A272.0273 
N61 X-152.002 Y39.499 Z-2.980 A274.1459 
N62 X-152.002 Y40.487 Z-2.109 A277.3121 
N63 X-152.002 Y41.678 Z-1.286 A281.1972 
N64 X-152.002 Y42.939 Z-0.474 A285.4110 
N65 X-152.002 Y44.158 Z0.336 A289.6061 
N66 X-152.002 Y45.283 Z1.138 A293.6104 
N67 X-152.002 Y46.301 Z1.927 A297.3733 
N68 X-152.002 Y47.212 Z2.699 A300.8738 
N69 X-152.002 Y48.017 Z3.448 A304.1071 
N70 X-152.002 Y48.728 Z4.176 A307.1030 
N71 X-152.002 Y49.364 Z4.889 A309.9184 
N72 X-152.002 Y49.940 Z5.597 A312.6085 
N73 X-152.002 Y50.467 Z6.308 A315.2195 
N74 X-152.002 Y50.953 Z7.034 A317.7935 
N75 X-152.002 Y51.405 Z7.783 A320.3730 
N76 X-152.002 Y51.829 Z8.570 A323.0051 
N77 X-152.002 Y52.226 Z9.412 A325.7416 
N78 X-152.002 Y52.596 Z10.326 A328.6375 
N79 X-152.002 Y52.932 Z11.332 A331.7456 
N80 X-152.002 Y53.218 Z12.446 A335.1055 
N81 X-152.002 Y53.429 Z13.674 A338.7279 
N82 X-152.002 Y53.531 Z15.008 A342.5882 
N83 X-152.002 Y53.482 Z16.422 A346.6170 
N84 X-152.002 Y53.243 Z17.861 A350.6841 
N85 X-152.002 Y52.776 Z19.226 A354.5348 
N86 X-152.002 Y52.067 Z20.350 A357.7193 
N87 X-152.002 Y51.126 Z21.066 A359.7602 
N88 X-152.002 Y49.966 Z21.384 A0.6719 
N89 X-152.002 Y48.578 Z21.480 A0.9480 
N90 X-152.002 Y46.937 Z21.495 A0.9928 
N91 X-152.002 Y45.023 Z21.496 A0.9936 
N92 X-152.002 Y42.823 Z21.496 
N93 X-152.002 Y40.334 Z21.496 
N94 X-152.002 Y37.560 Z21.497 
N95 X-152.002 Y34.521 Z21.497 
N96 X-152.002 Y31.247 Z21.497 
N97 X-152.002 Y27.779 Z21.498 
N98 X-152.002 Y24.167 Z21.498 
N99 X-152.002 Y20.470 Z21.499 
N100 X-152.002 Y16.750 Z21.499 
N101 X-152.002 Y13.073 Z21.500 
N102 X-152.002 Y9.499 Z21.500 
N103 X-152.002 Y6.085 Z21.500 
N104 X-152.002 Y2.879 Z21.501 
N105 X-152.002 Y-0.081 Z21.501 
N106 X-152.002 Y-2.769 Z21.501 
N107 X-152.002 Y-5.171 Z21.502 
N108 X-152.002 Y-7.283 Z21.502 
N109 X-152.002 Y-9.112 Z21.503 A0.9952 
N110 X-152.002 Y-10.674 Z21.532 A1.0852 
N111 X-152.002 Y-11.994 Z21.701 A1.6117 
N112 X-152.002 Y-13.107 Z22.132 A2.9739 
N113 X-152.002 Y-14.066 Z22.879 A5.3657 
N114 X-152.002 Y-14.936 Z23.906 A8.6988 
N115 X-152.002 Y-15.768 Z25.083 A12.5940 B0.0000 
N116 X-152.002 Y-16.586 Z26.279 A16.6562 B0.0001 
N117 X-152.002 Y-17.392 Z27.419 A20.6496 B0.0006 
N118 X-152.002 Y-18.185 Z28.472 A24.4597 B0.0016 
N119 X-152.002 Y-18.961 Z29.424 A28.0351 B0.0030 
N120 X-152.002 Y-19.717 Z30.277 A31.3702 B0.0043 
N121 X-152.002 Y-20.455 Z31.041 A34.4860 B0.0052 
N122 X-152.002 Y-21.176 Z31.726 A37.4101 B0.0057 
N123 X-152.002 Y-21.886 Z32.342 A40.1739 B0.0055 
N124 X-152.002 Y-22.589 Z32.899 A42.8133 B0.0050 
N125 X-152.002 Y-23.293 Z33.406 A45.3662 B0.0041 
N126 X-152.002 Y-24.006 Z33.872 A47.8731 B0.0030 
N127 X-152.002 Y-24.739 Z34.305 A50.3771 B0.0019 
N128 X-152.002 Y-25.505 Z34.710 A52.9245 B0.0008 
N129 X-152.002 Y-26.319 Z35.090 A55.5641 B-0.0002 
N130 X-152.002 Y-27.199 Z35.445 A58.3461 B-0.0009 
N131 X-152.002 Y-28.158 Z35.771 A61.3153 B-0.0013 
N132 X-152.002 Y-29.211 Z36.053 A64.4993 B-0.0014 
N133 X-152.002 Y-30.357 Z36.272 A67.8979 B-0.0013 
N134 X-152.002 Y-31.587 Z36.400 A71.4764 B-0.0009 
N135 X-152.002 Y-32.877 Z36.408 A75.1694 B-0.0006 
N136 X-152.002 Y-34.189 Z36.266 A78.8879 B-0.0002 
N137 X-152.002 Y-35.458 Z35.952 A82.4679 B-0.0001 
N138 X-152.002 Y-36.584 Z35.452 A85.6402 B-0.0000 
N139 X-152.002 Y-37.457 Z34.772 A88.1096 B-0.0000 
N140 X-152.002 Y-38.034 Z33.929 A89.7516 
N141 X-152.002 Y-38.343 Z32.936 A90.6419 
N142 X-152.002 Y-38.460 Z31.797 A90.9842 
N143 X-152.002 Y-38.482 Z30.508 A91.0520 
N144 X-152.002 Y-38.482 Z29.072 A91.0546 B-0.0001 
N145 X-152.002 Y-38.480 Z27.494 B-0.0005 
N146 X-152.002 Y-38.478 Z25.790 B-0.0019 
N147 X-152.002 Y-38.477 Z23.980 B-0.0051 
N148 X-152.002 Y-38.475 Z22.089 B-0.0107 
N149 X-152.002 Y-38.473 Z20.148 B-0.0187 
N150 X-152.002 Y-38.471 Z18.189 B-0.0287 
N151 X-152.002 Y-38.469 Z16.247 B-0.0405 
N152 X-152.003 Y-38.468 Z14.355 B-0.0539 
N153 X-152.003 Y-38.466 Z12.543 B-0.0672 
N154 X-152.003 Y-38.464 Z10.837 B-0.0780 
N155 X-152.003 Y-38.463 Z9.257 B-0.0855 
N156 X-152.003 Y-38.461 Z7.818 B-0.0904 
N157 X-152.003 Y-38.461 Z6.528 A91.0574 B-0.0941 
N158 X-152.003 Y-38.500 Z5.387 A91.1798 B-0.0978 
N159 X-152.003 Y-38.716 Z4.388 A91.8513 B-0.1039 
N160 X-152.003 Y-39.244 Z3.508 A93.5072 B-0.1172 
N161 X-152.003 Y-40.068 Z2.709 A96.1285 B-0.1410 
N162 X-152.003 Y-41.073 Z1.952 A99.3861 B-0.1763 
N163 X-152.004 Y-42.160 Z1.211 A102.9874 B-0.2217 
N164 X-152.004 Y-43.257 Z0.474 A106.7097 B-0.2749 
N165 X-152.004 Y-44.311 Z-0.263 A110.3897 B-0.3328 
N166 X-152.005 Y-45.297 Z-0.995 A113.9410 B-0.3921 
N167 X-152.005 Y-46.208 Z-1.723 A117.3368 B-0.4495 
N168 X-152.005 Y-47.045 Z-2.444 A120.5673 B-0.5018 
N169 X-152.005 Y-47.803 Z-3.157 A123.6196 B-0.5466 
N170 X-152.006 Y-48.488 Z-3.858 A126.4988 B-0.5823 
N171 X-152.006 Y-49.108 Z-4.552 A129.2367 B-0.6085 
N172 X-152.006 Y-49.675 Z-5.246 A131.8744 B-0.6254 
N173 X-152.006 Y-50.198 Z-5.947 A134.4472 B-0.6333 
N174 X-152.006 Y-50.682 Z-6.661 A136.9876 B-0.6326 
N175 X-152.006 Y-51.133 Z-7.398 A139.5299 B-0.6237 
N176 X-152.006 Y-51.555 Z-8.169 A142.1142 B-0.6070 
N177 X-152.006 Y-51.951 Z-8.989 A144.7875 B-0.5828 
N178 X-152.005 Y-52.320 Z-9.875 A147.6017 B-0.5514 
N179 X-152.005 Y-52.658 Z-10.846 A150.6094 B-0.5132 
N180 X-152.005 Y-52.953 Z-11.918 A153.8542 B-0.4688 
N181 X-152.005 Y-53.182 Z-13.101 A157.3564 B-0.4194 
N182 X-152.004 Y-53.313 Z-14.394 A161.1040 B-0.3667 
N183 X-152.004 Y-53.309 Z-15.775 A165.0435 B-0.3131 
N184 X-152.004 Y-53.128 Z-17.201 A169.0674 B-0.2615 
N185 X-152.004 Y-52.731 Z-18.590 A172.9679 B-0.2155 
N186 X-152.003 Y-52.094 Z-19.802 A176.3744 B-0.1789 
N187 X-152.003 Y-51.218 Z-20.675 A178.8414 B-0.1539 
N188 X-152.003 Y-50.118 Z-21.163 A180.2262 B-0.1399 
N189 X-152.003 Y-48.792 Z-21.359 A180.7839 B-0.1336 
N190 X-152.003 Y-47.221 Z-21.402 A180.8998 B-0.1305 
N191 X-152.003 Y-45.384 Z-21.406 A180.9037 B-0.1277 
N192 X-152.003 Y-43.265 Z-21.410 B-0.1245 
N193 X-152.003 Y-40.857 Z-21.414 B-0.1208 
N194 X-152.003 Y-38.165 Z-21.418 B-0.1167 
N195 X-152.003 Y-35.204 Z-21.423 B-0.1122 
N196 X-152.003 Y-31.999 Z-21.429 B-0.1073 
N197 X-152.003 Y-28.588 Z-21.434 B-0.1021 
N198 X-152.003 Y-25.021 Z-21.440 B-0.0966 
N199 X-152.003 Y-21.353 Z-21.447 B-0.0910 
N200 X-152.003 Y-17.646 Z-21.453 B-0.0853 
N201 X-152.003 Y-13.963 Z-21.459 B-0.0773 
N202 X-152.003 Y-10.368 Z-21.465 B-0.0667 
N203 X-152.003 Y-6.918 Z-21.471 B-0.0566 
N204 X-152.003 Y-3.663 Z-21.476 B-0.0462 
N205 X-152.002 Y-0.643 Z-21.481 B-0.0324 
N206 X-152.002 Y2.111 Z-21.486 B-0.0199 
N207 X-152.002 Y4.582 Z-21.490 B-0.0109 
N208 X-152.002 Y6.764 Z-21.494 B-0.0049 
N209 X-152.002 Y8.662 Z-21.497 A180.9038 B-0.0016 
N210 X-152.002 Y10.288 Z-21.514 A180.9483 B-0.0004 
N211 X-152.002 Y11.665 Z-21.634 A181.3127 B-0.0001 
N212 X-152.002 Y12.824 Z-21.986 A182.4156 B-0.0002 
N213 X-152.002 Y13.814 Z-22.647 A184.5176 B-0.0014 
N214 X-152.002 Y14.696 Z-23.609 A187.6213 B-0.0051 
N215 X-152.002 Y15.531 Z-24.763 A191.4131 B-0.0118 
N216 X-152.002 Y16.346 Z-25.964 A195.4571 B-0.0203 
N217 X-152.002 Y17.148 Z-27.119 A199.4584 B-0.0287 
N218 X-152.002 Y17.933 Z-28.185 A203.2758 B-0.0354 
N219 X-152.002 Y18.701 Z-29.152 A206.8641 B-0.0394 
N220 X-152.002 Y19.451 Z-30.027 A210.2329 B-0.0406 
N221 X-152.002 Y20.190 Z-30.822 A213.4144 B-0.0393 
N222 X-152.002 Y20.919 Z-31.543 A216.4306 B-0.0361 
N223 X-152.002 Y21.640 Z-32.196 A219.2962 B-0.0317 
N224 X-152.002 Y22.355 Z-32.788 A222.0311 B-0.0265 
N225 X-152.002 Y23.069 Z-33.324 A224.6620 B-0.0210 
N226 X-152.002 Y23.787 Z-33.812 A227.2212 B-0.0153 
N227 X-152.002 Y24.519 Z-34.261 A229.7480 B-0.0099 
N228 X-152.002 Y25.276 Z-34.676 A232.2882 B-0.0048 
N229 X-152.002 Y26.073 Z-35.062 A234.8928 B-0.0002 
N230 X-152.002 Y26.928 Z-35.423 A237.6168 B0.0037 
N231 X-152.002 Y27.859 Z-35.756 A240.5145 B0.0066 
N232 X-152.002 Y28.882 Z-36.051 A243.6283 B0.0084 
N233 X-152.002 Y30.003 Z-36.291 A246.9732 B0.0088 
N234 X-152.002 Y31.218 Z-36.450 A250.5262 B0.0079 
N235 X-152.002 Y32.503 Z-36.495 A254.2231 B0.0059 
N236 X-152.002 Y33.823 Z-36.397 A257.9761 B0.0036 
N237 X-152.002 Y35.122 Z-36.131 A261.6472 B0.0017 
N238 X-152.002 Y36.306 Z-35.678 A264.9871 B0.0006 
N239 X-152.002 Y37.250 Z-35.040 A267.6576 B0.0002 
N240 X-152.002 Y37.883 Z-34.235 A269.4552 B0.0000 
N241 X-152.002 Y38.230 Z-33.278 A270.4474 B0.0000 
N242 X-152.002 Y38.376 Z-32.173 A270.8671 
N243 X-152.002 Y38.413 Z-30.917 A270.9740 
N244 X-152.002 Y38.416 Z-29.512 A270.9827 
N245 X-152.002 Y38.417 Z-27.961 
N246 X-152.002 Y38.417 Z-26.278 
N247 X-152.002 Y38.418 Z-24.482 
N248 X-152.002 Y38.418 Z-22.596 
N249 X-152.002 Y38.419 Z-20.651 
N250 X-152.002 Y38.419 Z-18.679 
N251 X-152.002 Y38.420 Z-16.715 
N252 X-152.002 Y38.421 Z-14.792 
N253 X-152.002 Y38.421 Z-12.942 
N254 X-152.002 Y38.422 Z-11.192 
N255 X-152.002 Y38.422 Z-9.566 
N256 X-152.002 Y38.423 Z-8.078 
N257 X-152.002 Y38.423 Z-6.740 A270.9832 
N258 X-152.002 Y38.444 Z-5.554 A271.0447 
N259 X-152.002 Y38.583 Z-4.515 A271.4745 
N260 X-152.002 Y38.969 Z-3.607 A272.6794 
N261 X-152.002 Y39.636 Z-2.801 A274.7868 
N262 X-152.002 Y40.537 Z-2.057 A277.6803 
N263 X-152.002 Y41.603 Z-1.335 A281.1580 
N264 X-152.002 Y42.740 Z-0.611 A284.9454 
N265 X-152.002 Y43.859 Z0.120 A288.7718 
N266 X-152.002 Y44.911 Z0.852 A292.4834 
N267 X-152.002 Y45.883 Z1.581 A296.0255 
N268 X-152.002 Y46.772 Z2.305 A299.3824 
N269 X-152.002 Y47.575 Z3.019 A302.5395 
N270 X-152.002 Y48.296 Z3.721 A305.5011 
N271 X-152.002 Y48.947 Z4.412 A308.2984 
N272 X-152.002 Y49.540 Z5.100 A310.9763 
N273 X-152.002 Y50.085 Z5.793 A313.5751 
N274 X-152.002 Y50.590 Z6.497 A316.1308 
N275 X-152.002 Y51.060 Z7.222 A318.6788 
N276 X-152.002 Y51.502 Z7.977 A321.2582 
N277 X-152.002 Y51.918 Z8.778 A323.9147 
N278 X-152.002 Y52.308 Z9.640 A326.6984 
N279 X-152.002 Y52.671 Z10.581 A329.6617 
N280 X-152.002 Y52.997 Z11.620 A332.8522 
N281 X-152.002 Y53.266 Z12.769 A336.2996 
N282 X-152.002 Y53.451 Z14.030 A340.0018 
N283 X-152.002 Y53.515 Z15.388 A343.9171 
N284 X-152.002 Y53.417 Z16.807 A347.9513 
N285 X-152.002 Y53.119 Z18.217 A351.9359 
N286 X-152.002 Y52.592 Z19.507 A355.5781 
N287 X-152.002 Y51.830 Z20.513 A358.4367 
N288 X-152.002 Y50.847 Z21.115 A0.1578 
N289 X-152.002 Y49.651 Z21.366 A0.8858 
N290 X-152.002 Y48.226 Z21.435 A1.0944 
N291 X-152.002 Y46.550 Z21.441 A1.1218 
N292 X-152.002 Y44.603 Z21.436 A1.1219 
N293 X-152.002 Y42.377 Z21.432 
N294 X-152.002 Y39.869 Z21.426 
N295 X-152.002 Y37.089 Z21.420 
N296 X-152.002 Y34.058 Z21.414 
N297 X-152.002 Y30.806 Z21.407 
N298 X-152.002 Y27.376 Z21.400 
N299 X-152.002 Y23.819 Z21.392 
N300 X-152.002 Y20.193 Z21.384 
N301 X-152.002 Y16.558 Z21.377 A1.1220 
N302 X-152.002 Y12.976 Z21.372 A1.1304 
N303 X-152.002 Y9.505 Z21.401 A1.2485 
N304 X-152.002 Y6.197 Z21.468 A1.5138 
N305 X-152.002 Y3.096 Z21.536 A1.8280 
N306 X-152.002 Y0.239 Z21.573 A2.0821 
N307 X-152.002 Y-2.352 Z21.571 A2.2354 
N308 X-152.002 Y-4.663 Z21.547 A2.3180 
N309 X-152.002 Y-6.695 Z21.511 A2.3526 
N310 X-152.002 Y-8.455 Z21.473 A2.3623 
N311 X-152.002 Y-9.961 Z21.470 A2.4623 
N312 X-152.002 Y-11.240 Z21.636 A3.0753 
N313 X-152.002 Y-12.334 Z22.106 A4.6398 B0.0001 
N314 X-152.002 Y-13.298 Z22.891 A7.2303 B0.0008 
N315 X-152.002 Y-14.189 Z23.917 A10.6416 B0.0026 
N316 X-152.002 Y-15.048 Z25.057 A14.5063 B0.0058 
N317 X-152.002 Y-15.891 Z26.196 A18.4748 B0.0101 
N318 X-152.002 Y-16.717 Z27.271 A22.3395 B0.0148 
N319 X-152.002 Y-17.523 Z28.256 A26.0063 B0.0191 
N320 X-152.002 Y-18.307 Z29.144 A29.4420 B0.0225 
N321 X-152.002 Y-19.068 Z29.940 A32.6541 B0.0245 
N322 X-152.002 Y-19.812 Z30.656 A35.6727 B0.0251 
N323 X-152.002 Y-20.543 Z31.303 A38.5306 B0.0243 
N324 X-152.002 Y-21.265 Z31.888 A41.2577 B0.0223 
N325 X-152.002 Y-21.985 Z32.420 A43.8856 B0.0193 
N326 X-152.002 Y-22.711 Z32.907 A46.4481 B0.0155 
N327 X-152.002 Y-23.450 Z33.355 A48.9831 B0.0112 
N328 X-152.002 Y-24.214 Z33.770 A51.5340 B0.0065 
N329 X-152.002 Y-25.019 Z34.157 A54.1491 B0.0016 
N330 X-152.002 Y-25.880 Z34.518 A56.8797 B-0.0034 
N331 X-152.002 Y-26.814 Z34.849 A59.7761 B-0.0082 
N332 X-152.002 Y-27.836 Z35.142 A62.8770 B-0.0126 
N333 X-152.002 Y-28.954 Z35.380 A66.1945 B-0.0166 
N334 X-152.002 Y-30.160 Z35.535 A69.7069 B-0.0197 
N335 X-152.002 Y-31.435 Z35.578 A73.3576 B-0.0220 
N336 X-152.002 Y-32.747 Z35.481 A77.0682 B-0.0235 
N337 X-152.002 Y-34.043 Z35.217 A80.7039 B-0.0245 
N338 X-152.002 Y-35.228 Z34.767 A84.0196 B-0.0256 
N339 X-152.002 Y-36.187 Z34.131 A86.6977 B-0.0277 
N340 X-152.002 Y-36.852 Z33.324 A88.5497 B-0.0314 
N341 X-152.002 Y-37.233 Z32.363 A89.5999 B-0.0376 
N342 X-152.003 Y-37.399 Z31.255 A90.0309 B-0.0462 
N343 X-152.003 Y-37.450 Z30.002 A90.1262 B-0.0564 
N344 X-152.003 Y-37.473 Z28.604 A90.1314 B-0.0665 
N345 X-152.003 Y-37.496 Z27.071 B-0.0753 
N346 X-152.003 Y-37.522 Z25.414 B-0.0827 
N347 X-152.003 Y-37.548 Z23.654 B-0.0897 
N348 X-152.003 Y-37.576 Z21.816 B-0.0968 
N349 X-152.003 Y-37.605 Z19.928 B-0.1041 
N350 X-152.003 Y-37.634 Z18.023 B-0.1114 
N351 X-152.003 Y-37.662 Z16.134 B-0.1187 
N352 X-152.003 Y-37.690 Z14.292 B-0.1258 
N353 X-152.003 Y-37.717 Z12.528 B-0.1325 
N354 X-152.003 Y-37.742 Z10.867 B-0.1389 
N355 X-152.003 Y-37.765 Z9.329 B-0.1448 
N356 X-152.003 Y-37.787 Z7.927 B-0.1502 
N357 X-152.003 Y-37.806 Z6.670 A90.1325 B-0.1551 
N358 X-152.003 Y-37.853 Z5.558 A90.2249 B-0.1598 
N359 X-152.003 Y-38.059 Z4.589 A90.8129 B-0.1673 
N360 X-152.003 Y-38.576 Z3.741 A92.3874 B-0.1825 
N361 X-152.003 Y-39.412 Z2.976 A94.9958 B-0.2092 
N362 X-152.004 Y-40.451 Z2.252 A98.3090 B-0.2478 
N363 X-152.004 Y-41.582 Z1.539 A101.9955 B-0.2968 
N364 X-152.004 Y-42.720 Z0.824 A105.8012 B-0.3535 
N365 X-152.005 Y-43.804 Z0.108 A109.5311 B-0.4145 
N366 X-152.005 Y-44.804 Z-0.601 A113.0825 B-0.4764 
N367 X-152.005 Y-45.716 Z-1.302 A116.4349 B-0.5361 
N368 X-152.006 Y-46.550 Z-1.995 A119.6059 B-0.5907 
N369 X-152.006 Y-47.308 Z-2.678 A122.6012 B-0.6381 
N370 X-152.006 Y-47.994 Z-3.352 A125.4283 B-0.6767 
N371 X-152.006 Y-48.617 Z-4.018 A128.1137 B-0.7061 
N372 X-152.006 Y-49.189 Z-4.684 A130.7001 B-0.7263 
N373 X-152.007 Y-49.720 Z-5.358 A133.2277 B-0.7378 
N374 X-152.007 Y-50.217 Z-6.047 A135.7320 B-0.7410 
N375 X-152.007 Y-50.686 Z-6.760 A138.2467 B-0.7364 
N376 X-152.006 Y-51.129 Z-7.508 A140.8087 B-0.7243 
N377 X-152.006 Y-51.550 Z-8.304 A143.4600 B-0.7049 
N378 X-152.006 Y-51.949 Z-9.163 A146.2466 B-0.6785 
N379 X-152.006 Y-52.321 Z-10.103 A149.2162 B-0.6451 
N380 X-152.006 Y-52.658 Z-11.139 A152.4119 B-0.6052 
N381 X-152.006 Y-52.940 Z-12.285 A155.8597 B-0.5594 
N382 X-152.005 Y-53.139 Z-13.540 A159.5545 B-0.5090 
N383 X-152.005 Y-53.219 Z-14.887 A163.4473 B-0.4559 
N384 X-152.005 Y-53.140 Z-16.286 A167.4278 B-0.4027 
N385 X-152.004 Y-52.865 Z-17.663 A171.3100 B-0.3527 
N386 X-152.004 Y-52.370 Z-18.918 A174.8359 B-0.3097 
N387 X-152.004 Y-51.648 Z-19.930 A177.6885 B-0.2767 
N388 X-152.004 Y-50.707 Z-20.609 A179.6136 B-0.2557 
N389 X-152.004 Y-49.554 Z-20.963 A180.6276 B-0.2455 
N390 X-152.004 Y-48.180 Z-21.087 A180.9886 B-0.2425 
N391 X-152.004 Y-46.563 Z-21.104 A181.0419 B-0.2423 
N392 X-152.004 Y-44.687 Z-21.103 A181.0423 B-0.2424 
N393 X-152.004 Y-42.540 Z-21.101 B-0.2426 
N394 X-152.004 Y-40.121 Z-21.099 B-0.2429 
N395 X-152.004 Y-37.437 Z-21.097 B-0.2431 
N396 X-152.004 Y-34.508 Z-21.095 B-0.2434 
N397 X-152.004 Y-31.362 Z-21.093 B-0.2436 
N398 X-152.004 Y-28.039 Z-21.090 B-0.2439 
N399 X-152.004 Y-24.588 Z-21.088 B-0.2443 
N400 X-152.004 Y-21.062 Z-21.085 B-0.2446 
N401 X-152.004 Y-17.520 Z-21.083 B-0.2449 
N402 X-152.004 Y-14.021 Z-21.080 A181.0430 B-0.2452 
N403 X-152.004 Y-10.621 Z-21.109 A181.1414 B-0.2458 
N404 X-152.004 Y-7.369 Z-21.226 A181.5479 B-0.2502 
N405 X-152.004 Y-4.308 Z-21.377 A182.1339 B-0.2557 
N406 X-152.004 Y-1.474 Z-21.505 A182.7311 B-0.2440 
N407 X-152.004 Y1.105 Z-21.551 A183.1297 B-0.2257 
N408 X-152.003 Y3.415 Z-21.536 A183.3581 B-0.2110 
N409 X-152.003 Y5.455 Z-21.492 A183.4849 B-0.1998 
N410 X-152.003 Y7.230 Z-21.429 A183.5291 B-0.1906 
N411 X-152.003 Y8.756 Z-21.376 A183.5728 B-0.1829 
N412 X-152.003 Y10.060 Z-21.448 A183.9754 B-0.1757 
N413 X-152.003 Y11.183 Z-21.817 A185.2857 B-0.1685 
N414 X-152.003 Y12.176 Z-22.524 A187.6763 B-0.1611 
N415 X-152.003 Y13.095 Z-23.486 A190.9239 B-0.1536 
N416 X-152.003 Y13.980 Z-24.582 A194.6853 B-0.1455 
N417 X-152.003 Y14.848 Z-25.699 A198.6103 B-0.1367 
N418 X-152.003 Y15.698 Z-26.757 A202.4540 B-0.1273 
N419 X-152.003 Y16.523 Z-27.721 A206.0902 B-0.1174 
N420 X-152.003 Y17.320 Z-28.585 A209.4809 B-0.1072 
N421 X-152.003 Y18.091 Z-29.358 A212.6448 B-0.0967 
N422 X-152.003 Y18.843 Z-30.055 A215.6293 B-0.0858 
N423 X-152.003 Y19.586 Z-30.690 A218.4809 B-0.0744 
N424 X-152.003 Y20.325 Z-31.270 A221.2266 B-0.0628 
N425 X-152.003 Y21.064 Z-31.800 A223.8867 B-0.0508 
N426 X-152.002 Y21.809 Z-32.283 A226.4839 B-0.0388 
N427 X-152.002 Y22.567 Z-32.725 A229.0485 B-0.0268 
N428 X-152.002 Y23.350 Z-33.131 A231.6224 B-0.0149 
N429 X-152.002 Y24.173 Z-33.506 A234.2589 B-0.0032 
N430 X-152.002 Y25.055 Z-33.852 A237.0184 B0.0084 
N431 X-152.002 Y26.016 Z-34.168 A239.9610 B0.0199 
N432 X-152.002 Y27.074 Z-34.444 A243.1303 B0.0311 
N433 X-152.002 Y28.233 Z-34.658 A246.5335 B0.0417 
N434 X-152.002 Y29.481 Z-34.780 A250.1308 B0.0516 
N435 X-152.002 Y30.790 Z-34.777 A253.8415 B0.0602 
N436 X-152.002 Y32.117 Z-34.619 A257.5572 B0.0673 
N437 X-152.002 Y33.389 Z-34.281 A261.0911 B0.0726 
N438 X-152.002 Y34.497 Z-33.751 A264.1506 B0.0760 
N439 X-152.002 Y35.338 Z-33.034 A266.4520 B0.0774 
N440 X-152.002 Y35.880 Z-32.151 A267.9032 B0.0771 
N441 X-152.002 Y36.164 Z-31.114 A268.6078 B0.0753 
N442 X-152.002 Y36.281 Z-29.930 A268.8183 B0.0725 
N443 X-152.002 Y36.339 Z-28.604 A268.8421 B0.0684 
N444 X-152.002 Y36.394 Z-27.141 A268.8422 B0.0627 
N445 X-152.002 Y36.454 Z-25.553 B0.0549 
N446 X-152.002 Y36.518 Z-23.856 B0.0452 
N447 X-152.002 Y36.585 Z-22.073 B0.0347 
N448 X-152.002 Y36.654 Z-20.232 B0.0247 
N449 X-152.002 Y36.725 Z-18.364 B0.0159 
N450 X-152.002 Y36.795 Z-16.499 B0.0085 
N451 X-152.002 Y36.864 Z-14.671 B0.0033 
N452 X-152.002 Y36.930 Z-12.909 B0.0008 
N453 X-152.002 Y36.993 Z-11.240 B0.0001 
N454 X-152.002 Y37.052 Z-9.686 B0.0000 
N455 X-152.002 Y37.105 Z-8.262 B0.0000 
N456 X-152.002 Y37.154 Z-6.978 A268.8422 
N457 X-152.002 Y37.208 Z-5.839 A268.8756 
N458 X-152.002 Y37.356 Z-4.843 A269.2148 
N459 X-152.002 Y37.752 Z-3.983 A270.3429 
N460 X-152.002 Y38.457 Z-3.231 A272.4693 
N461 X-152.002 Y39.413 Z-2.542 A275.4368 
N462 X-152.002 Y40.528 Z-1.875 A278.9769 
N463 X-152.002 Y41.711 Z-1.204 A282.8177 
N464 X-152.002 Y42.869 Z-0.523 A286.6769 
N465 X-152.002 Y43.945 Z0.160 A290.3714 
N466 X-152.002 Y44.923 Z0.836 A293.8377 
N467 X-152.002 Y45.810 Z1.503 A297.0901 
N468 X-152.002 Y46.617 Z2.162 A300.1501 
N469 X-152.002 Y47.348 Z2.812 A303.0293 
N470 X-152.002 Y48.010 Z3.454 A305.7480 
N471 X-152.002 Y48.616 Z4.091 A308.3428 
N472 X-152.002 Y49.177 Z4.733 A310.8585 
N473 X-152.002 Y49.703 Z5.386 A313.3351 
N474 X-152.002 Y50.200 Z6.060 A315.8086 
N475 X-152.002 Y50.674 Z6.763 A318.3143 
N476 X-152.002 Y51.128 Z7.508 A320.8907 
N477 X-152.002 Y51.565 Z8.307 A323.5815 
N478 X-152.002 Y51.983 Z9.179 A326.4336 
N479 X-152.002 Y52.378 Z10.138 A329.4933 
N480 X-152.002 Y52.737 Z11.203 A332.7995 
N481 X-152.002 Y53.040 Z12.382 A336.3715 
N482 X-152.002 Y53.255 Z13.673 A340.1932 
N483 X-152.002 Y53.344 Z15.053 A344.2007 
N484 X-152.002 Y53.268 Z16.471 A348.2584 
N485 X-152.002 Y52.990 Z17.838 A352.1326 
N486 X-152.002 Y52.494 Z19.041 A355.5292 
N487 X-152.002 Y51.782 Z19.975 A358.1735 
N488 X-152.002 Y50.863 Z20.576 A359.8871 
N489 X-152.002 Y49.742 Z20.872 A0.7389 
N490 X-152.002 Y48.406 Z20.974 A1.0399 
N491 X-152.002 Y46.835 Z20.990 A1.0955 
N492 X-152.002 Y45.012 Z20.988 A1.0969 
N493 X-152.002 Y42.926 Z20.984 
N494 X-152.002 Y40.575 Z20.980 
N495 X-152.002 Y37.968 Z20.976 
N496 X-152.002 Y35.121 Z20.971 
N497 X-152.002 Y32.063 Z20.966 
N498 X-152.002 Y28.832 Z20.961 
N499 X-152.002 Y25.472 Z20.955 
N500 X-152.002 Y22.036 Z20.949 
N501 X-152.002 Y18.578 Z20.943 
N502 X-152.002 Y15.155 Z20.940 A1.1042 
N503 X-152.002 Y11.819 Z20.979 A1.2498 
N504 X-152.002 Y8.616 Z21.171 A1.9118 
N505 X-152.002 Y5.587 Z21.428 A2.9049 
N506 X-152.002 Y2.766 Z21.651 A3.9301 
N507 X-152.002 Y0.188 Z21.733 A4.6226 
N508 X-152.002 Y-2.131 Z21.711 A5.0221 B0.0002 
N509 X-152.002 Y-4.189 Z21.635 A5.2409 B0.0016 
N510 X-152.002 Y-5.990 Z21.531 A5.3324 B0.0061 
N511 X-152.002 Y-7.548 Z21.421 A5.3578 B0.0141 
N512 X-152.002 Y-8.887 Z21.383 A5.5526 B0.0245 
N513 X-152.002 Y-10.049 Z21.598 A6.4945 B0.0360 
N514 X-152.002 Y-11.086 Z22.176 A8.5643 B0.0480 
N515 X-152.002 Y-12.047 Z23.042 A11.5815 B0.0588 
N516 X-152.002 Y-12.971 Z24.062 A15.1621 B0.0663 
N517 X-152.002 Y-13.872 Z25.119 A18.9528 B0.0699 
N518 X-152.002 Y-14.751 Z26.131 A22.7050 B0.0703 
N519 X-152.002 Y-15.605 Z27.064 A26.2915 B0.0686 
N520 X-152.002 Y-16.429 Z27.907 A29.6677 B0.0653 
N521 X-152.002 Y-17.227 Z28.664 A32.8338 B0.0610 
N522 X-152.002 Y-18.003 Z29.344 A35.8170 B0.0558 
N523 X-152.002 Y-18.764 Z29.961 A38.6582 B0.0499 
N524 X-152.002 Y-19.519 Z30.523 A41.3933 B0.0432 
N525 X-152.002 Y-20.274 Z31.036 A44.0506 B0.0359 
N526 X-152.002 Y-21.038 Z31.505 A46.6583 B0.0280 
N527 X-152.002 Y-21.817 Z31.936 A49.2494 B0.0197 
N528 X-152.002 Y-22.626 Z32.332 A51.8660 B0.0108 
N529 X-152.002 Y-23.479 Z32.696 A54.5589 B0.0015 
N530 X-152.002 Y-24.395 Z33.030 A57.3826 B-0.0083 
N531 X-152.002 Y-25.390 Z33.328 A60.3867 B-0.0187 
N532 X-152.002 Y-26.477 Z33.576 A63.5996 B-0.0296 
N533 X-152.002 Y-27.656 Z33.752 A67.0149 B-0.0411 
N534 X-152.003 Y-28.912 Z33.827 A70.5889 B-0.0529 
N535 X-152.003 Y-30.219 Z33.769 A74.2523 B-0.0649 
N536 X-152.003 Y-31.531 Z33.552 A77.8910 B-0.0768 
N537 X-152.003 Y-32.766 Z33.151 A81.2865 B-0.0883 
N538 X-152.003 Y-33.810 Z32.557 A84.1304 B-0.0988 
N539 X-152.003 Y-34.577 Z31.781 A86.1871 B-0.1080 
N540 X-152.003 Y-35.045 Z30.841 A87.3849 B-0.1157 
N541 X-152.003 Y-35.267 Z29.753 A87.8593 B-0.1223 
N542 X-152.003 Y-35.363 Z28.523 A87.9509 B-0.1284 
N543 X-152.003 Y-35.437 Z27.160 A87.9541 B-0.1349 
N544 X-152.003 Y-35.516 Z25.673 B-0.1420 
N545 X-152.003 Y-35.601 Z24.076 B-0.1496 
N546 X-152.003 Y-35.691 Z22.388 B-0.1576 
N547 X-152.003 Y-35.784 Z20.634 B-0.1660 
N548 X-152.003 Y-35.880 Z18.843 B-0.1745 
N549 X-152.003 Y-35.975 Z17.044 B-0.1831 
N550 X-152.003 Y-36.070 Z15.268 B-0.1915 
N551 X-152.003 Y-36.161 Z13.546 B-0.1997 
N552 X-152.003 Y-36.249 Z11.903 B-0.2075 
N553 X-152.004 Y-36.331 Z10.363 B-0.2149 
N554 X-152.004 Y-36.406 Z8.943 A87.9541 B-0.2216 
N555 X-152.004 Y-36.476 Z7.654 A87.9586 B-0.2278 
N556 X-152.004 Y-36.550 Z6.503 A87.9968 B-0.2338 
N557 X-152.004 Y-36.675 Z5.491 A88.2152 B-0.2410 
N558 X-152.004 Y-36.987 Z4.617 A89.0400 B-0.2538 
N559 X-152.004 Y-37.624 Z3.860 A90.9047 B-0.2771 
N560 X-152.004 Y-38.569 Z3.178 A93.7817 B-0.3132 
N561 X-152.004 Y-39.692 Z2.524 A97.2931 B-0.3607 
N562 X-152.005 Y-40.877 Z1.872 A101.0900 B-0.4171 
N563 X-152.005 Y-42.044 Z1.211 A104.9262 B-0.4795 
N564 X-152.005 Y-43.138 Z0.547 A108.6229 B-0.5444 
N565 X-152.006 Y-44.132 Z-0.110 A112.0915 B-0.6087 
N566 X-152.006 Y-45.030 Z-0.758 A115.3258 B-0.6699 
N567 X-152.006 Y-45.848 Z-1.396 A118.3681 B-0.7260 
N568 X-152.007 Y-46.595 Z-2.030 A121.2482 B-0.7754 
N569 X-152.007 Y-47.278 Z-2.657 A123.9795 B-0.8167 
N570 X-152.007 Y-47.903 Z-3.280 A126.5801 B-0.8494 
N571 X-152.007 Y-48.478 Z-3.904 A129.0837 B-0.8736 
N572 X-152.007 Y-49.016 Z-4.535 A131.5317 B-0.8895 
N573 X-152.007 Y-49.524 Z-5.183 A133.9628 B-0.8976 
N574 X-152.007 Y-50.009 Z-5.856 A136.4130 B-0.8984 
N575 X-152.007 Y-50.474 Z-6.565 A138.9182 B-0.8921 
N576 X-152.007 Y-50.924 Z-7.322 A141.5170 B-0.8790 
N577 X-152.007 Y-51.357 Z-8.140 A144.2512 B-0.8590 
N578 X-152.007 Y-51.773 Z-9.035 A147.1636 B-0.8322 
N579 X-152.007 Y-52.162 Z-10.024 A150.2947 B-0.7985 
N580 X-152.007 Y-52.509 Z-11.120 A153.6750 B-0.7579 
N581 X-152.006 Y-52.792 Z-12.328 A157.3121 B-0.7112 
N582 X-152.006 Y-52.977 Z-13.641 A161.1764 B-0.6595 
N583 X-152.006 Y-53.026 Z-15.027 A165.1806 B-0.6051 
N584 X-152.005 Y-52.900 Z-16.421 A169.1548 B-0.5508 
N585 X-152.005 Y-52.568 Z-17.728 A172.8460 B-0.5005 
N586 X-152.005 Y-52.022 Z-18.847 A175.9970 B-0.4581 
N587 X-152.005 Y-51.266 Z-19.699 A178.3997 B-0.4263 
N588 X-152.005 Y-50.308 Z-20.246 A179.9523 B-0.4065 
N589 X-152.005 Y-49.148 Z-20.520 A180.7386 B-0.3971 
N590 X-152.005 Y-47.772 Z-20.608 A180.9977 B-0.3944 
N591 X-152.005 Y-46.162 Z-20.619 A181.0298 B-0.3942 
N592 X-152.005 Y-44.304 Z-20.618 A181.0299 B-0.3942 
N593 X-152.005 Y-42.191 Z-20.616 B-0.3942 
N594 X-152.005 Y-39.823 Z-20.615 B-0.3943 
N595 X-152.005 Y-37.210 Z-20.614 B-0.3943 
N596 X-152.005 Y-34.375 Z-20.612 B-0.3943 
N597 X-152.005 Y-31.345 Z-20.611 B-0.3943 
N598 X-152.005 Y-28.160 Z-20.609 B-0.3944 
N599 X-152.005 Y-24.866 Z-20.607 B-0.3944 
N600 X-152.005 Y-21.513 Z-20.606 B-0.3945 
N601 X-152.005 Y-18.154 Z-20.604 B-0.3945 
N602 X-152.005 Y-14.844 Z-20.603 A181.0337 B-0.3946 
N603 X-152.005 Y-11.631 Z-20.639 A181.1526 B-0.3957 
N604 X-152.005 Y-8.557 Z-20.845 A181.8414 B-0.4010 
N605 X-152.005 Y-5.654 Z-21.167 A183.0185 B-0.4133 
N606 X-152.005 Y-2.954 Z-21.486 A184.3536 B-0.4069 
N607 X-152.004 Y-0.487 Z-21.659 A185.3728 B-0.3812 
N608 X-152.004 Y1.727 Z-21.695 A186.0281 B-0.3584 
N609 X-152.004 Y3.686 Z-21.630 A186.3675 B-0.3414 
N610 X-152.004 Y5.398 Z-21.510 A186.4950 B-0.3277 
N611 X-152.004 Y6.879 Z-21.383 A186.5447 B-0.3161 
N612 X-152.004 Y8.158 Z-21.339 A186.7871 B-0.3051 
N613 X-152.004 Y9.278 Z-21.557 A187.8017 B-0.2925 
N614 X-152.004 Y10.297 Z-22.147 A189.9670 B-0.2769 
N615 X-152.004 Y11.259 Z-23.023 A193.0726 B-0.2589 
N616 X-152.004 Y12.196 Z-24.036 A196.6964 B-0.2395 
N617 X-152.004 Y13.115 Z-25.070 A200.4855 B-0.2194 
N618 X-152.003 Y14.013 Z-26.049 A204.2001 B-0.1993 
N619 X-152.003 Y14.880 Z-26.939 A207.7183 B-0.1797 
N620 X-152.003 Y15.715 Z-27.734 A211.0066 B-0.1606 
N621 X-152.003 Y16.520 Z-28.443 A214.0801 B-0.1420 
N622 X-152.003 Y17.303 Z-29.078 A216.9812 B-0.1238 
N623 X-152.003 Y18.074 Z-29.655 A219.7627 B-0.1057 
N624 X-152.003 Y18.845 Z-30.184 A222.4646 B-0.0874 
N625 X-152.003 Y19.620 Z-30.669 A225.1113 B-0.0689 
N626 X-152.003 Y20.408 Z-31.111 A227.7259 B-0.0504 
N627 X-152.002 Y21.218 Z-31.514 A230.3402 B-0.0319 
N628 X-152.002 Y22.064 Z-31.882 A233.0027 B-0.0134 
N629 X-152.002 Y22.966 Z-32.218 A235.7768 B0.0051 
N630 X-152.002 Y23.947 Z-32.522 A238.7295 B0.0236 
N631 X-152.002 Y25.024 Z-32.783 A241.9097 B0.0421 
N632 X-152.002 Y26.203 Z-32.979 A245.3201 B0.0602 
N633 X-152.002 Y27.467 Z-33.079 A248.9095 B0.0774 
N634 X-152.002 Y28.786 Z-33.048 A252.5910 B0.0930 
N635 X-152.002 Y30.115 Z-32.857 A256.2504 B0.1064 
N636 X-152.002 Y31.375 Z-32.480 A259.6796 B0.1170 
N637 X-152.002 Y32.452 Z-31.905 A262.5716 B0.1239 
N638 X-152.002 Y33.257 Z-31.139 A264.6741 B0.1270 
N639 X-152.002 Y33.759 Z-30.203 A265.8967 B0.1264 
N640 X-152.002 Y34.009 Z-29.113 A266.3713 B0.1229 
N641 X-152.002 Y34.136 Z-27.881 A266.4575 B0.1175 
N642 X-152.002 Y34.245 Z-26.519 A266.4599 B0.1114 
N643 X-152.002 Y34.363 Z-25.037 B0.1046 
N644 X-152.002 Y34.489 Z-23.449 B0.0974 
N645 X-152.002 Y34.622 Z-21.776 B0.0898 
N646 X-152.002 Y34.760 Z-20.042 B0.0818 
N647 X-152.002 Y34.900 Z-18.275 B0.0733 
N648 X-152.002 Y35.040 Z-16.505 B0.0622 
N649 X-152.002 Y35.179 Z-14.763 B0.0473 
N650 X-152.002 Y35.313 Z-13.076 B0.0310 
N651 X-152.002 Y35.440 Z-11.472 B0.0167 
N652 X-152.002 Y35.559 Z-9.972 B0.0068 
N653 X-152.002 Y35.669 Z-8.592 B0.0018 
N654 X-152.002 Y35.768 Z-7.344 B0.0002 
N655 X-152.002 Y35.859 Z-6.231 A266.4667 B0.0000 
N656 X-152.002 Y35.995 Z-5.257 A266.6463 B0.0000 
N657 X-152.002 Y36.337 Z-4.424 A267.4955 
N658 X-152.002 Y37.015 Z-3.715 A269.4269 
N659 X-152.002 Y37.992 Z-3.084 A272.3502 
N660 X-152.002 Y39.142 Z-2.482 A275.8936 
N661 X-152.002 Y40.361 Z-1.878 A279.7381 
N662 X-152.002 Y41.565 Z-1.260 A283.6280 
N663 X-152.002 Y42.689 Z-0.634 A287.3639 
N664 X-152.002 Y43.709 Z-0.010 A290.8525 
N665 X-152.002 Y44.626 Z0.605 A294.0897 
N666 X-152.002 Y45.460 Z1.214 A297.1219 
N667 X-152.002 Y46.221 Z1.818 A299.9856 
N668 X-152.002 Y46.918 Z2.417 A302.6995 
N669 X-152.002 Y47.557 Z3.014 A305.2820 
N670 X-152.002 Y48.147 Z3.611 A307.7620 
N671 X-152.002 Y48.697 Z4.215 A310.1782 
N672 X-152.002 Y49.218 Z4.834 A312.5695 
N673 X-152.002 Y49.715 Z5.476 A314.9726 
N674 X-152.002 Y50.195 Z6.151 A317.4240 
N675 X-152.002 Y50.662 Z6.870 A319.9625 
N676 X-152.002 Y51.117 Z7.649 A322.6318 
N677 X-152.002 Y51.561 Z8.502 A325.4778 
N678 X-152.002 Y51.987 Z9.448 A328.5441 
N679 X-152.002 Y52.383 Z10.501 A331.8660 
N680 X-152.002 Y52.729 Z11.670 A335.4598 
N681 X-152.002 Y52.995 Z12.955 A339.3103 
N682 X-152.002 Y53.143 Z14.334 A343.3580 
N683 X-152.002 Y53.134 Z15.761 A347.4763 
N684 X-152.002 Y52.931 Z17.149 A351.4344 
N685 X-152.002 Y52.517 Z18.373 A354.9086 
N686 X-152.002 Y51.893 Z19.335 A357.6321 
N687 X-152.002 Y51.075 Z19.986 A359.4845 
N688 X-152.002 Y50.068 Z20.345 A0.5108 
N689 X-152.002 Y48.861 Z20.492 A0.9370 
N690 X-152.002 Y47.440 Z20.530 A1.0519 
N691 X-152.002 Y45.786 Z20.532 A1.0629 
N692 X-152.002 Y43.888 Z20.529 
N693 X-152.002 Y41.743 Z20.527 
N694 X-152.002 Y39.357 Z20.524 
N695 X-152.002 Y36.741 Z20.522 
N696 X-152.002 Y33.921 Z20.519 
N697 X-152.002 Y30.927 Z20.515 
N698 X-152.002 Y27.798 Z20.512 
N699 X-152.002 Y24.580 Z20.508 
N700 X-152.002 Y21.321 Z20.505 
N701 X-152.002 Y18.071 Z20.501 
N702 X-152.002 Y14.879 Z20.504 A1.0840 
N703 X-152.002 Y11.788 Z20.593 A1.3796 
N704 X-152.002 Y8.831 Z20.930 A2.5263 
N705 X-152.002 Y6.031 Z21.397 A4.2703 
N706 X-152.002 Y3.417 Z21.812 A6.0838 
N707 X-152.002 Y1.032 Z22.003 A7.3749 B0.0005 
N708 X-152.002 Y-1.107 Z22.012 A8.1614 B0.0051 
N709 X-152.002 Y-2.999 Z21.897 A8.5458 B0.0184 
N710 X-152.002 Y-4.657 Z21.719 A8.6767 B0.0393 
N711 X-152.002 Y-6.101 Z21.548 A8.7493 B0.0619 
N712 X-152.002 Y-7.359 Z21.459 A8.9999 B0.0807 
N713 X-152.002 Y-8.474 Z21.598 A9.8977 B0.0931 
N714 X-152.002 Y-9.502 Z22.081 A11.8512 B0.0998 
N715 X-152.002 Y-10.487 Z22.857 A14.7494 B0.1026 
N716 X-152.002 Y-11.451 Z23.783 A18.1956 B0.1026 
N717 X-152.002 Y-12.399 Z24.742 A21.8406 B0.1005 
N718 X-152.002 Y-13.325 Z25.658 A25.4456 B0.0966 
N719 X-152.002 Y-14.222 Z26.496 A28.8890 B0.0915 
N720 X-152.002 Y-15.087 Z27.249 A32.1325 B0.0852 
N721 X-152.002 Y-15.923 Z27.922 A35.1833 B0.0781 
N722 X-152.002 Y-16.735 Z28.524 A38.0723 B0.0702 
N723 X-152.002 Y-17.535 Z29.069 A40.8443 B0.0614 
N724 X-152.002 Y-18.334 Z29.566 A43.5428 B0.0516 
N725 X-152.002 Y-19.140 Z30.019 A46.1993 B0.0410 
N726 X-152.002 Y-19.963 Z30.432 A48.8437 B0.0294 
N727 X-152.002 Y-20.815 Z30.808 A51.5138 B0.0170 
N728 X-152.002 Y-21.712 Z31.148 A54.2613 B0.0037 
N729 X-152.002 Y-22.674 Z31.453 A57.1458 B-0.0107 
N730 X-152.002 Y-23.720 Z31.717 A60.2210 B-0.0262 
N731 X-152.003 Y-24.861 Z31.922 A63.5110 B-0.0430 
N732 X-152.003 Y-26.092 Z32.043 A66.9951 B-0.0609 
N733 X-152.003 Y-27.392 Z32.047 A70.6130 B-0.0797 
N734 X-152.003 Y-28.727 Z31.905 A74.2741 B-0.0992 
N735 X-152.003 Y-30.029 Z31.586 A77.8029 B-0.1186 
N736 X-152.003 Y-31.193 Z31.070 A80.9123 B-0.1369 
N737 X-152.003 Y-32.110 Z30.358 A83.3050 B-0.1529 
N738 X-152.003 Y-32.713 Z29.468 A84.7834 B-0.1655 
N739 X-152.003 Y-33.025 Z28.419 A85.3918 B-0.1749 
N740 X-152.003 Y-33.180 Z27.230 A85.5106 B-0.1827 
N741 X-152.003 Y-33.307 Z25.916 A85.5148 B-0.1906 
N742 X-152.003 Y-33.444 Z24.489 B-0.1991 
N743 X-152.003 Y-33.591 Z22.963 B-0.2083 
N744 X-152.004 Y-33.745 Z21.356 B-0.2179 
N745 X-152.004 Y-33.905 Z19.693 B-0.2278 
N746 X-152.004 Y-34.067 Z17.998 B-0.2380 
N747 X-152.004 Y-34.230 Z16.302 B-0.2481 
N748 X-152.004 Y-34.391 Z14.633 B-0.2581 
N749 X-152.004 Y-34.546 Z13.018 A85.5148 B-0.2678 
N750 X-152.004 Y-34.693 Z11.482 B-0.2769 
N751 X-152.004 Y-34.831 Z10.046 B-0.2855 
N752 X-152.004 Y-34.958 Z8.724 A85.5149 B-0.2935 
N753 X-152.004 Y-35.076 Z7.528 A85.5243 B-0.3007 
N754 X-152.004 Y-35.203 Z6.463 A85.5998 B-0.3079 
N755 X-152.004 Y-35.394 Z5.533 A85.9132 B-0.3169 
N756 X-152.004 Y-35.778 Z4.740 A86.8658 B-0.3326 
N757 X-152.004 Y-36.483 Z4.066 A88.8645 B-0.3609 
N758 X-152.005 Y-37.495 Z3.466 A91.8758 B-0.4037 
N759 X-152.005 Y-38.678 Z2.888 A95.4999 B-0.4583 
N760 X-152.005 Y-39.906 Z2.306 A99.3541 B-0.5210 
N761 X-152.006 Y-41.100 Z1.710 A103.1978 B-0.5883 
N762 X-152.006 Y-42.212 Z1.106 A106.8737 B-0.6569 
N763 X-152.006 Y-43.220 Z0.503 A110.3018 B-0.7240 
N764 X-152.007 Y-44.126 Z-0.091 A113.4750 B-0.7875 
N765 X-152.007 Y-44.946 Z-0.678 A116.4388 B-0.8461 
N766 X-152.007 Y-45.700 Z-1.262 A119.2478 B-0.8986 
N767 X-152.008 Y-46.396 Z-1.845 A121.9272 B-0.9442 
N768 X-152.008 Y-47.037 Z-2.429 A124.4887 B-0.9820 
N769 X-152.008 Y-47.630 Z-3.013 A126.9488 B-1.0118 
N770 X-152.008 Y-48.183 Z-3.603 A129.3378 B-1.0337 
N771 X-152.008 Y-48.704 Z-4.206 A131.6942 B-1.0481 
N772 X-152.008 Y-49.202 Z-4.829 A134.0568 B-1.0556 
N773 X-152.008 Y-49.684 Z-5.485 A136.4637 B-1.0563 
N774 X-152.008 Y-50.154 Z-6.183 A138.9536 B-1.0506 
N775 X-152.008 Y-50.614 Z-6.936 A141.5671 B-1.0385 
N776 X-152.008 Y-51.064 Z-7.761 A144.3468 B-1.0199 
N777 X-152.008 Y-51.500 Z-8.671 A147.3333 B-0.9944 
N778 X-152.008 Y-51.911 Z-9.683 A150.5613 B-0.9618 
N779 X-152.008 Y-52.279 Z-10.808 A154.0522 B-0.9219 
N780 X-152.007 Y-52.579 Z-12.048 A157.8031 B-0.8751 
N781 X-152.007 Y-52.776 Z-13.391 A161.7725 B-0.8225 
N782 X-152.007 Y-52.831 Z-14.798 A165.8558 B-0.7663 
N783 X-152.006 Y-52.705 Z-16.196 A169.8541 B-0.7098 
N784 X-152.006 Y-52.373 Z-17.471 A173.4724 B-0.6575 
N785 X-152.006 Y-51.834 Z-18.524 A176.4449 B-0.6136 
N786 X-152.006 Y-51.097 Z-19.294 A178.6206 B-0.5809 
N787 X-152.006 Y-50.172 Z-19.773 A179.9805 B-0.5598 
N788 X-152.005 Y-49.054 Z-20.014 A180.6669 B-0.5486 
N789 X-152.005 Y-47.731 Z-20.108 A180.9357 B-0.5439 
N790 X-152.005 Y-46.186 Z-20.132 A181.0082 B-0.5426 
N791 X-152.005 Y-44.407 Z-20.136 A181.0203 B-0.5425 
N792 X-152.005 Y-42.388 Z-20.135 A181.0209 B-0.5427 
N793 X-152.005 Y-40.131 Z-20.135 B-0.5429 
N794 X-152.005 Y-37.647 Z-20.134 B-0.5431 
N795 X-152.005 Y-34.957 Z-20.133 B-0.5433 
N796 X-152.005 Y-32.089 Z-20.132 B-0.5435 
N797 X-152.005 Y-29.078 Z-20.130 B-0.5438 
N798 X-152.005 Y-25.967 Z-20.129 B-0.5441 
N799 X-152.005 Y-22.803 Z-20.128 B-0.5443 
N800 X-152.005 Y-19.633 Z-20.127 B-0.5446 
N801 X-152.005 Y-16.505 Z-20.126 A181.0215 B-0.5449 
N802 X-152.005 Y-13.464 Z-20.137 A181.0595 B-0.5454 
N803 X-152.005 Y-10.547 Z-20.281 A181.5257 B-0.5476 
N804 X-152.005 Y-7.777 Z-20.691 A182.9205 B-0.5564 
N805 X-152.006 Y-5.168 Z-21.234 A184.9412 B-0.5659 
N806 X-152.005 Y-2.749 Z-21.693 A186.9391 B-0.5424 
N807 X-152.005 Y-0.554 Z-21.935 A188.4321 B-0.5056 
N808 X-152.005 Y1.400 Z-21.981 A189.3768 B-0.4773 
N809 X-152.005 Y3.111 Z-21.857 A189.7782 B-0.4572 
N810 X-152.005 Y4.600 Z-21.668 A189.9064 B-0.4413 
N811 X-152.005 Y5.899 Z-21.511 A190.0483 B-0.4269 
N812 X-152.005 Y7.043 Z-21.491 A190.5395 B-0.4118 
N813 X-152.005 Y8.084 Z-21.755 A191.8669 B-0.3925 
N814 X-152.004 Y9.077 Z-22.361 A194.2600 B-0.3676 
N815 X-152.004 Y10.054 Z-23.205 A197.4562 B-0.3386 
N816 X-152.004 Y11.026 Z-24.145 A201.0454 B-0.3076 
N817 X-152.004 Y11.986 Z-25.075 A204.7083 B-0.2763 
N818 X-152.004 Y12.921 Z-25.936 A208.2445 B-0.2459 
N819 X-152.004 Y13.822 Z-26.703 A211.5645 B-0.2169 
N820 X-152.003 Y14.686 Z-27.378 A214.6587 B-0.1895 
N821 X-152.003 Y15.521 Z-27.974 A217.5602 B-0.1633 
N822 X-152.003 Y16.337 Z-28.506 A220.3251 B-0.1380 
N823 X-152.003 Y17.151 Z-28.991 A223.0197 B-0.1128 
N824 X-152.003 Y17.976 Z-29.437 A225.6910 B-0.0874 
N825 X-152.003 Y18.822 Z-29.844 A228.3655 B-0.0618 
N826 X-152.002 Y19.699 Z-30.211 A231.0680 B-0.0361 
N827 X-152.002 Y20.619 Z-30.539 A233.8409 B-0.0104 
N828 X-152.002 Y21.606 Z-30.828 A236.7516 B0.0153 
N829 X-152.002 Y22.684 Z-31.074 A239.8701 B0.0412 
N830 X-152.002 Y23.864 Z-31.259 A243.2270 B0.0670 
N831 X-152.002 Y25.138 Z-31.351 A246.7837 B0.0918 
N832 X-152.002 Y26.474 Z-31.316 A250.4517 B0.1149 
N833 X-152.001 Y27.828 Z-31.120 A254.1101 B0.1353 
N834 X-152.001 Y29.114 Z-30.734 A257.5336 B0.1516 
N835 X-152.001 Y30.215 Z-30.141 A260.3955 B0.1625 
N836 X-152.001 Y31.030 Z-29.349 A262.4150 B0.1672 
N837 X-152.001 Y31.520 Z-28.378 A263.4682 B0.1658 
N838 X-152.001 Y31.770 Z-27.252 A263.7790 B0.1598 
N839 X-152.001 Y31.939 Z-25.994 A263.8100 B0.1516 
N840 X-152.001 Y32.112 Z-24.621 A263.8100 B0.1426 
N841 X-152.001 Y32.298 Z-23.145 B0.1329 
N842 X-152.002 Y32.495 Z-21.582 B0.1225 
N843 X-152.002 Y32.700 Z-19.956 B0.1118 
N844 X-152.002 Y32.911 Z-18.290 B0.1008 
N845 X-152.002 Y33.122 Z-16.612 B0.0898 
N846 X-152.002 Y33.332 Z-14.952 B0.0785 
N847 X-152.002 Y33.536 Z-13.335 B0.0659 
N848 X-152.002 Y33.731 Z-11.789 B0.0506 
N849 X-152.002 Y33.914 Z-10.334 B0.0334 
N850 X-152.002 Y34.084 Z-8.989 B0.0178 
N851 X-152.002 Y34.239 Z-7.764 A263.8103 B0.0075 
N852 X-152.002 Y34.379 Z-6.668 A263.8152 B0.0024 
N853 X-152.002 Y34.522 Z-5.702 A263.8801 B0.0005 
N854 X-152.002 Y34.780 Z-4.875 A264.3489 B0.0001 
N855 X-152.002 Y35.337 Z-4.191 A265.7936 B0.0000 
N856 X-152.002 Y36.250 Z-3.616 A268.4059 
N857 X-152.002 Y37.412 Z-3.091 A271.8635 
N858 X-152.002 Y38.673 Z-2.569 A275.7164 
N859 X-152.002 Y39.935 Z-2.030 A279.6638 
N860 X-152.002 Y41.132 Z-1.473 A283.5015 
N861 X-152.002 Y42.226 Z-0.907 A287.1006 
N862 X-152.002 Y43.207 Z-0.344 A290.4185 
N863 X-152.002 Y44.087 Z0.212 A293.4787 
N864 X-152.002 Y44.886 Z0.764 A296.3424 
N865 X-152.002 Y45.623 Z1.316 A299.0606 
N866 X-152.002 Y46.305 Z1.870 A301.6579 
N867 X-152.002 Y46.937 Z2.425 A304.1489 
N868 X-152.002 Y47.525 Z2.985 A306.5506 
N869 X-152.002 Y48.075 Z3.551 A308.8901 
N870 X-152.002 Y48.596 Z4.132 A311.2022 
N871 X-152.002 Y49.097 Z4.735 A313.5233 
N872 X-152.002 Y49.582 Z5.369 A315.8908 
N873 X-152.002 Y50.059 Z6.046 A318.3445 
N874 X-152.002 Y50.529 Z6.780 A320.9280 
N875 X-152.002 Y50.994 Z7.586 A323.6889 
N876 X-152.002 Y51.450 Z8.483 A326.6735 
N877 X-152.002 Y51.889 Z9.488 A329.9199 
N878 X-152.002 Y52.291 Z10.611 A333.4493 
N879 X-152.002 Y52.630 Z11.856 A337.2554 
N880 X-152.002 Y52.870 Z13.209 A341.2950 
N881 X-152.002 Y52.972 Z14.638 A345.4750 
N882 X-152.002 Y52.899 Z16.075 A349.6188 
N883 X-152.002 Y52.621 Z17.406 A353.4208 
N884 X-152.002 Y52.134 Z18.495 A356.5197 
N885 X-152.002 Y51.455 Z19.264 A358.7058 
N886 X-152.002 Y50.596 Z19.717 A359.9963 
N887 X-152.002 Y49.557 Z19.929 A0.5942 
N888 X-152.002 Y48.322 Z20.017 A0.8438 
N889 X-152.002 Y46.876 Z20.064 A0.9790 
N890 X-152.002 Y45.207 Z20.082 A1.0338 
N891 X-152.002 Y43.307 Z20.084 A1.0412 
N892 X-152.002 Y41.177 Z20.082 A1.0413 
N893 X-152.002 Y38.828 Z20.080 
N894 X-152.002 Y36.275 Z20.078 
N895 X-152.002 Y33.545 Z20.077 
N896 X-152.002 Y30.671 Z20.074 
N897 X-152.002 Y27.691 Z20.072 
N898 X-152.002 Y24.647 Z20.070 
N899 X-152.002 Y21.585 Z20.068 
N900 X-152.002 Y18.549 Z20.066 
N901 X-152.002 Y15.579 Z20.068 A1.0534 
N902 X-152.002 Y12.714 Z20.140 A1.2907 
N903 X-152.002 Y9.975 Z20.494 A2.4613 
N904 X-152.002 Y7.366 Z21.141 A4.7452 
N905 X-152.002 Y4.899 Z21.826 A7.4464 B0.0000 
N906 X-152.002 Y2.617 Z22.294 A9.7486 B0.0011 
N907 X-152.002 Y0.563 Z22.467 A11.2833 B0.0087 
N908 X-152.002 Y-1.252 Z22.417 A12.1518 B0.0296 
N909 X-152.002 Y-2.839 Z22.209 A12.4785 B0.0573 
N910 X-152.002 Y-4.228 Z21.961 A12.5817 B0.0819 
N911 X-152.002 Y-5.455 Z21.772 A12.7696 B0.0997 
N912 X-152.002 Y-6.557 Z21.735 A13.3480 B0.1118 
N913 X-152.002 Y-7.582 Z21.957 A14.6867 B0.1200 
N914 X-152.002 Y-8.578 Z22.479 A16.9609 B0.1244 
N915 X-152.002 Y-9.570 Z23.218 A19.9649 B0.1250 
N916 X-152.002 Y-10.563 Z24.052 A23.3531 B0.1225 
N917 X-152.002 Y-11.547 Z24.886 A26.8444 B0.1174 
N918 X-152.002 Y-12.511 Z25.667 A30.2579 B0.1104 
N919 X-152.002 Y-13.446 Z26.371 A33.5094 B0.1020 
N920 X-152.002 Y-14.351 Z26.996 A36.5817 B0.0925 
N921 X-152.002 Y-15.231 Z27.548 A39.4936 B0.0820 
N922 X-152.002 Y-16.095 Z28.039 A42.2859 B0.0705 
N923 X-152.002 Y-16.958 Z28.480 A45.0117 B0.0578 
N924 X-152.002 Y-17.832 Z28.876 A47.7136 B0.0438 
N925 X-152.002 Y-18.730 Z29.230 A50.4266 B0.0283 
N926 X-152.002 Y-19.667 Z29.541 A53.1959 B0.0115 
N927 X-152.002 Y-20.664 Z29.812 A56.0863 B-0.0070 
N928 X-152.002 Y-21.745 Z30.038 A59.1666 B-0.0274 
N929 X-152.003 Y-22.924 Z30.204 A62.4752 B-0.0498 
N930 X-152.003 Y-24.197 Z30.282 A65.9901 B-0.0744 
N931 X-152.003 Y-25.539 Z30.236 A69.6384 B-0.1006 
N932 X-152.003 Y-26.905 Z30.033 A73.2965 B-0.1280 
N933 X-152.003 Y-28.206 Z29.640 A76.7296 B-0.1552 
N934 X-152.003 Y-29.325 Z29.042 A79.6057 B-0.1799 
N935 X-152.003 Y-30.144 Z28.241 A81.5946 B-0.2000 
N936 X-152.003 Y-30.616 Z27.259 A82.5407 B-0.2139 
N937 X-152.004 Y-30.857 Z26.128 A82.7665 B-0.2236 
N938 X-152.004 Y-31.043 Z24.876 A82.7800 B-0.2326 
N939 X-152.004 Y-31.239 Z23.520 B-0.2422 
N940 X-152.004 Y-31.448 Z22.073 B-0.2524 
N941 X-152.004 Y-31.667 Z20.553 B-0.2632 
N942 X-152.004 Y-31.895 Z18.981 B-0.2743 
N943 X-152.004 Y-32.126 Z17.382 B-0.2857 
N944 X-152.004 Y-32.357 Z15.783 A82.7800 B-0.2970 
N945 X-152.004 Y-32.584 Z14.210 B-0.3081 
N946 X-152.004 Y-32.803 Z12.689 B-0.3189 
N947 X-152.004 Y-33.012 Z11.244 B-0.3291 
N948 X-152.004 Y-33.207 Z9.892 B-0.3387 
N949 X-152.004 Y-33.387 Z8.649 A82.7801 B-0.3475 
N950 X-152.004 Y-33.552 Z7.525 A82.7889 B-0.3556 
N951 X-152.004 Y-33.726 Z6.526 A82.8787 B-0.3638 
N952 X-152.004 Y-33.964 Z5.658 A83.2240 B-0.3743 
N953 X-152.005 Y-34.375 Z4.928 A84.1658 B-0.3921 
N954 X-152.005 Y-35.087 Z4.325 A86.1006 B-0.4236 
N955 X-152.005 Y-36.111 Z3.807 A89.0716 B-0.4714 
N956 X-152.005 Y-37.330 Z3.317 A92.7241 B-0.5324 
N957 X-152.006 Y-38.602 Z2.816 A96.6252 B-0.6013 
N958 X-152.006 Y-39.838 Z2.295 A100.5072 B-0.6740 
N959 X-152.007 Y-40.992 Z1.758 A104.2171 B-0.7472 
N960 X-152.007 Y-42.039 Z1.215 A107.6736 B-0.8183 
N961 X-152.007 Y-42.979 Z0.674 A110.8582 B-0.8854 
N962 X-152.008 Y-43.823 Z0.139 A113.8018 B-0.9476 
N963 X-152.008 Y-44.595 Z-0.394 A116.5681 B-1.0044 
N964 X-152.008 Y-45.311 Z-0.930 A119.2119 B-1.0552 
N965 X-152.009 Y-45.980 Z-1.471 A121.7559 B-1.0993 
N966 X-152.009 Y-46.602 Z-2.017 A124.2074 B-1.1363 
N967 X-152.009 Y-47.182 Z-2.567 A126.5752 B-1.1658 
N968 X-152.009 Y-47.725 Z-3.125 A128.8820 B-1.1879 
N969 X-152.009 Y-48.240 Z-3.697 A131.1624 B-1.2031 
N970 X-152.009 Y-48.735 Z-4.292 A133.4554 B-1.2118 
N971 X-152.009 Y-49.218 Z-4.919 A135.8018 B-1.2143 
N972 X-152.009 Y-49.694 Z-5.591 A138.2433 B-1.2110 
N973 X-152.009 Y-50.165 Z-6.323 A140.8238 B-1.2017 
N974 X-152.009 Y-50.634 Z-7.129 A143.5885 B-1.1862 
N975 X-152.009 Y-51.094 Z-8.026 A146.5795 B-1.1641 
N976 X-152.009 Y-51.536 Z-9.030 A149.8309 B-1.1346 
N977 X-152.009 Y-51.942 Z-10.153 A153.3614 B-1.0973 
N978 X-152.008 Y-52.284 Z-11.395 A157.1645 B-1.0521 
N979 X-152.008 Y-52.528 Z-12.746 A161.2000 B-0.9998 
N980 X-152.008 Y-52.635 Z-14.171 A165.3698 B-0.9421 
N981 X-152.007 Y-52.565 Z-15.597 A169.4828 B-0.8826 
N982 X-152.007 Y-52.293 Z-16.908 A173.2251 B-0.8260 
N983 X-152.007 Y-51.814 Z-17.980 A176.2698 B-0.7779 
N984 X-152.007 Y-51.145 Z-18.748 A178.4446 B-0.7419 
N985 X-152.006 Y-50.298 Z-19.216 A179.7672 B-0.7183 
N986 X-152.006 Y-49.272 Z-19.451 A180.4264 B-0.7051 
N987 X-152.006 Y-48.052 Z-19.568 A180.7520 B-0.6982 
N988 X-152.006 Y-46.624 Z-19.634 A180.9394 B-0.6949 
N989 X-152.006 Y-44.977 Z-19.658 A181.0102 B-0.6940 
N990 X-152.006 Y-43.104 Z-19.660 A181.0186 B-0.6940 
N991 X-152.006 Y-41.007 Z-19.659 A181.0186 B-0.6941 
N992 X-152.006 Y-38.696 Z-19.659 B-0.6942 
N993 X-152.006 Y-36.189 Z-19.658 B-0.6944 
N994 X-152.006 Y-33.511 Z-19.657 B-0.6946 
N995 X-152.006 Y-30.696 Z-19.656 B-0.6947 
N996 X-152.006 Y-27.782 Z-19.655 B-0.6949 
N997 X-152.006 Y-24.811 Z-19.654 B-0.6951 
N998 X-152.006 Y-21.827 Z-19.653 B-0.6953 
N999 X-152.006 Y-18.874 Z-19.652 B-0.6955 
N1000 X-152.006 Y-15.991 Z-19.652 A181.0209 B-0.6956 
N1001 X-152.006 Y-13.215 Z-19.674 A181.0932 B-0.6961 
N1002 X-152.006 Y-10.570 Z-19.887 A181.7791 B-0.6975 
N1003 X-152.006 Y-8.064 Z-20.446 A183.6680 B-0.7037 
N1004 X-152.006 Y-5.689 Z-21.203 A186.4267 B-0.7083 
N1005 X-152.006 Y-3.465 Z-21.879 A189.2356 B-0.6744 
N1006 X-152.006 Y-1.438 Z-22.292 A191.4483 B-0.6231 
N1007 X-152.006 Y0.362 Z-22.438 A192.9326 B-0.5832 
N1008 X-152.005 Y1.925 Z-22.336 A193.6349 B-0.5569 
N1009 X-152.005 Y3.280 Z-22.108 A193.8653 B-0.5380 
N1010 X-152.005 Y4.473 Z-21.895 A194.0441 B-0.5212 
N1011 X-152.005 Y5.545 Z-21.809 A194.5290 B-0.5030 
N1012 X-152.005 Y6.545 Z-21.951 A195.6696 B-0.4799 
N1013 X-152.005 Y7.522 Z-22.386 A197.7128 B-0.4494 
N1014 X-152.005 Y8.509 Z-23.066 A200.5708 B-0.4124 
N1015 X-152.004 Y9.510 Z-23.872 A203.9107 B-0.3715 
N1016 X-152.004 Y10.517 Z-24.697 A207.4195 B-0.3296 
N1017 X-152.004 Y11.510 Z-25.473 A210.8769 B-0.2884 
N1018 X-152.004 Y12.475 Z-26.166 A214.1632 B-0.2492 
N1019 X-152.003 Y13.408 Z-26.770 A217.2440 B-0.2124 
N1020 X-152.003 Y14.311 Z-27.292 A220.1399 B-0.1776 
N1021 X-152.003 Y15.196 Z-27.747 A222.9030 B-0.1443 
N1022 X-152.003 Y16.082 Z-28.151 A225.6070 B-0.1116 
N1023 X-152.003 Y16.987 Z-28.512 A228.3120 B-0.0788 
N1024 X-152.003 Y17.925 Z-28.830 A231.0543 B-0.0458 
N1025 X-152.002 Y18.910 Z-29.103 A233.8774 B-0.0127 
N1026 X-152.002 Y19.969 Z-29.332 A236.8584 B0.0205 
N1027 X-152.002 Y21.128 Z-29.510 A240.0769 B0.0539 
N1028 X-152.002 Y22.393 Z-29.613 A243.5415 B0.0871 
N1029 X-152.002 Y23.739 Z-29.603 A247.1693 B0.1186 
N1030 X-152.001 Y25.123 Z-29.441 A250.8380 B0.1472 
N1031 X-152.001 Y26.468 Z-29.092 A254.3399 B0.1710 
N1032 X-152.001 Y27.654 Z-28.532 A257.3383 B0.1877 
N1033 X-152.001 Y28.557 Z-27.757 A259.4780 B0.1958 
N1034 X-152.001 Y29.107 Z-26.786 A260.5484 B0.1947 
N1035 X-152.001 Y29.404 Z-25.654 A260.8211 B0.1870 
N1036 X-152.001 Y29.635 Z-24.400 A260.8396 B0.1768 
N1037 X-152.001 Y29.878 Z-23.044 B0.1655 
N1038 X-152.001 Y30.137 Z-21.600 B0.1535 
N1039 X-152.001 Y30.409 Z-20.086 B0.1410 
N1040 X-152.002 Y30.689 Z-18.524 B0.1280 
N1041 X-152.002 Y30.973 Z-16.938 B0.1149 
N1042 X-152.002 Y31.257 Z-15.354 B0.1017 
N1043 X-152.002 Y31.535 Z-13.800 B0.0888 
N1044 X-152.002 Y31.804 Z-12.299 B0.0761 
N1045 X-152.002 Y32.059 Z-10.875 B0.0620 
N1046 X-152.002 Y32.298 Z-9.545 B0.0455 
N1047 X-152.002 Y32.516 Z-8.325 B0.0283 
N1048 X-152.002 Y32.715 Z-7.223 A260.8440 B0.0142 
N1049 X-152.002 Y32.905 Z-6.244 A260.8861 B0.0056 
N1050 X-152.002 Y33.127 Z-5.395 A261.0993 B0.0018 
N1051 X-152.002 Y33.514 Z-4.690 A261.8925 B0.0005 
N1052 X-152.002 Y34.226 Z-4.129 A263.7632 B0.0001 
N1053 X-152.002 Y35.276 Z-3.668 A266.7552 B0.0000 
N1054 X-152.002 Y36.534 Z-3.241 A270.4678 B0.0000 
N1055 X-152.002 Y37.849 Z-2.801 A274.4460 
N1056 X-152.002 Y39.134 Z-2.335 A278.4140 
N1057 X-152.002 Y40.335 Z-1.845 A282.2080 
N1058 X-152.002 Y41.426 Z-1.342 A285.7345 
N1059 X-152.002 Y42.401 Z-0.837 A288.9686 
N1060 X-152.002 Y43.273 Z-0.335 A291.9377 
N1061 X-152.002 Y44.065 Z0.165 A294.7027 
N1062 X-152.002 Y44.796 Z0.668 A297.3296 
N1063 X-152.002 Y45.481 Z1.177 A299.8560 
N1064 X-152.002 Y46.122 Z1.694 A302.2975 
N1065 X-152.002 Y46.723 Z2.218 A304.6613 
N1066 X-152.002 Y47.286 Z2.749 A306.9585 
N1067 X-152.002 Y47.817 Z3.292 A309.2116 
N1068 X-152.002 Y48.325 Z3.851 A311.4525 
N1069 X-152.002 Y48.816 Z4.435 A313.7184 
N1070 X-152.002 Y49.298 Z5.055 A316.0496 
N1071 X-152.002 Y49.776 Z5.724 A318.4901 
N1072 X-152.002 Y50.254 Z6.457 A321.0887 
N1073 X-152.002 Y50.733 Z7.272 A323.8981 
N1074 X-152.002 Y51.209 Z8.190 A326.9672 
N1075 X-152.002 Y51.669 Z9.226 A330.3314 
N1076 X-152.002 Y52.091 Z10.391 A334.0030 
N1077 X-152.002 Y52.443 Z11.681 A337.9590 
N1078 X-152.002 Y52.688 Z13.079 A342.1374 
N1079 X-152.002 Y52.786 Z14.541 A346.4261 
N1080 X-152.002 Y52.700 Z15.993 A350.6240 
N1081 X-152.002 Y52.406 Z17.303 A354.3842 
N1082 X-152.002 Y51.909 Z18.322 A357.2996 
N1083 X-152.002 Y51.230 Z18.980 A359.1759 
N1084 X-152.002 Y50.384 Z19.319 A0.1366 
N1085 X-152.002 Y49.364 Z19.454 A0.5073 
N1086 X-152.002 Y48.156 Z19.526 A0.6971 
N1087 X-152.002 Y46.744 Z19.596 A0.8948 
N1088 X-152.002 Y45.119 Z19.634 A1.0035 
N1089 X-152.002 Y43.276 Z19.639 A1.0205 
N1090 X-152.002 Y41.219 Z19.638 A1.0206 
N1091 X-152.002 Y38.958 Z19.637 
N1092 X-152.002 Y36.514 Z19.637 
N1093 X-152.002 Y33.913 Z19.636 
N1094 X-152.002 Y31.186 Z19.635 
N1095 X-152.002 Y28.373 Z19.634 
N1096 X-152.002 Y25.513 Z19.633 
N1097 X-152.002 Y22.647 Z19.632 
N1098 X-152.002 Y19.815 Z19.631 
N1099 X-152.002 Y17.054 Z19.630 A1.0212 
N1100 X-152.002 Y14.393 Z19.652 A1.0921 
N1101 X-152.002 Y11.856 Z19.834 A1.6788 
N1102 X-152.002 Y9.442 Z20.425 A3.6436 
N1103 X-152.002 Y7.128 Z21.310 A6.7936 
N1104 X-152.002 Y4.913 Z22.207 A10.3323 B0.0003 
N1105 X-152.002 Y2.860 Z22.816 A13.2881 B0.0047 
N1106 X-152.002 Y1.021 Z23.074 A15.3153 B0.0207 
N1107 X-152.002 Y-0.587 Z23.043 A16.4699 B0.0484 
N1108 X-152.002 Y-1.980 Z22.811 A16.9351 B0.0762 
N1109 X-152.002 Y-3.202 Z22.512 A17.0833 B0.0969 
N1110 X-152.002 Y-4.301 Z22.267 A17.2939 B0.1122 
N1111 X-152.002 Y-5.320 Z22.171 A17.8892 B0.1244 
N1112 X-152.001 Y-6.301 Z22.295 A19.1253 B0.1333 
N1113 X-152.001 Y-7.282 Z22.668 A21.1433 B0.1381 
N1114 X-152.001 Y-8.286 Z23.245 A23.8543 B0.1384 
N1115 X-152.001 Y-9.313 Z23.931 A27.0010 B0.1347 
N1116 X-152.002 Y-10.350 Z24.641 A30.3313 B0.1278 
N1117 X-152.002 Y-11.382 Z25.315 A33.6567 B0.1183 
N1118 X-152.002 Y-12.394 Z25.922 A36.8715 B0.1070 
N1119 X-152.002 Y-13.383 Z26.453 A39.9391 B0.0942 
N1120 X-152.002 Y-14.352 Z26.910 A42.8671 B0.0802 
N1121 X-152.002 Y-15.311 Z27.302 A45.6959 B0.0647 
N1122 X-152.002 Y-16.277 Z27.638 A48.4837 B0.0475 
N1123 X-152.002 Y-17.266 Z27.921 A51.2769 B0.0282 
N1124 X-152.002 Y-18.296 Z28.152 A54.1310 B0.0068 
N1125 X-152.002 Y-19.395 Z28.333 A57.1333 B-0.0171 
N1126 X-152.003 Y-20.591 Z28.458 A60.3685 B-0.0442 
N1127 X-152.003 Y-21.892 Z28.503 A63.8510 B-0.0746 
N1128 X-152.003 Y-23.273 Z28.430 A67.5047 B-0.1081 
N1129 X-152.003 Y-24.681 Z28.199 A71.1743 B-0.1435 
N1130 X-152.003 Y-26.010 Z27.771 A74.5663 B-0.1786 
N1131 X-152.003 Y-27.121 Z27.124 A77.2859 B-0.2102 
N1132 X-152.004 Y-27.889 Z26.263 A78.9625 B-0.2344 
N1133 X-152.004 Y-28.320 Z25.219 A79.5951 B-0.2500 
N1134 X-152.004 Y-28.596 Z24.041 A79.7117 B-0.2610 
N1135 X-152.004 Y-28.855 Z22.762 A79.7247 B-0.2711 
N1136 X-152.004 Y-29.127 Z21.398 A79.7255 B-0.2818 
N1137 X-152.004 Y-29.413 Z19.965 B-0.2929 
N1138 X-152.004 Y-29.708 Z18.484 B-0.3045 
N1139 X-152.004 Y-30.009 Z16.976 B-0.3162 
N1140 X-152.004 Y-30.310 Z15.465 B-0.3279 
N1141 X-152.004 Y-30.607 Z13.978 A79.7255 B-0.3395 
N1142 X-152.004 Y-30.894 Z12.537 B-0.3507 
N1143 X-152.004 Y-31.167 Z11.165 B-0.3614 
N1144 X-152.004 Y-31.424 Z9.880 B-0.3714 
N1145 X-152.004 Y-31.660 Z8.695 B-0.3806 
N1146 X-152.005 Y-31.875 Z7.620 A79.7285 B-0.3891 
N1147 X-152.005 Y-32.087 Z6.665 A79.7931 B-0.3975 
N1148 X-152.005 Y-32.349 Z5.837 A80.0867 B-0.4085 
N1149 X-152.005 Y-32.749 Z5.146 A80.8856 B-0.4265 
N1150 X-152.005 Y-33.403 Z4.593 A82.5511 B-0.4582 
N1151 X-152.005 Y-34.371 Z4.150 A85.2640 B-0.5079 
N1152 X-152.006 Y-35.584 Z3.754 A88.8095 B-0.5737 
N1153 X-152.006 Y-36.895 Z3.353 A92.7376 B-0.6492 
N1154 X-152.006 Y-38.190 Z2.924 A96.6977 B-0.7286 
N1155 X-152.007 Y-39.410 Z2.469 A100.5034 B-0.8081 
N1156 X-152.007 Y-40.525 Z1.994 A104.0636 B-0.8850 
N1157 X-152.008 Y-41.529 Z1.512 A107.3446 B-0.9577 
N1158 X-152.008 Y-42.429 Z1.029 A110.3572 B-1.0253 
N1159 X-152.009 Y-43.241 Z0.548 A113.1455 B-1.0874 
N1160 X-152.009 Y-43.987 Z0.066 A115.7758 B-1.1441 
N1161 X-152.009 Y-44.686 Z-0.425 A118.3064 B-1.1953 
N1162 X-152.009 Y-45.346 Z-0.926 A120.7623 B-1.2405 
N1163 X-152.010 Y-45.967 Z-1.436 A123.1470 B-1.2790 
N1164 X-152.010 Y-46.549 Z-1.955 A125.4597 B-1.3106 
N1165 X-152.010 Y-47.095 Z-2.481 A127.7101 B-1.3351 
N1166 X-152.010 Y-47.612 Z-3.019 A129.9247 B-1.3530 
N1167 X-152.010 Y-48.108 Z-3.577 A132.1404 B-1.3646 
N1168 X-152.010 Y-48.592 Z-4.164 A134.3993 B-1.3706 
N1169 X-152.010 Y-49.071 Z-4.792 A136.7459 B-1.3710 
N1170 X-152.010 Y-49.550 Z-5.477 A139.2267 B-1.3661 
N1171 X-152.010 Y-50.032 Z-6.233 A141.8914 B-1.3556 
N1172 X-152.010 Y-50.515 Z-7.080 A144.7888 B-1.3388 
N1173 X-152.010 Y-50.992 Z-8.035 A147.9600 B-1.3150 
N1174 X-152.010 Y-51.447 Z-9.113 A151.4314 B-1.2832 
N1175 X-152.009 Y-51.855 Z-10.319 A155.2038 B-1.2427 
N1176 X-152.009 Y-52.181 Z-11.647 A159.2449 B-1.1934 
N1177 X-152.009 Y-52.388 Z-13.072 A163.4815 B-1.1365 
N1178 X-152.008 Y-52.435 Z-14.540 A167.7662 B-1.0744 
N1179 X-152.008 Y-52.287 Z-15.951 A171.8347 B-1.0119 
N1180 X-152.008 Y-51.931 Z-17.159 A175.2939 B-0.9557 
N1181 X-152.008 Y-51.381 Z-18.048 A177.8293 B-0.9117 
N1182 X-152.007 Y-50.658 Z-18.594 A179.3793 B-0.8823 
N1183 X-152.007 Y-49.767 Z-18.864 A180.1331 B-0.8655 
N1184 X-152.007 Y-48.700 Z-18.983 A180.4532 B-0.8563 
N1185 X-152.007 Y-47.440 Z-19.079 A180.7118 B-0.8498 
N1186 X-152.007 Y-45.975 Z-19.156 A180.9304 B-0.8456 
N1187 X-152.007 Y-44.298 Z-19.183 A181.0086 B-0.8442 
N1188 X-152.007 Y-42.406 Z-19.185 A181.0171 B-0.8441 
N1189 X-152.007 Y-40.307 Z-19.184 A181.0176 B-0.8442 
N1190 X-152.007 Y-38.014 Z-19.184 B-0.8444 
N1191 X-152.007 Y-35.550 Z-19.183 B-0.8446 
N1192 X-152.007 Y-32.944 Z-19.182 B-0.8448 
N1193 X-152.007 Y-30.231 Z-19.181 B-0.8451 
N1194 X-152.007 Y-27.450 Z-19.180 B-0.8453 
N1195 X-152.007 Y-24.643 Z-19.180 B-0.8455 
N1196 X-152.007 Y-21.851 Z-19.179 B-0.8457 
N1197 X-152.007 Y-19.110 Z-19.178 B-0.8460 
N1198 X-152.007 Y-16.457 Z-19.177 A181.0187 B-0.8462 
N1199 X-152.007 Y-13.919 Z-19.190 A181.0609 B-0.8465 
N1200 X-152.007 Y-11.516 Z-19.344 A181.5493 B-0.8467 
N1201 X-152.007 Y-9.246 Z-19.890 A183.3449 B-0.8459 
N1202 X-152.007 Y-7.082 Z-20.771 A186.4087 B-0.8468 
N1203 X-152.007 Y-5.005 Z-21.752 A190.1116 B-0.8189 
N1204 X-152.007 Y-3.062 Z-22.506 A193.4250 B-0.7524 
N1205 X-152.006 Y-1.304 Z-22.947 A195.9626 B-0.6882 
N1206 X-152.006 Y0.232 Z-23.066 A197.5647 B-0.6433 
N1207 X-152.006 Y1.546 Z-22.926 A198.3139 B-0.6149 
N1208 X-152.006 Y2.685 Z-22.666 A198.5953 B-0.5950 
N1209 X-152.006 Y3.707 Z-22.433 A198.8612 B-0.5768 
N1210 X-152.005 Y4.667 Z-22.344 A199.5047 B-0.5549 
N1211 X-152.005 Y5.608 Z-22.471 A200.7878 B-0.5258 
N1212 X-152.005 Y6.568 Z-22.838 A202.8366 B-0.4880 
N1213 X-152.005 Y7.569 Z-23.404 A205.5790 B-0.4424 
N1214 X-152.005 Y8.611 Z-24.079 A208.7705 B-0.3918 
N1215 X-152.004 Y9.676 Z-24.772 A212.1530 B-0.3395 
N1216 X-152.004 Y10.742 Z-25.421 A215.5217 B-0.2879 
N1217 X-152.004 Y11.790 Z-25.988 A218.7511 B-0.2389 
N1218 X-152.003 Y12.811 Z-26.464 A221.7941 B-0.1929 
N1219 X-152.003 Y13.808 Z-26.852 A224.6671 B-0.1499 
N1220 X-152.003 Y14.800 Z-27.170 A227.4463 B-0.1085 
N1221 X-152.003 Y15.814 Z-27.431 A230.2276 B-0.0676 
N1222 X-152.002 Y16.869 Z-27.638 A233.0686 B-0.0267 
N1223 X-152.002 Y17.988 Z-27.789 A236.0366 B0.0139 
N1224 X-152.002 Y19.204 Z-27.883 A239.2393 B0.0547 
N1225 X-152.002 Y20.531 Z-27.899 A242.7113 B0.0951 
N1226 X-152.001 Y21.938 Z-27.794 A246.3488 B0.1335 
N1227 X-152.001 Y23.361 Z-27.522 A249.9695 B0.1674 
N1228 X-152.001 Y24.687 Z-27.043 A253.2462 B0.1935 
N1229 X-152.001 Y25.764 Z-26.334 A255.7451 B0.2084 
N1230 X-152.001 Y26.474 Z-25.400 A257.1078 B0.2104 
N1231 X-152.001 Y26.879 Z-24.285 A257.5008 B0.2024 
N1232 X-152.001 Y27.190 Z-23.047 A257.5435 B0.1908 
N1233 X-152.001 Y27.509 Z-21.718 A257.5465 B0.1782 
N1234 X-152.001 Y27.845 Z-20.315 A257.5466 B0.1648 
N1235 X-152.001 Y28.194 Z-18.855 B0.1508 
N1236 X-152.001 Y28.552 Z-17.359 B0.1366 
N1237 X-152.002 Y28.913 Z-15.851 B0.1222 
N1238 X-152.002 Y29.271 Z-14.354 B0.1079 
N1239 X-152.002 Y29.620 Z-12.894 B0.0940 
N1240 X-152.002 Y29.955 Z-11.493 B0.0806 
N1241 X-152.002 Y30.271 Z-10.172 B0.0679 
N1242 X-152.002 Y30.565 Z-8.945 B0.0546 
N1243 X-152.002 Y30.833 Z-7.826 A257.5466 B0.0390 
N1244 X-152.002 Y31.077 Z-6.820 A257.5569 B0.0231 
N1245 X-152.002 Y31.316 Z-5.936 A257.6400 B0.0113 
N1246 X-152.002 Y31.606 Z-5.182 A257.9693 B0.0047 
N1247 X-152.002 Y32.074 Z-4.576 A258.9427 B0.0017 
N1248 X-152.002 Y32.863 Z-4.122 A261.0004 B0.0005 
N1249 X-152.002 Y33.978 Z-3.771 A264.1531 B0.0001 
N1250 X-152.002 Y35.293 Z-3.449 A267.9978 B0.0000 
N1251 X-152.002 Y36.654 Z-3.105 A272.0608 B0.0000 
N1252 X-152.002 Y37.969 Z-2.725 A276.0613 
N1253 X-152.002 Y39.193 Z-2.313 A279.8546 
N1254 X-152.002 Y40.304 Z-1.879 A283.3695 
N1255 X-152.002 Y41.299 Z-1.436 A286.5879 
N1256 X-152.002 Y42.189 Z-0.989 A289.5329 
N1257 X-152.002 Y42.992 Z-0.542 A292.2550 
N1258 X-152.002 Y43.731 Z-0.091 A294.8215 
N1259 X-152.002 Y44.425 Z0.369 A297.2919 
N1260 X-152.002 Y45.083 Z0.841 A299.6961 
N1261 X-152.002 Y45.707 Z1.325 A302.0425 
N1262 X-152.002 Y46.296 Z1.821 A304.3304 
N1263 X-152.002 Y46.852 Z2.326 A306.5621 
N1264 X-152.002 Y47.378 Z2.843 A308.7526 
N1265 X-152.002 Y47.880 Z3.376 A310.9303 
N1266 X-152.002 Y48.368 Z3.934 A313.1322 
N1267 X-152.002 Y48.848 Z4.527 A315.4006 
N1268 X-152.002 Y49.328 Z5.169 A317.7826 
N1269 X-152.002 Y49.812 Z5.876 A320.3310 
N1270 X-152.002 Y50.304 Z6.668 A323.1043 
N1271 X-152.002 Y50.800 Z7.567 A326.1592 
N1272 X-152.002 Y51.289 Z8.593 A329.5386 
N1273 X-152.002 Y51.750 Z9.757 A333.2580 
N1274 X-152.002 Y52.147 Z11.058 A337.2912 
N1275 X-152.002 Y52.441 Z12.474 A341.5664 
N1276 X-152.002 Y52.589 Z13.964 A345.9684 
N1277 X-152.002 Y52.555 Z15.454 A350.3056 
N1278 X-152.002 Y52.314 Z16.818 A354.2451 
N1279 X-152.002 Y51.869 Z17.883 A357.3073 
N1280 X-152.002 Y51.246 Z18.542 A359.1979 
N1281 X-152.002 Y50.464 Z18.851 A0.0705 
N1282 X-152.002 Y49.519 Z18.970 A0.3903 
N1283 X-152.002 Y48.395 Z19.038 A0.5636 
N1284 X-152.002 Y47.076 Z19.117 A0.7804 
N1285 X-152.002 Y45.554 Z19.177 A0.9500 
N1286 X-152.002 Y43.824 Z19.194 A0.9973 
N1287 X-152.002 Y41.889 Z19.195 A1.0002 
N1288 X-152.002 Y39.760 Z19.195 A1.0003 
N1289 X-152.002 Y37.455 Z19.195 
N1290 X-152.002 Y35.000 Z19.195 
N1291 X-152.002 Y32.427 Z19.194 
N1292 X-152.002 Y29.774 Z19.194 
N1293 X-152.002 Y27.078 Z19.194 
N1294 X-152.002 Y24.380 Z19.194 
N1295 X-152.002 Y21.719 Z19.194 
N1296 X-152.002 Y19.127 Z19.194 
N1297 X-152.002 Y16.634 Z19.195 A1.0025 
N1298 X-152.002 Y14.262 Z19.227 A1.1018 
N1299 X-152.002 Y12.022 Z19.436 A1.7705 
N1300 X-152.002 Y9.900 Z20.090 A3.9182 
N1301 X-152.002 Y7.849 Z21.127 A7.5119 
N1302 X-152.002 Y5.842 Z22.267 A11.7951 B0.0001 
N1303 X-152.002 Y3.922 Z23.190 A15.7726 B0.0035 
N1304 X-152.002 Y2.174 Z23.725 A18.7886 B0.0183 
N1305 X-152.002 Y0.644 Z23.894 A20.7531 B0.0425 
N1306 X-152.002 Y-0.669 Z23.775 A21.7866 B0.0674 
N1307 X-152.002 Y-1.804 Z23.487 A22.1996 B0.0885 
N1308 X-152.002 Y-2.816 Z23.154 A22.3711 B0.1057 
N1309 X-152.002 Y-3.762 Z22.891 A22.6779 B0.1200 
N1310 X-152.001 Y-4.691 Z22.790 A23.4398 B0.1314 
N1311 X-152.001 Y-5.637 Z22.891 A24.8319 B0.1389 
N1312 X-152.001 Y-6.625 Z23.194 A26.9000 B0.1419 
N1313 X-152.001 Y-7.668 Z23.656 A29.5600 B0.1399 
N1314 X-152.001 Y-8.759 Z24.203 A32.6203 B0.1333 
N1315 X-152.002 Y-9.881 Z24.764 A35.8726 B0.1228 
N1316 X-152.002 Y-11.012 Z25.284 A39.1446 B0.1092 
N1317 X-152.002 Y-12.135 Z25.731 A42.3301 B0.0933 
N1318 X-152.002 Y-13.242 Z26.093 A45.3839 B0.0755 
N1319 X-152.002 Y-14.338 Z26.368 A48.3181 B0.0557 
N1320 X-152.002 Y-15.438 Z26.566 A51.1917 B0.0335 
N1321 X-152.002 Y-16.565 Z26.692 A54.0770 B0.0085 
N1322 X-152.002 Y-17.756 Z26.755 A57.0990 B-0.0201 
N1323 X-152.003 Y-19.052 Z26.757 A60.3898 B-0.0535 
N1324 X-152.003 Y-20.455 Z26.671 A63.9519 B-0.0920 
N1325 X-152.003 Y-21.915 Z26.446 A67.6301 B-0.1345 
N1326 X-152.003 Y-23.323 Z26.030 A71.0969 B-0.1778 
N1327 X-152.004 Y-24.516 Z25.384 A73.8804 B-0.2168 
N1328 X-152.004 Y-25.351 Z24.505 A75.5540 B-0.2462 
N1329 X-152.004 Y-25.850 Z23.434 A76.1615 B-0.2648 
N1330 X-152.004 Y-26.208 Z22.235 A76.2865 B-0.2783 
N1331 X-152.004 Y-26.551 Z20.950 A76.3033 B-0.2911 
N1332 X-152.004 Y-26.906 Z19.599 A76.3037 B-0.3043 
N1333 X-152.004 Y-27.273 Z18.200 B-0.3179 
N1334 X-152.004 Y-27.647 Z16.772 B-0.3318 
N1335 X-152.004 Y-28.023 Z15.338 B-0.3458 
N1336 X-152.004 Y-28.395 Z13.921 A76.3037 B-0.3596 
N1337 X-152.004 Y-28.757 Z12.542 A76.3037 B-0.3730 
N1338 X-152.004 Y-29.103 Z11.224 A76.3042 B-0.3855 
N1339 X-152.005 Y-29.429 Z9.983 A76.3057 B-0.3959 
N1340 X-152.005 Y-29.730 Z8.834 A76.3073 B-0.4031 
N1341 X-152.005 Y-30.005 Z7.788 A76.3080 B-0.4081 
N1342 X-152.005 Y-30.257 Z6.852 A76.3288 B-0.4126 
N1343 X-152.005 Y-30.530 Z6.036 A76.5015 B-0.4194 
N1344 X-152.005 Y-30.896 Z5.356 A77.0652 B-0.4333 
N1345 X-152.005 Y-31.452 Z4.821 A78.3138 B-0.4602 
N1346 X-152.005 Y-32.288 Z4.422 A80.5282 B-0.5062 
N1347 X-152.006 Y-33.412 Z4.114 A83.7135 B-0.5724 
N1348 X-152.006 Y-34.724 Z3.829 A87.5504 B-0.6535 
N1349 X-152.007 Y-36.080 Z3.519 A91.5942 B-0.7411 
N1350 X-152.007 Y-37.386 Z3.170 A95.5528 B-0.8293 
N1351 X-152.008 Y-38.595 Z2.787 A99.2865 B-0.9148 
N1352 X-152.008 Y-39.694 Z2.380 A102.7434 B-0.9956 
N1353 X-152.008 Y-40.682 Z1.961 A105.9179 B-1.0709 
N1354 X-152.009 Y-41.570 Z1.536 A108.8331 B-1.1404 
N1355 X-152.009 Y-42.374 Z1.107 A111.5333 B-1.2043 
N1356 X-152.010 Y-43.114 Z0.674 A114.0785 B-1.2629 
N1357 X-152.010 Y-43.811 Z0.230 A116.5320 B-1.3165 
N1358 X-152.010 Y-44.475 Z-0.229 A118.9296 B-1.3648 
N1359 X-152.010 Y-45.108 Z-0.702 A121.2778 B-1.4072 
N1360 X-152.011 Y-45.706 Z-1.187 A123.5680 B-1.4432 
N1361 X-152.011 Y-46.268 Z-1.681 A125.7945 B-1.4723 
N1362 X-152.011 Y-46.798 Z-2.185 A127.9668 B-1.4947 
N1363 X-152.011 Y-47.302 Z-2.702 A130.1129 B-1.5110 
N1364 X-152.011 Y-47.789 Z-3.240 A132.2724 B-1.5216 
N1365 X-152.011 Y-48.269 Z-3.811 A134.4898 B-1.5271 
N1366 X-152.011 Y-48.748 Z-4.428 A136.8129 B-1.5277 
N1367 X-152.011 Y-49.233 Z-5.106 A139.2928 B-1.5234 
N1368 X-152.011 Y-49.727 Z-5.864 A141.9848 B-1.5137 
N1369 X-152.011 Y-50.229 Z-6.722 A144.9432 B-1.4979 
N1370 X-152.011 Y-50.728 Z-7.701 A148.2133 B-1.4749 
N1371 X-152.011 Y-51.208 Z-8.815 A151.8200 B-1.4432 
N1372 X-152.010 Y-51.639 Z-10.069 A155.7541 B-1.4018 
N1373 X-152.010 Y-51.982 Z-11.448 A159.9646 B-1.3504 
N1374 X-152.010 Y-52.195 Z-12.922 A164.3567 B-1.2902 
N1375 X-152.009 Y-52.238 Z-14.425 A168.7585 B-1.2240 
N1376 X-152.009 Y-52.079 Z-15.845 A172.8697 B-1.1576 
N1377 X-152.009 Y-51.713 Z-17.015 A176.2356 B-1.0996 
N1378 X-152.008 Y-51.161 Z-17.806 A178.5040 B-1.0573 
N1379 X-152.008 Y-50.447 Z-18.226 A179.6965 B-1.0322 
N1380 X-152.008 Y-49.575 Z-18.406 A180.1890 B-1.0190 
N1381 X-152.008 Y-48.530 Z-18.493 A180.4122 B-1.0108 
N1382 X-152.008 Y-47.298 Z-18.587 A180.6635 B-1.0032 
N1383 X-152.008 Y-45.866 Z-18.672 A180.9054 B-0.9975 
N1384 X-152.008 Y-44.229 Z-18.706 A181.0021 B-0.9954 
N1385 X-152.008 Y-42.386 Z-18.710 A181.0157 B-0.9951 
N1386 X-152.008 Y-40.346 Z-18.710 A181.0167 B-0.9952 
N1387 X-152.008 Y-38.125 Z-18.709 A181.0168 B-0.9954 
N1388 X-152.008 Y-35.746 Z-18.708 B-0.9955 
N1389 X-152.008 Y-33.240 Z-18.708 B-0.9957 
N1390 X-152.008 Y-30.644 Z-18.707 B-0.9959 
N1391 X-152.008 Y-27.995 Z-18.706 B-0.9961 
N1392 X-152.008 Y-25.336 Z-18.705 B-0.9963 
N1393 X-152.008 Y-22.705 Z-18.704 B-0.9965 
N1394 X-152.008 Y-20.140 Z-18.704 B-0.9967 
N1395 X-152.008 Y-17.670 Z-18.703 A181.0168 B-0.9968 
N1396 X-152.008 Y-15.322 Z-18.705 A181.0247 B-0.9970 
N1397 X-152.008 Y-13.111 Z-18.745 A181.1524 B-0.9973 
N1398 X-152.008 Y-11.043 Z-19.036 A182.0792 B-0.9945 
N1399 X-152.008 Y-9.093 Z-19.775 A184.5153 B-0.9869 
N1400 X-152.008 Y-7.208 Z-20.860 A188.2758 B-0.9729 
N1401 X-152.008 Y-5.356 Z-22.045 A192.6954 B-0.9218 
N1402 X-152.007 Y-3.590 Z-22.992 A196.7136 B-0.8331 
N1403 X-152.007 Y-1.972 Z-23.610 A199.9301 B-0.7477 
N1404 X-152.006 Y-0.554 Z-23.875 A202.1377 B-0.6859 
N1405 X-152.006 Y0.651 Z-23.839 A203.3836 B-0.6464 
N1406 X-152.006 Y1.683 Z-23.616 A203.9617 B-0.6214 
N1407 X-152.006 Y2.603 Z-23.338 A204.2773 B-0.6021 
N1408 X-152.006 Y3.478 Z-23.130 A204.7514 B-0.5807 
N1409 X-152.005 Y4.362 Z-23.084 A205.7106 B-0.5519 
N1410 X-152.005 Y5.290 Z-23.234 A207.3137 B-0.5132 
N1411 X-152.005 Y6.289 Z-23.573 A209.5947 B-0.4645 
N1412 X-152.005 Y7.368 Z-24.052 A212.4550 B-0.4073 
N1413 X-152.004 Y8.513 Z-24.592 A215.6881 B-0.3451 
N1414 X-152.004 Y9.698 Z-25.117 A219.0636 B-0.2816 
N1415 X-152.004 Y10.890 Z-25.566 A222.3842 B-0.2202 
N1416 X-152.003 Y12.061 Z-25.905 A225.5240 B-0.1632 
N1417 X-152.003 Y13.204 Z-26.128 A228.4558 B-0.1109 
N1418 X-152.003 Y14.345 Z-26.256 A231.2851 B-0.0617 
N1419 X-152.002 Y15.518 Z-26.306 A234.1412 B-0.0138 
N1420 X-152.002 Y16.765 Z-26.290 A237.1634 B0.0334 
N1421 X-152.002 Y18.127 Z-26.208 A240.4909 B0.0809 
N1422 X-152.002 Y19.583 Z-26.019 A244.0503 B0.1265 
N1423 X-152.001 Y21.053 Z-25.666 A247.5918 B0.1666 
N1424 X-152.001 Y22.391 Z-25.094 A250.6826 B0.1959 
N1425 X-152.001 Y23.422 Z-24.274 A252.7996 B0.2096 
N1426 X-152.001 Y24.071 Z-23.223 A253.6972 B0.2073 
N1427 X-152.001 Y24.508 Z-22.016 A253.8794 B0.1963 
N1428 X-152.001 Y24.915 Z-20.718 A253.9005 B0.1831 
N1429 X-152.001 Y25.334 Z-19.355 A253.9014 B0.1691 
N1430 X-152.001 Y25.768 Z-17.945 B0.1546 
N1431 X-152.001 Y26.210 Z-16.509 B0.1399 
N1432 X-152.002 Y26.653 Z-15.066 B0.1250 
N1433 X-152.002 Y27.092 Z-13.642 B0.1104 
N1434 X-152.002 Y27.518 Z-12.256 B0.0961 
N1435 X-152.002 Y27.925 Z-10.932 B0.0825 
N1436 X-152.002 Y28.308 Z-9.686 B0.0697 
N1437 X-152.002 Y28.663 Z-8.533 B0.0570 
N1438 X-152.002 Y28.986 Z-7.484 B0.0432 
N1439 X-152.002 Y29.278 Z-6.544 A253.9106 B0.0289 
N1440 X-152.002 Y29.562 Z-5.722 A254.0021 B0.0168 
N1441 X-152.002 Y29.892 Z-5.030 A254.3476 B0.0085 
N1442 X-152.002 Y30.375 Z-4.489 A255.2835 B0.0037 
N1443 X-152.002 Y31.145 Z-4.111 A257.2253 B0.0014 
N1444 X-152.002 Y32.240 Z-3.858 A260.2711 B0.0004 
N1445 X-152.002 Y33.566 Z-3.651 A264.1054 B0.0001 
N1446 X-152.002 Y34.967 Z-3.424 A268.2344 B0.0000 
N1447 X-152.002 Y36.332 Z-3.152 A272.3169 B0.0000 
N1448 X-152.002 Y37.606 Z-2.836 A276.1863 
N1449 X-152.002 Y38.768 Z-2.486 A279.7753 
N1450 X-152.002 Y39.816 Z-2.113 A283.0682 
N1451 X-152.002 Y40.756 Z-1.728 A286.0812 
N1452 X-152.002 Y41.603 Z-1.336 A288.8522 
N1453 X-152.002 Y42.376 Z-0.938 A291.4331 
N1454 X-152.002 Y43.094 Z-0.531 A293.8850 
N1455 X-152.002 Y43.775 Z-0.111 A296.2638 
N1456 X-152.002 Y44.428 Z0.325 A298.5995 
N1457 X-152.002 Y45.053 Z0.778 A300.8974 
N1458 X-152.002 Y45.648 Z1.246 A303.1501 
N1459 X-152.002 Y46.211 Z1.725 A305.3504 
N1460 X-152.002 Y46.743 Z2.214 A307.5018 
N1461 X-152.002 Y47.249 Z2.717 A309.6249 
N1462 X-152.002 Y47.738 Z3.240 A311.7532 
N1463 X-152.002 Y48.217 Z3.792 A313.9283 
N1464 X-152.002 Y48.694 Z4.385 A316.1971 
N1465 X-152.002 Y49.178 Z5.037 A318.6126 
N1466 X-152.002 Y49.673 Z5.766 A321.2352 
N1467 X-152.002 Y50.180 Z6.595 A324.1315 
N1468 X-152.002 Y50.695 Z7.550 A327.3626 
N1469 X-152.002 Y51.202 Z8.650 A330.9676 
N1470 X-152.002 Y51.670 Z9.902 A334.9450 
N1471 X-152.002 Y52.058 Z11.294 A339.2352 
N1472 X-152.002 Y52.320 Z12.789 A343.7256 
N1473 X-152.002 Y52.413 Z14.327 A348.2571 
N1474 X-152.002 Y52.307 Z15.813 A352.5812 
N1475 X-152.002 Y51.990 Z17.087 A356.2747 
N1476 X-152.002 Y51.483 Z17.962 A358.8062 
N1477 X-152.002 Y50.818 Z18.377 A0.0002 
N1478 X-152.002 Y50.003 Z18.491 A0.3074 
N1479 X-152.002 Y49.024 Z18.527 A0.3823 
N1480 X-152.002 Y47.864 Z18.594 A0.5478 
N1481 X-152.002 Y46.510 Z18.684 A0.7954 
N1482 X-152.002 Y44.956 Z18.738 A0.9489 
N1483 X-152.002 Y43.201 Z18.749 A0.9785 
N1484 X-152.002 Y41.252 Z18.750 A0.9791 
N1485 X-152.002 Y39.123 Z18.751 
N1486 X-152.002 Y36.836 Z18.751 
N1487 X-152.002 Y34.422 Z18.752 
N1488 X-152.002 Y31.915 Z18.753 
N1489 X-152.002 Y29.354 Z18.754 
N1490 X-152.002 Y26.780 Z18.755 
N1491 X-152.002 Y24.231 Z18.756 
N1492 X-152.002 Y21.745 Z18.757 
N1493 X-152.002 Y19.351 Z18.758 
N1494 X-152.002 Y17.077 Z18.759 A0.9796 
N1495 X-152.002 Y14.937 Z18.776 A1.0313 
N1496 X-152.002 Y12.941 Z18.902 A1.4272 
N1497 X-152.002 Y11.077 Z19.371 A2.9360 
N1498 X-152.002 Y9.295 Z20.335 A6.1369 
N1499 X-152.002 Y7.532 Z21.587 A10.5307 B0.0000 
N1500 X-152.002 Y5.756 Z22.887 A15.4473 B0.0005 
N1501 X-152.002 Y4.034 Z23.923 A19.9114 B0.0056 
N1502 X-152.002 Y2.451 Z24.578 A23.4299 B0.0221 
N1503 X-152.002 Y1.062 Z24.859 A25.8801 B0.0451 
N1504 X-152.002 Y-0.119 Z24.821 A27.3103 B0.0650 
N1505 X-152.002 Y-1.128 Z24.568 A27.9917 B0.0808 
N1506 X-152.002 Y-2.028 Z24.218 A28.2910 B0.0952 
N1507 X-152.002 Y-2.881 Z23.879 A28.5647 B0.1087 
N1508 X-152.002 Y-3.741 Z23.635 A29.1220 B0.1204 
N1509 X-152.002 Y-4.651 Z23.546 A30.1933 B0.1288 
N1510 X-152.001 Y-5.639 Z23.630 A31.8953 B0.1327 
N1511 X-152.001 Y-6.726 Z23.875 A34.2450 B0.1311 
N1512 X-152.002 Y-7.910 Z24.227 A37.1338 B0.1235 
N1513 X-152.002 Y-9.171 Z24.610 A40.3572 B0.1103 
N1514 X-152.002 Y-10.470 Z24.950 A43.6854 B0.0926 
N1515 X-152.002 Y-11.770 Z25.193 A46.9304 B0.0716 
N1516 X-152.002 Y-13.045 Z25.311 A49.9869 B0.0481 
N1517 X-152.002 Y-14.300 Z25.310 A52.8899 B0.0217 
N1518 X-152.002 Y-15.577 Z25.215 A55.7933 B-0.0087 
N1519 X-152.003 Y-16.945 Z25.058 A58.9492 B-0.0454 
N1520 X-152.003 Y-18.432 Z24.824 A62.4462 B-0.0898 
N1521 X-152.003 Y-19.961 Z24.452 A66.0406 B-0.1398 
N1522 X-152.003 Y-21.362 Z23.867 A69.2065 B-0.1887 
N1523 X-152.004 Y-22.437 Z23.028 A71.3395 B-0.2279 
N1524 X-152.004 Y-23.120 Z21.958 A72.2236 B-0.2524 
N1525 X-152.004 Y-23.600 Z20.746 A72.4255 B-0.2678 
N1526 X-152.004 Y-24.042 Z19.457 A72.4519 B-0.2810 
N1527 X-152.004 Y-24.491 Z18.119 A72.4523 B-0.2942 
N1528 X-152.004 Y-24.950 Z16.753 B-0.3077 
N1529 X-152.004 Y-25.411 Z15.376 B-0.3214 
N1530 X-152.004 Y-25.870 Z14.010 B-0.3349 
N1531 X-152.004 Y-26.318 Z12.674 A72.4523 B-0.3481 
N1532 X-152.004 Y-26.749 Z11.390 A72.4525 B-0.3608 
N1533 X-152.004 Y-27.157 Z10.174 A72.4540 B-0.3725 
N1534 X-152.004 Y-27.540 Z9.042 A72.4621 B-0.3825 
N1535 X-152.005 Y-27.896 Z8.006 A72.4864 B-0.3901 
N1536 X-152.005 Y-28.220 Z7.072 A72.5210 B-0.3954 
N1537 X-152.005 Y-28.520 Z6.245 A72.5883 B-0.3998 
N1538 X-152.005 Y-28.850 Z5.543 A72.8667 B-0.4080 
N1539 X-152.005 Y-29.297 Z4.983 A73.6293 B-0.4269 
N1540 X-152.005 Y-29.947 Z4.577 A75.1458 B-0.4629 
N1541 X-152.005 Y-30.871 Z4.308 A77.6237 B-0.5211 
N1542 X-152.006 Y-32.061 Z4.125 A81.0045 B-0.6008 
N1543 X-152.006 Y-33.417 Z3.957 A84.9612 B-0.6950 
N1544 X-152.007 Y-34.803 Z3.752 A89.0654 B-0.7942 
N1545 X-152.007 Y-36.127 Z3.498 A93.0380 B-0.8918 
N1546 X-152.008 Y-37.348 Z3.201 A96.7528 B-0.9844 
N1547 X-152.008 Y-38.456 Z2.872 A100.1759 B-1.0709 
N1548 X-152.009 Y-39.456 Z2.522 A103.3190 B-1.1509 
N1549 X-152.009 Y-40.359 Z2.158 A106.2116 B-1.2247 
N1550 X-152.010 Y-41.181 Z1.785 A108.8940 B-1.2926 
N1551 X-152.010 Y-41.938 Z1.403 A111.4148 B-1.3552 
N1552 X-152.010 Y-42.648 Z1.009 A113.8300 B-1.4131 
N1553 X-152.011 Y-43.327 Z0.599 A116.1922 B-1.4664 
N1554 X-152.011 Y-43.982 Z0.169 A118.5232 B-1.5147 
N1555 X-152.011 Y-44.609 Z-0.278 A120.8177 B-1.5573 
N1556 X-152.012 Y-45.204 Z-0.739 A123.0590 B-1.5935 
N1557 X-152.012 Y-45.764 Z-1.209 A125.2355 B-1.6229 
N1558 X-152.012 Y-46.290 Z-1.687 A127.3539 B-1.6458 
N1559 X-152.012 Y-46.791 Z-2.178 A129.4412 B-1.6627 
N1560 X-152.012 Y-47.275 Z-2.689 A131.5371 B-1.6744 
N1561 X-152.012 Y-47.753 Z-3.231 A133.6872 B-1.6814 
N1562 X-152.012 Y-48.232 Z-3.816 A135.9399 B-1.6840 
N1563 X-152.012 Y-48.720 Z-4.461 A138.3483 B-1.6822 
N1564 X-152.012 Y-49.221 Z-5.184 A140.9709 B-1.6755 
N1565 X-152.012 Y-49.736 Z-6.010 A143.8706 B-1.6632 
N1566 X-152.012 Y-50.260 Z-6.960 A147.1044 B-1.6439 
N1567 X-152.012 Y-50.777 Z-8.055 A150.7109 B-1.6159 
N1568 X-152.011 Y-51.257 Z-9.303 A154.6909 B-1.5774 
N1569 X-152.011 Y-51.659 Z-10.694 A158.9913 B-1.5276 
N1570 X-152.011 Y-51.938 Z-12.193 A163.5076 B-1.4668 
N1571 X-152.010 Y-52.049 Z-13.740 A168.0763 B-1.3977 
N1572 X-152.010 Y-51.961 Z-15.232 A172.4263 B-1.3256 
N1573 X-152.010 Y-51.663 Z-16.503 A176.1117 B-1.2598 
N1574 X-152.009 Y-51.175 Z-17.373 A178.6268 B-1.2112 
N1575 X-152.009 Y-50.531 Z-17.796 A179.8423 B-1.1843 
N1576 X-152.009 Y-49.739 Z-17.930 A180.2046 B-1.1726 
N1577 X-152.009 Y-48.785 Z-17.982 A180.3244 B-1.1659 
N1578 X-152.009 Y-47.652 Z-18.062 A180.5283 B-1.1586 
N1579 X-152.009 Y-46.327 Z-18.164 A180.8119 B-1.1513 
N1580 X-152.009 Y-44.804 Z-18.222 A180.9801 B-1.1473 
N1581 X-152.009 Y-43.080 Z-18.233 A181.0127 B-1.1464 
N1582 X-152.009 Y-41.162 Z-18.233 A181.0140 B-1.1465 
N1583 X-152.009 Y-39.064 Z-18.233 A181.0140 B-1.1466 
N1584 X-152.009 Y-36.807 Z-18.232 B-1.1467 
N1585 X-152.009 Y-34.422 Z-18.231 B-1.1468 
N1586 X-152.009 Y-31.943 Z-18.231 B-1.1469 
N1587 X-152.009 Y-29.409 Z-18.230 B-1.1471 
N1588 X-152.009 Y-26.862 Z-18.230 B-1.1472 
N1589 X-152.009 Y-24.341 Z-18.229 B-1.1474 
N1590 X-152.009 Y-21.885 Z-18.228 B-1.1475 
N1591 X-152.009 Y-19.527 Z-18.228 B-1.1476 
N1592 X-152.009 Y-17.291 Z-18.227 A181.0141 B-1.1477 
N1593 X-152.009 Y-15.198 Z-18.230 A181.0226 B-1.1479 
N1594 X-152.009 Y-13.256 Z-18.268 A181.1444 B-1.1480 
N1595 X-152.009 Y-11.464 Z-18.541 A182.0074 B-1.1434 
N1596 X-152.009 Y-9.790 Z-19.263 A184.3482 B-1.1289 
N1597 X-152.009 Y-8.172 Z-20.370 A188.0880 B-1.1045 
N1598 X-152.008 Y-6.543 Z-21.720 A192.8803 B-1.0509 
N1599 X-152.008 Y-4.913 Z-22.974 A197.7350 B-0.9530 
N1600 X-152.007 Y-3.350 Z-23.939 A201.9914 B-0.8380 
N1601 X-152.007 Y-1.913 Z-24.577 A205.4264 B-0.7383 
N1602 X-152.006 Y-0.655 Z-24.875 A207.8695 B-0.6655 
N1603 X-152.006 Y0.414 Z-24.883 A209.3797 B-0.6176 
N1604 X-152.006 Y1.331 Z-24.690 A210.1994 B-0.5871 
N1605 X-152.006 Y2.156 Z-24.406 A210.6728 B-0.5650 
N1606 X-152.005 Y2.960 Z-24.133 A211.1660 B-0.5428 
N1607 X-152.005 Y3.807 Z-23.966 A212.0256 B-0.5131 
N1608 X-152.005 Y4.745 Z-23.957 A213.4817 B-0.4716 
N1609 X-152.005 Y5.809 Z-24.116 A215.6402 B-0.4167 
N1610 X-152.004 Y7.013 Z-24.407 A218.4693 B-0.3494 
N1611 X-152.004 Y8.332 Z-24.746 A221.7548 B-0.2748 
N1612 X-152.003 Y9.710 Z-25.029 A225.1726 B-0.1997 
N1613 X-152.003 Y11.073 Z-25.172 A228.4045 B-0.1309 
N1614 X-152.003 Y12.379 Z-25.144 A231.2989 B-0.0715 
N1615 X-152.002 Y13.668 Z-24.986 A234.0405 B-0.0179 
N1616 X-152.002 Y15.011 Z-24.742 A236.8914 B0.0335 
N1617 X-152.002 Y16.470 Z-24.433 A240.0845 B0.0851 
N1618 X-152.001 Y18.006 Z-24.012 A243.4895 B0.1336 
N1619 X-152.001 Y19.464 Z-23.397 A246.6215 B0.1714 
N1620 X-152.001 Y20.631 Z-22.525 A248.8096 B0.1905 
N1621 X-152.001 Y21.395 Z-21.399 A249.6931 B0.1891 
N1622 X-152.001 Y21.947 Z-20.121 A249.8521 B0.1777 
N1623 X-152.001 Y22.473 Z-18.775 A249.8677 B0.1642 
N1624 X-152.001 Y23.009 Z-17.390 A249.8678 B0.1501 
N1625 X-152.001 Y23.551 Z-15.986 B0.1358 
N1626 X-152.002 Y24.094 Z-14.582 B0.1215 
N1627 X-152.002 Y24.629 Z-13.198 B0.1074 
N1628 X-152.002 Y25.148 Z-11.856 B0.0938 
N1629 X-152.002 Y25.643 Z-10.575 B0.0808 
N1630 X-152.002 Y26.108 Z-9.371 B0.0685 
N1631 X-152.002 Y26.538 Z-8.258 B0.0570 
N1632 X-152.002 Y26.930 Z-7.245 B0.0457 
N1633 X-152.002 Y27.281 Z-6.337 A249.8701 B0.0342 
N1634 X-152.002 Y27.608 Z-5.543 A249.9269 B0.0231 
N1635 X-152.002 Y27.959 Z-4.877 A250.1924 B0.0137 
N1636 X-152.002 Y28.414 Z-4.359 A250.9283 B0.0070 
N1637 X-152.002 Y29.090 Z-4.011 A252.4942 B0.0031 
N1638 X-152.002 Y30.071 Z-3.823 A255.1362 B0.0012 
N1639 X-152.002 Y31.327 Z-3.727 A258.7193 B0.0004 
N1640 X-152.002 Y32.734 Z-3.640 A262.8256 B0.0001 
N1641 X-152.002 Y34.152 Z-3.507 A267.0122 B0.0000 
N1642 X-152.002 Y35.498 Z-3.318 A271.0286 B0.0000 
N1643 X-152.002 Y36.738 Z-3.077 A274.7695 
N1644 X-152.002 Y37.864 Z-2.799 A278.2114 
N1645 X-152.002 Y38.882 Z-2.494 A281.3689 
N1646 X-152.002 Y39.803 Z-2.170 A284.2732 
N1647 X-152.002 Y40.643 Z-1.833 A286.9642 
N1648 X-152.002 Y41.415 Z-1.484 A289.4866 
N1649 X-152.002 Y42.136 Z-1.123 A291.8895 
N1650 X-152.002 Y42.823 Z-0.746 A294.2242 
N1651 X-152.002 Y43.486 Z-0.349 A296.5275 
N1652 X-152.002 Y44.128 Z0.069 A298.8094 
N1653 X-152.002 Y44.744 Z0.505 A301.0610 
N1654 X-152.002 Y45.331 Z0.956 A303.2667 
N1655 X-152.002 Y45.886 Z1.417 A305.4165 
N1656 X-152.002 Y46.409 Z1.888 A307.5164 
N1657 X-152.002 Y46.908 Z2.373 A309.5898 
N1658 X-152.002 Y47.392 Z2.879 A311.6736 
N1659 X-152.002 Y47.869 Z3.415 A313.8110 
N1660 X-152.002 Y48.347 Z3.994 A316.0510 
N1661 X-152.002 Y48.835 Z4.634 A318.4492 
N1662 X-152.002 Y49.338 Z5.355 A321.0706 
N1663 X-152.002 Y49.859 Z6.183 A323.9890 
N1664 X-152.002 Y50.395 Z7.147 A327.2752 
N1665 X-152.002 Y50.927 Z8.268 A330.9749 
N1666 X-152.002 Y51.424 Z9.554 A335.0813 
N1667 X-152.002 Y51.836 Z10.984 A339.5085 
N1668 X-152.002 Y52.112 Z12.505 A344.0910 
N1669 X-152.002 Y52.211 Z14.040 A348.6218 
N1670 X-152.002 Y52.110 Z15.494 A352.8629 
N1671 X-152.002 Y51.806 Z16.739 A356.4786 
N1672 X-152.002 Y51.320 Z17.613 A359.0175 
N1673 X-152.002 Y50.681 Z18.045 A0.2717 
N1674 X-152.002 Y49.897 Z18.162 A0.6001 
N1675 X-152.002 Y48.954 Z18.181 A0.6401 
N1676 X-152.002 Y47.834 Z18.212 A0.7138 
N1677 X-152.002 Y46.525 Z18.260 A0.8420 
N1678 X-152.002 Y45.020 Z18.293 A0.9345 
N1679 X-152.002 Y43.319 Z18.302 A0.9567 
N1680 X-152.002 Y41.428 Z18.304 A0.9575 
N1681 X-152.002 Y39.361 Z18.306 
N1682 X-152.002 Y37.142 Z18.307 
N1683 X-152.002 Y34.801 Z18.309 
N1684 X-152.002 Y32.372 Z18.311 
N1685 X-152.002 Y29.896 Z18.313 
N1686 X-152.002 Y27.413 Z18.314 
N1687 X-152.002 Y24.963 Z18.316 
N1688 X-152.002 Y22.585 Z18.318 
N1689 X-152.002 Y20.310 Z18.320 
N1690 X-152.002 Y18.164 Z18.321 
N1691 X-152.002 Y16.164 Z18.325 A0.9646 
N1692 X-152.002 Y14.319 Z18.364 A1.0809 
N1693 X-152.002 Y12.627 Z18.551 A1.6689 
N1694 X-152.002 Y11.065 Z19.118 A3.4872 
N1695 X-152.002 Y9.570 Z20.160 A6.9213 
N1696 X-152.002 Y8.069 Z21.487 A11.4992 B0.0001 
N1697 X-152.002 Y6.513 Z22.913 A16.7204 B0.0007 
N1698 X-152.002 Y4.930 Z24.184 A21.8335 B0.0037 
N1699 X-152.002 Y3.409 Z25.126 A26.2195 B0.0121 
N1700 X-152.002 Y2.008 Z25.730 A29.7456 B0.0266 
N1701 X-152.002 Y0.774 Z25.999 A32.2998 B0.0428 
N1702 X-152.002 Y-0.275 Z25.967 A33.8943 B0.0567 
N1703 X-152.002 Y-1.169 Z25.711 A34.7272 B0.0686 
N1704 X-152.002 Y-1.972 Z25.325 A35.1122 B0.0802 
N1705 X-152.002 Y-2.758 Z24.910 A35.4116 B0.0917 
N1706 X-152.002 Y-3.596 Z24.553 A35.9591 B0.1019 
N1707 X-152.002 Y-4.543 Z24.320 A37.0355 B0.1088 
N1708 X-152.002 Y-5.637 Z24.235 A38.8014 B0.1102 
N1709 X-152.002 Y-6.896 Z24.279 A41.2806 B0.1044 
N1710 X-152.002 Y-8.298 Z24.379 A44.3041 B0.0907 
N1711 X-152.002 Y-9.775 Z24.427 A47.5347 B0.0703 
N1712 X-152.002 Y-11.239 Z24.333 A50.6170 B0.0457 
N1713 X-152.002 Y-12.641 Z24.065 A53.3824 B0.0186 
N1714 X-152.002 Y-14.030 Z23.669 A56.0379 B-0.0129 
N1715 X-152.003 Y-15.518 Z23.217 A59.0112 B-0.0537 
N1716 X-152.003 Y-17.109 Z22.689 A62.3297 B-0.1048 
N1717 X-152.003 Y-18.616 Z21.981 A65.3902 B-0.1583 
N1718 X-152.003 Y-19.781 Z21.010 A67.3626 B-0.2003 
N1719 X-152.004 Y-20.541 Z19.801 A68.0260 B-0.2232 
N1720 X-152.004 Y-21.138 Z18.480 A68.1332 B-0.2369 
N1721 X-152.004 Y-21.713 Z17.121 A68.1393 B-0.2489 
N1722 X-152.004 Y-22.290 Z15.753 B-0.2609 
N1723 X-152.004 Y-22.864 Z14.391 B-0.2728 
N1724 X-152.004 Y-23.427 Z13.056 B-0.2845 
N1725 X-152.004 Y-23.971 Z11.764 B-0.2958 
N1726 X-152.004 Y-24.490 Z10.534 B-0.3065 
N1727 X-152.004 Y-24.977 Z9.380 A68.1395 B-0.3166 
N1728 X-152.004 Y-25.430 Z8.315 A68.1514 B-0.3261 
N1729 X-152.004 Y-25.856 Z7.353 A68.2101 B-0.3352 
N1730 X-152.004 Y-26.250 Z6.496 A68.3064 B-0.3427 
N1731 X-152.004 Y-26.605 Z5.742 A68.4181 B-0.3484 
N1732 X-152.004 Y-26.975 Z5.111 A68.7199 B-0.3579 
N1733 X-152.004 Y-27.452 Z4.629 A69.5091 B-0.3796 
N1734 X-152.005 Y-28.119 Z4.310 A71.0362 B-0.4204 
N1735 X-152.005 Y-29.037 Z4.141 A73.4814 B-0.4854 
N1736 X-152.006 Y-30.212 Z4.074 A76.8123 B-0.5740 
N1737 X-152.006 Y-31.566 Z4.034 A80.7578 B-0.6794 
N1738 X-152.007 Y-32.975 Z3.959 A84.9077 B-0.7909 
N1739 X-152.007 Y-34.335 Z3.826 A88.9479 B-0.9003 
N1740 X-152.008 Y-35.595 Z3.636 A92.7270 B-1.0035 
N1741 X-152.009 Y-36.741 Z3.402 A96.2019 B-1.0989 
N1742 X-152.009 Y-37.780 Z3.136 A99.3900 B-1.1867 
N1743 X-152.010 Y-38.724 Z2.847 A102.3298 B-1.2675 
N1744 X-152.010 Y-39.588 Z2.539 A105.0620 B-1.3422 
N1745 X-152.010 Y-40.387 Z2.216 A107.6276 B-1.4114 
N1746 X-152.011 Y-41.133 Z1.878 A110.0688 B-1.4758 
N1747 X-152.011 Y-41.841 Z1.524 A112.4314 B-1.5359 
N1748 X-152.011 Y-42.526 Z1.148 A114.7596 B-1.5918 
N1749 X-152.012 Y-43.191 Z0.750 A117.0717 B-1.6430 
N1750 X-152.012 Y-43.832 Z0.331 A119.3563 B-1.6887 
N1751 X-152.012 Y-44.442 Z-0.103 A121.5895 B-1.7280 
N1752 X-152.012 Y-45.015 Z-0.547 A123.7524 B-1.7605 
N1753 X-152.013 Y-45.552 Z-0.998 A125.8445 B-1.7863 
N1754 X-152.013 Y-46.060 Z-1.458 A127.8881 B-1.8062 
N1755 X-152.013 Y-46.548 Z-1.934 A129.9200 B-1.8209 
N1756 X-152.013 Y-47.027 Z-2.434 A131.9840 B-1.8311 
N1757 X-152.013 Y-47.504 Z-2.971 A134.1256 B-1.8372 
N1758 X-152.013 Y-47.988 Z-3.558 A136.3944 B-1.8395 
N1759 X-152.013 Y-48.486 Z-4.211 A138.8461 B-1.8377 
N1760 X-152.013 Y-49.003 Z-4.954 A141.5452 B-1.8311 
N1761 X-152.013 Y-49.539 Z-5.812 A144.5613 B-1.8186 
N1762 X-152.013 Y-50.086 Z-6.810 A147.9578 B-1.7985 
N1763 X-152.013 Y-50.624 Z-7.970 A151.7710 B-1.7685 
N1764 X-152.012 Y-51.117 Z-9.294 A155.9823 B-1.7264 
N1765 X-152.012 Y-51.516 Z-10.757 A160.4940 B-1.6716 
N1766 X-152.012 Y-51.770 Z-12.302 A165.1365 B-1.6052 
N1767 X-152.011 Y-51.839 Z-13.847 A169.6919 B-1.5314 
N1768 X-152.011 Y-51.704 Z-15.281 A173.8758 B-1.4573 
N1769 X-152.010 Y-51.368 Z-16.449 A177.2729 B-1.3932 
N1770 X-152.010 Y-50.860 Z-17.198 A179.4487 B-1.3499 
N1771 X-152.010 Y-50.207 Z-17.514 A180.3639 B-1.3294 
N1772 X-152.010 Y-49.410 Z-17.583 A180.5493 B-1.3215 
N1773 X-152.010 Y-48.450 Z-17.606 A180.5958 B-1.3155 
N1774 X-152.010 Y-47.312 Z-17.656 A180.7273 B-1.3083 
N1775 X-152.010 Y-45.985 Z-17.719 A180.9028 B-1.3022 
N1776 X-152.010 Y-44.461 Z-17.751 A180.9965 B-1.2997 
N1777 X-152.010 Y-42.742 Z-17.756 A181.0112 B-1.2993 
N1778 X-152.010 Y-40.835 Z-17.756 A181.0113 B-1.2993 
N1779 X-152.010 Y-38.756 Z-17.755 B-1.2993 
N1780 X-152.010 Y-36.530 Z-17.755 B-1.2992 
N1781 X-152.010 Y-34.186 Z-17.754 B-1.2992 
N1782 X-152.010 Y-31.762 Z-17.754 B-1.2991 
N1783 X-152.010 Y-29.298 Z-17.754 B-1.2991 
N1784 X-152.010 Y-26.837 Z-17.753 B-1.2991 
N1785 X-152.010 Y-24.417 Z-17.753 B-1.2990 
N1786 X-152.010 Y-22.079 Z-17.752 B-1.2990 
N1787 X-152.010 Y-19.852 Z-17.752 B-1.2989 
N1788 X-152.010 Y-17.763 Z-17.751 B-1.2989 
N1789 X-152.010 Y-15.828 Z-17.752 A181.0133 B-1.2989 
N1790 X-152.010 Y-14.057 Z-17.762 A181.0467 B-1.2992 
N1791 X-152.010 Y-12.448 Z-17.890 A181.4451 B-1.2970 
N1792 X-152.010 Y-10.980 Z-18.379 A182.9948 B-1.2835 
N1793 X-152.010 Y-9.603 Z-19.295 A185.9802 B-1.2558 
N1794 X-152.009 Y-8.244 Z-20.541 A190.1853 B-1.2108 
N1795 X-152.009 Y-6.829 Z-21.994 A195.3127 B-1.1307 
N1796 X-152.008 Y-5.369 Z-23.358 A200.5026 B-1.0111 
N1797 X-152.007 Y-3.926 Z-24.462 A205.1885 B-0.8746 
N1798 X-152.007 Y-2.539 Z-25.297 A209.2770 B-0.7458 
N1799 X-152.006 Y-1.258 Z-25.839 A212.6066 B-0.6398 
N1800 X-152.006 Y-0.124 Z-26.083 A215.0702 B-0.5608 
N1801 X-152.005 Y0.854 Z-26.062 A216.6961 B-0.5070 
N1802 X-152.005 Y1.702 Z-25.832 A217.6439 B-0.4725 
N1803 X-152.005 Y2.487 Z-25.478 A218.2108 B-0.4483 
N1804 X-152.005 Y3.294 Z-25.104 A218.7935 B-0.4236 
N1805 X-152.005 Y4.221 Z-24.813 A219.8301 B-0.3874 
N1806 X-152.004 Y5.334 Z-24.659 A221.6053 B-0.3337 
N1807 X-152.004 Y6.657 Z-24.623 A224.1727 B-0.2625 
N1808 X-152.003 Y8.136 Z-24.601 A227.2459 B-0.1824 
N1809 X-152.003 Y9.645 Z-24.450 A230.2968 B-0.1069 
N1810 X-152.003 Y11.070 Z-24.082 A232.9013 B-0.0458 
N1811 X-152.002 Y12.444 Z-23.545 A235.2274 B0.0047 
N1812 X-152.002 Y13.882 Z-22.926 A237.7297 B0.0530 
N1813 X-152.002 Y15.428 Z-22.243 A240.5866 B0.1010 
N1814 X-152.001 Y16.920 Z-21.403 A243.2782 B0.1386 
N1815 X-152.001 Y18.098 Z-20.307 A244.9542 B0.1539 
N1816 X-152.001 Y18.901 Z-18.976 A245.3897 B0.1478 
N1817 X-152.001 Y19.594 Z-17.559 A245.4277 B0.1357 
N1818 X-152.002 Y20.281 Z-16.124 A245.4288 B0.1230 
N1819 X-152.002 Y20.965 Z-14.693 B0.1104 
N1820 X-152.002 Y21.638 Z-13.287 B0.0979 
N1821 X-152.002 Y22.291 Z-11.924 B0.0859 
N1822 X-152.002 Y22.914 Z-10.622 B0.0744 
N1823 X-152.002 Y23.500 Z-9.397 B0.0635 
N1824 X-152.002 Y24.043 Z-8.261 B0.0535 
N1825 X-152.002 Y24.539 Z-7.226 B0.0443 
N1826 X-152.002 Y24.984 Z-6.296 B0.0359 
N1827 X-152.002 Y25.379 Z-5.474 A245.4355 B0.0279 
N1828 X-152.002 Y25.753 Z-4.771 A245.5380 B0.0199 
N1829 X-152.002 Y26.168 Z-4.209 A245.9423 B0.0126 
N1830 X-152.002 Y26.708 Z-3.813 A246.9215 B0.0071 
N1831 X-152.002 Y27.474 Z-3.601 A248.7801 B0.0036 
N1832 X-152.002 Y28.523 Z-3.551 A251.6673 B0.0017 
N1833 X-152.002 Y29.818 Z-3.589 A255.4050 B0.0008 
N1834 X-152.002 Y31.243 Z-3.627 A259.5879 B0.0003 
N1835 X-152.002 Y32.669 Z-3.611 A263.8010 B0.0001 
N1836 X-152.002 Y34.020 Z-3.528 A267.8126 B0.0001 
N1837 X-152.002 Y35.263 Z-3.384 A271.5307 B0.0000 
N1838 X-152.002 Y36.394 Z-3.193 A274.9452 B0.0000 
N1839 X-152.002 Y37.424 Z-2.968 A278.0847 B0.0000 
N1840 X-152.002 Y38.365 Z-2.714 A280.9880 
N1841 X-152.002 Y39.230 Z-2.440 A283.6954 
N1842 X-152.002 Y40.033 Z-2.147 A286.2460 
N1843 X-152.002 Y40.787 Z-1.836 A288.6775 
N1844 X-152.002 Y41.503 Z-1.508 A291.0284 
N1845 X-152.002 Y42.194 Z-1.158 A293.3405 
N1846 X-152.002 Y42.866 Z-0.784 A295.6373 
N1847 X-152.002 Y43.520 Z-0.387 A297.9195 
N1848 X-152.002 Y44.148 Z0.029 A300.1694 
N1849 X-152.002 Y44.745 Z0.459 A302.3665 
N1850 X-152.002 Y45.307 Z0.900 A304.4987 
N1851 X-152.002 Y45.837 Z1.349 A306.5717 
N1852 X-152.002 Y46.340 Z1.810 A308.6085 
N1853 X-152.002 Y46.826 Z2.289 A310.6444 
N1854 X-152.002 Y47.304 Z2.795 A312.7204 
N1855 X-152.002 Y47.782 Z3.340 A314.8819 
N1856 X-152.002 Y48.268 Z3.937 A317.1805 
N1857 X-152.002 Y48.769 Z4.607 A319.6778 
N1858 X-152.002 Y49.291 Z5.375 A322.4478 
N1859 X-152.002 Y49.834 Z6.270 A325.5735 
N1860 X-152.002 Y50.391 Z7.323 A329.1286 
N1861 X-152.002 Y50.935 Z8.554 A333.1464 
N1862 X-152.002 Y51.422 Z9.959 A337.5781 
N1863 X-152.002 Y51.791 Z11.489 A342.2603 
N1864 X-152.002 Y51.991 Z13.052 A346.9297 
N1865 X-152.002 Y51.991 Z14.543 A351.3084 
N1866 X-152.002 Y51.790 Z15.860 A355.1457 
N1867 X-152.002 Y51.405 Z16.893 A358.1490 
N1868 X-152.002 Y50.861 Z17.533 A0.0181 
N1869 X-152.002 Y50.176 Z17.791 A0.7727 
N1870 X-152.002 Y49.344 Z17.839 A0.9116 
N1871 X-152.002 Y48.348 Z17.842 A0.9168 
N1872 X-152.002 Y47.172 Z17.846 A0.9228 
N1873 X-152.002 Y45.806 Z17.850 A0.9303 
N1874 X-152.002 Y44.246 Z17.853 A0.9342 
N1875 X-152.002 Y42.494 Z17.855 A0.9348 
N1876 X-152.002 Y40.562 Z17.858 
N1877 X-152.002 Y38.466 Z17.860 
N1878 X-152.002 Y36.235 Z17.863 
N1879 X-152.002 Y33.901 Z17.865 
N1880 X-152.002 Y31.501 Z17.868 
N1881 X-152.002 Y29.078 Z17.871 
N1882 X-152.002 Y26.672 Z17.873 
N1883 X-152.002 Y24.324 Z17.876 
N1884 X-152.002 Y22.070 Z17.879 
N1885 X-152.002 Y19.940 Z17.881 
N1886 X-152.002 Y17.957 Z17.883 
N1887 X-152.002 Y16.135 Z17.888 A0.9420 
N1888 X-152.002 Y14.481 Z17.921 A1.0403 
N1889 X-152.002 Y12.991 Z18.072 A1.5097 
N1890 X-152.002 Y11.643 Z18.536 A2.9788 
N1891 X-152.002 Y10.383 Z19.452 A5.9423 
N1892 X-152.002 Y9.136 Z20.711 A10.1426 B0.0000 
N1893 X-152.002 Y7.838 Z22.135 A15.1065 B0.0002 
N1894 X-152.002 Y6.452 Z23.590 A20.4866 B0.0014 
N1895 X-152.002 Y5.012 Z24.885 A25.7116 B0.0046 
N1896 X-152.002 Y3.586 Z25.899 A30.3695 B0.0106 
N1897 X-152.002 Y2.209 Z26.638 A34.4157 B0.0191 
N1898 X-152.002 Y0.919 Z27.097 A37.7688 B0.0286 
N1899 X-152.002 Y-0.228 Z27.252 A40.2577 B0.0369 
N1900 X-152.002 Y-1.205 Z27.111 A41.8242 B0.0439 
N1901 X-152.002 Y-2.037 Z26.723 A42.5958 B0.0512 
N1902 X-152.002 Y-2.810 Z26.182 A42.9297 B0.0597 
N1903 X-152.002 Y-3.640 Z25.603 A43.3112 B0.0682 
N1904 X-152.002 Y-4.628 Z25.085 A44.1785 B0.0736 
N1905 X-152.002 Y-5.830 Z24.663 A45.7680 B0.0727 
N1906 X-152.002 Y-7.235 Z24.297 A48.0276 B0.0632 
N1907 X-152.002 Y-8.757 Z23.884 A50.6130 B0.0455 
N1908 X-152.002 Y-10.264 Z23.311 A53.0363 B0.0232 
N1909 X-152.002 Y-11.691 Z22.547 A55.0810 B-0.0011 
N1910 X-152.002 Y-13.138 Z21.686 A57.1653 B-0.0318 
N1911 X-152.003 Y-14.697 Z20.792 A59.6585 B-0.0749 
N1912 X-152.003 Y-16.188 Z19.766 A61.9848 B-0.1220 
N1913 X-152.003 Y-17.317 Z18.491 A63.1513 B-0.1535 
N1914 X-152.003 Y-18.144 Z17.045 A63.3295 B-0.1673 
N1915 X-152.003 Y-18.916 Z15.579 A63.3384 B-0.1774 
N1916 X-152.003 Y-19.672 Z14.136 B-0.1871 
N1917 X-152.003 Y-20.406 Z12.737 B-0.1965 
N1918 X-152.003 Y-21.108 Z11.397 B-0.2056 
N1919 X-152.003 Y-21.771 Z10.133 B-0.2141 
N1920 X-152.004 Y-22.387 Z8.957 B-0.2220 
N1921 X-152.004 Y-22.953 Z7.880 A63.3425 B-0.2293 
N1922 X-152.004 Y-23.479 Z6.916 A63.3983 B-0.2372 
N1923 X-152.004 Y-23.977 Z6.073 A63.5563 B-0.2464 
N1924 X-152.004 Y-24.424 Z5.340 A63.7341 B-0.2543 
N1925 X-152.004 Y-24.831 Z4.716 A63.9666 B-0.2626 
N1926 X-152.004 Y-25.294 Z4.240 A64.5616 B-0.2810 
N1927 X-152.004 Y-25.905 Z3.938 A65.8156 B-0.3187 
N1928 X-152.004 Y-26.728 Z3.810 A67.9094 B-0.3811 
N1929 X-152.005 Y-27.795 Z3.822 A70.8954 B-0.4700 
N1930 X-152.006 Y-29.072 Z3.907 A74.6135 B-0.5811 
N1931 X-152.006 Y-30.469 Z3.988 A78.7311 B-0.7044 
N1932 X-152.007 Y-31.867 Z4.013 A82.8728 B-0.8288 
N1933 X-152.008 Y-33.192 Z3.969 A86.8099 B-0.9473 
N1934 X-152.008 Y-34.410 Z3.864 A90.4495 B-1.0571 
N1935 X-152.009 Y-35.519 Z3.710 A93.7845 B-1.1577 
N1936 X-152.010 Y-36.531 Z3.519 A96.8539 B-1.2500 
N1937 X-152.010 Y-37.461 Z3.298 A99.7066 B-1.3352 
N1938 X-152.010 Y-38.325 Z3.053 A102.3867 B-1.4144 
N1939 X-152.011 Y-39.135 Z2.786 A104.9328 B-1.4885 
N1940 X-152.011 Y-39.902 Z2.498 A107.3785 B-1.5581 
N1941 X-152.012 Y-40.636 Z2.188 A109.7586 B-1.6236 
N1942 X-152.012 Y-41.349 Z1.854 A112.1095 B-1.6852 
N1943 X-152.012 Y-42.045 Z1.494 A114.4525 B-1.7425 
N1944 X-152.013 Y-42.721 Z1.110 A116.7762 B-1.7945 
N1945 X-152.013 Y-43.367 Z0.707 A119.0510 B-1.8402 
N1946 X-152.013 Y-43.975 Z0.293 A121.2491 B-1.8789 
N1947 X-152.013 Y-44.542 Z-0.128 A123.3600 B-1.9107 
N1948 X-152.013 Y-45.074 Z-0.556 A125.3975 B-1.9361 
N1949 X-152.014 Y-45.579 Z-0.994 A127.3920 B-1.9560 
N1950 X-152.014 Y-46.066 Z-1.449 A129.3830 B-1.9714 
N1951 X-152.014 Y-46.546 Z-1.929 A131.4106 B-1.9827 
N1952 X-152.014 Y-47.027 Z-2.445 A133.5163 B-1.9905 
N1953 X-152.014 Y-47.516 Z-3.010 A135.7451 B-1.9948 
N1954 X-152.014 Y-48.018 Z-3.639 A138.1495 B-1.9954 
N1955 X-152.014 Y-48.541 Z-4.353 A140.7931 B-1.9916 
N1956 X-152.014 Y-49.086 Z-5.180 A143.7508 B-1.9822 
N1957 X-152.014 Y-49.650 Z-6.148 A147.0989 B-1.9654 
N1958 X-152.014 Y-50.217 Z-7.286 A150.8951 B-1.9385 
N1959 X-152.013 Y-50.753 Z-8.605 A155.1428 B-1.8989 
N1960 X-152.013 Y-51.205 Z-10.082 A159.7482 B-1.8446 
N1961 X-152.013 Y-51.514 Z-11.650 A164.5015 B-1.7768 
N1962 X-152.012 Y-51.636 Z-13.207 A169.1210 B-1.7001 
N1963 X-152.012 Y-51.556 Z-14.643 A173.3262 B-1.6220 
N1964 X-152.011 Y-51.280 Z-15.843 A176.8263 B-1.5519 
N1965 X-152.011 Y-50.834 Z-16.685 A179.2820 B-1.5003 
N1966 X-152.011 Y-50.245 Z-17.112 A180.5321 B-1.4726 
N1967 X-152.011 Y-49.519 Z-17.232 A180.8843 B-1.4630 
N1968 X-152.011 Y-48.640 Z-17.245 A180.9188 B-1.4594 
N1969 X-152.011 Y-47.591 Z-17.252 A180.9365 B-1.4559 
N1970 X-152.011 Y-46.358 Z-17.265 A180.9705 B-1.4530 
N1971 X-152.011 Y-44.934 Z-17.274 A180.9977 B-1.4518 
N1972 X-152.011 Y-43.315 Z-17.277 A181.0054 B-1.4520 
N1973 X-152.011 Y-41.509 Z-17.277 A181.0058 B-1.4525 
N1974 X-152.011 Y-39.527 Z-17.276 B-1.4532 
N1975 X-152.011 Y-37.392 Z-17.276 B-1.4538 
N1976 X-152.011 Y-35.132 Z-17.276 B-1.4546 
N1977 X-152.011 Y-32.782 Z-17.276 B-1.4553 
N1978 X-152.011 Y-30.383 Z-17.275 B-1.4561 
N1979 X-152.011 Y-27.976 Z-17.275 B-1.4569 
N1980 X-152.011 Y-25.602 Z-17.275 B-1.4576 
N1981 X-152.011 Y-23.302 Z-17.275 B-1.4584 
N1982 X-152.011 Y-21.110 Z-17.275 B-1.4591 
N1983 X-152.011 Y-19.054 Z-17.274 B-1.4597 
N1984 X-152.011 Y-17.154 Z-17.274 B-1.4603 
N1985 X-152.011 Y-15.424 Z-17.274 B-1.4609 
N1986 X-152.011 Y-13.867 Z-17.286 A181.0428 B-1.4608 
N1987 X-152.011 Y-12.477 Z-17.437 A181.5094 B-1.4542 
N1988 X-152.011 Y-11.228 Z-17.948 A183.1212 B-1.4321 
N1989 X-152.010 Y-10.069 Z-18.864 A186.0732 B-1.3931 
N1990 X-152.010 Y-8.927 Z-20.084 A190.1214 B-1.3365 
N1991 X-152.010 Y-7.726 Z-21.533 A195.1027 B-1.2499 
N1992 X-152.009 Y-6.425 Z-23.036 A200.5465 B-1.1242 
N1993 X-152.008 Y-5.070 Z-24.362 A205.7654 B-0.9721 
N1994 X-152.007 Y-3.695 Z-25.456 A210.5681 B-0.8122 
N1995 X-152.006 Y-2.309 Z-26.336 A215.0040 B-0.6578 
N1996 X-152.005 Y-0.947 Z-26.973 A218.9549 B-0.5205 
N1997 X-152.005 Y0.327 Z-27.323 A222.2030 B-0.4088 
N1998 X-152.004 Y1.451 Z-27.358 A224.5553 B-0.3281 
N1999 X-152.004 Y2.398 Z-27.080 A225.9448 B-0.2791 
N2000 X-152.004 Y3.222 Z-26.560 A226.6060 B-0.2530 
N2001 X-152.004 Y4.072 Z-25.929 A227.1160 B-0.2313 
N2002 X-152.003 Y5.112 Z-25.330 A228.1480 B-0.1948 
N2003 X-152.003 Y6.384 Z-24.778 A229.8735 B-0.1404 
N2004 X-152.003 Y7.797 Z-24.174 A231.9502 B-0.0800 
N2005 X-152.002 Y9.199 Z-23.398 A233.8271 B-0.0293 
N2006 X-152.002 Y10.530 Z-22.425 A235.3064 B0.0072 
N2007 X-152.002 Y11.885 Z-21.346 A236.7841 B0.0389 
N2008 X-152.002 Y13.322 Z-20.216 A238.5194 B0.0704 
N2009 X-152.002 Y14.683 Z-18.958 A240.0126 B0.0916 
N2010 X-152.002 Y15.760 Z-17.493 A240.5520 B0.0920 
N2011 X-152.002 Y16.684 Z-15.934 A240.5754 B0.0831 
N2012 X-152.002 Y17.592 Z-14.388 B0.0738 
N2013 X-152.002 Y18.476 Z-12.883 B0.0649 
N2014 X-152.002 Y19.325 Z-11.437 B0.0562 
N2015 X-152.002 Y20.128 Z-10.071 B0.0481 
N2016 X-152.002 Y20.875 Z-8.799 B0.0405 
N2017 X-152.002 Y21.559 Z-7.634 A240.5755 B0.0335 
N2018 X-152.002 Y22.177 Z-6.583 A240.5777 B0.0273 
N2019 X-152.002 Y22.729 Z-5.650 A240.5887 B0.0218 
N2020 X-152.002 Y23.214 Z-4.837 A240.6095 B0.0171 
N2021 X-152.002 Y23.655 Z-4.148 A240.7059 B0.0128 
N2022 X-152.002 Y24.126 Z-3.616 A241.1265 B0.0090 
N2023 X-152.002 Y24.714 Z-3.272 A242.1575 B0.0061 
N2024 X-152.002 Y25.490 Z-3.125 A244.0033 B0.0039 
N2025 X-152.002 Y26.499 Z-3.153 A246.7677 B0.0024 
N2026 X-152.002 Y27.727 Z-3.290 A250.3265 B0.0015 
N2027 X-152.002 Y29.093 Z-3.452 A254.3651 B0.0008 
N2028 X-152.002 Y30.486 Z-3.573 A258.5002 B0.0005 
N2029 X-152.002 Y31.827 Z-3.625 A262.4843 B0.0002 
N2030 X-152.002 Y33.079 Z-3.610 A266.2094 B0.0001 
N2031 X-152.002 Y34.233 Z-3.538 A269.6520 B0.0001 
N2032 X-152.002 Y35.293 Z-3.419 A272.8337 B0.0000 
N2033 X-152.002 Y36.271 Z-3.264 A275.7919 B0.0000 
N2034 X-152.002 Y37.181 Z-3.077 A278.5658 B0.0000 
N2035 X-152.002 Y38.035 Z-2.864 A281.1932 
N2036 X-152.002 Y38.842 Z-2.626 A283.7090 
N2037 X-152.002 Y39.614 Z-2.364 A286.1455 
N2038 X-152.002 Y40.361 Z-2.077 A288.5371 
N2039 X-152.002 Y41.092 Z-1.763 A290.9172 
N2040 X-152.002 Y41.812 Z-1.419 A293.3035 
N2041 X-152.002 Y42.516 Z-1.047 A295.6850 
N2042 X-152.002 Y43.195 Z-0.651 A298.0355 
N2043 X-152.002 Y43.840 Z-0.239 A300.3253 
N2044 X-152.002 Y44.446 Z0.185 A302.5368 
N2045 X-152.002 Y45.013 Z0.618 A304.6694 
N2046 X-152.002 Y45.548 Z1.059 A306.7414 
N2047 X-152.002 Y46.058 Z1.513 A308.7826 
N2048 X-152.002 Y46.552 Z1.988 A310.8287 
N2049 X-152.002 Y47.038 Z2.490 A312.9183 
N2050 X-152.002 Y47.524 Z3.032 A315.0936 
N2051 X-152.002 Y48.018 Z3.628 A317.4048 
N2052 X-152.002 Y48.526 Z4.295 A319.9123 
N2053 X-152.002 Y49.054 Z5.061 A322.6912 
N2054 X-152.002 Y49.605 Z5.954 A325.8262 
N2055 X-152.002 Y50.169 Z7.009 A329.3985 
N2056 X-152.002 Y50.722 Z8.248 A333.4513 
N2057 X-152.002 Y51.219 Z9.668 A337.9422 
N2058 X-152.002 Y51.600 Z11.218 A342.6975 
N2059 X-152.002 Y51.805 Z12.793 A347.4114 
N2060 X-152.002 Y51.807 Z14.263 A351.7366 
N2061 X-152.002 Y51.612 Z15.522 A355.4083 
N2062 X-152.002 Y51.243 Z16.489 A358.2235 
N2063 X-152.002 Y50.724 Z17.098 A0.0010 
N2064 X-152.002 Y50.068 Z17.359 A0.7652 
N2065 X-152.002 Y49.270 Z17.414 A0.9271 
N2066 X-152.002 Y48.311 Z17.418 A0.9340 
N2067 X-152.002 Y47.176 Z17.419 
N2068 X-152.002 Y45.854 Z17.421 
N2069 X-152.002 Y44.340 Z17.422 
N2070 X-152.002 Y42.637 Z17.424 
N2071 X-152.002 Y40.755 Z17.427 
N2072 X-152.002 Y38.711 Z17.429 
N2073 X-152.002 Y36.531 Z17.431 
N2074 X-152.002 Y34.248 Z17.434 
N2075 X-152.002 Y31.898 Z17.437 
N2076 X-152.002 Y29.524 Z17.440 
N2077 X-152.002 Y27.166 Z17.442 
N2078 X-152.002 Y24.866 Z17.445 
N2079 X-152.002 Y22.660 Z17.447 
N2080 X-152.002 Y20.580 Z17.450 
N2081 X-152.002 Y18.649 Z17.452 
N2082 X-152.002 Y16.884 Z17.454 A0.9347 
N2083 X-152.002 Y15.292 Z17.466 A0.9640 
N2084 X-152.002 Y13.874 Z17.525 A1.1452 
N2085 X-152.002 Y12.617 Z17.756 A1.8645 
N2086 X-152.002 Y11.489 Z18.356 A3.7637 
N2087 X-152.002 Y10.426 Z19.387 A7.0865 
N2088 X-152.002 Y9.352 Z20.706 A11.4609 B0.0000 
N2089 X-152.002 Y8.211 Z22.158 A16.4697 B0.0002 
N2090 X-152.002 Y6.959 Z23.650 A21.8945 B0.0011 
N2091 X-152.002 Y5.591 Z25.062 A27.4222 B0.0034 
N2092 X-152.002 Y4.157 Z26.265 A32.6669 B0.0073 
N2093 X-152.002 Y2.690 Z27.219 A37.5084 B0.0121 
N2094 X-152.002 Y1.202 Z27.934 A41.9765 B0.0167 
N2095 X-152.002 Y-0.250 Z28.367 A45.8973 B0.0191 
N2096 X-152.002 Y-1.548 Z28.441 A48.8765 B0.0187 
N2097 X-152.002 Y-2.591 Z28.118 A50.5942 B0.0179 
N2098 X-152.002 Y-3.402 Z27.448 A51.1634 B0.0196 
N2099 X-152.002 Y-4.188 Z26.597 A51.3447 B0.0229 
N2100 X-152.002 Y-5.119 Z25.696 A51.7817 B0.0244 
N2101 X-152.002 Y-6.229 Z24.765 A52.6255 B0.0215 
N2102 X-152.002 Y-7.467 Z23.764 A53.7160 B0.0137 
N2103 X-152.002 Y-8.750 Z22.640 A54.7852 B0.0027 
N2104 X-152.002 Y-10.012 Z21.370 A55.6288 B-0.0090 
N2105 X-152.002 Y-11.286 Z20.004 A56.4108 B-0.0230 
N2106 X-152.003 Y-12.615 Z18.601 A57.3505 B-0.0428 
N2107 X-152.003 Y-13.847 Z17.098 A57.9639 B-0.0593 
N2108 X-152.003 Y-14.922 Z15.499 A58.0589 B-0.0660 
N2109 X-152.003 Y-15.951 Z13.911 A58.0594 B-0.0705 
N2110 X-152.003 Y-16.945 Z12.376 B-0.0749 
N2111 X-152.003 Y-17.891 Z10.917 B-0.0791 
N2112 X-152.003 Y-18.775 Z9.553 B-0.0830 
N2113 X-152.003 Y-19.588 Z8.298 B-0.0866 
N2114 X-152.003 Y-20.324 Z7.162 B-0.0899 
N2115 X-152.003 Y-20.979 Z6.150 B-0.0928 
N2116 X-152.003 Y-21.558 Z5.266 A58.0744 B-0.0958 
N2117 X-152.003 Y-22.099 Z4.529 A58.2390 B-0.1032 
N2118 X-152.003 Y-22.672 Z3.971 A58.7854 B-0.1225 
N2119 X-152.003 Y-23.334 Z3.607 A59.9030 B-0.1599 
N2120 X-152.004 Y-24.124 Z3.432 A61.6831 B-0.2187 
N2121 X-152.004 Y-25.055 Z3.414 A64.1181 B-0.2993 
N2122 X-152.005 Y-26.131 Z3.509 A67.1552 B-0.4003 
N2123 X-152.005 Y-27.330 Z3.664 A70.6628 B-0.5176 
N2124 X-152.006 Y-28.598 Z3.821 A74.4198 B-0.6441 
N2125 X-152.007 Y-29.863 Z3.940 A78.1788 B-0.7715 
N2126 X-152.007 Y-31.077 Z4.004 A81.7900 B-0.8944 
N2127 X-152.008 Y-32.219 Z4.014 A85.1917 B-1.0104 
N2128 X-152.009 Y-33.287 Z3.975 A88.3760 B-1.1189 
N2129 X-152.009 Y-34.284 Z3.896 A91.3627 B-1.2200 
N2130 X-152.010 Y-35.221 Z3.781 A94.1828 B-1.3145 
N2131 X-152.010 Y-36.109 Z3.634 A96.8719 B-1.4032 
N2132 X-152.011 Y-36.959 Z3.458 A99.4689 B-1.4871 
N2133 X-152.011 Y-37.785 Z3.252 A102.0164 B-1.5670 
N2134 X-152.012 Y-38.600 Z3.014 A104.5568 B-1.6435 
N2135 X-152.012 Y-39.415 Z2.739 A107.1310 B-1.7171 
N2136 X-152.013 Y-40.230 Z2.425 A109.7454 B-1.7872 
N2137 X-152.013 Y-41.033 Z2.074 A112.3685 B-1.8524 
N2138 X-152.013 Y-41.805 Z1.695 A114.9460 B-1.9111 
N2139 X-152.014 Y-42.533 Z1.295 A117.4322 B-1.9624 
N2140 X-152.014 Y-43.209 Z0.884 A119.8002 B-2.0062 
