; PROGRAM NAME: D99999920
; ORDER       : D999999
; OPER. NAME  : Spiral Rough Airfoil:107
; OPER. DESCR.: spiral roughing airfoil/platformy i pioro pwk
; OPER. TYPE  : rouAirfoil
; GEO. OPTION : 3
; MACHINE     : HSTM_300HD_SIM840D_Py
;             : HSTM300/500 - HAMUEL: 5-axis milling machine-SIM840D Traori PP_Script
; CONTROL     : SINUMERIK 840D
; created:   2022-11-03 09:01:58.401052
;-------DODATKOWE DANE-------------------
; PROGRAMISTA : Mariusz Malec
; PARTID      : 139T006893P1018_-
;  ap         : 1.5
;  ae         : 8.0
;  lean_angle : 1.0
;  airf_offset: 0.7
;----------------------------------------
;RAPORT("TD999999","Spiral Rough Airfoil:107")
N10 TRAFOOF
N11 D0
N12 G90 G94
N13 G0 G53 D0 Z550
N14 STOPRE
M9 ; chlodziwo wyl
; --- Spiral Rough Airfoil:107 - spiral roughing airfoil/platformy i pioro pwk ---
N16 ;ToolChange : concat=None ,current_tdmid=None, PP.tdmId=940679
N17 TRAFOOF
N18 G0 G53 D0 X-200 Y150 Z550 B0
N19 T="7740679"
;RAPORT("TD999999","ToolChangeStart 7740679")
N20 M6
;RAPORT("TD999999","ToolChangeEnd")
N21 STOPRE
N22 MSG(" TLID=940679 D=16.0 R=3.1 Ang=0.0 Len=124.0 ")
N23 ; (Preloading tool)
N24 T="7740626"
N25 S4376 M03
N26 STOPRE
N27 CYCLE832(0.1,1,1)
N28 G0 G53 A1.0742 B0.0000
N29 TRAORI
N30 G54 D1
N31 D1 
N32 TRANS  X=R4
;shiftX 0.0
;pointsCnt 2222
N33 ;SPIRALA WYK BANDAZA
N34 X-216.358 Y21.013 Z68.690 A1.0742 
N35 M346 ; chlodziwo mgla
N36 X-216.358 Y21.951 Z18.699 
N37 G01 X-216.358 Y21.465 Z15.608 F1750 
N38 X-216.358 Y20.049 Z12.818 
N39 X-216.358 Y17.839 Z10.603 
N40 X-216.358 Y15.053 Z9.179 
N41 X-216.358 Y11.964 Z8.686 
N42 X-216.337 Y11.463 Z8.685 A1.0776 
N43 X-216.315 Y10.964 Z8.685 A1.0827 
N44 X-216.294 Y10.464 Z8.685 A1.0899 
N45 X-216.273 Y9.965 Z8.685 A1.0996 
N46 X-216.251 Y9.466 Z8.685 A1.1101 
N47 X-216.230 Y8.967 Z8.684 A1.1123 
N48 X-216.208 Y8.468 Z8.683 A1.1054 
N49 X-216.187 Y7.970 Z8.682 A1.1043 
N50 X-216.166 Y7.471 Z8.682 
N51 X-216.144 Y6.972 Z8.681 
N52 X-216.123 Y6.473 Z8.681 
N53 X-216.102 Y5.973 Z8.681 
N54 X-216.080 Y5.474 Z8.680 
N55 X-216.059 Y4.974 Z8.680 
N56 X-216.037 Y4.475 Z8.680 
N57 X-216.016 Y3.975 Z8.679 
N58 X-215.995 Y3.476 Z8.679 
N59 X-215.973 Y2.976 Z8.679 
N60 X-215.952 Y2.477 Z8.678 
N61 X-215.930 Y1.977 Z8.678 
N62 X-215.909 Y1.478 Z8.678 
N63 X-215.887 Y0.978 Z8.677 A1.1043 
N64 X-215.866 Y0.479 Z8.677 A1.1043 
N65 X-215.845 Y-0.021 Z8.677 A1.1043 
N66 X-215.823 Y-0.521 Z8.676 A1.1044 
N67 X-215.802 Y-1.020 Z8.676 A1.1044 
N68 X-215.780 Y-1.520 Z8.676 A1.1044 
N69 X-215.759 Y-2.019 Z8.676 A1.1045 
N70 X-215.738 Y-2.519 Z8.675 A1.1046 
N71 X-215.716 Y-3.018 Z8.675 A1.1049 
N72 X-215.695 Y-3.517 Z8.675 A1.1052 
N73 X-215.673 Y-4.017 Z8.675 A1.1056 
N74 X-215.652 Y-4.516 Z8.674 A1.1063 
N75 X-215.631 Y-5.015 Z8.674 A1.1073 
N76 X-215.609 Y-5.514 Z8.674 A1.1081 
N77 X-215.588 Y-6.013 Z8.674 A1.1082 
N78 X-215.567 Y-6.512 Z8.674 A1.1066 
N79 X-215.545 Y-7.010 Z8.674 A1.1043 
N80 X-215.524 Y-7.509 Z8.674 
N81 X-215.503 Y-8.008 Z8.675 
N82 X-215.481 Y-8.510 Z8.675 
N83 X-215.460 Y-9.013 Z8.683 A1.1940 
N84 X-215.439 Y-9.515 Z8.712 A1.5645 
N85 X-215.420 Y-10.019 Z8.785 A2.5032 
N86 X-215.404 Y-10.490 Z8.943 A4.5560 
N87 X-215.396 Y-10.854 Z9.191 A7.7769 
N88 X-215.393 Y-11.195 Z9.571 A12.7398 
N89 X-215.393 Y-11.583 Z10.106 A19.8839 
N90 X-215.391 Y-12.042 Z10.706 A28.3560 
N91 X-215.385 Y-12.643 Z11.350 A38.3676 
N92 X-215.373 Y-13.325 Z11.897 A48.3802 
N93 X-215.353 Y-14.085 Z12.328 A58.3910 
N94 X-215.327 Y-14.906 Z12.623 A68.3985 
N95 X-215.294 Y-15.767 Z12.763 A78.4017 
N96 X-215.256 Y-16.642 Z12.734 A88.4000 
N97 X-215.215 Y-17.450 Z12.531 A97.8445 
N98 X-215.178 Y-18.084 Z12.202 A105.7775 
N99 X-215.147 Y-18.522 Z11.805 A112.0303 
N100 X-215.123 Y-18.776 Z11.354 A116.8106 
N101 X-215.106 Y-18.847 Z10.901 A119.9648 
N102 X-215.094 Y-18.767 Z10.401 A122.0689 
N103 X-215.088 Y-18.580 Z9.926 A123.1123 
N104 X-215.084 Y-18.344 Z9.483 A123.5536 
N105 X-215.082 Y-18.086 Z9.055 A123.7141 
N106 X-215.081 Y-17.819 Z8.632 A123.7551 
N107 X-215.080 Y-17.549 Z8.212 A123.7557 
N108 X-215.079 Y-17.279 Z7.793 A123.7479 
N109 X-215.078 Y-17.009 Z7.373 A123.7467 
N110 X-215.076 Y-16.739 Z6.953 
N111 X-215.075 Y-16.470 Z6.533 
N112 X-215.074 Y-16.200 Z6.112 
N113 X-215.073 Y-15.931 Z5.692 A123.7476 
N114 X-215.071 Y-15.662 Z5.271 A123.7488 
N115 X-215.070 Y-15.393 Z4.851 A123.7500 
N116 X-215.069 Y-15.124 Z4.430 A123.7508 
N117 X-215.068 Y-14.855 Z4.010 A123.7493 
N118 X-215.066 Y-14.587 Z3.590 A123.7467 
N119 X-215.065 Y-14.318 Z3.169 
N120 X-215.064 Y-14.050 Z2.748 
N121 X-215.063 Y-13.780 Z2.325 
N122 X-215.061 Y-13.511 Z1.897 A123.7882 
N123 X-215.059 Y-13.258 Z1.462 A124.0696 
N124 X-215.055 Y-13.026 Z1.012 A124.6798 
N125 X-215.049 Y-12.825 Z0.541 A125.8211 
N126 X-215.041 Y-12.664 Z0.038 A127.7040 
N127 X-215.029 Y-12.547 Z-0.511 A130.5547 
N128 X-215.014 Y-12.476 Z-1.124 A134.6298 
N129 X-214.994 Y-12.435 Z-1.818 A140.1022 
N130 X-214.973 Y-12.381 Z-2.583 A146.7373 
N131 X-214.955 Y-12.255 Z-3.370 A153.8144 
N132 X-214.942 Y-12.030 Z-4.126 A160.7826 
N133 X-214.936 Y-11.701 Z-4.786 A166.9796 
N134 X-214.938 Y-11.288 Z-5.295 A171.7933 
N135 X-214.947 Y-10.827 Z-5.654 A175.2308 
N136 X-214.960 Y-10.341 Z-5.895 A177.5592 
N137 X-214.977 Y-9.846 Z-6.047 A179.0575 
N138 X-214.995 Y-9.348 Z-6.138 A179.9610 
N139 X-215.015 Y-8.848 Z-6.188 A180.4698 
N140 X-215.036 Y-8.348 Z-6.214 A180.7312 
N141 X-215.057 Y-7.849 Z-6.226 A180.8463 
N142 X-215.078 Y-7.349 Z-6.231 A180.8862 
N143 X-215.100 Y-6.850 Z-6.232 A180.8928 
N144 X-215.121 Y-6.351 Z-6.233 A180.8878 
N145 X-215.142 Y-5.853 Z-6.234 A180.8825 
N146 X-215.164 Y-5.354 Z-6.235 
N147 X-215.185 Y-4.855 Z-6.237 
N148 X-215.206 Y-4.356 Z-6.238 
N149 X-215.227 Y-3.857 Z-6.240 
N150 X-215.249 Y-3.358 Z-6.242 
N151 X-215.270 Y-2.859 Z-6.244 
N152 X-215.291 Y-2.360 Z-6.246 
N153 X-215.313 Y-1.860 Z-6.248 
N154 X-215.334 Y-1.361 Z-6.250 
N155 X-215.355 Y-0.862 Z-6.252 
N156 X-215.377 Y-0.362 Z-6.254 
N157 X-215.398 Y0.137 Z-6.256 
N158 X-215.419 Y0.637 Z-6.258 A180.8826 
N159 X-215.441 Y1.136 Z-6.261 A180.8828 
N160 X-215.462 Y1.636 Z-6.263 A180.8831 
N161 X-215.483 Y2.135 Z-6.265 A180.8835 
N162 X-215.505 Y2.634 Z-6.267 A180.8840 
N163 X-215.526 Y3.134 Z-6.269 A180.8847 
N164 X-215.547 Y3.633 Z-6.271 A180.8852 
N165 X-215.569 Y4.132 Z-6.274 A180.8853 
N166 X-215.590 Y4.631 Z-6.276 A180.8845 
N167 X-215.611 Y5.130 Z-6.278 A180.8825 
N168 X-215.633 Y5.628 Z-6.281 
N169 X-215.654 Y6.127 Z-6.284 
N170 X-215.675 Y6.628 Z-6.286 
N171 X-215.697 Y7.130 Z-6.289 
N172 X-215.718 Y7.633 Z-6.299 A180.9804 
N173 X-215.738 Y8.136 Z-6.328 A181.3265 
N174 X-215.758 Y8.635 Z-6.396 A182.1806 
N175 X-215.772 Y9.057 Z-6.525 A183.8387 
N176 X-215.780 Y9.408 Z-6.741 A186.6160 
N177 X-215.784 Y9.733 Z-7.079 A190.9887 
N178 X-215.785 Y10.083 Z-7.557 A197.2794 
N179 X-215.785 Y10.487 Z-8.121 A205.0088 
N180 X-215.788 Y11.017 Z-8.761 A214.4538 
N181 X-215.797 Y11.658 Z-9.356 A224.4669 
N182 X-215.814 Y12.382 Z-9.843 A234.4786 
N183 X-215.837 Y13.175 Z-10.203 A244.4875 
N184 X-215.866 Y14.020 Z-10.416 A254.4924 
N185 X-215.902 Y14.890 Z-10.468 A264.4927 
N186 X-215.943 Y15.753 Z-10.345 A274.4489 
N187 X-215.981 Y16.448 Z-10.081 A282.8394 
N188 X-216.013 Y16.966 Z-9.725 A289.7175 
N189 X-216.039 Y17.282 Z-9.333 A294.7884 
N190 X-216.058 Y17.430 Z-8.919 A298.4109 
N191 X-216.072 Y17.427 Z-8.465 A300.9175 
N192 X-216.080 Y17.291 Z-7.995 A302.3410 
N193 X-216.084 Y17.074 Z-7.540 A302.9730 
N194 X-216.087 Y16.826 Z-7.105 A303.2064 
N195 X-216.089 Y16.564 Z-6.679 A303.2755 
N196 X-216.090 Y16.298 Z-6.256 A303.2866 
N197 X-216.092 Y16.031 Z-5.834 A303.2818 
N198 X-216.093 Y15.764 Z-5.412 A303.2780 
N199 X-216.094 Y15.498 Z-4.990 
N200 X-216.096 Y15.231 Z-4.567 
N201 X-216.097 Y14.965 Z-4.145 
N202 X-216.099 Y14.699 Z-3.722 
N203 X-216.100 Y14.432 Z-3.299 
N204 X-216.102 Y14.166 Z-2.876 
N205 X-216.103 Y13.899 Z-2.453 
N206 X-216.104 Y13.633 Z-2.030 
N207 X-216.106 Y13.367 Z-1.607 A303.2780 
N208 X-216.107 Y13.100 Z-1.184 A303.2784 
N209 X-216.109 Y12.834 Z-0.761 A303.2791 
N210 X-216.110 Y12.568 Z-0.338 A303.2801 
N211 X-216.112 Y12.302 Z0.085 A303.2817 
N212 X-216.113 Y12.036 Z0.508 A303.2834 
N213 X-216.114 Y11.770 Z0.930 A303.2836 
N214 X-216.116 Y11.504 Z1.352 A303.2780 
N215 X-216.117 Y11.238 Z1.775 
N216 X-216.119 Y10.973 Z2.198 
N217 X-216.120 Y10.705 Z2.626 A303.2989 
N218 X-216.124 Y10.474 Z3.074 A303.8211 
N219 X-216.136 Y10.367 Z3.606 A306.2083 
N220 X-216.164 Y10.548 Z4.292 A312.7344 
N221 X-216.204 Y10.871 Z5.160 A322.6001 
N222 X-216.241 Y11.085 Z6.052 A332.5896 
N223 X-216.271 Y11.139 Z6.969 A342.5831 
N224 X-216.290 Y10.969 Z7.853 A352.0932 
N225 X-216.291 Y10.571 Z8.444 A358.4792 
N226 X-216.276 Y10.073 Z8.641 A0.6443 
N227 X-216.256 Y9.573 Z8.681 A1.0945 
N228 X-216.234 Y9.074 Z8.687 A1.1767 
N229 X-216.213 Y8.574 Z8.686 A1.1817 
N230 X-216.192 Y8.075 Z8.684 A1.1746 
N231 X-216.170 Y7.576 Z8.682 A1.1737 
N232 X-216.149 Y7.077 Z8.681 
N233 X-216.127 Y6.578 Z8.680 
N234 X-216.106 Y6.079 Z8.679 
N235 X-216.085 Y5.579 Z8.677 
N236 X-216.063 Y5.080 Z8.676 
N237 X-216.042 Y4.580 Z8.675 
N238 X-216.020 Y4.081 Z8.674 
N239 X-215.999 Y3.581 Z8.673 
N240 X-215.977 Y3.081 Z8.672 
N241 X-215.956 Y2.582 Z8.670 
N242 X-215.935 Y2.082 Z8.669 
N243 X-215.913 Y1.583 Z8.668 A1.1737 
N244 X-215.892 Y1.083 Z8.667 A1.1737 
N245 X-215.870 Y0.583 Z8.666 A1.1737 
N246 X-215.849 Y0.084 Z8.664 A1.1738 
N247 X-215.827 Y-0.416 Z8.663 A1.1738 
N248 X-215.806 Y-0.915 Z8.662 A1.1738 
N249 X-215.784 Y-1.415 Z8.661 A1.1739 
N250 X-215.763 Y-1.915 Z8.659 A1.1740 
N251 X-215.742 Y-2.414 Z8.658 A1.1741 
N252 X-215.720 Y-2.914 Z8.657 A1.1743 
N253 X-215.699 Y-3.413 Z8.655 A1.1746 
N254 X-215.677 Y-3.913 Z8.654 A1.1750 
N255 X-215.656 Y-4.412 Z8.653 A1.1756 
N256 X-215.634 Y-4.911 Z8.652 A1.1763 
N257 X-215.613 Y-5.410 Z8.651 A1.1767 
N258 X-215.592 Y-5.909 Z8.650 A1.1760 
N259 X-215.570 Y-6.408 Z8.648 A1.1737 
N260 X-215.549 Y-6.907 Z8.647 
N261 X-215.527 Y-7.406 Z8.647 
N262 X-215.506 Y-7.906 Z8.646 
N263 X-215.485 Y-8.408 Z8.648 A1.2132 
N264 X-215.464 Y-8.909 Z8.663 A1.4105 
N265 X-215.443 Y-9.410 Z8.700 A1.9031 
N266 X-215.424 Y-9.911 Z8.786 A3.0403 
N267 X-215.410 Y-10.366 Z8.956 A5.2750 
N268 X-215.402 Y-10.740 Z9.226 A8.8325 
N269 X-215.399 Y-11.115 Z9.656 A14.5098 
N270 X-215.398 Y-11.536 Z10.218 A22.1529 
N271 X-215.395 Y-12.060 Z10.855 A31.4303 
N272 X-215.387 Y-12.694 Z11.466 A41.4433 
N273 X-215.371 Y-13.408 Z11.974 A51.4555 
N274 X-215.349 Y-14.193 Z12.357 A61.4654 
N275 X-215.321 Y-15.032 Z12.599 A71.4717 
N276 X-215.286 Y-15.903 Z12.680 A81.4735 
N277 X-215.246 Y-16.776 Z12.585 A91.4704 
N278 X-215.205 Y-17.550 Z12.318 A100.6842 
N279 X-215.167 Y-18.141 Z11.929 A108.3991 
N280 X-215.138 Y-18.506 Z11.489 A114.1496 
N281 X-215.117 Y-18.682 Z11.022 A118.3041 
N282 X-215.101 Y-18.693 Z10.516 A121.2443 
N283 X-215.091 Y-18.562 Z10.015 A122.9430 
N284 X-215.086 Y-18.354 Z9.554 A123.7756 
N285 X-215.083 Y-18.110 Z9.115 A124.1802 
N286 X-215.081 Y-17.850 Z8.687 A124.3801 
N287 X-215.080 Y-17.582 Z8.265 A124.4819 
N288 X-215.079 Y-17.310 Z7.846 A124.5342 
N289 X-215.078 Y-17.035 Z7.428 A124.5607 
N290 X-215.077 Y-16.760 Z7.010 A124.5738 
N291 X-215.076 Y-16.484 Z6.594 A124.5800 
N292 X-215.076 Y-16.207 Z6.177 A124.5834 
N293 X-215.075 Y-15.931 Z5.760 A124.5863 
N294 X-215.074 Y-15.655 Z5.343 A124.5904 
N295 X-215.073 Y-15.379 Z4.927 A124.5970 
N296 X-215.072 Y-15.103 Z4.510 A124.6071 
N297 X-215.071 Y-14.827 Z4.093 A124.6239 
N298 X-215.070 Y-14.552 Z3.675 A124.6551 
N299 X-215.069 Y-14.279 Z3.256 A124.7157 
N300 X-215.068 Y-14.010 Z2.834 A124.8327 
N301 X-215.067 Y-13.746 Z2.408 A125.0533 
N302 X-215.064 Y-13.493 Z1.975 A125.4516 
N303 X-215.061 Y-13.255 Z1.530 A126.1273 
N304 X-215.056 Y-13.039 Z1.068 A127.2115 
N305 X-215.049 Y-12.851 Z0.581 A128.8590 
N306 X-215.040 Y-12.693 Z0.061 A131.2239 
N307 X-215.029 Y-12.565 Z-0.503 A134.4635 
N308 X-215.015 Y-12.460 Z-1.118 A138.6845 
N309 X-214.999 Y-12.353 Z-1.783 A143.7981 
N310 X-214.984 Y-12.207 Z-2.469 A149.3951 
N311 X-214.973 Y-11.998 Z-3.144 A155.0791 
N312 X-214.966 Y-11.717 Z-3.780 A160.5680 
N313 X-214.964 Y-11.367 Z-4.342 A165.5170 
N314 X-214.967 Y-10.957 Z-4.805 A169.6307 
N315 X-214.975 Y-10.507 Z-5.165 A172.8580 
N316 X-214.988 Y-10.033 Z-5.433 A175.2791 
N317 X-215.003 Y-9.545 Z-5.625 A177.0286 
N318 X-215.020 Y-9.051 Z-5.760 A178.2503 
N319 X-215.038 Y-8.554 Z-5.852 A179.0844 
N320 X-215.058 Y-8.055 Z-5.915 A179.6449 
N321 X-215.078 Y-7.556 Z-5.957 A180.0151 
N322 X-215.098 Y-7.056 Z-5.985 A180.2547 
N323 X-215.119 Y-6.557 Z-6.004 A180.4046 
N324 X-215.140 Y-6.057 Z-6.016 A180.4924 
N325 X-215.161 Y-5.557 Z-6.024 A180.5379 
N326 X-215.182 Y-5.058 Z-6.030 A180.5572 
N327 X-215.204 Y-4.559 Z-6.034 A180.5616 
N328 X-215.225 Y-4.060 Z-6.038 A180.5591 
N329 X-215.246 Y-3.562 Z-6.042 A180.5555 
N330 X-215.267 Y-3.064 Z-6.046 A180.5532 
N331 X-215.289 Y-2.565 Z-6.050 A180.5524 
N332 X-215.310 Y-2.067 Z-6.055 
N333 X-215.331 Y-1.569 Z-6.060 
N334 X-215.352 Y-1.071 Z-6.066 
N335 X-215.373 Y-0.572 Z-6.071 A180.5527 
N336 X-215.394 Y-0.074 Z-6.077 A180.5531 
N337 X-215.416 Y0.424 Z-6.082 A180.5529 
N338 X-215.437 Y0.922 Z-6.088 A180.5524 
N339 X-215.458 Y1.420 Z-6.095 
N340 X-215.479 Y1.919 Z-6.101 
N341 X-215.500 Y2.417 Z-6.108 
N342 X-215.521 Y2.916 Z-6.114 
N343 X-215.543 Y3.416 Z-6.121 
N344 X-215.564 Y3.917 Z-6.128 
N345 X-215.585 Y4.421 Z-6.134 
N346 X-215.607 Y4.926 Z-6.143 A180.5912 
N347 X-215.628 Y5.429 Z-6.163 A180.7812 
N348 X-215.648 Y5.931 Z-6.197 A181.1667 
N349 X-215.668 Y6.433 Z-6.255 A181.8810 
N350 X-215.687 Y6.937 Z-6.348 A183.1111 
N351 X-215.704 Y7.448 Z-6.497 A185.1489 
N352 X-215.720 Y7.979 Z-6.730 A188.4329 
N353 X-215.732 Y8.493 Z-7.048 A193.0525 
N354 X-215.741 Y8.997 Z-7.466 A199.2230 
N355 X-215.748 Y9.552 Z-7.997 A207.3286 
N356 X-215.759 Y10.216 Z-8.586 A217.1339 
N357 X-215.775 Y10.943 Z-9.099 A227.1468 
N358 X-215.796 Y11.731 Z-9.500 A237.1579 
N359 X-215.824 Y12.572 Z-9.763 A247.1659 
N360 X-215.858 Y13.448 Z-9.869 A257.1697 
N361 X-215.899 Y14.333 Z-9.794 A267.1688 
N362 X-215.941 Y15.133 Z-9.530 A276.4898 
N363 X-215.980 Y15.757 Z-9.109 A284.4350 
N364 X-216.014 Y16.164 Z-8.583 A290.6947 
N365 X-216.041 Y16.366 Z-7.985 A295.4886 
N366 X-216.059 Y16.386 Z-7.415 A298.5960 
N367 X-216.071 Y16.293 Z-6.893 A300.5541 
N368 X-216.079 Y16.135 Z-6.404 A301.8209 
N369 X-216.084 Y15.936 Z-5.939 A302.6400 
N370 X-216.088 Y15.708 Z-5.491 A303.1501 
N371 X-216.091 Y15.463 Z-5.054 A303.4486 
N372 X-216.093 Y15.205 Z-4.625 A303.6061 
N373 X-216.094 Y14.940 Z-4.201 A303.6755 
N374 X-216.096 Y14.672 Z-3.779 A303.6971 
N375 X-216.097 Y14.402 Z-3.359 A303.6977 
N376 X-216.098 Y14.132 Z-2.939 A303.6920 
N377 X-216.099 Y13.863 Z-2.519 A303.6907 
N378 X-216.101 Y13.594 Z-2.098 
N379 X-216.102 Y13.324 Z-1.678 
N380 X-216.103 Y13.055 Z-1.257 
N381 X-216.104 Y12.785 Z-0.836 
N382 X-216.106 Y12.516 Z-0.414 A303.6913 
N383 X-216.107 Y12.247 Z0.007 A303.6935 
N384 X-216.108 Y11.978 Z0.427 A303.6963 
N385 X-216.109 Y11.709 Z0.848 A303.6979 
N386 X-216.111 Y11.439 Z1.269 A303.6915 
N387 X-216.112 Y11.170 Z1.689 A303.6907 
N388 X-216.113 Y10.901 Z2.110 
N389 X-216.115 Y10.633 Z2.537 A303.7370 
N390 X-216.118 Y10.404 Z2.987 A304.3426 
N391 X-216.130 Y10.296 Z3.514 A306.7350 
N392 X-216.161 Y10.485 Z4.275 A313.9584 
N393 X-216.201 Y10.793 Z5.160 A323.9459 
N394 X-216.236 Y10.979 Z6.061 A333.9358 
N395 X-216.265 Y10.992 Z6.987 A343.9295 
N396 X-216.283 Y10.766 Z7.892 A353.6540 
N397 X-216.280 Y10.338 Z8.396 A359.1121 
N398 X-216.263 Y9.839 Z8.551 A0.8236 
N399 X-216.243 Y9.339 Z8.586 A1.2323 
N400 X-216.222 Y8.839 Z8.591 A1.3115 
N401 X-216.200 Y8.340 Z8.588 A1.3129 
N402 X-216.179 Y7.842 Z8.585 A1.3049 
N403 X-216.157 Y7.343 Z8.582 
N404 X-216.136 Y6.844 Z8.580 
N405 X-216.114 Y6.345 Z8.578 
N406 X-216.093 Y5.845 Z8.576 
N407 X-216.071 Y5.346 Z8.574 
N408 X-216.050 Y4.846 Z8.572 
N409 X-216.028 Y4.347 Z8.569 
N410 X-216.007 Y3.847 Z8.567 
N411 X-215.986 Y3.348 Z8.565 
N412 X-215.964 Y2.848 Z8.563 
N413 X-215.943 Y2.349 Z8.561 
N414 X-215.921 Y1.849 Z8.559 
N415 X-215.900 Y1.349 Z8.557 A1.3049 
N416 X-215.878 Y0.850 Z8.554 A1.3050 
N417 X-215.857 Y0.350 Z8.552 A1.3050 
N418 X-215.835 Y-0.149 Z8.550 A1.3050 
N419 X-215.814 Y-0.649 Z8.548 A1.3051 
N420 X-215.792 Y-1.148 Z8.546 A1.3051 
N421 X-215.771 Y-1.648 Z8.543 A1.3053 
N422 X-215.750 Y-2.147 Z8.541 A1.3055 
N423 X-215.728 Y-2.647 Z8.539 A1.3058 
N424 X-215.707 Y-3.146 Z8.537 A1.3063 
N425 X-215.685 Y-3.646 Z8.535 A1.3071 
N426 X-215.664 Y-4.145 Z8.533 A1.3080 
N427 X-215.642 Y-4.644 Z8.531 A1.3089 
N428 X-215.621 Y-5.143 Z8.529 A1.3091 
N429 X-215.599 Y-5.641 Z8.527 A1.3075 
N430 X-215.578 Y-6.140 Z8.525 A1.3049 
N431 X-215.557 Y-6.638 Z8.523 
N432 X-215.535 Y-7.138 Z8.522 
N433 X-215.514 Y-7.639 Z8.520 
N434 X-215.492 Y-8.142 Z8.525 A1.3818 
N435 X-215.471 Y-8.644 Z8.548 A1.6957 
N436 X-215.452 Y-9.147 Z8.605 A2.4595 
N437 X-215.434 Y-9.649 Z8.737 A4.2056 
N438 X-215.422 Y-10.120 Z9.003 A7.7224 
N439 X-215.417 Y-10.533 Z9.413 A13.1655 
N440 X-215.414 Y-10.989 Z9.972 A20.8279 
N441 X-215.410 Y-11.533 Z10.596 A29.9994 
N442 X-215.401 Y-12.180 Z11.203 A40.0126 
N443 X-215.385 Y-12.902 Z11.708 A50.0250 
N444 X-215.363 Y-13.691 Z12.092 A60.0354 
N445 X-215.334 Y-14.534 Z12.334 A70.0423 
N446 X-215.299 Y-15.409 Z12.416 A80.0447 
N447 X-215.259 Y-16.286 Z12.318 A90.0424 
N448 X-215.216 Y-17.075 Z12.042 A99.3683 
N449 X-215.175 Y-17.725 Z11.605 A107.8342 
N450 X-215.143 Y-18.137 Z11.110 A114.2896 
N451 X-215.116 Y-18.360 Z10.531 A119.5578 
N452 X-215.098 Y-18.366 Z9.973 A122.8882 
N453 X-215.089 Y-18.231 Z9.462 A124.7919 
N454 X-215.083 Y-18.022 Z8.997 A125.8269 
N455 X-215.081 Y-17.772 Z8.561 A126.3691 
N456 X-215.080 Y-17.499 Z8.140 A126.6313 
N457 X-215.080 Y-17.215 Z7.728 A126.7400 
N458 X-215.080 Y-16.926 Z7.321 A126.7745 
N459 X-215.080 Y-16.634 Z6.915 A126.7800 
N460 X-215.080 Y-16.341 Z6.510 A126.7773 
N461 X-215.080 Y-16.049 Z6.104 A126.7769 
N462 X-215.080 Y-15.757 Z5.699 
N463 X-215.081 Y-15.465 Z5.293 
N464 X-215.081 Y-15.173 Z4.887 
N465 X-215.081 Y-14.881 Z4.481 A126.7844 
N466 X-215.081 Y-14.591 Z4.073 A126.8270 
N467 X-215.081 Y-14.305 Z3.662 A126.9347 
N468 X-215.080 Y-14.027 Z3.246 A127.1635 
N469 X-215.079 Y-13.759 Z2.821 A127.5809 
N470 X-215.076 Y-13.506 Z2.385 A128.2658 
N471 X-215.073 Y-13.270 Z1.934 A129.3034 
N472 X-215.068 Y-13.052 Z1.464 A130.7690 
N473 X-215.061 Y-12.852 Z0.973 A132.7122 
N474 X-215.054 Y-12.664 Z0.459 A135.1705 
N475 X-215.045 Y-12.484 Z-0.078 A138.1530 
N476 X-215.036 Y-12.300 Z-0.636 A141.6108 
N477 X-215.027 Y-12.099 Z-1.203 A145.4007 
N478 X-215.020 Y-11.866 Z-1.767 A149.3433 
N479 X-215.015 Y-11.598 Z-2.317 A153.3356 
N480 X-215.012 Y-11.290 Z-2.845 A157.2921 
N481 X-215.012 Y-10.944 Z-3.339 A161.1131 
N482 X-215.015 Y-10.560 Z-3.791 A164.7132 
N483 X-215.020 Y-10.144 Z-4.196 A168.0259 
N484 X-215.029 Y-9.700 Z-4.542 A170.9358 
N485 X-215.040 Y-9.235 Z-4.825 A173.3417 
N486 X-215.054 Y-8.755 Z-5.044 A175.2182 
N487 X-215.070 Y-8.266 Z-5.209 A176.6206 
N488 X-215.087 Y-7.772 Z-5.331 A177.6389 
N489 X-215.106 Y-7.276 Z-5.419 A178.3595 
N490 X-215.125 Y-6.777 Z-5.482 A178.8533 
N491 X-215.145 Y-6.279 Z-5.528 A179.1765 
N492 X-215.166 Y-5.780 Z-5.559 A179.3729 
N493 X-215.187 Y-5.280 Z-5.582 A179.4776 
N494 X-215.207 Y-4.781 Z-5.599 A179.5230 
N495 X-215.228 Y-4.283 Z-5.613 A179.5339 
N496 X-215.249 Y-3.785 Z-5.626 A179.5292 
N497 X-215.270 Y-3.287 Z-5.638 A179.5211 
N498 X-215.291 Y-2.790 Z-5.652 A179.5164 
N499 X-215.312 Y-2.293 Z-5.666 A179.5157 
N500 X-215.333 Y-1.796 Z-5.680 
N501 X-215.354 Y-1.299 Z-5.695 
N502 X-215.374 Y-0.802 Z-5.710 
N503 X-215.395 Y-0.305 Z-5.726 
N504 X-215.416 Y0.192 Z-5.742 
N505 X-215.437 Y0.690 Z-5.758 
N506 X-215.458 Y1.188 Z-5.775 
N507 X-215.479 Y1.688 Z-5.791 
N508 X-215.500 Y2.190 Z-5.808 
N509 X-215.521 Y2.697 Z-5.824 
N510 X-215.542 Y3.202 Z-5.852 A179.6871 
N511 X-215.562 Y3.705 Z-5.896 A180.0702 
N512 X-215.581 Y4.207 Z-5.960 A180.7405 
N513 X-215.600 Y4.709 Z-6.050 A181.8068 
N514 X-215.618 Y5.214 Z-6.171 A183.3630 
N515 X-215.635 Y5.728 Z-6.336 A185.6244 
N516 X-215.651 Y6.260 Z-6.564 A188.9079 
N517 X-215.666 Y6.831 Z-6.876 A193.6237 
N518 X-215.681 Y7.480 Z-7.293 A200.3056 
N519 X-215.698 Y8.241 Z-7.803 A209.2480 
N520 X-215.718 Y9.060 Z-8.295 A219.1917 
N521 X-215.742 Y9.903 Z-8.691 A229.2044 
N522 X-215.772 Y10.781 Z-8.961 A239.2150 
N523 X-215.807 Y11.688 Z-9.079 A249.2222 
N524 X-215.848 Y12.608 Z-9.021 A259.2251 
N525 X-215.895 Y13.508 Z-8.754 A269.2232 
N526 X-215.946 Y14.336 Z-8.238 A279.1526 
N527 X-215.990 Y14.896 Z-7.595 A287.0766 
N528 X-216.022 Y15.191 Z-6.956 A292.7185 
N529 X-216.044 Y15.297 Z-6.358 A296.6310 
N530 X-216.060 Y15.276 Z-5.803 A299.3337 
N531 X-216.071 Y15.168 Z-5.287 A301.1654 
N532 X-216.079 Y14.999 Z-4.804 A302.3470 
N533 X-216.084 Y14.787 Z-4.346 A303.0567 
N534 X-216.087 Y14.549 Z-3.904 A303.4489 
N535 X-216.089 Y14.293 Z-3.474 A303.6408 
N536 X-216.090 Y14.029 Z-3.049 A303.7201 
N537 X-216.092 Y13.761 Z-2.628 A303.7451 
N538 X-216.093 Y13.491 Z-2.207 A303.7473 
N539 X-216.094 Y13.220 Z-1.787 A303.7431 
N540 X-216.095 Y12.950 Z-1.367 A303.7408 
N541 X-216.096 Y12.680 Z-0.947 
N542 X-216.098 Y12.411 Z-0.527 
N543 X-216.099 Y12.141 Z-0.107 A303.7424 
N544 X-216.100 Y11.872 Z0.314 A303.7459 
N545 X-216.101 Y11.603 Z0.734 A303.7495 
N546 X-216.103 Y11.334 Z1.154 A303.7449 
N547 X-216.104 Y11.065 Z1.573 A303.7408 
N548 X-216.105 Y10.797 Z1.994 
N549 X-216.106 Y10.526 Z2.421 A303.7635 
N550 X-216.111 Y10.303 Z2.875 A304.4541 
N551 X-216.123 Y10.212 Z3.423 A307.1855 
N552 X-216.155 Y10.405 Z4.190 A314.5315 
N553 X-216.195 Y10.691 Z5.089 A324.5192 
N554 X-216.229 Y10.852 Z6.003 A334.5092 
N555 X-216.257 Y10.840 Z6.934 A344.5032 
N556 X-216.274 Y10.587 Z7.841 A354.2294 
N557 X-216.269 Y10.139 Z8.322 A359.4518 
N558 X-216.252 Y9.639 Z8.460 A0.9824 
N559 X-216.231 Y9.139 Z8.488 A1.3357 
N560 X-216.210 Y8.640 Z8.490 A1.3956 
N561 X-216.188 Y8.141 Z8.487 A1.3913 
N562 X-216.167 Y7.643 Z8.483 A1.3853 
N563 X-216.146 Y7.144 Z8.480 
N564 X-216.124 Y6.645 Z8.477 
N565 X-216.103 Y6.146 Z8.475 
N566 X-216.081 Y5.646 Z8.472 
N567 X-216.060 Y5.147 Z8.469 
N568 X-216.038 Y4.648 Z8.466 
N569 X-216.017 Y4.148 Z8.464 
N570 X-215.995 Y3.648 Z8.461 
N571 X-215.974 Y3.149 Z8.458 
N572 X-215.952 Y2.649 Z8.455 
N573 X-215.931 Y2.150 Z8.453 
N574 X-215.909 Y1.650 Z8.450 
N575 X-215.888 Y1.151 Z8.447 A1.3853 
N576 X-215.866 Y0.651 Z8.444 A1.3853 
N577 X-215.845 Y0.152 Z8.442 A1.3854 
N578 X-215.823 Y-0.348 Z8.439 A1.3854 
N579 X-215.802 Y-0.847 Z8.436 A1.3854 
N580 X-215.781 Y-1.347 Z8.433 A1.3855 
N581 X-215.759 Y-1.846 Z8.430 A1.3856 
N582 X-215.738 Y-2.346 Z8.428 A1.3859 
N583 X-215.716 Y-2.845 Z8.425 A1.3862 
N584 X-215.695 Y-3.345 Z8.422 A1.3867 
N585 X-215.673 Y-3.844 Z8.420 A1.3873 
N586 X-215.652 Y-4.343 Z8.417 A1.3881 
N587 X-215.630 Y-4.842 Z8.414 A1.3885 
N588 X-215.609 Y-5.341 Z8.412 A1.3881 
N589 X-215.587 Y-5.840 Z8.409 A1.3861 
N590 X-215.566 Y-6.339 Z8.407 A1.3853 
N591 X-215.544 Y-6.838 Z8.405 
N592 X-215.523 Y-7.337 Z8.402 
N593 X-215.501 Y-7.839 Z8.400 
N594 X-215.480 Y-8.342 Z8.406 A1.4874 
N595 X-215.459 Y-8.843 Z8.432 A1.8511 
N596 X-215.440 Y-9.347 Z8.509 A2.8710 
N597 X-215.426 Y-9.806 Z8.699 A5.3339 
N598 X-215.420 Y-10.212 Z9.062 A10.0299 
N599 X-215.419 Y-10.629 Z9.604 A17.1845 
N600 X-215.417 Y-11.146 Z10.269 A26.5014 
N601 X-215.410 Y-11.757 Z10.913 A36.5144 
N602 X-215.397 Y-12.451 Z11.458 A46.5271 
N603 X-215.377 Y-13.219 Z11.885 A56.5384 
N604 X-215.350 Y-14.048 Z12.175 A66.5466 
N605 X-215.317 Y-14.916 Z12.311 A76.5507 
N606 X-215.278 Y-15.797 Z12.273 A86.5500 
N607 X-215.235 Y-16.643 Z12.049 A96.3831 
N608 X-215.191 Y-17.390 Z11.639 A105.7391 
N609 X-215.152 Y-17.920 Z11.123 A113.4833 
N610 X-215.121 Y-18.230 Z10.542 A119.6407 
N611 X-215.099 Y-18.321 Z9.943 A124.1094 
N612 X-215.087 Y-18.224 Z9.399 A126.7610 
N613 X-215.082 Y-18.016 Z8.928 A128.0696 
N614 X-215.080 Y-17.753 Z8.499 A128.6721 
N615 X-215.080 Y-17.464 Z8.090 A128.9322 
N616 X-215.081 Y-17.164 Z7.690 A129.0411 
N617 X-215.082 Y-16.859 Z7.294 A129.0852 
N618 X-215.083 Y-16.551 Z6.899 A129.1022 
N619 X-215.084 Y-16.243 Z6.506 A129.1072 
N620 X-215.085 Y-15.935 Z6.113 A129.1034 
N621 X-215.087 Y-15.627 Z5.720 A129.0992 
N622 X-215.088 Y-15.319 Z5.327 
N623 X-215.089 Y-15.010 Z4.933 
N624 X-215.090 Y-14.704 Z4.536 A129.1364 
N625 X-215.091 Y-14.403 Z4.136 A129.2625 
N626 X-215.091 Y-14.109 Z3.731 A129.5063 
N627 X-215.091 Y-13.823 Z3.318 A129.9133 
N628 X-215.090 Y-13.547 Z2.896 A130.5230 
N629 X-215.088 Y-13.283 Z2.464 A131.3890 
N630 X-215.085 Y-13.031 Z2.018 A132.5717 
N631 X-215.081 Y-12.793 Z1.555 A134.1397 
N632 X-215.076 Y-12.568 Z1.073 A136.1533 
N633 X-215.071 Y-12.351 Z0.570 A138.6249 
N634 X-215.064 Y-12.133 Z0.052 A141.4971 
N635 X-215.058 Y-11.903 Z-0.474 A144.6648 
N636 X-215.053 Y-11.654 Z-1.001 A148.0366 
N637 X-215.049 Y-11.379 Z-1.522 A151.5480 
N638 X-215.046 Y-11.075 Z-2.030 A155.1147 
N639 X-215.046 Y-10.739 Z-2.515 A158.6491 
N640 X-215.048 Y-10.371 Z-2.970 A162.0716 
N641 X-215.052 Y-9.973 Z-3.387 A165.3135 
N642 X-215.059 Y-9.546 Z-3.758 A168.2660 
N643 X-215.069 Y-9.097 Z-4.073 A170.8122 
N644 X-215.081 Y-8.629 Z-4.331 A172.8979 
N645 X-215.095 Y-8.149 Z-4.535 A174.5379 
N646 X-215.112 Y-7.661 Z-4.693 A175.7862 
N647 X-215.129 Y-7.168 Z-4.813 A176.7039 
N648 X-215.148 Y-6.673 Z-4.903 A177.3458 
N649 X-215.167 Y-6.176 Z-4.969 A177.7648 
N650 X-215.187 Y-5.678 Z-5.018 A178.0113 
N651 X-215.207 Y-5.179 Z-5.054 A178.1350 
N652 X-215.227 Y-4.681 Z-5.083 A178.1807 
N653 X-215.248 Y-4.184 Z-5.108 A178.1853 
N654 X-215.268 Y-3.687 Z-5.132 A178.1743 
N655 X-215.289 Y-3.191 Z-5.156 A178.1634 
N656 X-215.309 Y-2.695 Z-5.182 A178.1618 
N657 X-215.330 Y-2.199 Z-5.209 
N658 X-215.350 Y-1.703 Z-5.236 
N659 X-215.371 Y-1.206 Z-5.263 
N660 X-215.391 Y-0.709 Z-5.291 
N661 X-215.412 Y-0.210 Z-5.319 
N662 X-215.432 Y0.292 Z-5.346 
N663 X-215.453 Y0.797 Z-5.374 
N664 X-215.473 Y1.300 Z-5.414 A178.3264 
N665 X-215.493 Y1.802 Z-5.470 A178.7167 
N666 X-215.512 Y2.302 Z-5.549 A179.4266 
N667 X-215.530 Y2.801 Z-5.658 A180.5849 
N668 X-215.548 Y3.304 Z-5.801 A182.2770 
N669 X-215.564 Y3.816 Z-5.983 A184.6341 
N670 X-215.580 Y4.343 Z-6.212 A187.8202 
N671 X-215.595 Y4.899 Z-6.494 A192.0254 
N672 X-215.611 Y5.501 Z-6.821 A197.3480 
N673 X-215.628 Y6.168 Z-7.179 A203.8244 
N674 X-215.650 Y6.924 Z-7.546 A211.5453 
N675 X-215.676 Y7.791 Z-7.890 A220.5627 
N676 X-215.710 Y8.753 Z-8.152 A230.5203 
N677 X-215.748 Y9.730 Z-8.270 A240.5306 
N678 X-215.791 Y10.709 Z-8.224 A250.5372 
N679 X-215.839 Y11.668 Z-7.995 A260.5395 
N680 X-215.890 Y12.558 Z-7.571 A270.3341 
N681 X-215.937 Y13.267 Z-7.012 A278.9462 
N682 X-215.978 Y13.777 Z-6.387 A286.1978 
N683 X-216.011 Y14.090 Z-5.750 A291.9371 
N684 X-216.036 Y14.230 Z-5.140 A296.2059 
N685 X-216.053 Y14.234 Z-4.574 A299.2058 
N686 X-216.064 Y14.135 Z-4.053 A301.1482 
N687 X-216.072 Y13.964 Z-3.571 A302.2943 
N688 X-216.076 Y13.747 Z-3.117 A302.9164 
N689 X-216.079 Y13.504 Z-2.679 A303.2234 
N690 X-216.081 Y13.246 Z-2.250 A303.3607 
N691 X-216.083 Y12.982 Z-1.825 A303.4136 
N692 X-216.084 Y12.716 Z-1.403 A303.4274 
N693 X-216.085 Y12.448 Z-0.981 A303.4259 
N694 X-216.087 Y12.180 Z-0.560 A303.4207 
N695 X-216.088 Y11.913 Z-0.139 A303.4180 
N696 X-216.090 Y11.647 Z0.282 A303.4190 
N697 X-216.091 Y11.381 Z0.703 A303.4221 
N698 X-216.092 Y11.114 Z1.124 A303.4165 
N699 X-216.094 Y10.849 Z1.545 
N700 X-216.095 Y10.583 Z1.968 
N701 X-216.097 Y10.319 Z2.402 A303.5191 
N702 X-216.103 Y10.129 Z2.879 A304.6691 
N703 X-216.122 Y10.127 Z3.497 A308.7856 
N704 X-216.159 Y10.390 Z4.340 A317.5575 
N705 X-216.197 Y10.639 Z5.245 A327.5455 
N706 X-216.230 Y10.744 Z6.169 A337.5366 
N707 X-216.254 Y10.662 Z7.106 A347.5320 
N708 X-216.265 Y10.313 Z7.951 A356.6247 
N709 X-216.255 Y9.826 Z8.287 A0.2893 
N710 X-216.236 Y9.326 Z8.368 A1.2228 
N711 X-216.215 Y8.826 Z8.382 A1.4175 
N712 X-216.193 Y8.327 Z8.380 A1.4344 
N713 X-216.172 Y7.828 Z8.375 A1.4220 
N714 X-216.150 Y7.330 Z8.372 A1.4201 
N715 X-216.129 Y6.831 Z8.369 
N716 X-216.107 Y6.332 Z8.366 
N717 X-216.086 Y5.833 Z8.363 
N718 X-216.064 Y5.333 Z8.360 
N719 X-216.043 Y4.834 Z8.357 
N720 X-216.021 Y4.334 Z8.354 
N721 X-216.000 Y3.835 Z8.351 
N722 X-215.978 Y3.335 Z8.348 
N723 X-215.957 Y2.836 Z8.345 
N724 X-215.935 Y2.336 Z8.342 
N725 X-215.914 Y1.837 Z8.339 
N726 X-215.893 Y1.338 Z8.336 
N727 X-215.871 Y0.838 Z8.333 A1.4202 
N728 X-215.850 Y0.339 Z8.330 A1.4202 
N729 X-215.828 Y-0.161 Z8.327 A1.4202 
N730 X-215.807 Y-0.660 Z8.324 A1.4202 
N731 X-215.785 Y-1.160 Z8.321 A1.4202 
N732 X-215.764 Y-1.659 Z8.318 A1.4203 
N733 X-215.742 Y-2.159 Z8.315 A1.4204 
N734 X-215.721 Y-2.658 Z8.312 A1.4206 
N735 X-215.699 Y-3.158 Z8.310 A1.4208 
N736 X-215.678 Y-3.657 Z8.307 A1.4211 
N737 X-215.656 Y-4.156 Z8.304 A1.4215 
N738 X-215.635 Y-4.656 Z8.301 A1.4219 
N739 X-215.613 Y-5.155 Z8.298 A1.4223 
N740 X-215.592 Y-5.654 Z8.296 A1.4226 
N741 X-215.570 Y-6.153 Z8.293 A1.4225 
N742 X-215.549 Y-6.652 Z8.290 A1.4209 
N743 X-215.528 Y-7.151 Z8.288 A1.4201 
N744 X-215.506 Y-7.649 Z8.286 
N745 X-215.485 Y-8.150 Z8.283 
N746 X-215.463 Y-8.654 Z8.285 A1.4720 
N747 X-215.443 Y-9.152 Z8.326 A2.0103 
N748 X-215.428 Y-9.595 Z8.461 A3.7201 
N749 X-215.421 Y-9.957 Z8.743 A7.2801 
N750 X-215.420 Y-10.321 Z9.221 A13.4070 
N751 X-215.421 Y-10.769 Z9.876 A22.1557 
N752 X-215.418 Y-11.328 Z10.565 A32.1681 
N753 X-215.408 Y-11.982 Z11.158 A42.1813 
N754 X-215.391 Y-12.721 Z11.637 A52.1934 
N755 X-215.367 Y-13.529 Z11.984 A62.2031 
N756 X-215.336 Y-14.385 Z12.184 A72.2091 
N757 X-215.299 Y-15.265 Z12.219 A82.2105 
N758 X-215.258 Y-16.139 Z12.076 A92.2072 
N759 X-215.212 Y-16.967 Z11.741 A102.1632 
N760 X-215.168 Y-17.642 Z11.254 A111.2266 
N761 X-215.130 Y-18.119 Z10.655 A119.1173 
N762 X-215.101 Y-18.335 Z10.018 A125.1023 
N763 X-215.086 Y-18.281 Z9.444 A128.4955 
N764 X-215.080 Y-18.076 Z8.966 A130.0731 
N765 X-215.079 Y-17.806 Z8.539 A130.8099 
N766 X-215.079 Y-17.507 Z8.137 A131.1449 
N767 X-215.081 Y-17.193 Z7.747 A131.2801 
N768 X-215.083 Y-16.872 Z7.364 A131.3204 
N769 X-215.085 Y-16.549 Z6.983 A131.3217 
N770 X-215.088 Y-16.226 Z6.602 A131.3150 
N771 X-215.090 Y-15.903 Z6.221 
N772 X-215.092 Y-15.579 Z5.840 
N773 X-215.094 Y-15.256 Z5.457 A131.3222 
N774 X-215.097 Y-14.935 Z5.073 A131.3680 
N775 X-215.098 Y-14.616 Z4.687 A131.4573 
N776 X-215.100 Y-14.302 Z4.298 A131.6168 
N777 X-215.101 Y-13.992 Z3.904 A131.8775 
N778 X-215.102 Y-13.690 Z3.503 A132.2896 
N779 X-215.102 Y-13.398 Z3.093 A132.9157 
N780 X-215.101 Y-13.119 Z2.669 A133.8206 
N781 X-215.099 Y-12.852 Z2.231 A135.0645 
N782 X-215.097 Y-12.596 Z1.776 A136.6796 
N783 X-215.093 Y-12.348 Z1.306 A138.6625 
N784 X-215.089 Y-12.102 Z0.823 A140.9929 
N785 X-215.085 Y-11.852 Z0.329 A143.6401 
N786 X-215.080 Y-11.592 Z-0.172 A146.5704 
N787 X-215.077 Y-11.316 Z-0.674 A149.7199 
N788 X-215.075 Y-11.018 Z-1.170 A153.0015 
N789 X-215.074 Y-10.693 Z-1.652 A156.3325 
N790 X-215.075 Y-10.340 Z-2.112 A159.6244 
N791 X-215.079 Y-9.958 Z-2.540 A162.7926 
N792 X-215.084 Y-9.548 Z-2.928 A165.7314 
N793 X-215.093 Y-9.114 Z-3.268 A168.3379 
N794 X-215.103 Y-8.660 Z-3.557 A170.5590 
N795 X-215.116 Y-8.190 Z-3.795 A172.3839 
N796 X-215.131 Y-7.711 Z-3.987 A173.8253 
N797 X-215.147 Y-7.223 Z-4.138 A174.9054 
N798 X-215.165 Y-6.732 Z-4.252 A175.6584 
N799 X-215.183 Y-6.237 Z-4.338 A176.1385 
N800 X-215.203 Y-5.741 Z-4.402 A176.4070 
N801 X-215.222 Y-5.244 Z-4.452 A176.5303 
N802 X-215.242 Y-4.747 Z-4.494 A176.5685 
N803 X-215.263 Y-4.250 Z-4.533 A176.5649 
N804 X-215.283 Y-3.755 Z-4.570 A176.5465 
N805 X-215.303 Y-3.260 Z-4.609 A176.5425 
N806 X-215.323 Y-2.764 Z-4.650 
N807 X-215.343 Y-2.268 Z-4.690 
N808 X-215.363 Y-1.768 Z-4.731 
N809 X-215.383 Y-1.265 Z-4.772 A176.5455 
N810 X-215.403 Y-0.765 Z-4.825 A176.7042 
N811 X-215.422 Y-0.267 Z-4.890 A177.0308 
N812 X-215.441 Y0.231 Z-4.973 A177.6238 
N813 X-215.459 Y0.727 Z-5.083 A178.5976 
N814 X-215.476 Y1.224 Z-5.226 A180.0739 
N815 X-215.492 Y1.728 Z-5.408 A182.1951 
N816 X-215.507 Y2.242 Z-5.634 A185.0741 
N817 X-215.522 Y2.778 Z-5.903 A188.8023 
N818 X-215.537 Y3.347 Z-6.210 A193.4413 
N819 X-215.553 Y3.960 Z-6.532 A198.8950 
N820 X-215.572 Y4.623 Z-6.843 A204.9896 
N821 X-215.595 Y5.337 Z-7.116 A211.5821 
N822 X-215.621 Y6.096 Z-7.329 A218.5481 
N823 X-215.651 Y6.891 Z-7.465 A225.7825 
N824 X-215.684 Y7.711 Z-7.508 A233.2228 
N825 X-215.722 Y8.546 Z-7.455 A240.8945 
N826 X-215.763 Y9.393 Z-7.301 A248.9206 
N827 X-215.807 Y10.243 Z-7.037 A257.3402 
N828 X-215.854 Y11.059 Z-6.653 A265.9399 
N829 X-215.901 Y11.797 Z-6.152 A274.4000 
N830 X-215.945 Y12.412 Z-5.556 A282.3492 
N831 X-215.983 Y12.847 Z-4.915 A289.1288 
N832 X-216.013 Y13.085 Z-4.282 A294.3047 
N833 X-216.033 Y13.147 Z-3.696 A297.8367 
N834 X-216.046 Y13.072 Z-3.166 A299.9555 
N835 X-216.054 Y12.910 Z-2.681 A301.0979 
N836 X-216.058 Y12.699 Z-2.224 A301.6604 
N837 X-216.062 Y12.461 Z-1.783 A301.9115 
N838 X-216.064 Y12.211 Z-1.351 A302.0086 
N839 X-216.066 Y11.956 Z-0.922 A302.0320 
N840 X-216.068 Y11.699 Z-0.495 A302.0247 
N841 X-216.070 Y11.442 Z-0.069 A302.0105 
N842 X-216.072 Y11.187 Z0.357 A302.0036 
N843 X-216.074 Y10.933 Z0.783 
N844 X-216.076 Y10.679 Z1.210 
N845 X-216.078 Y10.424 Z1.639 
N846 X-216.081 Y10.165 Z2.078 A302.0232 
N847 X-216.087 Y9.977 Z2.554 A303.0294 
N848 X-216.105 Y9.970 Z3.163 A306.8450 
N849 X-216.142 Y10.226 Z4.005 A315.3424 
N850 X-216.181 Y10.488 Z4.918 A325.3298 
N851 X-216.214 Y10.614 Z5.846 A335.3202 
N852 X-216.241 Y10.564 Z6.787 A345.3144 
N853 X-216.256 Y10.273 Z7.687 A354.9532 
N854 X-216.249 Y9.802 Z8.127 A359.7363 
N855 X-216.231 Y9.302 Z8.247 A1.0767 
N856 X-216.210 Y8.802 Z8.271 A1.3751 
N857 X-216.189 Y8.303 Z8.271 A1.4136 
N858 X-216.167 Y7.804 Z8.266 A1.4040 
N859 X-216.146 Y7.305 Z8.263 A1.4008 
N860 X-216.124 Y6.807 Z8.260 
N861 X-216.103 Y6.308 Z8.257 
N862 X-216.082 Y5.808 Z8.254 
N863 X-216.060 Y5.309 Z8.251 
N864 X-216.039 Y4.810 Z8.248 
N865 X-216.017 Y4.310 Z8.245 
N866 X-215.996 Y3.811 Z8.243 
N867 X-215.974 Y3.311 Z8.240 
N868 X-215.953 Y2.812 Z8.237 
N869 X-215.931 Y2.312 Z8.234 
N870 X-215.910 Y1.813 Z8.231 
N871 X-215.888 Y1.313 Z8.229 
N872 X-215.867 Y0.814 Z8.226 
N873 X-215.845 Y0.314 Z8.223 A1.4008 
N874 X-215.824 Y-0.185 Z8.220 A1.4008 
N875 X-215.802 Y-0.685 Z8.217 A1.4008 
N876 X-215.781 Y-1.184 Z8.215 A1.4008 
N877 X-215.759 Y-1.684 Z8.212 A1.4009 
N878 X-215.738 Y-2.183 Z8.209 A1.4009 
N879 X-215.716 Y-2.683 Z8.206 A1.4011 
N880 X-215.695 Y-3.182 Z8.204 A1.4012 
N881 X-215.673 Y-3.682 Z8.201 A1.4014 
N882 X-215.652 Y-4.181 Z8.198 A1.4018 
N883 X-215.631 Y-4.680 Z8.195 A1.4024 
N884 X-215.609 Y-5.179 Z8.193 A1.4034 
N885 X-215.588 Y-5.678 Z8.190 A1.4050 
N886 X-215.566 Y-6.177 Z8.188 A1.4074 
N887 X-215.545 Y-6.676 Z8.186 A1.4081 
N888 X-215.523 Y-7.174 Z8.183 A1.4008 
N889 X-215.502 Y-7.672 Z8.181 
N890 X-215.481 Y-8.172 Z8.179 
N891 X-215.459 Y-8.677 Z8.182 A1.4688 
N892 X-215.440 Y-9.165 Z8.245 A2.2642 
N893 X-215.428 Y-9.574 Z8.416 A4.4184 
N894 X-215.423 Y-9.928 Z8.751 A8.6472 
N895 X-215.423 Y-10.298 Z9.284 A15.5054 
N896 X-215.424 Y-10.774 Z9.986 A24.9897 
N897 X-215.419 Y-11.355 Z10.653 A35.0027 
N898 X-215.407 Y-12.035 Z11.215 A45.0154 
N899 X-215.388 Y-12.796 Z11.657 A55.0270 
N900 X-215.362 Y-13.621 Z11.962 A65.0358 
N901 X-215.329 Y-14.488 Z12.114 A75.0405 
N902 X-215.291 Y-15.370 Z12.100 A85.0406 
N903 X-215.248 Y-16.236 Z11.907 A95.0360 
N904 X-215.202 Y-17.048 Z11.529 A105.0270 
N905 X-215.155 Y-17.744 Z10.967 A114.7680 
N906 X-215.116 Y-18.190 Z10.315 A122.8886 
N907 X-215.091 Y-18.328 Z9.662 A128.5374 
N908 X-215.079 Y-18.214 Z9.107 A131.5720 
N909 X-215.075 Y-17.969 Z8.654 A132.9096 
N910 X-215.076 Y-17.666 Z8.253 A133.4241 
N911 X-215.079 Y-17.338 Z7.875 A133.5814 
N912 X-215.082 Y-17.002 Z7.506 A133.6116 
N913 X-215.085 Y-16.663 Z7.138 A133.6086 
N914 X-215.089 Y-16.325 Z6.771 A133.6063 
N915 X-215.092 Y-15.987 Z6.403 
N916 X-215.095 Y-15.649 Z6.035 
N917 X-215.098 Y-15.310 Z5.666 
N918 X-215.102 Y-14.972 Z5.297 A133.6209 
N919 X-215.105 Y-14.638 Z4.925 A133.6901 
N920 X-215.107 Y-14.308 Z4.548 A133.8457 
N921 X-215.110 Y-13.985 Z4.165 A134.1379 
N922 X-215.111 Y-13.671 Z3.773 A134.6077 
N923 X-215.112 Y-13.366 Z3.371 A135.2982 
N924 X-215.112 Y-13.072 Z2.957 A136.2459 
N925 X-215.111 Y-12.786 Z2.531 A137.4748 
N926 X-215.110 Y-12.507 Z2.093 A139.0060 
N927 X-215.108 Y-12.233 Z1.642 A140.8582 
N928 X-215.106 Y-11.961 Z1.178 A143.0346 
N929 X-215.103 Y-11.686 Z0.705 A145.5105 
N930 X-215.101 Y-11.401 Z0.228 A148.2302 
N931 X-215.099 Y-11.100 Z-0.248 A151.1250 
N932 X-215.099 Y-10.780 Z-0.716 A154.1303 
N933 X-215.100 Y-10.436 Z-1.169 A157.1589 
N934 X-215.103 Y-10.067 Z-1.597 A160.1204 
N935 X-215.107 Y-9.673 Z-1.994 A162.9247 
N936 X-215.114 Y-9.255 Z-2.350 A165.4782 
N937 X-215.124 Y-8.816 Z-2.663 A167.7182 
N938 X-215.135 Y-8.360 Z-2.930 A169.6176 
N939 X-215.148 Y-7.891 Z-3.154 A171.1717 
N940 X-215.163 Y-7.413 Z-3.338 A172.3862 
N941 X-215.180 Y-6.928 Z-3.485 A173.2744 
N942 X-215.197 Y-6.438 Z-3.601 A173.8747 
N943 X-215.215 Y-5.946 Z-3.693 A174.2414 
N944 X-215.234 Y-5.451 Z-3.767 A174.4351 
N945 X-215.254 Y-4.955 Z-3.831 A174.5179 
N946 X-215.273 Y-4.459 Z-3.890 A174.5437 
N947 X-215.293 Y-3.963 Z-3.947 A174.5584 
N948 X-215.312 Y-3.467 Z-4.007 A174.6070 
N949 X-215.331 Y-2.971 Z-4.074 A174.7414 
N950 X-215.350 Y-2.477 Z-4.151 A175.0210 
N951 X-215.368 Y-1.983 Z-4.244 A175.5125 
N952 X-215.386 Y-1.490 Z-4.356 A176.2928 
N953 X-215.403 Y-0.998 Z-4.492 A177.4464 
N954 X-215.419 Y-0.503 Z-4.657 A179.0765 
N955 X-215.435 Y-0.003 Z-4.858 A181.3175 
N956 X-215.449 Y0.509 Z-5.101 A184.3040 
N957 X-215.463 Y1.042 Z-5.383 A188.1095 
N958 X-215.478 Y1.606 Z-5.693 A192.7127 
N959 X-215.494 Y2.211 Z-6.011 A198.0016 
N960 X-215.513 Y2.857 Z-6.304 A203.7242 
N961 X-215.535 Y3.537 Z-6.546 A209.6629 
N962 X-215.560 Y4.240 Z-6.718 A215.6339 
N963 X-215.587 Y4.953 Z-6.812 A221.5243 
N964 X-215.618 Y5.665 Z-6.826 A227.3059 
N965 X-215.650 Y6.373 Z-6.767 A233.0565 
N966 X-215.684 Y7.084 Z-6.644 A238.9746 
N967 X-215.721 Y7.814 Z-6.465 A245.3732 
N968 X-215.761 Y8.579 Z-6.224 A252.5289 
N969 X-215.804 Y9.374 Z-5.902 A260.5069 
N970 X-215.851 Y10.168 Z-5.473 A269.0990 
N971 X-215.899 Y10.892 Z-4.930 A277.7442 
N972 X-215.942 Y11.451 Z-4.305 A285.4556 
N973 X-215.974 Y11.766 Z-3.675 A291.1146 
N974 X-215.997 Y11.867 Z-3.090 A294.7467 
N975 X-216.011 Y11.820 Z-2.557 A296.8500 
N976 X-216.019 Y11.677 Z-2.068 A297.8843 
N977 X-216.025 Y11.480 Z-1.608 A298.2837 
N978 X-216.029 Y11.259 Z-1.162 A298.3757 
N979 X-216.033 Y11.030 Z-0.721 A298.3629 
N980 X-216.036 Y10.802 Z-0.282 A298.3354 
N981 X-216.040 Y10.576 Z0.157 A298.3210 
N982 X-216.044 Y10.353 Z0.597 
N983 X-216.048 Y10.129 Z1.040 
N984 X-216.051 Y9.897 Z1.497 
N985 X-216.060 Y9.737 Z1.988 A299.2968 
N986 X-216.076 Y9.714 Z2.562 A302.3275 
N987 X-216.108 Y9.922 Z3.332 A309.3396 
N988 X-216.150 Y10.251 Z4.242 A319.3229 
N989 X-216.187 Y10.460 Z5.161 A329.3114 
N990 X-216.218 Y10.514 Z6.100 A339.3031 
N991 X-216.240 Y10.373 Z7.042 A349.2993 
N992 X-216.246 Y9.982 Z7.792 A357.3505 
N993 X-216.234 Y9.488 Z8.072 A0.4026 
N994 X-216.214 Y8.987 Z8.141 A1.1886 
N995 X-216.193 Y8.488 Z8.152 A1.3512 
N996 X-216.172 Y7.989 Z8.151 A1.3701 
N997 X-216.150 Y7.489 Z8.147 A1.3644 
N998 X-216.129 Y6.991 Z8.144 A1.3623 
N999 X-216.107 Y6.492 Z8.141 
N1000 X-216.086 Y5.992 Z8.138 
N1001 X-216.064 Y5.493 Z8.136 
N1002 X-216.043 Y4.994 Z8.133 
N1003 X-216.021 Y4.495 Z8.130 
N1004 X-216.000 Y3.995 Z8.127 
N1005 X-215.979 Y3.496 Z8.125 
N1006 X-215.957 Y2.996 Z8.122 
N1007 X-215.936 Y2.497 Z8.119 
N1008 X-215.914 Y1.997 Z8.117 
N1009 X-215.893 Y1.498 Z8.114 
N1010 X-215.871 Y0.998 Z8.112 
N1011 X-215.850 Y0.499 Z8.109 
N1012 X-215.828 Y-0.001 Z8.106 
N1013 X-215.807 Y-0.500 Z8.104 A1.3623 
N1014 X-215.785 Y-1.000 Z8.101 A1.3623 
N1015 X-215.764 Y-1.499 Z8.098 A1.3623 
N1016 X-215.742 Y-1.999 Z8.096 A1.3624 
N1017 X-215.721 Y-2.498 Z8.093 A1.3624 
N1018 X-215.699 Y-2.998 Z8.091 A1.3625 
N1019 X-215.678 Y-3.497 Z8.088 A1.3627 
N1020 X-215.656 Y-3.996 Z8.086 A1.3632 
N1021 X-215.635 Y-4.496 Z8.083 A1.3640 
N1022 X-215.614 Y-4.995 Z8.081 A1.3654 
N1023 X-215.592 Y-5.494 Z8.078 A1.3678 
N1024 X-215.571 Y-5.993 Z8.076 A1.3705 
N1025 X-215.549 Y-6.491 Z8.074 A1.3708 
N1026 X-215.528 Y-6.989 Z8.071 A1.3623 
N1027 X-215.507 Y-7.487 Z8.070 
N1028 X-215.485 Y-7.986 Z8.068 
N1029 X-215.463 Y-8.491 Z8.070 A1.4043 
N1030 X-215.444 Y-8.981 Z8.118 A2.0168 
N1031 X-215.431 Y-9.385 Z8.245 A3.6264 
N1032 X-215.424 Y-9.742 Z8.531 A7.2217 
N1033 X-215.424 Y-10.092 Z9.040 A13.6713 
N1034 X-215.427 Y-10.568 Z9.791 A23.6222 
N1035 X-215.423 Y-11.131 Z10.472 A33.6345 
N1036 X-215.413 Y-11.795 Z11.052 A43.6474 
N1037 X-215.394 Y-12.547 Z11.511 A53.6593 
N1038 X-215.369 Y-13.365 Z11.835 A63.6686 
N1039 X-215.337 Y-14.227 Z12.009 A73.6739 
N1040 X-215.300 Y-15.108 Z12.021 A83.6747 
N1041 X-215.258 Y-15.978 Z11.861 A93.6707 
N1042 X-215.212 Y-16.802 Z11.523 A103.6622 
N1043 X-215.165 Y-17.538 Z11.003 A113.6184 
N1044 X-215.123 Y-18.072 Z10.358 A122.5403 
N1045 X-215.092 Y-18.320 Z9.696 A129.3122 
N1046 X-215.077 Y-18.266 Z9.126 A133.1117 
N1047 X-215.073 Y-18.026 Z8.663 A134.7464 
N1048 X-215.074 Y-17.717 Z8.264 A135.3897 
N1049 X-215.077 Y-17.382 Z7.893 A135.6411 
N1050 X-215.081 Y-17.036 Z7.532 A135.7273 
N1051 X-215.085 Y-16.685 Z7.176 A135.7427 
N1052 X-215.090 Y-16.333 Z6.822 A135.7297 
N1053 X-215.094 Y-15.982 Z6.468 A135.7282 
N1054 X-215.098 Y-15.631 Z6.112 
N1055 X-215.103 Y-15.279 Z5.755 A135.7334 
N1056 X-215.106 Y-14.931 Z5.395 A135.8191 
N1057 X-215.110 Y-14.588 Z5.030 A135.9864 
N1058 X-215.113 Y-14.251 Z4.659 A136.2675 
N1059 X-215.116 Y-13.919 Z4.282 A136.6884 
N1060 X-215.118 Y-13.595 Z3.897 A137.2816 
N1061 X-215.120 Y-13.278 Z3.502 A138.0888 
N1062 X-215.121 Y-12.970 Z3.096 A139.1511 
N1063 X-215.121 Y-12.669 Z2.678 A140.5010 
N1064 X-215.120 Y-12.373 Z2.248 A142.1455 
N1065 X-215.120 Y-12.078 Z1.808 A144.0600 
N1066 X-215.119 Y-11.779 Z1.363 A146.2051 
N1067 X-215.119 Y-11.472 Z0.916 A148.5357 
N1068 X-215.119 Y-11.152 Z0.472 A151.0116 
N1069 X-215.120 Y-10.817 Z0.036 A153.5744 
N1070 X-215.122 Y-10.463 Z-0.386 A156.1470 
N1071 X-215.126 Y-10.088 Z-0.786 A158.6565 
N1072 X-215.132 Y-9.693 Z-1.159 A161.0319 
N1073 X-215.139 Y-9.278 Z-1.500 A163.2074 
N1074 X-215.149 Y-8.845 Z-1.805 A165.1377 
N1075 X-215.160 Y-8.397 Z-2.074 A166.8033 
N1076 X-215.172 Y-7.938 Z-2.308 A168.2042 
N1077 X-215.186 Y-7.468 Z-2.511 A169.3476 
N1078 X-215.201 Y-6.992 Z-2.685 A170.2509 
N1079 X-215.217 Y-6.511 Z-2.835 A170.9518 
N1080 X-215.234 Y-6.025 Z-2.966 A171.5015 
N1081 X-215.251 Y-5.538 Z-3.086 A171.9621 
N1082 X-215.269 Y-5.049 Z-3.200 A172.3974 
N1083 X-215.286 Y-4.560 Z-3.313 A172.8687 
N1084 X-215.304 Y-4.071 Z-3.431 A173.4427 
N1085 X-215.321 Y-3.583 Z-3.558 A174.1993 
N1086 X-215.337 Y-3.094 Z-3.702 A175.2311 
N1087 X-215.353 Y-2.605 Z-3.868 A176.6411 
N1088 X-215.368 Y-2.114 Z-4.061 A178.5279 
N1089 X-215.383 Y-1.615 Z-4.286 A180.9920 
N1090 X-215.397 Y-1.104 Z-4.544 A184.1371 
N1091 X-215.411 Y-0.571 Z-4.834 A188.0199 
N1092 X-215.426 Y-0.007 Z-5.143 A192.5903 
N1093 X-215.442 Y0.593 Z-5.449 A197.7225 
N1094 X-215.461 Y1.228 Z-5.726 A203.1892 
N1095 X-215.483 Y1.891 Z-5.947 A208.7508 
N1096 X-215.507 Y2.568 Z-6.096 A214.2071 
N1097 X-215.534 Y3.243 Z-6.166 A219.4423 
N1098 X-215.563 Y3.909 Z-6.160 A224.4382 
N1099 X-215.593 Y4.561 Z-6.088 A229.2738 
N1100 X-215.624 Y5.207 Z-5.962 A234.1280 
N1101 X-215.657 Y5.862 Z-5.795 A239.2971 
N1102 X-215.693 Y6.552 Z-5.594 A245.1664 
N1103 X-215.732 Y7.297 Z-5.350 A252.0551 
N1104 X-215.776 Y8.093 Z-5.033 A260.0029 
N1105 X-215.823 Y8.885 Z-4.611 A268.5355 
N1106 X-215.868 Y9.559 Z-4.082 A276.5165 
N1107 X-215.905 Y10.016 Z-3.498 A282.7767 
N1108 X-215.933 Y10.251 Z-2.918 A287.0473 
N1109 X-215.952 Y10.308 Z-2.373 A289.5621 
N1110 X-215.965 Y10.248 Z-1.862 A290.8557 
N1111 X-215.974 Y10.121 Z-1.376 A291.4191 
N1112 X-215.981 Y9.958 Z-0.905 A291.5638 
N1113 X-215.988 Y9.781 Z-0.440 A291.5181 
N1114 X-215.994 Y9.607 Z0.026 
N1115 X-216.002 Y9.439 Z0.502 A291.6161 
N1116 X-216.012 Y9.322 Z0.995 A292.3898 
N1117 X-216.026 Y9.288 Z1.527 A294.3521 
N1118 X-216.049 Y9.396 Z2.138 A298.4878 
N1119 X-216.085 Y9.679 Z2.906 A305.8657 
N1120 X-216.128 Y10.047 Z3.810 A315.8200 
N1121 X-216.167 Y10.308 Z4.719 A325.8074 
N1122 X-216.200 Y10.418 Z5.653 A335.7979 
N1123 X-216.226 Y10.349 Z6.597 A345.7924 
N1124 X-216.239 Y10.030 Z7.492 A355.3481 
N1125 X-216.231 Y9.548 Z7.915 A359.9557 
N1126 X-216.213 Y9.047 Z8.032 A1.2792 
N1127 X-216.193 Y8.547 Z8.061 A1.6667 
N1128 X-216.172 Y8.047 Z8.068 A1.8189 
N1129 X-216.150 Y7.547 Z8.067 A1.8946 
N1130 X-216.129 Y7.048 Z8.062 A1.9333 
N1131 X-216.107 Y6.549 Z8.055 A1.9466 
N1132 X-216.086 Y6.051 Z8.047 A1.9442 
N1133 X-216.064 Y5.554 Z8.039 A1.9358 
N1134 X-216.043 Y5.057 Z8.031 A1.9284 
N1135 X-216.021 Y4.561 Z8.024 A1.9261 
N1136 X-216.000 Y4.064 Z8.018 
N1137 X-215.978 Y3.567 Z8.012 
N1138 X-215.957 Y3.070 Z8.007 
N1139 X-215.935 Y2.571 Z8.002 
N1140 X-215.914 Y2.072 Z7.997 
N1141 X-215.892 Y1.572 Z7.992 
N1142 X-215.870 Y1.070 Z7.987 
N1143 X-215.849 Y0.567 Z7.981 
N1144 X-215.827 Y0.063 Z7.975 
N1145 X-215.805 Y-0.440 Z7.971 A1.9646 
N1146 X-215.784 Y-0.942 Z7.968 A2.0302 
N1147 X-215.762 Y-1.444 Z7.966 A2.1133 
N1148 X-215.741 Y-1.944 Z7.964 A2.2031 
N1149 X-215.719 Y-2.443 Z7.960 A2.2801 
N1150 X-215.698 Y-2.941 Z7.953 A2.3346 
N1151 X-215.676 Y-3.437 Z7.945 A2.3694 
N1152 X-215.655 Y-3.930 Z7.936 A2.3901 
N1153 X-215.634 Y-4.418 Z7.928 A2.4051 
N1154 X-215.613 Y-4.900 Z7.923 A2.4194 
N1155 X-215.592 Y-5.377 Z7.920 A2.4289 
N1156 X-215.572 Y-5.847 Z7.919 A2.4226 
N1157 X-215.552 Y-6.312 Z7.921 A2.3805 
N1158 X-215.533 Y-6.774 Z7.924 A2.3008 
N1159 X-215.514 Y-7.231 Z7.942 
N1160 X-215.494 Y-7.698 Z7.965 
N1161 X-215.474 Y-8.192 Z7.992 
N1162 X-215.453 Y-8.691 Z8.017 
N1163 X-215.435 Y-9.173 Z8.085 A2.9398 
N1164 X-215.428 Y-9.546 Z8.389 A6.5528 
N1165 X-215.428 Y-9.933 Z8.940 A13.4554 
N1166 X-215.430 Y-10.402 Z9.675 A23.1613 
N1167 X-215.427 Y-10.961 Z10.360 A33.1735 
N1168 X-215.417 Y-11.622 Z10.943 A43.1866 
N1169 X-215.399 Y-12.371 Z11.407 A53.1986 
N1170 X-215.374 Y-13.187 Z11.736 A63.2079 
N1171 X-215.342 Y-14.048 Z11.916 A73.2135 
N1172 X-215.305 Y-14.929 Z11.938 A83.2145 
N1173 X-215.264 Y-15.800 Z11.792 A93.2107 
N1174 X-215.218 Y-16.629 Z11.475 A103.2025 
N1175 X-215.171 Y-17.380 Z10.986 A113.1909 
N1176 X-215.127 Y-17.969 Z10.356 A122.5874 
N1177 X-215.095 Y-18.273 Z9.717 A129.7577 
N1178 X-215.077 Y-18.279 Z9.130 A134.2903 
N1179 X-215.071 Y-18.071 Z8.650 A136.4698 
N1180 X-215.072 Y-17.764 Z8.247 A137.3577 
N1181 X-215.076 Y-17.419 Z7.884 A137.6580 
N1182 X-215.080 Y-17.060 Z7.537 A137.7229 
N1183 X-215.086 Y-16.696 Z7.196 A137.7110 
N1184 X-215.091 Y-16.333 Z6.854 A137.7060 
N1185 X-215.096 Y-15.970 Z6.511 
N1186 X-215.101 Y-15.605 Z6.167 
N1187 X-215.106 Y-15.245 Z5.819 A137.7763 
N1188 X-215.111 Y-14.888 Z5.467 A137.9211 
N1189 X-215.115 Y-14.536 Z5.110 A138.1687 
N1190 X-215.119 Y-14.190 Z4.747 A138.5532 
N1191 X-215.122 Y-13.852 Z4.375 A139.1083 
N1192 X-215.124 Y-13.520 Z3.993 A139.8717 
N1193 X-215.126 Y-13.196 Z3.601 A140.8712 
N1194 X-215.128 Y-12.877 Z3.198 A142.1158 
N1195 X-215.129 Y-12.561 Z2.788 A143.5860 
N1196 X-215.130 Y-12.243 Z2.373 A145.2469 
N1197 X-215.131 Y-11.920 Z1.958 A147.0593 
N1198 X-215.133 Y-11.589 Z1.544 A148.9862 
N1199 X-215.135 Y-11.248 Z1.136 A150.9940 
N1200 X-215.138 Y-10.894 Z0.738 A153.0402 
N1201 X-215.142 Y-10.525 Z0.353 A155.0750 
N1202 X-215.147 Y-10.141 Z-0.014 A157.0532 
N1203 X-215.154 Y-9.742 Z-0.360 A158.9388 
N1204 X-215.162 Y-9.329 Z-0.684 A160.7030 
N1205 X-215.171 Y-8.902 Z-0.983 A162.3262 
N1206 X-215.181 Y-8.464 Z-1.259 A163.8017 
N1207 X-215.193 Y-8.016 Z-1.513 A165.1395 
N1208 X-215.205 Y-7.560 Z-1.747 A166.3615 
N1209 X-215.219 Y-7.097 Z-1.964 A167.4991 
N1210 X-215.232 Y-6.630 Z-2.168 A168.5921 
N1211 X-215.247 Y-6.159 Z-2.364 A169.6915 
N1212 X-215.261 Y-5.685 Z-2.557 A170.8621 
N1213 X-215.276 Y-5.209 Z-2.752 A172.1775 
N1214 X-215.290 Y-4.731 Z-2.954 A173.7158 
N1215 X-215.304 Y-4.249 Z-3.168 A175.5561 
N1216 X-215.318 Y-3.762 Z-3.399 A177.7832 
N1217 X-215.331 Y-3.267 Z-3.648 A180.4819 
N1218 X-215.345 Y-2.757 Z-3.918 A183.7119 
N1219 X-215.359 Y-2.227 Z-4.205 A187.5006 
N1220 X-215.374 Y-1.671 Z-4.499 A191.8333 
N1221 X-215.390 Y-1.083 Z-4.786 A196.6179 
N1222 X-215.409 Y-0.465 Z-5.046 A201.7050 
N1223 X-215.430 Y0.179 Z-5.258 A206.9017 
N1224 X-215.454 Y0.835 Z-5.406 A212.0261 
N1225 X-215.480 Y1.492 Z-5.481 A216.9480 
N1226 X-215.507 Y2.140 Z-5.484 A221.6188 
N1227 X-215.536 Y2.772 Z-5.422 A226.0723 
N1228 X-215.566 Y3.391 Z-5.305 A230.4137 
N1229 X-215.597 Y4.004 Z-5.145 A234.8207 
N1230 X-215.630 Y4.625 Z-4.952 A239.5388 
N1231 X-215.664 Y5.271 Z-4.729 A244.8404 
N1232 X-215.701 Y5.948 Z-4.466 A250.8446 
N1233 X-215.740 Y6.633 Z-4.142 A257.3328 
N1234 X-215.780 Y7.266 Z-3.741 A263.7025 
N1235 X-215.816 Y7.783 Z-3.273 A269.2493 
N1236 X-215.847 Y8.153 Z-2.764 A273.5779 
N1237 X-215.873 Y8.386 Z-2.241 A276.7164 
N1238 X-215.895 Y8.520 Z-1.718 A278.9784 
N1239 X-215.914 Y8.590 Z-1.199 A280.7021 
N1240 X-215.931 Y8.626 Z-0.682 A282.2059 
N1241 X-215.948 Y8.657 Z-0.162 A283.8048 
N1242 X-215.966 Y8.707 Z0.368 A285.8212 
N1243 X-215.987 Y8.804 Z0.922 A288.6781 
N1244 X-216.013 Y8.983 Z1.525 A292.9842 
N1245 X-216.047 Y9.283 Z2.230 A299.5824 
N1246 X-216.091 Y9.694 Z3.096 A309.0484 
N1247 X-216.133 Y10.043 Z3.987 A319.0347 
N1248 X-216.170 Y10.262 Z4.902 A329.0230 
N1249 X-216.201 Y10.318 Z5.841 A339.0149 
N1250 X-216.223 Y10.160 Z6.791 A349.0109 
N1251 X-216.232 Y9.763 Z7.638 A358.1693 
N1252 X-216.225 Y9.255 Z8.126 A3.8483 
N1253 X-216.210 Y8.734 Z8.345 A6.8434 
N1254 X-216.190 Y8.225 Z8.409 A8.2659 
N1255 X-216.168 Y7.734 Z8.392 A8.8034 
N1256 X-216.146 Y7.260 Z8.336 A8.8589 
N1257 X-216.124 Y6.797 Z8.269 A8.7292 
N1258 X-216.103 Y6.345 Z8.210 A8.6022 
N1259 X-216.083 Y5.898 Z8.163 A8.5212 
N1260 X-216.063 Y5.453 Z8.132 
N1261 X-216.043 Y5.003 Z8.108 
N1262 X-216.023 Y4.547 Z8.090 
N1263 X-216.002 Y4.082 Z8.078 
N1264 X-215.982 Y3.608 Z8.070 
N1265 X-215.961 Y3.125 Z8.065 
N1266 X-215.940 Y2.633 Z8.062 
N1267 X-215.918 Y2.134 Z8.059 
N1268 X-215.896 Y1.628 Z8.056 
N1269 X-215.874 Y1.116 Z8.052 
N1270 X-215.852 Y0.600 Z8.044 
N1271 X-215.830 Y0.080 Z8.034 
N1272 X-215.807 Y-0.441 Z8.020 
N1273 X-215.784 Y-0.962 Z8.005 A8.5495 
N1274 X-215.761 Y-1.480 Z7.988 A8.5942 
N1275 X-215.739 Y-1.995 Z7.969 A8.6532 
N1276 X-215.716 Y-2.501 Z7.950 A8.7300 
N1277 X-215.695 Y-2.995 Z7.931 A8.8208 
N1278 X-215.674 Y-3.474 Z7.915 A8.9175 
N1279 X-215.654 Y-3.931 Z7.904 A9.0066 
N1280 X-215.635 Y-4.363 Z7.899 A9.0690 
N1281 X-215.618 Y-4.767 Z7.900 A9.0836 
N1282 X-215.602 Y-5.143 Z7.905 A9.0010 
N1283 X-215.587 Y-5.498 Z7.909 A8.7387 
N1284 X-215.573 Y-5.835 Z7.932 A8.5212 
N1285 X-215.561 Y-6.172 Z7.996 
N1286 X-215.547 Y-6.554 Z8.086 
N1287 X-215.531 Y-7.020 Z8.206 
N1288 X-215.509 Y-7.625 Z8.351 
N1289 X-215.485 Y-8.280 Z8.464 
N1290 X-215.459 Y-8.969 Z8.605 A9.5428 
N1291 X-215.448 Y-9.549 Z9.043 A14.8168 
N1292 X-215.439 Y-10.109 Z9.549 A21.8899 
N1293 X-215.432 Y-10.673 Z10.111 A30.4431 
N1294 X-215.423 Y-11.310 Z10.723 A40.4562 
N1295 X-215.407 Y-12.038 Z11.220 A50.4687 
N1296 X-215.384 Y-12.839 Z11.585 A60.4789 
N1297 X-215.354 Y-13.691 Z11.805 A70.4856 
N1298 X-215.319 Y-14.569 Z11.871 A80.4879 
N1299 X-215.278 Y-15.446 Z11.775 A90.4854 
N1300 X-215.234 Y-16.290 Z11.515 A100.4783 
N1301 X-215.188 Y-17.071 Z11.089 A110.4674 
N1302 X-215.141 Y-17.740 Z10.498 A120.3619 
N1303 X-215.102 Y-18.174 Z9.821 A128.9101 
N1304 X-215.079 Y-18.299 Z9.225 A134.5254 
N1305 X-215.069 Y-18.154 Z8.700 A137.6705 
N1306 X-215.069 Y-17.855 Z8.284 A138.8708 
N1307 X-215.073 Y-17.506 Z7.923 A139.2837 
N1308 X-215.078 Y-17.140 Z7.583 A139.4136 
N1309 X-215.084 Y-16.768 Z7.250 A139.4340 
N1310 X-215.090 Y-16.394 Z6.921 A139.4104 
N1311 X-215.096 Y-16.022 Z6.590 
N1312 X-215.102 Y-15.648 Z6.257 
N1313 X-215.108 Y-15.274 Z5.922 A139.4388 
N1314 X-215.113 Y-14.909 Z5.578 A139.6115 
N1315 X-215.118 Y-14.550 Z5.227 A139.9263 
N1316 X-215.122 Y-14.199 Z4.868 A140.4166 
N1317 X-215.125 Y-13.854 Z4.500 A141.0789 
N1318 X-215.129 Y-13.513 Z4.126 A141.9148 
N1319 X-215.132 Y-13.176 Z3.745 A142.9216 
N1320 X-215.134 Y-12.839 Z3.359 A144.0932 
N1321 X-215.137 Y-12.502 Z2.970 A145.4177 
N1322 X-215.140 Y-12.162 Z2.580 A146.8717 
N1323 X-215.143 Y-11.816 Z2.192 A148.4204 
N1324 X-215.146 Y-11.462 Z1.809 A150.0258 
N1325 X-215.150 Y-11.099 Z1.435 A151.6523 
N1326 X-215.155 Y-10.724 Z1.072 A153.2719 
N1327 X-215.161 Y-10.339 Z0.722 A154.8669 
N1328 X-215.168 Y-9.943 Z0.385 A156.4235 
N1329 X-215.176 Y-9.536 Z0.063 A157.9338 
N1330 X-215.184 Y-9.120 Z-0.245 A159.3989 
N1331 X-215.193 Y-8.695 Z-0.539 A160.8302 
N1332 X-215.203 Y-8.263 Z-0.822 A162.2481 
N1333 X-215.214 Y-7.824 Z-1.095 A163.6832 
N1334 X-215.225 Y-7.380 Z-1.362 A165.1760 
N1335 X-215.236 Y-6.931 Z-1.626 A166.7750 
N1336 X-215.247 Y-6.477 Z-1.890 A168.5355 
N1337 X-215.259 Y-6.019 Z-2.158 A170.5189 
N1338 X-215.270 Y-5.555 Z-2.434 A172.7917 
N1339 X-215.282 Y-5.082 Z-2.720 A175.4179 
N1340 X-215.294 Y-4.598 Z-3.018 A178.4490 
N1341 X-215.306 Y-4.097 Z-3.325 A181.9213 
N1342 X-215.319 Y-3.576 Z-3.638 A185.8393 
N1343 X-215.333 Y-3.028 Z-3.948 A190.1619 
N1344 X-215.348 Y-2.452 Z-4.241 A194.8075 
N1345 X-215.366 Y-1.849 Z-4.501 A199.6526 
N1346 X-215.387 Y-1.224 Z-4.714 A204.5585 
N1347 X-215.409 Y-0.585 Z-4.868 A209.3915 
N1348 X-215.434 Y0.055 Z-4.956 A214.0499 
N1349 X-215.461 Y0.689 Z-4.976 A218.4761 
N1350 X-215.488 Y1.309 Z-4.933 A222.6631 
N1351 X-215.517 Y1.912 Z-4.833 A226.6457 
N1352 X-215.547 Y2.499 Z-4.685 A230.4972 
N1353 X-215.577 Y3.072 Z-4.496 A234.3183 
N1354 X-215.608 Y3.638 Z-4.274 A238.2342 
N1355 X-215.640 Y4.202 Z-4.021 A242.3503 
N1356 X-215.673 Y4.763 Z-3.735 A246.6825 
N1357 X-215.706 Y5.311 Z-3.411 A251.1456 
N1358 X-215.739 Y5.829 Z-3.045 A255.5837 
N1359 X-215.772 Y6.303 Z-2.637 A259.8362 
N1360 X-215.803 Y6.722 Z-2.193 A263.8025 
N1361 X-215.833 Y7.086 Z-1.720 A267.4887 
N1362 X-215.862 Y7.405 Z-1.224 A271.0038 
N1363 X-215.890 Y7.693 Z-0.710 A274.5111 
N1364 X-215.918 Y7.965 Z-0.177 A278.2157 
N1365 X-215.947 Y8.239 Z0.380 A282.3860 
N1366 X-215.978 Y8.539 Z0.977 A287.4033 
N1367 X-216.013 Y8.892 Z1.644 A293.8301 
N1368 X-216.055 Y9.321 Z2.439 A302.4198 
N1369 X-216.100 Y9.741 Z3.324 A312.4044 
N1370 X-216.141 Y10.048 Z4.223 A322.3913 
N1371 X-216.176 Y10.215 Z5.148 A332.3807 
N1372 X-216.204 Y10.207 Z6.092 A342.3738 
N1373 X-216.223 Y9.979 Z7.035 A352.3713 
N1374 X-216.228 Y9.526 Z7.835 A1.2558 
N1375 X-216.219 Y8.991 Z8.306 A7.0704 
N1376 X-216.203 Y8.453 Z8.520 A10.3739 
N1377 X-216.182 Y7.936 Z8.573 A12.0490 
N1378 X-216.160 Y7.442 Z8.534 A12.7298 
N1379 X-216.137 Y6.966 Z8.448 A12.8472 
N1380 X-216.114 Y6.503 Z8.347 A12.7346 
N1381 X-216.092 Y6.047 Z8.252 A12.6045 
N1382 X-216.070 Y5.596 Z8.170 A12.5395 
N1383 X-216.048 Y5.145 Z8.100 
N1384 X-216.027 Y4.691 Z8.036 
N1385 X-216.006 Y4.232 Z7.977 
N1386 X-215.984 Y3.769 Z7.923 
N1387 X-215.963 Y3.302 Z7.873 
N1388 X-215.941 Y2.832 Z7.827 
N1389 X-215.920 Y2.360 Z7.786 A12.5437 
N1390 X-215.898 Y1.889 Z7.749 A12.5608 
N1391 X-215.877 Y1.418 Z7.716 A12.5669 
N1392 X-215.856 Y0.949 Z7.686 A12.5616 
N1393 X-215.835 Y0.480 Z7.660 A12.5461 
N1394 X-215.815 Y0.012 Z7.639 A12.5395 
N1395 X-215.794 Y-0.458 Z7.624 
N1396 X-215.774 Y-0.928 Z7.613 
N1397 X-215.753 Y-1.399 Z7.608 A12.5577 
N1398 X-215.733 Y-1.868 Z7.611 A12.6136 
N1399 X-215.714 Y-2.332 Z7.620 A12.6895 
N1400 X-215.695 Y-2.788 Z7.636 A12.7828 
N1401 X-215.676 Y-3.230 Z7.661 A12.8946 
N1402 X-215.659 Y-3.653 Z7.694 A13.0151 
N1403 X-215.644 Y-4.050 Z7.734 A13.1042 
N1404 X-215.629 Y-4.418 Z7.774 A13.0825 
N1405 X-215.615 Y-4.758 Z7.808 A12.8672 
N1406 X-215.603 Y-5.080 Z7.846 A12.5395 
N1407 X-215.592 Y-5.388 Z7.934 
N1408 X-215.581 Y-5.727 Z8.050 
N1409 X-215.568 Y-6.137 Z8.207 
N1410 X-215.552 Y-6.676 Z8.411 
N1411 X-215.530 Y-7.329 Z8.621 
N1412 X-215.504 Y-8.051 Z8.776 
N1413 X-215.475 Y-8.795 Z8.892 A13.1717 
N1414 X-215.459 Y-9.441 Z9.267 A17.7713 
N1415 X-215.446 Y-10.035 Z9.667 A23.7762 
N1416 X-215.435 Y-10.621 Z10.142 A31.5335 
N1417 X-215.425 Y-11.269 Z10.718 A41.2896 
N1418 X-215.408 Y-12.006 Z11.201 A51.3019 
N1419 X-215.384 Y-12.815 Z11.552 A61.3119 
N1420 X-215.354 Y-13.672 Z11.757 A71.3183 
N1421 X-215.318 Y-14.551 Z11.809 A81.3201 
N1422 X-215.277 Y-15.425 Z11.703 A91.3172 
N1423 X-215.233 Y-16.267 Z11.436 A101.3098 
N1424 X-215.186 Y-17.043 Z11.008 A111.2986 
N1425 X-215.140 Y-17.705 Z10.425 A121.1158 
N1426 X-215.102 Y-18.134 Z9.770 A129.5157 
N1427 X-215.078 Y-18.281 Z9.171 A135.4009 
N1428 X-215.067 Y-18.163 Z8.641 A138.9002 
N1429 X-215.067 Y-17.867 Z8.224 A140.2670 
N1430 X-215.071 Y-17.511 Z7.871 A140.6968 
N1431 X-215.077 Y-17.136 Z7.540 A140.8216 
N1432 X-215.084 Y-16.756 Z7.216 A140.8452 
N1433 X-215.090 Y-16.373 Z6.895 A140.8324 
N1434 X-215.097 Y-15.992 Z6.573 
N1435 X-215.103 Y-15.610 Z6.250 
N1436 X-215.110 Y-15.230 Z5.923 A140.8850 
N1437 X-215.116 Y-14.857 Z5.590 A141.0539 
N1438 X-215.121 Y-14.489 Z5.248 A141.3665 
N1439 X-215.126 Y-14.129 Z4.898 A141.8497 
N1440 X-215.130 Y-13.774 Z4.540 A142.5028 
N1441 X-215.134 Y-13.423 Z4.176 A143.3181 
N1442 X-215.138 Y-13.074 Z3.806 A144.2738 
N1443 X-215.142 Y-12.724 Z3.435 A145.3461 
N1444 X-215.145 Y-12.371 Z3.065 A146.5147 
N1445 X-215.149 Y-12.015 Z2.695 A147.7610 
N1446 X-215.154 Y-11.653 Z2.330 A149.0672 
N1447 X-215.159 Y-11.284 Z1.970 A150.4165 
N1448 X-215.164 Y-10.909 Z1.616 A151.7961 
N1449 X-215.170 Y-10.525 Z1.270 A153.2008 
N1450 X-215.176 Y-10.135 Z0.931 A154.6397 
N1451 X-215.183 Y-9.738 Z0.597 A156.1306 
N1452 X-215.191 Y-9.335 Z0.269 A157.6948 
N1453 X-215.198 Y-8.926 Z-0.056 A159.3576 
N1454 X-215.206 Y-8.511 Z-0.379 A161.1498 
N1455 X-215.214 Y-8.090 Z-0.702 A163.1055 
N1456 X-215.223 Y-7.663 Z-1.025 A165.2590 
N1457 X-215.232 Y-7.227 Z-1.351 A167.6425 
N1458 X-215.241 Y-6.782 Z-1.680 A170.2874 
N1459 X-215.250 Y-6.326 Z-2.012 A173.2191 
N1460 X-215.260 Y-5.854 Z-2.344 A176.4536 
N1461 X-215.271 Y-5.365 Z-2.674 A179.9957 
N1462 X-215.283 Y-4.855 Z-2.999 A183.8364 
N1463 X-215.297 Y-4.321 Z-3.310 A187.9464 
N1464 X-215.312 Y-3.762 Z-3.599 A192.2787 
N1465 X-215.329 Y-3.179 Z-3.858 A196.7691 
N1466 X-215.348 Y-2.575 Z-4.078 A201.3449 
N1467 X-215.369 Y-1.956 Z-4.249 A205.9310 
N1468 X-215.393 Y-1.327 Z-4.365 A210.4588 
N1469 X-215.418 Y-0.696 Z-4.424 A214.8726 
N1470 X-215.445 Y-0.071 Z-4.425 A219.1326 
N1471 X-215.473 Y0.543 Z-4.369 A223.2145 
N1472 X-215.502 Y1.139 Z-4.257 A227.0971 
N1473 X-215.531 Y1.712 Z-4.095 A230.7612 
N1474 X-215.561 Y2.259 Z-3.885 A234.2004 
N1475 X-215.591 Y2.777 Z-3.634 A237.4234 
N1476 X-215.620 Y3.267 Z-3.346 A240.4626 
N1477 X-215.650 Y3.731 Z-3.028 A243.3709 
N1478 X-215.679 Y4.174 Z-2.685 A246.2173 
N1479 X-215.709 Y4.602 Z-2.320 A249.0846 
N1480 X-215.738 Y5.019 Z-1.938 A252.0704 
N1481 X-215.768 Y5.435 Z-1.540 A255.2896 
N1482 X-215.799 Y5.859 Z-1.125 A258.8902 
N1483 X-215.831 Y6.305 Z-0.690 A263.0852 
N1484 X-215.866 Y6.789 Z-0.226 A268.1501 
N1485 X-215.905 Y7.326 Z0.285 A274.3801 
N1486 X-215.948 Y7.924 Z0.877 A282.1013 
N1487 X-215.998 Y8.575 Z1.591 A291.5861 
N1488 X-216.046 Y9.160 Z2.367 A301.5727 
N1489 X-216.092 Y9.632 Z3.190 A311.5585 
N1490 X-216.133 Y9.972 Z4.065 A321.5452 
N1491 X-216.168 Y10.150 Z4.988 A331.5343 
N1492 X-216.197 Y10.155 Z5.934 A341.5271 
N1493 X-216.217 Y9.951 Z6.877 A351.5242 
N1494 X-216.224 Y9.514 Z7.729 A0.9634 
N1495 X-216.218 Y8.971 Z8.283 A7.7489 
N1496 X-216.203 Y8.412 Z8.583 A12.2072 
N1497 X-216.184 Y7.867 Z8.710 A15.0303 
N1498 X-216.162 Y7.344 Z8.726 A16.7711 
N1499 X-216.138 Y6.838 Z8.669 A17.7788 
N1500 X-216.114 Y6.349 Z8.565 A18.2942 
N1501 X-216.090 Y5.873 Z8.436 A18.5065 
N1502 X-216.066 Y5.407 Z8.295 A18.5526 
N1503 X-216.042 Y4.949 Z8.154 A18.5306 
N1504 X-216.018 Y4.500 Z8.018 A18.5076 
N1505 X-215.995 Y4.057 Z7.892 A18.4951 
N1506 X-215.973 Y3.620 Z7.774 A18.4899 
N1507 X-215.951 Y3.189 Z7.665 A18.4905 
N1508 X-215.930 Y2.763 Z7.567 A18.4941 
N1509 X-215.910 Y2.342 Z7.480 A18.4969 
N1510 X-215.889 Y1.927 Z7.403 A18.4927 
N1511 X-215.870 Y1.518 Z7.337 A18.4764 
N1512 X-215.851 Y1.113 Z7.282 A18.4450 
N1513 X-215.832 Y0.712 Z7.239 A18.4019 
N1514 X-215.814 Y0.313 Z7.209 A18.3566 
N1515 X-215.797 Y-0.087 Z7.192 A18.3175 
N1516 X-215.779 Y-0.489 Z7.189 A18.2911 
N1517 X-215.763 Y-0.894 Z7.201 A18.2847 
N1518 X-215.746 Y-1.301 Z7.228 A18.3048 
N1519 X-215.730 Y-1.710 Z7.270 A18.3533 
N1520 X-215.714 Y-2.117 Z7.325 A18.4172 
N1521 X-215.699 Y-2.519 Z7.390 A18.4766 
N1522 X-215.684 Y-2.913 Z7.466 A18.5213 
N1523 X-215.669 Y-3.301 Z7.530 A18.3405 
N1524 X-215.654 Y-3.688 Z7.553 A17.6249 
N1525 X-215.636 Y-4.078 Z7.537 A16.3814 
N1526 X-215.618 Y-4.478 Z7.493 A14.6982 
N1527 X-215.599 Y-4.895 Z7.444 A12.7521 
N1528 X-215.580 Y-5.329 Z7.438 A11.0049 
N1529 X-215.564 Y-5.774 Z7.550 A10.1899 
N1530 X-215.553 Y-6.237 Z7.843 A10.9163 
N1531 X-215.547 Y-6.674 Z8.242 A12.8564 
N1532 X-215.540 Y-7.128 Z8.653 A15.1155 
N1533 X-215.530 Y-7.526 Z8.884 A16.1636 
N1534 X-215.513 Y-7.976 Z8.982 A16.0918 
N1535 X-215.493 Y-8.462 Z9.007 A15.6302 
N1536 X-215.478 Y-9.044 Z9.313 A18.6912 
N1537 X-215.463 Y-9.613 Z9.636 A23.0168 
N1538 X-215.448 Y-10.195 Z9.960 A28.4881 
N1539 X-215.435 Y-10.797 Z10.369 A35.8736 
N1540 X-215.421 Y-11.470 Z10.869 A45.2611 
N1541 X-215.402 Y-12.233 Z11.308 A55.2727 
N1542 X-215.375 Y-13.060 Z11.608 A65.2814 
N1543 X-215.343 Y-13.926 Z11.761 A75.2861 
N1544 X-215.305 Y-14.804 Z11.762 A85.2860 
N1545 X-215.264 Y-15.669 Z11.612 A95.2812 
N1546 X-215.220 Y-16.498 Z11.333 A105.2720 
N1547 X-215.174 Y-17.265 Z10.913 A115.2606 
N1548 X-215.135 Y-17.821 Z10.419 A123.6640 
N1549 X-215.108 Y-18.124 Z9.954 A129.6594 
N1550 X-215.090 Y-18.249 Z9.531 A133.9600 
N1551 X-215.078 Y-18.240 Z9.120 A137.2247 
N1552 X-215.072 Y-18.099 Z8.725 A139.4981 
N1553 X-215.072 Y-17.817 Z8.317 A140.9493 
N1554 X-215.075 Y-17.470 Z7.950 A141.6498 
N1555 X-215.081 Y-17.100 Z7.611 A141.9939 
N1556 X-215.087 Y-16.721 Z7.284 A142.1846 
N1557 X-215.094 Y-16.339 Z6.962 A142.3184 
N1558 X-215.100 Y-15.955 Z6.641 A142.4493 
N1559 X-215.107 Y-15.572 Z6.319 A142.6102 
N1560 X-215.114 Y-15.191 Z5.995 A142.8250 
N1561 X-215.120 Y-14.812 Z5.667 A143.1144 
N1562 X-215.126 Y-14.436 Z5.334 A143.4981 
N1563 X-215.132 Y-14.064 Z4.997 A143.9889 
N1564 X-215.137 Y-13.693 Z4.656 A144.5920 
N1565 X-215.142 Y-13.325 Z4.311 A145.3046 
N1566 X-215.148 Y-12.956 Z3.965 A146.1158 
N1567 X-215.153 Y-12.587 Z3.617 A147.0127 
N1568 X-215.158 Y-12.215 Z3.270 A147.9872 
N1569 X-215.164 Y-11.841 Z2.924 A149.0357 
N1570 X-215.170 Y-11.463 Z2.580 A150.1598 
N1571 X-215.175 Y-11.083 Z2.237 A151.3649 
N1572 X-215.182 Y-10.698 Z1.896 A152.6596 
N1573 X-215.188 Y-10.309 Z1.556 A154.0583 
N1574 X-215.194 Y-9.917 Z1.216 A155.5825 
N1575 X-215.201 Y-9.521 Z0.875 A157.2598 
N1576 X-215.208 Y-9.120 Z0.532 A159.1181 
N1577 X-215.215 Y-8.713 Z0.186 A161.1844 
N1578 X-215.222 Y-8.300 Z-0.163 A163.4848 
N1579 X-215.229 Y-7.879 Z-0.517 A166.0428 
N1580 X-215.237 Y-7.446 Z-0.873 A168.8776 
N1581 X-215.245 Y-7.000 Z-1.231 A172.0040 
N1582 X-215.254 Y-6.537 Z-1.590 A175.4348 
N1583 X-215.264 Y-6.054 Z-1.945 A179.1795 
N1584 X-215.275 Y-5.547 Z-2.294 A183.2324 
N1585 X-215.288 Y-5.014 Z-2.629 A187.5672 
N1586 X-215.302 Y-4.453 Z-2.941 A192.1351 
N1587 X-215.319 Y-3.865 Z-3.221 A196.8685 
N1588 X-215.338 Y-3.254 Z-3.458 A201.6898 
N1589 X-215.359 Y-2.624 Z-3.643 A206.5190 
N1590 X-215.383 Y-1.984 Z-3.770 A211.2793 
N1591 X-215.408 Y-1.343 Z-3.833 A215.8994 
N1592 X-215.435 Y-0.709 Z-3.833 A220.3186 
N1593 X-215.464 Y-0.092 Z-3.768 A224.4842 
N1594 X-215.493 Y0.501 Z-3.644 A228.3603 
N1595 X-215.523 Y1.065 Z-3.464 A231.9405 
N1596 X-215.552 Y1.598 Z-3.237 A235.2470 
N1597 X-215.582 Y2.101 Z-2.970 A238.3196 
N1598 X-215.611 Y2.575 Z-2.669 A241.2079 
N1599 X-215.641 Y3.024 Z-2.339 A243.9608 
N1600 X-215.670 Y3.450 Z-1.985 A246.6209 
N1601 X-215.698 Y3.855 Z-1.610 A249.2290 
N1602 X-215.727 Y4.241 Z-1.217 A251.8273 
N1603 X-215.755 Y4.613 Z-0.808 A254.4742 
N1604 X-215.784 Y4.981 Z-0.386 A257.3032 
N1605 X-215.813 Y5.363 Z0.048 A260.5767 
N1606 X-215.845 Y5.791 Z0.497 A264.7129 
N1607 X-215.880 Y6.283 Z0.936 A270.0581 
N1608 X-215.917 Y6.864 Z1.346 A276.9612 
N1609 X-215.960 Y7.550 Z1.786 A285.6642 
N1610 X-216.007 Y8.275 Z2.323 A295.6523 
N1611 X-216.053 Y8.911 Z2.949 A305.6384 
N1612 X-216.098 Y9.435 Z3.669 A315.6243 
N1613 X-216.139 Y9.822 Z4.471 A325.6121 
N1614 X-216.175 Y10.049 Z5.338 A335.6023 
N1615 X-216.205 Y10.120 Z6.232 A345.5970 
N1616 X-216.225 Y9.984 Z7.103 A355.2377 
N1617 X-216.233 Y9.655 Z7.812 A3.3510 
N1618 X-216.228 Y9.189 Z8.297 A9.4636 
N1619 X-216.213 Y8.634 Z8.597 A14.0907 
N1620 X-216.193 Y8.078 Z8.730 A17.2243 
N1621 X-216.171 Y7.544 Z8.756 A19.3496 
N1622 X-216.148 Y7.029 Z8.710 A20.7990 
N1623 X-216.123 Y6.531 Z8.614 A21.7598 
N1624 X-216.099 Y6.045 Z8.482 A22.3527 
N1625 X-216.074 Y5.572 Z8.327 A22.6902 
N1626 X-216.049 Y5.109 Z8.158 A22.8582 
N1627 X-216.024 Y4.657 Z7.986 A22.9243 
N1628 X-216.000 Y4.216 Z7.816 A22.9427 
N1629 X-215.977 Y3.786 Z7.655 A22.9584 
N1630 X-215.954 Y3.368 Z7.506 A22.9694 
N1631 X-215.933 Y2.962 Z7.369 A22.9690 
N1632 X-215.912 Y2.567 Z7.246 A22.9578 
N1633 X-215.892 Y2.184 Z7.139 A22.9397 
N1634 X-215.874 Y1.811 Z7.048 A22.9113 
N1635 X-215.856 Y1.447 Z6.972 A22.8672 
N1636 X-215.839 Y1.091 Z6.912 A22.8081 
N1637 X-215.822 Y0.739 Z6.869 A22.7433 
N1638 X-215.807 Y0.390 Z6.843 A22.6810 
N1639 X-215.791 Y0.040 Z6.835 A22.6222 
N1640 X-215.777 Y-0.313 Z6.845 A22.5735 
N1641 X-215.762 Y-0.670 Z6.873 A22.5401 
N1642 X-215.747 Y-1.035 Z6.900 A22.3286 
N1643 X-215.731 Y-1.414 Z6.905 A21.7312 
N1644 X-215.714 Y-1.807 Z6.892 A20.7798 
N1645 X-215.696 Y-2.215 Z6.862 A19.5016 
N1646 X-215.676 Y-2.638 Z6.818 A17.9200 
N1647 X-215.656 Y-3.072 Z6.781 A16.2484 
N1648 X-215.637 Y-3.510 Z6.772 A14.7140 
N1649 X-215.619 Y-3.950 Z6.788 A13.3032 
N1650 X-215.601 Y-4.391 Z6.828 A12.0073 
N1651 X-215.584 Y-4.833 Z6.891 A10.8256 
N1652 X-215.568 Y-5.275 Z6.975 A9.7516 
N1653 X-215.552 Y-5.716 Z7.076 A8.7585 
N1654 X-215.537 Y-6.155 Z7.189 A7.8091 
N1655 X-215.524 Y-6.528 Z7.304 A7.1092 
N1656 X-215.516 Y-6.844 Z7.461 A7.0148 
N1657 X-215.513 Y-7.107 Z7.732 A8.1901 
N1658 X-215.514 Y-7.346 Z8.103 A10.4771 
N1659 X-215.513 Y-7.686 Z8.564 A13.5082 
N1660 X-215.510 Y-8.169 Z9.134 A17.8281 
N1661 X-215.497 Y-8.751 Z9.523 A21.2509 
N1662 X-215.478 Y-9.355 Z9.779 A24.4567 
N1663 X-215.459 Y-9.961 Z9.980 A28.2431 
N1664 X-215.442 Y-10.558 Z10.274 A34.0330 
N1665 X-215.427 Y-11.187 Z10.663 A41.8248 
N1666 X-215.410 Y-11.908 Z11.136 A51.6176 
N1667 X-215.387 Y-12.709 Z11.497 A61.6275 
N1668 X-215.357 Y-13.559 Z11.714 A71.6338 
N1669 X-215.322 Y-14.433 Z11.780 A81.6355 
N1670 X-215.282 Y-15.306 Z11.696 A91.6323 
N1671 X-215.239 Y-16.150 Z11.468 A101.6245 
N1672 X-215.194 Y-16.946 Z11.111 A111.6132 
N1673 X-215.148 Y-17.663 Z10.614 A121.6007 
N1674 X-215.106 Y-18.218 Z10.001 A130.9490 
N1675 X-215.080 Y-18.458 Z9.494 A137.0008 
N1676 X-215.068 Y-18.464 Z9.124 A140.2208 
N1677 X-215.067 Y-18.307 Z8.846 A141.5208 
N1678 X-215.071 Y-18.028 Z8.580 A141.8558 
N1679 X-215.077 Y-17.642 Z8.262 A141.8909 
N1680 X-215.084 Y-17.257 Z7.942 A141.9591 
N1681 X-215.091 Y-16.876 Z7.618 A142.1035 
N1682 X-215.097 Y-16.497 Z7.291 A142.3048 
N1683 X-215.103 Y-16.119 Z6.962 A142.5507 
N1684 X-215.109 Y-15.742 Z6.633 A142.8365 
N1685 X-215.115 Y-15.365 Z6.303 A143.1612 
N1686 X-215.122 Y-14.988 Z5.972 A143.5261 
N1687 X-215.128 Y-14.611 Z5.641 A143.9342 
N1688 X-215.134 Y-14.234 Z5.309 A144.3892 
N1689 X-215.140 Y-13.857 Z4.977 A144.8960 
N1690 X-215.146 Y-13.479 Z4.644 A145.4597 
N1691 X-215.152 Y-13.102 Z4.311 A146.0867 
N1692 X-215.158 Y-12.723 Z3.977 A146.7840 
N1693 X-215.164 Y-12.344 Z3.643 A147.5593 
N1694 X-215.170 Y-11.965 Z3.307 A148.4202 
N1695 X-215.176 Y-11.584 Z2.971 A149.3749 
N1696 X-215.182 Y-11.202 Z2.633 A150.4335 
N1697 X-215.189 Y-10.818 Z2.294 A151.6084 
N1698 X-215.195 Y-10.432 Z1.954 A152.9142 
N1699 X-215.201 Y-10.044 Z1.612 A154.3683 
N1700 X-215.207 Y-9.653 Z1.267 A155.9897 
N1701 X-215.214 Y-9.259 Z0.918 A157.8005 
N1702 X-215.220 Y-8.859 Z0.566 A159.8259 
N1703 X-215.226 Y-8.454 Z0.210 A162.0917 
N1704 X-215.233 Y-8.040 Z-0.151 A164.6192 
N1705 X-215.240 Y-7.616 Z-0.516 A167.4240 
N1706 X-215.248 Y-7.179 Z-0.883 A170.5173 
N1707 X-215.256 Y-6.725 Z-1.250 A173.9117 
N1708 X-215.265 Y-6.251 Z-1.616 A177.6199 
N1709 X-215.276 Y-5.754 Z-1.975 A181.6430 
N1710 X-215.288 Y-5.231 Z-2.324 A185.9651 
N1711 X-215.301 Y-4.679 Z-2.653 A190.5453 
N1712 X-215.317 Y-4.098 Z-2.952 A195.3186 
N1713 X-215.335 Y-3.491 Z-3.210 A200.2016 
N1714 X-215.356 Y-2.864 Z-3.417 A205.1012 
N1715 X-215.379 Y-2.225 Z-3.564 A209.9244 
N1716 X-215.404 Y-1.583 Z-3.645 A214.5872 
N1717 X-215.430 Y-0.949 Z-3.660 A219.0236 
N1718 X-215.458 Y-0.331 Z-3.610 A223.1884 
N1719 X-215.487 Y0.265 Z-3.498 A227.0597 
N1720 X-215.517 Y0.833 Z-3.332 A230.6404 
N1721 X-215.546 Y1.371 Z-3.117 A233.9546 
N1722 X-215.576 Y1.881 Z-2.862 A237.0383 
N1723 X-215.605 Y2.362 Z-2.571 A239.9295 
N1724 X-215.634 Y2.817 Z-2.251 A242.6676 
N1725 X-215.663 Y3.248 Z-1.906 A245.2903 
N1726 X-215.692 Y3.656 Z-1.539 A247.8370 
N1727 X-215.720 Y4.048 Z-1.154 A250.3733 
N1728 X-215.749 Y4.429 Z-0.754 A253.0029 
N1729 X-215.778 Y4.811 Z-0.342 A255.8787 
N1730 X-215.808 Y5.211 Z0.082 A259.2346 
N1731 X-215.840 Y5.657 Z0.517 A263.4752 
N1732 X-215.875 Y6.165 Z0.937 A268.9102 
N1733 X-215.912 Y6.753 Z1.328 A275.7917 
N1734 X-215.955 Y7.467 Z1.761 A284.7439 
N1735 X-216.003 Y8.202 Z2.281 A294.7320 
N1736 X-216.049 Y8.850 Z2.893 A304.7182 
N1737 X-216.094 Y9.386 Z3.604 A314.7041 
N1738 X-216.135 Y9.788 Z4.398 A324.6914 
N1739 X-216.172 Y10.040 Z5.254 A334.6814 
N1740 X-216.172 Y14.316 Z14.294 
N1741 G00 X-216.172 Y31.422 Z50.451 
;RAPORT("TD999999","Spiral Rough Airfoil:107 End")
;trailer : concat=None
; points cnt = 1704
N1743 MSG (" --- GROUPED OF SUBPROGRAM --- ")
N1744 FGROUP()
N1745 TRAFOOF
; PROGRAM NAME: D99999920
; ORDER       : D999999
; OPER. NAME  : Spiral Rough Airfoil:108
; OPER. DESCR.: spiral roughing airfoil
; OPER. TYPE  : rouAirfoil
; GEO. OPTION : 3
; MACHINE     : HSTM_300HD_SIM840D_Py
;             : HSTM300/500 - HAMUEL: 5-axis milling machine-SIM840D Traori PP_Script
; CONTROL     : SINUMERIK 840D
; created:   2022-11-03 09:02:03.835251
;-------DODATKOWE DANE-------------------
; PROGRAMISTA : Mariusz Malec
; PARTID      : 139T006893P1018_-
;  ap         : 1.5
;  ae         : 8.0
;  lean_angle : 1.0
;  airf_offset: 0.7
;----------------------------------------
;RAPORT("TD999999","Spiral Rough Airfoil:108")
N10 TRAFOOF
N11 D0
N12 G90 G94
N13 G0 G53 D0 Z550
N14 STOPRE
M9 ; chlodziwo wyl
; --- Spiral Rough Airfoil:108 - spiral roughing airfoil ---
N16 ;ToolChange : concat=None ,current_tdmid=None, PP.tdmId=940679
N17 TRAFOOF
N18 G0 G53 D0 Z550 B0
N19 STOPRE
N20 MSG(" TLID=940679 D=16.0 R=3.1 Ang=0.0 Len=124.0 ")
N21 S4376 M03
N22 STOPRE
N23 CYCLE832(0.1,1,1)
N24 G0 G53 A301.0649 B0.0000
N25 TRAORI
N26 G54 D1
N27 D2 
N28 TRANS  X=R3
;shiftX -0.0
;pointsCnt 2222
N29 ;SPIRALA WYK NOZKA
N30 ; DELTA A > 40.1
N31 TRAFOOF
N32 D2
N33 STOPRE
N34 G00 G54 Z262.000
N35 G01 A301.0649 F10000
N36 TRAORI
N37 G54 D2
N38 STOPRE
N39 TRANS  X=R3
N40 G00 X-180.664 Y50.273 Z52.501 A301.0649 
N41 M346 ; chlodziwo mgla
N42 X-180.664 Y7.443 Z26.700 
N43 G01 X-180.664 Y5.085 Z24.645 F1750 
N44 X-180.664 Y3.476 Z21.961 
N45 X-180.664 Y2.776 Z18.912 
N46 X-180.664 Y3.052 Z15.795 
N47 X-180.664 Y4.278 Z12.917 
N48 X-180.664 Y4.544 Z12.492 
N49 X-180.665 Y4.809 Z12.070 
N50 X-180.666 Y5.074 Z11.646 
N51 X-180.667 Y5.340 Z11.222 A301.0627 
N52 X-180.668 Y5.606 Z10.799 A301.0576 
N53 X-180.668 Y5.871 Z10.376 A301.0576 
N54 X-180.669 Y6.136 Z9.953 A301.0643 
N55 X-180.670 Y6.401 Z9.530 A301.0649 
N56 X-180.671 Y6.667 Z9.108 
N57 X-180.672 Y6.932 Z8.685 
N58 X-180.672 Y7.199 Z8.262 
N59 X-180.673 Y7.465 Z7.839 
N60 X-180.674 Y7.731 Z7.415 
N61 X-180.675 Y7.997 Z6.992 
N62 X-180.676 Y8.263 Z6.569 
N63 X-180.677 Y8.530 Z6.146 A301.0649 
N64 X-180.678 Y8.796 Z5.723 A301.0646 
N65 X-180.678 Y9.062 Z5.299 A301.0643 
N66 X-180.679 Y9.329 Z4.876 A301.0640 
N67 X-180.680 Y9.595 Z4.453 A301.0638 
N68 X-180.681 Y9.861 Z4.030 A301.0636 
N69 X-180.682 Y10.128 Z3.608 A301.0634 
N70 X-180.683 Y10.394 Z3.185 A301.0633 
N71 X-180.684 Y10.661 Z2.762 A301.0639 
N72 X-180.685 Y10.927 Z2.339 A301.0649 
N73 X-180.686 Y11.193 Z1.917 
N74 X-180.687 Y11.460 Z1.494 
N75 X-180.688 Y11.728 Z1.070 
N76 X-180.689 Y11.997 Z0.644 A301.0510 
N77 X-180.692 Y12.280 Z0.228 A300.8361 
N78 X-180.698 Y12.585 Z-0.175 A300.2691 
N79 X-180.711 Y12.939 Z-0.549 A298.9599 
N80 X-180.736 Y13.365 Z-0.860 A296.3761 
N81 X-180.770 Y13.814 Z-1.056 A292.6794 
N82 X-180.819 Y14.357 Z-1.181 A287.3475 
N83 X-180.882 Y15.002 Z-1.266 A280.3894 
N84 X-180.954 Y15.756 Z-1.377 A271.9068 
N85 X-181.030 Y16.610 Z-1.584 A261.9335 
N86 X-181.095 Y17.425 Z-1.906 A251.9350 
N87 X-181.145 Y18.177 Z-2.353 A241.9108 
N88 X-181.178 Y18.843 Z-2.924 A231.8635 
N89 X-181.192 Y19.394 Z-3.610 A221.7985 
N90 X-181.185 Y19.800 Z-4.395 A211.7235 
N91 X-181.154 Y20.014 Z-5.232 A201.9851 
N92 X-181.107 Y20.008 Z-5.949 A194.1518 
N93 X-181.052 Y19.831 Z-6.518 A188.1318 
N94 X-180.996 Y19.530 Z-6.903 A184.1337 
N95 X-180.937 Y19.123 Z-7.151 A181.5724 
N96 X-180.876 Y18.628 Z-7.296 A180.0674 
N97 X-180.820 Y18.130 Z-7.364 A179.3433 
N98 X-180.766 Y17.632 Z-7.395 A179.0056 
N99 X-180.713 Y17.135 Z-7.407 A178.8631 
N100 X-180.660 Y16.637 Z-7.409 A178.8148 
N101 X-180.608 Y16.140 Z-7.408 A178.8066 
N102 X-180.556 Y15.643 Z-7.406 A178.8113 
N103 X-180.504 Y15.147 Z-7.405 A178.8161 
N104 X-180.452 Y14.650 Z-7.403 
N105 X-180.400 Y14.154 Z-7.402 
N106 X-180.348 Y13.657 Z-7.401 
N107 X-180.296 Y13.160 Z-7.400 
N108 X-180.244 Y12.662 Z-7.399 
N109 X-180.192 Y12.165 Z-7.399 
N110 X-180.140 Y11.668 Z-7.398 
N111 X-180.088 Y11.171 Z-7.397 A178.8160 
N112 X-180.036 Y10.673 Z-7.396 A178.8157 
N113 X-179.984 Y10.176 Z-7.395 A178.8153 
N114 X-179.932 Y9.679 Z-7.395 A178.8150 
N115 X-179.880 Y9.182 Z-7.394 A178.8148 
N116 X-179.828 Y8.685 Z-7.393 A178.8147 
N117 X-179.776 Y8.188 Z-7.393 A178.8147 
N118 X-179.723 Y7.691 Z-7.392 A178.8149 
N119 X-179.671 Y7.194 Z-7.392 A178.8154 
N120 X-179.619 Y6.697 Z-7.391 A178.8161 
N121 X-179.567 Y6.200 Z-7.391 
N122 X-179.515 Y5.703 Z-7.391 
N123 X-179.463 Y5.206 Z-7.391 
N124 X-179.411 Y4.709 Z-7.390 
N125 X-179.359 Y4.211 Z-7.390 
N126 X-179.306 Y3.711 Z-7.390 
N127 X-179.254 Y3.211 Z-7.392 A178.7872 
N128 X-179.201 Y2.711 Z-7.401 A178.6539 
N129 X-179.147 Y2.212 Z-7.421 A178.3751 
N130 X-179.092 Y1.713 Z-7.459 A177.8558 
N131 X-179.036 Y1.212 Z-7.520 A176.9863 
N132 X-178.977 Y0.707 Z-7.616 A175.6158 
N133 X-178.914 Y0.195 Z-7.754 A173.5747 
N134 X-178.847 Y-0.333 Z-7.938 A170.7352 
N135 X-178.775 Y-0.885 Z-8.166 A167.0281 
N136 X-178.697 Y-1.472 Z-8.424 A162.4670 
N137 X-178.614 Y-2.101 Z-8.692 A157.1461 
N138 X-178.528 Y-2.771 Z-8.933 A151.3775 
N139 X-178.444 Y-3.467 Z-9.113 A145.4834 
N140 X-178.364 Y-4.169 Z-9.209 A139.7719 
N141 X-178.294 Y-4.839 Z-9.199 A134.6865 
N142 X-178.238 Y-5.450 Z-9.082 A130.4918 
N143 X-178.194 Y-5.989 Z-8.874 A127.2429 
N144 X-178.164 Y-6.454 Z-8.594 A124.8976 
N145 X-178.143 Y-6.853 Z-8.260 A123.3327 
N146 X-178.130 Y-7.202 Z-7.890 A122.3655 
N147 X-178.123 Y-7.515 Z-7.496 A121.8089 
N148 X-178.118 Y-7.807 Z-7.089 A121.5149 
N149 X-178.115 Y-8.085 Z-6.673 A121.3754 
N150 X-178.114 Y-8.357 Z-6.253 A121.3175 
N151 X-178.113 Y-8.626 Z-5.831 A121.2992 
N152 X-178.112 Y-8.893 Z-5.409 A121.2977 
N153 X-178.111 Y-9.160 Z-4.987 A121.3012 
N154 X-178.110 Y-9.426 Z-4.564 A121.3038 
N155 X-178.108 Y-9.694 Z-4.143 A121.3040 
N156 X-178.107 Y-9.961 Z-3.721 
N157 X-178.106 Y-10.228 Z-3.299 
N158 X-178.105 Y-10.496 Z-2.877 A121.3038 
N159 X-178.104 Y-10.763 Z-2.456 A121.3025 
N160 X-178.103 Y-11.031 Z-2.034 A121.3009 
N161 X-178.102 Y-11.299 Z-1.613 A121.3003 
N162 X-178.101 Y-11.567 Z-1.192 A121.3026 
N163 X-178.100 Y-11.834 Z-0.771 A121.3040 
N164 X-178.098 Y-12.102 Z-0.350 
N165 X-178.097 Y-12.371 Z0.072 
N166 X-178.096 Y-12.642 Z0.497 
N167 X-178.093 Y-12.921 Z0.916 A121.1711 
N168 X-178.088 Y-13.220 Z1.323 A120.7347 
N169 X-178.078 Y-13.554 Z1.708 A119.7500 
N170 X-178.058 Y-13.957 Z2.054 A117.6989 
N171 X-178.027 Y-14.393 Z2.287 A114.4431 
N172 X-177.982 Y-14.910 Z2.428 A109.5955 
N173 X-177.922 Y-15.532 Z2.517 A103.0363 
N174 X-177.854 Y-16.237 Z2.611 A95.2117 
N175 X-177.779 Y-17.057 Z2.776 A85.7724 
N176 X-177.709 Y-17.889 Z3.056 A75.7839 
N177 X-177.653 Y-18.667 Z3.457 A65.7695 
N178 X-177.613 Y-19.369 Z3.982 A55.7306 
N179 X-177.592 Y-19.966 Z4.627 A45.6716 
N180 X-177.591 Y-20.431 Z5.377 A35.5993 
N181 X-177.613 Y-20.727 Z6.207 A25.6078 
N182 X-177.653 Y-20.807 Z6.965 A17.1190 
N183 X-177.705 Y-20.702 Z7.602 A10.2929 
N184 X-177.760 Y-20.452 Z8.056 A5.5357 
N185 X-177.818 Y-20.085 Z8.363 A2.3483 
N186 X-177.882 Y-19.592 Z8.554 A0.3536 
N187 X-177.940 Y-19.095 Z8.637 A359.4791 
N188 X-177.994 Y-18.597 Z8.671 A359.1171 
N189 X-178.047 Y-18.099 Z8.683 A358.9859 
N190 X-178.099 Y-17.602 Z8.686 A358.9503 
N191 X-178.151 Y-17.105 Z8.685 A358.9478 
N192 X-178.203 Y-16.608 Z8.685 A358.9533 
N193 X-178.255 Y-16.112 Z8.684 A358.9553 
N194 X-178.307 Y-15.615 Z8.684 
N195 X-178.360 Y-15.118 Z8.684 
N196 X-178.412 Y-14.621 Z8.685 
N197 X-178.464 Y-14.124 Z8.685 
N198 X-178.516 Y-13.627 Z8.685 
N199 X-178.568 Y-13.129 Z8.685 
N200 X-178.620 Y-12.632 Z8.686 
N201 X-178.672 Y-12.135 Z8.686 
N202 X-178.725 Y-11.638 Z8.686 
N203 X-178.777 Y-11.140 Z8.687 
N204 X-178.829 Y-10.643 Z8.687 
N205 X-178.881 Y-10.145 Z8.687 
N206 X-178.933 Y-9.648 Z8.688 
N207 X-178.985 Y-9.151 Z8.688 
N208 X-179.038 Y-8.653 Z8.688 A358.9553 
N209 X-179.090 Y-8.156 Z8.689 A358.9552 
N210 X-179.142 Y-7.658 Z8.689 A358.9552 
N211 X-179.194 Y-7.161 Z8.689 A358.9551 
N212 X-179.246 Y-6.664 Z8.690 A358.9551 
N213 X-179.298 Y-6.166 Z8.690 A358.9549 
N214 X-179.351 Y-5.669 Z8.690 A358.9546 
N215 X-179.403 Y-5.172 Z8.691 A358.9542 
N216 X-179.455 Y-4.674 Z8.691 A358.9535 
N217 X-179.507 Y-4.177 Z8.692 A358.9523 
N218 X-179.559 Y-3.681 Z8.692 A358.9510 
N219 X-179.611 Y-3.184 Z8.693 A358.9504 
N220 X-179.663 Y-2.687 Z8.693 A358.9532 
N221 X-179.716 Y-2.191 Z8.694 A358.9553 
N222 X-179.768 Y-1.694 Z8.695 
N223 X-179.820 Y-1.195 Z8.696 
N224 X-179.873 Y-0.694 Z8.706 A358.8461 
N225 X-179.929 Y-0.193 Z8.756 A358.2220 
N226 X-179.992 Y0.314 Z8.913 A356.2508 
N227 X-180.076 Y0.861 Z9.327 A350.9282 
N228 X-180.190 Y1.528 Z10.015 A341.4754 
N229 X-180.307 Y2.264 Z10.643 A331.4956 
N230 X-180.425 Y3.085 Z11.139 A321.5385 
N231 X-180.541 Y4.010 Z11.437 A311.7437 
N232 X-180.618 Y4.769 Z11.402 A305.1833 
N233 X-180.652 Y5.255 Z11.126 A302.3659 
N234 X-180.664 Y5.599 Z10.751 A301.3666 
N235 X-180.668 Y5.888 Z10.341 A301.0660 
N236 X-180.669 Y6.158 Z9.920 A301.0031 
N237 X-180.670 Y6.422 Z9.497 A301.0051 
N238 X-180.671 Y6.686 Z9.073 A301.0140 
N239 X-180.671 Y6.951 Z8.651 
N240 X-180.672 Y7.217 Z8.227 
N241 X-180.673 Y7.482 Z7.804 
N242 X-180.674 Y7.748 Z7.381 
N243 X-180.674 Y8.013 Z6.957 
N244 X-180.675 Y8.279 Z6.534 
N245 X-180.676 Y8.545 Z6.111 A301.0135 
N246 X-180.677 Y8.811 Z5.687 A301.0132 
N247 X-180.678 Y9.076 Z5.264 A301.0131 
N248 X-180.679 Y9.342 Z4.841 A301.0136 
N249 X-180.679 Y9.608 Z4.418 A301.0140 
N250 X-180.680 Y9.874 Z3.995 
N251 X-180.681 Y10.140 Z3.571 
N252 X-180.682 Y10.406 Z3.148 
N253 X-180.683 Y10.673 Z2.724 
N254 X-180.684 Y10.940 Z2.299 
N255 X-180.684 Y11.207 Z1.874 A301.0035 
N256 X-180.686 Y11.479 Z1.452 A300.9230 
N257 X-180.688 Y11.757 Z1.034 A300.7531 
N258 X-180.692 Y12.044 Z0.622 A300.4226 
N259 X-180.698 Y12.348 Z0.221 A299.8099 
N260 X-180.709 Y12.686 Z-0.163 A298.6797 
N261 X-180.729 Y13.090 Z-0.516 A296.5365 
N262 X-180.761 Y13.553 Z-0.778 A293.0558 
N263 X-180.806 Y14.084 Z-0.946 A288.0690 
N264 X-180.865 Y14.720 Z-1.060 A281.3556 
N265 X-180.936 Y15.474 Z-1.188 A272.9361 
N266 X-181.011 Y16.319 Z-1.399 A263.1205 
N267 X-181.076 Y17.136 Z-1.721 A253.1252 
N268 X-181.127 Y17.893 Z-2.165 A243.1040 
N269 X-181.161 Y18.565 Z-2.731 A233.0592 
N270 X-181.176 Y19.122 Z-3.414 A222.9959 
N271 X-181.169 Y19.534 Z-4.199 A212.9215 
N272 X-181.140 Y19.748 Z-5.011 A203.4936 
N273 X-181.095 Y19.751 Z-5.721 A195.7778 
N274 X-181.037 Y19.569 Z-6.319 A189.5279 
N275 X-180.978 Y19.255 Z-6.726 A185.3958 
N276 X-180.913 Y18.805 Z-7.006 A182.6063 
N277 X-180.852 Y18.313 Z-7.167 A181.0200 
N278 X-180.794 Y17.817 Z-7.260 A180.0922 
N279 X-180.738 Y17.319 Z-7.317 A179.5090 
N280 X-180.683 Y16.822 Z-7.353 A179.1256 
N281 X-180.630 Y16.324 Z-7.375 A178.8673 
N282 X-180.577 Y15.826 Z-7.389 A178.6923 
N283 X-180.524 Y15.328 Z-7.396 A178.5744 
N284 X-180.472 Y14.831 Z-7.398 A178.4959 
N285 X-180.420 Y14.333 Z-7.398 A178.4449 
N286 X-180.367 Y13.836 Z-7.396 A178.4126 
N287 X-180.316 Y13.338 Z-7.393 A178.3925 
N288 X-180.264 Y12.841 Z-7.388 A178.3797 
N289 X-180.212 Y12.343 Z-7.384 A178.3712 
N290 X-180.160 Y11.846 Z-7.379 A178.3650 
N291 X-180.108 Y11.349 Z-7.374 A178.3599 
N292 X-180.056 Y10.851 Z-7.368 A178.3554 
N293 X-180.005 Y10.354 Z-7.363 A178.3514 
N294 X-179.953 Y9.856 Z-7.358 A178.3482 
N295 X-179.901 Y9.359 Z-7.352 A178.3461 
N296 X-179.849 Y8.862 Z-7.347 A178.3453 
N297 X-179.797 Y8.364 Z-7.341 A178.3457 
N298 X-179.746 Y7.867 Z-7.335 A178.3459 
N299 X-179.694 Y7.369 Z-7.330 
N300 X-179.642 Y6.872 Z-7.324 A178.3441 
N301 X-179.590 Y6.374 Z-7.319 A178.3345 
N302 X-179.538 Y5.877 Z-7.315 A178.3128 
N303 X-179.486 Y5.380 Z-7.313 A178.2713 
N304 X-179.434 Y4.882 Z-7.312 A178.2008 
N305 X-179.382 Y4.384 Z-7.314 A178.0881 
N306 X-179.329 Y3.886 Z-7.321 A177.9145 
N307 X-179.276 Y3.388 Z-7.333 A177.6528 
N308 X-179.223 Y2.889 Z-7.353 A177.2627 
N309 X-179.168 Y2.389 Z-7.386 A176.6860 
N310 X-179.112 Y1.888 Z-7.435 A175.8446 
N311 X-179.055 Y1.383 Z-7.507 A174.6366 
N312 X-178.995 Y0.871 Z-7.607 A172.9465 
N313 X-178.932 Y0.349 Z-7.740 A170.6746 
N314 X-178.865 Y-0.189 Z-7.903 A167.7611 
N315 X-178.794 Y-0.749 Z-8.090 A164.1994 
N316 X-178.720 Y-1.336 Z-8.288 A160.0366 
N317 X-178.643 Y-1.952 Z-8.478 A155.4104 
N318 X-178.566 Y-2.591 Z-8.633 A150.5492 
N319 X-178.491 Y-3.244 Z-8.737 A145.6395 
N320 X-178.420 Y-3.896 Z-8.776 A140.8612 
N321 X-178.356 Y-4.527 Z-8.737 A136.4707 
N322 X-178.302 Y-5.118 Z-8.618 A132.6648 
N323 X-178.258 Y-5.658 Z-8.425 A129.5229 
N324 X-178.224 Y-6.140 Z-8.169 A127.0739 
N325 X-178.199 Y-6.567 Z-7.862 A125.2816 
N326 X-178.181 Y-6.946 Z-7.516 A124.0537 
N327 X-178.169 Y-7.287 Z-7.143 A123.2562 
N328 X-178.161 Y-7.603 Z-6.751 A122.7641 
N329 X-178.156 Y-7.900 Z-6.348 A122.4774 
N330 X-178.152 Y-8.187 Z-5.938 A122.3209 
N331 X-178.149 Y-8.467 Z-5.523 A122.2441 
N332 X-178.147 Y-8.743 Z-5.107 A122.2128 
N333 X-178.144 Y-9.017 Z-4.689 A122.2056 
N334 X-178.142 Y-9.290 Z-4.272 A122.2090 
N335 X-178.140 Y-9.563 Z-3.856 A122.2147 
N336 X-178.138 Y-9.836 Z-3.439 A122.2193 
N337 X-178.136 Y-10.110 Z-3.024 A122.2222 
N338 X-178.134 Y-10.384 Z-2.609 
N339 X-178.132 Y-10.658 Z-2.194 
N340 X-178.130 Y-10.934 Z-1.778 
N341 X-178.127 Y-11.209 Z-1.362 
N342 X-178.125 Y-11.486 Z-0.945 
N343 X-178.123 Y-11.764 Z-0.525 
N344 X-178.120 Y-12.045 Z-0.104 A122.1907 
N345 X-178.116 Y-12.338 Z0.307 A121.9649 
N346 X-178.109 Y-12.646 Z0.708 A121.4759 
N347 X-178.098 Y-12.983 Z1.090 A120.5124 
N348 X-178.080 Y-13.373 Z1.444 A118.7318 
N349 X-178.049 Y-13.855 Z1.758 A115.5423 
N350 X-178.007 Y-14.389 Z1.978 A110.9687 
N351 X-177.952 Y-15.012 Z2.129 A104.7306 
N352 X-177.883 Y-15.754 Z2.265 A96.6558 
N353 X-177.805 Y-16.621 Z2.466 A86.7430 
N354 X-177.737 Y-17.453 Z2.766 A76.7568 
N355 X-177.682 Y-18.229 Z3.182 A66.7449 
N356 X-177.643 Y-18.927 Z3.719 A56.7082 
N357 X-177.623 Y-19.519 Z4.374 A46.6509 
N358 X-177.623 Y-19.975 Z5.136 A36.5797 
N359 X-177.648 Y-20.260 Z5.980 A26.5534 
N360 X-177.691 Y-20.324 Z6.770 A17.8471 
N361 X-177.749 Y-20.181 Z7.437 A10.8203 
N362 X-177.810 Y-19.889 Z7.908 A5.9790 
N363 X-177.876 Y-19.460 Z8.240 A2.5906 
N364 X-177.939 Y-18.971 Z8.424 A0.7137 
N365 X-177.997 Y-18.474 Z8.514 A359.8001 
N366 X-178.052 Y-17.977 Z8.557 A359.3607 
N367 X-178.105 Y-17.479 Z8.577 A359.1524 
N368 X-178.158 Y-16.982 Z8.586 A359.0555 
N369 X-178.210 Y-16.484 Z8.590 A359.0131 
N370 X-178.263 Y-15.987 Z8.591 A358.9971 
N371 X-178.315 Y-15.490 Z8.592 A358.9932 
N372 X-178.367 Y-14.992 Z8.591 A358.9942 
N373 X-178.419 Y-14.495 Z8.591 A358.9963 
N374 X-178.471 Y-13.998 Z8.591 A358.9972 
N375 X-178.523 Y-13.501 Z8.592 
N376 X-178.575 Y-13.004 Z8.592 
N377 X-178.627 Y-12.507 Z8.592 
N378 X-178.680 Y-12.010 Z8.593 
N379 X-178.732 Y-11.513 Z8.593 
N380 X-178.784 Y-11.016 Z8.594 
N381 X-178.836 Y-10.519 Z8.594 
N382 X-178.888 Y-10.021 Z8.595 
N383 X-178.940 Y-9.524 Z8.595 
N384 X-178.993 Y-9.027 Z8.596 
N385 X-179.045 Y-8.530 Z8.596 
N386 X-179.097 Y-8.032 Z8.597 A358.9972 
N387 X-179.149 Y-7.535 Z8.598 A358.9972 
N388 X-179.201 Y-7.038 Z8.598 A358.9971 
N389 X-179.253 Y-6.540 Z8.599 A358.9970 
N390 X-179.306 Y-6.043 Z8.600 A358.9967 
N391 X-179.358 Y-5.546 Z8.600 A358.9963 
N392 X-179.410 Y-5.049 Z8.601 A358.9957 
N393 X-179.462 Y-4.552 Z8.602 A358.9946 
N394 X-179.514 Y-4.055 Z8.603 A358.9930 
N395 X-179.566 Y-3.558 Z8.604 A358.9915 
N396 X-179.619 Y-3.062 Z8.605 A358.9918 
N397 X-179.671 Y-2.565 Z8.606 A358.9972 
N398 X-179.723 Y-2.069 Z8.607 
N399 X-179.775 Y-1.572 Z8.609 
N400 X-179.828 Y-1.070 Z8.610 
N401 X-179.882 Y-0.570 Z8.639 A358.6544 
N402 X-179.941 Y-0.067 Z8.738 A357.4328 
N403 X-180.014 Y0.454 Z9.018 A353.8744 
N404 X-180.114 Y1.062 Z9.600 A346.1593 
N405 X-180.233 Y1.786 Z10.272 A336.1917 
N406 X-180.353 Y2.589 Z10.822 A326.2245 
N407 X-180.472 Y3.494 Z11.206 A316.2785 
N408 X-180.571 Y4.366 Z11.321 A307.9716 
N409 X-180.623 Y4.974 Z11.142 A303.5451 
N410 X-180.644 Y5.377 Z10.807 A301.7929 
N411 X-180.651 Y5.688 Z10.411 A301.2212 
N412 X-180.654 Y5.964 Z9.994 A301.0801 
N413 X-180.655 Y6.230 Z9.571 A301.0691 
N414 X-180.655 Y6.495 Z9.147 A301.0822 
N415 X-180.656 Y6.760 Z8.725 A301.0833 
N416 X-180.657 Y7.026 Z8.302 
N417 X-180.658 Y7.292 Z7.879 
N418 X-180.658 Y7.558 Z7.455 
N419 X-180.659 Y7.824 Z7.032 
N420 X-180.660 Y8.090 Z6.609 A301.0821 
N421 X-180.661 Y8.356 Z6.185 A301.0810 
N422 X-180.662 Y8.622 Z5.762 A301.0806 
N423 X-180.663 Y8.888 Z5.339 A301.0820 
N424 X-180.664 Y9.154 Z4.916 A301.0833 
N425 X-180.664 Y9.420 Z4.493 
N426 X-180.665 Y9.687 Z4.069 
N427 X-180.666 Y9.954 Z3.645 
N428 X-180.667 Y10.224 Z3.221 A301.0427 
N429 X-180.670 Y10.500 Z2.803 A300.9032 
N430 X-180.673 Y10.784 Z2.389 A300.6248 
N431 X-180.678 Y11.082 Z1.984 A300.1251 
N432 X-180.686 Y11.399 Z1.590 A299.3033 
N433 X-180.699 Y11.748 Z1.210 A297.9748 
N434 X-180.718 Y12.149 Z0.853 A295.8149 
N435 X-180.748 Y12.640 Z0.525 A292.2845 
N436 X-180.795 Y13.274 Z0.219 A286.6724 
N437 X-180.858 Y14.056 Z-0.082 A278.7301 
N438 X-180.924 Y14.877 Z-0.390 A269.6002 
N439 X-180.988 Y15.713 Z-0.771 A259.6212 
N440 X-181.039 Y16.485 Z-1.242 A249.6167 
N441 X-181.074 Y17.173 Z-1.821 A239.5868 
N442 X-181.090 Y17.751 Z-2.513 A229.5348 
N443 X-181.084 Y18.183 Z-3.313 A219.4667 
N444 X-181.052 Y18.422 Z-4.203 A209.4528 
N445 X-180.996 Y18.412 Z-5.069 A200.4616 
N446 X-180.924 Y18.171 Z-5.806 A193.1737 
N447 X-180.846 Y17.769 Z-6.362 A187.7801 
N448 X-180.774 Y17.308 Z-6.729 A184.1973 
N449 X-180.708 Y16.823 Z-6.967 A181.8342 
N450 X-180.647 Y16.329 Z-7.119 A180.2739 
N451 X-180.588 Y15.831 Z-7.216 A179.2259 
N452 X-180.532 Y15.332 Z-7.277 A178.5098 
N453 X-180.477 Y14.834 Z-7.313 A178.0156 
N454 X-180.424 Y14.335 Z-7.332 A177.6728 
N455 X-180.371 Y13.837 Z-7.340 A177.4350 
N456 X-180.319 Y13.339 Z-7.340 A177.2704 
N457 X-180.267 Y12.841 Z-7.335 A177.1567 
N458 X-180.216 Y12.344 Z-7.325 A177.0779 
N459 X-180.164 Y11.846 Z-7.313 A177.0231 
N460 X-180.113 Y11.349 Z-7.299 A176.9852 
N461 X-180.062 Y10.851 Z-7.283 A176.9598 
N462 X-180.011 Y10.354 Z-7.267 A176.9439 
N463 X-179.960 Y9.857 Z-7.250 A176.9348 
N464 X-179.909 Y9.360 Z-7.232 A176.9310 
N465 X-179.858 Y8.863 Z-7.214 A176.9312 
N466 X-179.807 Y8.366 Z-7.196 A176.9343 
N467 X-179.756 Y7.869 Z-7.178 
N468 X-179.705 Y7.372 Z-7.161 
N469 X-179.654 Y6.875 Z-7.143 
N470 X-179.603 Y6.377 Z-7.127 A176.9109 
N471 X-179.551 Y5.879 Z-7.114 A176.8477 
N472 X-179.500 Y5.381 Z-7.105 A176.7283 
N473 X-179.448 Y4.883 Z-7.102 A176.5300 
N474 X-179.395 Y4.384 Z-7.105 A176.2297 
N475 X-179.342 Y3.885 Z-7.117 A175.7943 
N476 X-179.288 Y3.384 Z-7.139 A175.1821 
N477 X-179.233 Y2.881 Z-7.175 A174.3409 
N478 X-179.177 Y2.375 Z-7.227 A173.2075 
N479 X-179.118 Y1.863 Z-7.299 A171.7115 
N480 X-179.058 Y1.344 Z-7.392 A169.7936 
N481 X-178.995 Y0.814 Z-7.502 A167.4404 
N482 X-178.931 Y0.271 Z-7.621 A164.6922 
N483 X-178.865 Y-0.285 Z-7.738 A161.6339 
N484 X-178.799 Y-0.854 Z-7.844 A158.3329 
N485 X-178.732 Y-1.435 Z-7.932 A154.8337 
N486 X-178.666 Y-2.026 Z-7.993 A151.2042 
N487 X-178.602 Y-2.622 Z-8.020 A147.5197 
N488 X-178.540 Y-3.218 Z-8.008 A143.8481 
N489 X-178.482 Y-3.807 Z-7.952 A140.2738 
N490 X-178.429 Y-4.379 Z-7.844 A136.9347 
N491 X-178.382 Y-4.922 Z-7.683 A133.9507 
N492 X-178.343 Y-5.430 Z-7.472 A131.3815 
N493 X-178.310 Y-5.899 Z-7.215 A129.2626 
N494 X-178.284 Y-6.329 Z-6.918 A127.6023 
N495 X-178.264 Y-6.721 Z-6.587 A126.3845 
N496 X-178.249 Y-7.079 Z-6.229 A125.5557 
N497 X-178.238 Y-7.412 Z-5.852 A125.0354 
N498 X-178.231 Y-7.726 Z-5.461 A124.7428 
N499 X-178.224 Y-8.027 Z-5.062 A124.6029 
N500 X-178.219 Y-8.322 Z-4.658 A124.5492 
N501 X-178.215 Y-8.613 Z-4.253 A124.5384 
N502 X-178.210 Y-8.902 Z-3.847 A124.5443 
N503 X-178.206 Y-9.192 Z-3.443 A124.5517 
N504 X-178.201 Y-9.481 Z-3.039 A124.5547 
N505 X-178.197 Y-9.771 Z-2.636 A124.5575 
N506 X-178.192 Y-10.062 Z-2.233 A124.5605 
N507 X-178.187 Y-10.353 Z-1.831 
N508 X-178.182 Y-10.645 Z-1.428 
N509 X-178.177 Y-10.938 Z-1.024 
N510 X-178.172 Y-11.234 Z-0.617 
N511 X-178.167 Y-11.534 Z-0.205 A124.5440 
N512 X-178.159 Y-11.851 Z0.189 A124.2052 
N513 X-178.148 Y-12.192 Z0.568 A123.4874 
N514 X-178.131 Y-12.569 Z0.922 A122.1575 
N515 X-178.106 Y-13.005 Z1.243 A119.8545 
N516 X-178.066 Y-13.549 Z1.521 A115.9178 
N517 X-178.012 Y-14.192 Z1.729 A110.1118 
N518 X-177.947 Y-14.915 Z1.895 A102.7222 
N519 X-177.875 Y-15.709 Z2.070 A94.0035 
N520 X-177.802 Y-16.556 Z2.320 A84.2032 
N521 X-177.739 Y-17.372 Z2.671 A74.2106 
N522 X-177.690 Y-18.123 Z3.137 A64.1921 
N523 X-177.658 Y-18.787 Z3.722 A54.1497 
N524 X-177.645 Y-19.335 Z4.421 A44.0881 
N525 X-177.654 Y-19.734 Z5.222 A34.0146 
N526 X-177.688 Y-19.943 Z6.093 A24.0604 
N527 X-177.743 Y-19.922 Z6.913 A15.2411 
N528 X-177.810 Y-19.681 Z7.574 A8.3786 
N529 X-177.883 Y-19.270 Z8.032 A3.6805 
N530 X-177.950 Y-18.783 Z8.282 A1.1011 
N531 X-178.009 Y-18.286 Z8.398 A359.9009 
N532 X-178.065 Y-17.789 Z8.449 A359.3749 
N533 X-178.118 Y-17.291 Z8.470 A359.1641 
N534 X-178.171 Y-16.794 Z8.477 A359.0910 
N535 X-178.223 Y-16.296 Z8.479 A359.0716 
N536 X-178.275 Y-15.799 Z8.480 A359.0709 
N537 X-178.327 Y-15.302 Z8.481 A359.0745 
N538 X-178.379 Y-14.806 Z8.481 A359.0760 
N539 X-178.432 Y-14.309 Z8.482 
N540 X-178.484 Y-13.812 Z8.483 
N541 X-178.536 Y-13.315 Z8.484 
N542 X-178.588 Y-12.818 Z8.486 
N543 X-178.640 Y-12.321 Z8.487 
N544 X-178.692 Y-11.824 Z8.488 
N545 X-178.745 Y-11.327 Z8.489 
N546 X-178.797 Y-10.829 Z8.491 
N547 X-178.849 Y-10.332 Z8.492 
N548 X-178.901 Y-9.835 Z8.493 
N549 X-178.954 Y-9.337 Z8.495 
N550 X-179.006 Y-8.840 Z8.496 
N551 X-179.058 Y-8.343 Z8.498 A359.0759 
N552 X-179.110 Y-7.845 Z8.499 A359.0758 
N553 X-179.162 Y-7.348 Z8.500 A359.0758 
N554 X-179.215 Y-6.851 Z8.502 A359.0756 
N555 X-179.267 Y-6.354 Z8.503 A359.0755 
N556 X-179.319 Y-5.856 Z8.505 A359.0752 
N557 X-179.371 Y-5.359 Z8.506 A359.0747 
N558 X-179.424 Y-4.862 Z8.508 A359.0739 
N559 X-179.476 Y-4.365 Z8.510 A359.0727 
N560 X-179.528 Y-3.868 Z8.512 A359.0712 
N561 X-179.580 Y-3.372 Z8.513 A359.0711 
N562 X-179.632 Y-2.875 Z8.515 A359.0760 
N563 X-179.685 Y-2.379 Z8.517 
N564 X-179.737 Y-1.882 Z8.519 
N565 X-179.789 Y-1.382 Z8.521 
N566 X-179.843 Y-0.880 Z8.542 A358.8449 
N567 X-179.901 Y-0.379 Z8.617 A357.9239 
N568 X-179.968 Y0.133 Z8.826 A355.2926 
N569 X-180.057 Y0.698 Z9.290 A349.2198 
N570 X-180.172 Y1.395 Z9.952 A339.8027 
N571 X-180.293 Y2.188 Z10.540 A329.8269 
N572 X-180.414 Y3.083 Z10.970 A319.8824 
N573 X-180.521 Y3.981 Z11.171 A311.0078 
N574 X-180.591 Y4.696 Z11.096 A305.1015 
N575 X-180.625 Y5.189 Z10.824 A302.1770 
N576 X-180.639 Y5.542 Z10.454 A301.0385 
N577 X-180.643 Y5.832 Z10.045 A300.6778 
N578 X-180.644 Y6.101 Z9.623 A300.5907 
N579 X-180.645 Y6.364 Z9.197 A300.5800 
N580 X-180.645 Y6.625 Z8.772 A300.5842 
N581 X-180.645 Y6.887 Z8.346 A300.5848 
N582 X-180.645 Y7.149 Z7.920 
N583 X-180.646 Y7.411 Z7.494 
N584 X-180.646 Y7.673 Z7.068 A300.5845 
N585 X-180.646 Y7.935 Z6.643 A300.5835 
N586 X-180.646 Y8.197 Z6.217 A300.5836 
N587 X-180.647 Y8.459 Z5.791 A300.5848 
N588 X-180.647 Y8.721 Z5.366 
N589 X-180.647 Y8.984 Z4.939 
N590 X-180.648 Y9.248 Z4.513 A300.5691 
N591 X-180.649 Y9.517 Z4.091 A300.4751 
N592 X-180.651 Y9.794 Z3.673 A300.2521 
N593 X-180.656 Y10.085 Z3.264 A299.8082 
N594 X-180.663 Y10.397 Z2.866 A299.0330 
N595 X-180.674 Y10.739 Z2.482 A297.7705 
N596 X-180.691 Y11.123 Z2.116 A295.8241 
N597 X-180.715 Y11.568 Z1.769 A292.9021 
N598 X-180.750 Y12.104 Z1.437 A288.5781 
N599 X-180.798 Y12.758 Z1.101 A282.4445 
N600 X-180.855 Y13.545 Z0.711 A274.2035 
N601 X-180.915 Y14.406 Z0.242 A264.2713 
N602 X-180.964 Y15.191 Z-0.289 A254.2789 
N603 X-180.997 Y15.887 Z-0.911 A244.2606 
N604 X-181.012 Y16.471 Z-1.637 A234.2182 
N605 X-181.004 Y16.907 Z-2.469 A224.1567 
N606 X-180.971 Y17.151 Z-3.400 A214.0831 
N607 X-180.907 Y17.140 Z-4.368 A204.4472 
N608 X-180.833 Y16.904 Z-5.146 A197.0671 
N609 X-180.757 Y16.543 Z-5.736 A191.5791 
N610 X-180.684 Y16.113 Z-6.179 A187.4403 
N611 X-180.614 Y15.648 Z-6.508 A184.2991 
N612 X-180.548 Y15.163 Z-6.751 A181.8882 
N613 X-180.485 Y14.669 Z-6.927 A180.0427 
N614 X-180.425 Y14.170 Z-7.050 A178.6506 
N615 X-180.367 Y13.670 Z-7.131 A177.6233 
N616 X-180.311 Y13.169 Z-7.180 A176.8771 
N617 X-180.257 Y12.669 Z-7.206 A176.3402 
N618 X-180.205 Y12.170 Z-7.214 A175.9575 
N619 X-180.153 Y11.672 Z-7.210 A175.6866 
N620 X-180.101 Y11.174 Z-7.196 A175.4973 
N621 X-180.050 Y10.676 Z-7.176 A175.3685 
N622 X-180.000 Y10.179 Z-7.152 A175.2851 
N623 X-179.949 Y9.682 Z-7.123 A175.2361 
N624 X-179.899 Y9.186 Z-7.093 A175.2117 
N625 X-179.849 Y8.689 Z-7.061 A175.2041 
N626 X-179.799 Y8.193 Z-7.027 A175.2075 
N627 X-179.750 Y7.697 Z-6.995 A175.2089 
N628 X-179.700 Y7.200 Z-6.962 
N629 X-179.649 Y6.703 Z-6.930 A175.2004 
N630 X-179.599 Y6.206 Z-6.901 A175.1431 
N631 X-179.548 Y5.708 Z-6.878 A175.0219 
N632 X-179.497 Y5.210 Z-6.861 A174.8066 
N633 X-179.446 Y4.712 Z-6.852 A174.4719 
N634 X-179.393 Y4.211 Z-6.853 A173.9852 
N635 X-179.340 Y3.709 Z-6.864 A173.3106 
N636 X-179.285 Y3.205 Z-6.889 A172.4104 
N637 X-179.230 Y2.696 Z-6.927 A171.2415 
N638 X-179.172 Y2.183 Z-6.980 A169.7576 
N639 X-179.113 Y1.662 Z-7.048 A167.9216 
N640 X-179.053 Y1.132 Z-7.128 A165.7264 
N641 X-178.991 Y0.591 Z-7.213 A163.2043 
N642 X-178.927 Y0.040 Z-7.295 A160.4183 
N643 X-178.864 Y-0.522 Z-7.365 A157.4290 
N644 X-178.801 Y-1.092 Z-7.418 A154.2799 
N645 X-178.739 Y-1.668 Z-7.446 A151.0282 
N646 X-178.678 Y-2.247 Z-7.444 A147.7385 
N647 X-178.620 Y-2.823 Z-7.407 A144.4778 
N648 X-178.565 Y-3.392 Z-7.331 A141.3053 
N649 X-178.515 Y-3.947 Z-7.214 A138.2969 
N650 X-178.469 Y-4.478 Z-7.050 A135.5821 
N651 X-178.431 Y-4.977 Z-6.839 A133.2731 
N652 X-178.399 Y-5.438 Z-6.584 A131.4155 
N653 X-178.373 Y-5.864 Z-6.291 A129.9828 
N654 X-178.352 Y-6.260 Z-5.969 A128.9161 
N655 X-178.335 Y-6.630 Z-5.624 A128.1528 
N656 X-178.322 Y-6.979 Z-5.262 A127.6375 
N657 X-178.311 Y-7.312 Z-4.887 A127.3191 
N658 X-178.301 Y-7.633 Z-4.504 A127.1484 
N659 X-178.294 Y-7.946 Z-4.115 A127.0767 
N660 X-178.286 Y-8.254 Z-3.723 A127.0629 
N661 X-178.279 Y-8.561 Z-3.331 A127.0745 
N662 X-178.272 Y-8.867 Z-2.940 A127.0899 
N663 X-178.265 Y-9.174 Z-2.550 A127.0949 
N664 X-178.257 Y-9.482 Z-2.162 
N665 X-178.250 Y-9.790 Z-1.773 
N666 X-178.242 Y-10.100 Z-1.383 
N667 X-178.235 Y-10.411 Z-0.993 
N668 X-178.227 Y-10.723 Z-0.601 
N669 X-178.219 Y-11.038 Z-0.205 
N670 X-178.210 Y-11.364 Z0.187 A126.9382 
N671 X-178.197 Y-11.716 Z0.554 A126.3227 
N672 X-178.177 Y-12.110 Z0.890 A125.0037 
N673 X-178.147 Y-12.574 Z1.182 A122.5220 
N674 X-178.103 Y-13.142 Z1.427 A118.4210 
N675 X-178.045 Y-13.813 Z1.618 A112.4727 
N676 X-177.976 Y-14.562 Z1.770 A104.9247 
N677 X-177.900 Y-15.388 Z1.941 A95.9557 
N678 X-177.825 Y-16.258 Z2.185 A85.9983 
N679 X-177.760 Y-17.082 Z2.523 A76.0103 
N680 X-177.709 Y-17.845 Z2.973 A65.9965 
N681 X-177.674 Y-18.524 Z3.541 A55.9580 
N682 X-177.658 Y-19.093 Z4.224 A45.8994 
N683 X-177.663 Y-19.520 Z5.008 A35.8274 
N684 X-177.692 Y-19.772 Z5.875 A25.7503 
N685 X-177.746 Y-19.803 Z6.774 A15.9364 
N686 X-177.812 Y-19.603 Z7.470 A8.5988 
N687 X-177.881 Y-19.228 Z7.937 A3.7547 
N688 X-177.949 Y-18.741 Z8.202 A1.0097 
N689 X-178.008 Y-18.245 Z8.320 A359.7810 
N690 X-178.064 Y-17.747 Z8.368 A359.2707 
N691 X-178.117 Y-17.250 Z8.385 A359.0874 
N692 X-178.169 Y-16.753 Z8.390 A359.0400 
N693 X-178.222 Y-16.256 Z8.390 A359.0386 
N694 X-178.274 Y-15.759 Z8.390 A359.0470 
N695 X-178.326 Y-15.263 Z8.391 A359.0483 
N696 X-178.378 Y-14.767 Z8.392 
N697 X-178.430 Y-14.270 Z8.393 
N698 X-178.482 Y-13.773 Z8.394 
N699 X-178.534 Y-13.276 Z8.395 
N700 X-178.586 Y-12.779 Z8.397 
N701 X-178.639 Y-12.281 Z8.398 
N702 X-178.691 Y-11.784 Z8.399 
N703 X-178.743 Y-11.287 Z8.401 
N704 X-178.795 Y-10.789 Z8.402 
N705 X-178.848 Y-10.292 Z8.403 
N706 X-178.900 Y-9.795 Z8.405 
N707 X-178.952 Y-9.297 Z8.406 
N708 X-179.004 Y-8.800 Z8.407 A359.0483 
N709 X-179.057 Y-8.302 Z8.409 A359.0483 
N710 X-179.109 Y-7.805 Z8.410 A359.0482 
N711 X-179.161 Y-7.308 Z8.411 A359.0481 
N712 X-179.213 Y-6.810 Z8.413 A359.0480 
N713 X-179.265 Y-6.313 Z8.414 A359.0478 
N714 X-179.318 Y-5.816 Z8.415 A359.0475 
N715 X-179.370 Y-5.318 Z8.417 A359.0470 
N716 X-179.422 Y-4.821 Z8.418 A359.0462 
N717 X-179.474 Y-4.324 Z8.420 A359.0449 
N718 X-179.527 Y-3.827 Z8.422 A359.0436 
N719 X-179.579 Y-3.331 Z8.423 A359.0440 
N720 X-179.631 Y-2.834 Z8.424 A359.0483 
N721 X-179.683 Y-2.338 Z8.426 
N722 X-179.735 Y-1.840 Z8.428 
N723 X-179.788 Y-1.338 Z8.431 A359.0423 
N724 X-179.843 Y-0.838 Z8.462 A358.6726 
N725 X-179.902 Y-0.335 Z8.561 A357.4492 
N726 X-179.973 Y0.183 Z8.821 A354.1328 
N727 X-180.069 Y0.777 Z9.359 A347.0074 
N728 X-180.189 Y1.508 Z10.027 A337.1542 
N729 X-180.310 Y2.333 Z10.574 A327.1848 
N730 X-180.430 Y3.246 Z10.954 A317.3249 
N731 X-180.530 Y4.116 Z11.086 A309.0125 
N732 X-180.593 Y4.795 Z10.965 A303.5887 
N733 X-180.622 Y5.256 Z10.665 A301.0107 
N734 X-180.633 Y5.589 Z10.280 A300.0514 
N735 X-180.635 Y5.868 Z9.864 A299.7446 
N736 X-180.636 Y6.130 Z9.438 A299.6550 
N737 X-180.635 Y6.387 Z9.009 A299.6316 
N738 X-180.634 Y6.642 Z8.579 A299.6269 
N739 X-180.634 Y6.897 Z8.148 A299.6271 
N740 X-180.633 Y7.152 Z7.718 A299.6278 
N741 X-180.632 Y7.406 Z7.288 
N742 X-180.631 Y7.661 Z6.857 
N743 X-180.630 Y7.916 Z6.427 A299.6255 
N744 X-180.630 Y8.172 Z5.997 A299.6141 
N745 X-180.629 Y8.429 Z5.568 A299.5799 
N746 X-180.629 Y8.690 Z5.141 A299.4914 
N747 X-180.630 Y8.958 Z4.718 A299.2890 
N748 X-180.634 Y9.241 Z4.303 A298.8670 
N749 X-180.640 Y9.547 Z3.901 A298.0751 
N750 X-180.651 Y9.890 Z3.515 A296.7137 
N751 X-180.669 Y10.283 Z3.149 A294.5551 
N752 X-180.695 Y10.742 Z2.801 A291.3538 
N753 X-180.730 Y11.286 Z2.460 A286.8045 
N754 X-180.775 Y11.932 Z2.104 A280.6366 
N755 X-180.825 Y12.662 Z1.688 A272.9248 
N756 X-180.875 Y13.455 Z1.166 A263.6832 
N757 X-180.914 Y14.218 Z0.533 A253.6896 
N758 X-180.936 Y14.871 Z-0.196 A243.6698 
N759 X-180.937 Y15.387 Z-1.030 A233.6262 
N760 X-180.913 Y15.730 Z-1.966 A223.5699 
N761 X-180.866 Y15.851 Z-2.904 A214.3228 
N762 X-180.804 Y15.769 Z-3.744 A206.5082 
N763 X-180.733 Y15.538 Z-4.462 A200.0223 
N764 X-180.660 Y15.204 Z-5.059 A194.6786 
N765 X-180.587 Y14.803 Z-5.545 A190.2815 
N766 X-180.516 Y14.359 Z-5.935 A186.6741 
N767 X-180.447 Y13.888 Z-6.243 A183.7066 
N768 X-180.380 Y13.401 Z-6.483 A181.2802 
N769 X-180.317 Y12.905 Z-6.662 A179.3322 
N770 X-180.256 Y12.404 Z-6.791 A177.7986 
N771 X-180.198 Y11.902 Z-6.878 A176.6062 
N772 X-180.142 Y11.400 Z-6.932 A175.6879 
N773 X-180.087 Y10.898 Z-6.960 A174.9893 
N774 X-180.034 Y10.398 Z-6.968 A174.4686 
N775 X-179.983 Y9.899 Z-6.960 A174.0903 
