; PROGRAM NAME: D99999960
; ORDER       : D999999
; OPER. NAME  : Contact Milling:143
; OPER. DESCR.: Contact Milling/podciecie pod ceche
; OPER. TYPE  : contactMill
; GEO. OPTION : 1
; MACHINE     : HSTM_300HD_SIM840D_Py
;             : HSTM300/500 - HAMUEL: 5-axis milling machine-SIM840D Traori PP_Script
; CONTROL     : SINUMERIK 840D
; created:   2022-11-03 09:04:02.491863
;-------DODATKOWE DANE-------------------
; PROGRAMISTA : Mariusz Malec
; PARTID      : 139T006893P1018_-
;  ap         : 1.0
;  ae         : 5.0
;  lean_angle : 0.01
;  tilt_angle : 0.0
;  fin_offset : -0.15
;----------------------------------------
;RAPORT("TD999999","Contact Milling:143")
N10 TRAFOOF
N11 D0
N12 G90 G94
N13 G0 G53 D0 Z550
N14 STOPRE
M9 ; chlodziwo wyl
; --- Contact Milling:143 - Contact Milling/podciecie pod ceche ---
N16 ;ToolChange : concat=None ,current_tdmid=None, PP.tdmId=957453
N17 TRAFOOF
N18 G0 G53 D0 X-200 Y150 Z550 B0
N19 T="7757453"
;RAPORT("TD999999","ToolChangeStart 7757453")
N20 M6
;RAPORT("TD999999","ToolChangeEnd")
N21 STOPRE
N22 MSG(" TLID=957453 D=5.0 R=0.0 Ang=0.0 Len=109.0 ")
N23 ; (Preloading tool)
N24 T="7758476"
N25 S12095 M03
N26 STOPRE
N27 CYCLE832(0.01,1,1)
N28 G0 G53 A0.0000 B-0.0100
N29 TRAORI
N30 G54 D1
N31 D3 
N32 X-138.208 Y-4.796 Z44.526 A0.0001 B-0.0100 
N33 M342 ; chlodziwo woda
N34 X-138.202 Y-4.796 Z14.526 
N35 G01 X-138.201 Y-4.796 Z8.526 F544 
N36 X-138.250 Y-4.796 Z8.217 
N37 X-138.392 Y-4.796 Z7.938 
N38 X-138.613 Y-4.796 Z7.717 
N39 X-138.892 Y-4.796 Z7.575 
N40 X-139.201 Y-4.796 Z7.526 
N41 X-139.340 Y-4.796 Z7.526 
N42 X-139.479 Y-4.796 Z7.526 F543 
N43 X-139.618 Y-4.796 Z7.526 F544 
N44 X-139.757 Y-4.796 Z7.526 
N45 X-139.896 Y-4.796 Z7.526 
N46 X-140.034 Y-4.796 Z7.526 
N47 X-140.173 Y-4.796 Z7.526 
N48 X-140.312 Y-4.796 Z7.526 
N49 X-140.451 Y-4.796 Z7.526 
N50 X-140.590 Y-4.796 Z7.526 
N51 X-140.729 Y-4.796 Z7.526 
N52 X-140.868 Y-4.796 Z7.526 
N53 X-141.007 Y-4.796 Z7.526 
N54 X-141.146 Y-4.796 Z7.526 
N55 X-141.284 Y-4.796 Z7.526 
N56 X-141.423 Y-4.796 Z7.526 
N57 X-141.562 Y-4.796 Z7.526 
N58 X-141.701 Y-4.796 Z7.526 
N59 X-141.840 Y-4.796 Z7.526 
N60 X-141.979 Y-4.796 Z7.526 
N61 X-142.118 Y-4.796 Z7.526 
N62 X-142.257 Y-4.796 Z7.526 
N63 X-142.396 Y-4.796 Z7.526 
N64 X-142.534 Y-4.796 Z7.526 
N65 X-142.673 Y-4.796 Z7.526 
N66 X-142.812 Y-4.796 Z7.526 
N67 X-142.951 Y-4.796 Z7.526 
N68 X-143.090 Y-4.796 Z7.526 
N69 X-143.229 Y-4.796 Z7.526 
N70 X-143.368 Y-4.796 Z7.526 
N71 X-143.507 Y-4.796 Z7.526 
N72 X-143.646 Y-4.796 Z7.526 
N73 X-143.784 Y-4.796 Z7.526 
N74 X-143.923 Y-4.796 Z7.526 
N75 X-144.062 Y-4.796 Z7.526 
N76 X-144.201 Y-4.796 Z7.526 
N77 X-144.340 Y-4.796 Z7.526 F543 
N78 X-144.479 Y-4.796 Z7.526 F544 
N79 X-144.618 Y-4.796 Z7.526 
N80 X-144.757 Y-4.796 Z7.526 
N81 X-144.896 Y-4.796 Z7.526 
N82 X-145.034 Y-4.796 Z7.526 
N83 X-145.173 Y-4.796 Z7.526 
N84 X-145.312 Y-4.796 Z7.526 
N85 X-145.451 Y-4.796 Z7.526 
N86 X-145.590 Y-4.796 Z7.526 
N87 X-145.729 Y-4.796 Z7.526 
N88 X-145.868 Y-4.796 Z7.526 
N89 X-146.007 Y-4.796 Z7.526 
N90 X-146.146 Y-4.796 Z7.526 
N91 X-146.284 Y-4.796 Z7.526 
N92 X-146.423 Y-4.796 Z7.526 
N93 X-146.562 Y-4.796 Z7.526 
N94 X-146.701 Y-4.796 Z7.526 
N95 X-146.839 Y-4.796 Z7.526 
N96 X-146.976 Y-4.796 Z7.526 
N97 X-147.114 Y-4.796 Z7.526 
N98 X-147.251 Y-4.796 Z7.526 
N99 X-147.389 Y-4.796 Z7.526 
N100 X-147.526 Y-4.796 Z7.526 
N101 X-147.664 Y-4.796 Z7.526 
N102 X-147.801 Y-4.796 Z7.526 
N103 X-147.939 Y-4.796 Z7.526 
N104 X-148.076 Y-4.796 Z7.526 
N105 X-148.214 Y-4.796 Z7.526 
N106 X-148.351 Y-4.796 Z7.526 
N107 X-148.489 Y-4.796 Z7.526 
N108 X-148.626 Y-4.796 Z7.526 
N109 X-148.764 Y-4.796 Z7.526 
N110 X-148.901 Y-4.796 Z7.526 
N111 X-149.039 Y-4.796 Z7.526 
N112 X-149.176 Y-4.796 Z7.526 
N113 X-149.314 Y-4.796 Z7.526 
N114 X-149.451 Y-4.796 Z7.526 
N115 X-149.589 Y-4.796 Z7.526 
N116 X-149.726 Y-4.796 Z7.526 
N117 X-149.864 Y-4.796 Z7.526 
N118 X-150.001 Y-4.796 Z7.526 
N119 X-150.139 Y-4.796 Z7.526 
N120 X-150.276 Y-4.796 Z7.526 
N121 X-150.414 Y-4.796 Z7.526 
N122 X-150.551 Y-4.796 Z7.526 
N123 X-150.689 Y-4.796 Z7.526 
N124 X-150.826 Y-4.796 Z7.526 
N125 X-150.964 Y-4.796 Z7.526 
N126 X-151.101 Y-4.796 Z7.526 
N127 X-151.239 Y-4.796 Z7.526 
N128 X-151.376 Y-4.796 Z7.526 
N129 X-151.514 Y-4.796 Z7.526 
N130 X-151.651 Y-4.796 Z7.526 
N131 X-151.789 Y-4.796 Z7.526 
N132 X-151.926 Y-4.796 Z7.526 
N133 X-152.064 Y-4.796 Z7.526 
N134 X-152.201 Y-4.796 Z7.526 
N135 X-152.339 Y-4.796 Z7.526 
N136 X-152.476 Y-4.796 Z7.526 
N137 X-152.614 Y-4.796 Z7.526 
N138 X-152.751 Y-4.796 Z7.526 
N139 X-152.889 Y-4.796 Z7.526 
N140 X-153.026 Y-4.796 Z7.526 
N141 X-153.164 Y-4.796 Z7.526 
N142 X-153.301 Y-4.796 Z7.526 
N143 X-153.439 Y-4.796 Z7.526 
N144 X-153.576 Y-4.796 Z7.526 
N145 X-153.714 Y-4.796 Z7.526 
N146 X-153.851 Y-4.796 Z7.526 
N147 X-153.989 Y-4.796 Z7.526 
N148 X-154.126 Y-4.796 Z7.526 
N149 X-154.264 Y-4.796 Z7.526 
N150 X-154.401 Y-4.796 Z7.526 
N151 X-154.539 Y-4.796 Z7.526 
N152 X-154.676 Y-4.796 Z7.526 
N153 X-154.814 Y-4.796 Z7.526 
N154 X-154.951 Y-4.796 Z7.526 
N155 X-155.089 Y-4.796 Z7.526 
N156 X-155.226 Y-4.796 Z7.526 
N157 X-155.364 Y-4.796 Z7.526 
N158 X-155.501 Y-4.796 Z7.526 
N159 X-155.639 Y-4.796 Z7.526 
N160 X-155.776 Y-4.796 Z7.526 
N161 X-155.914 Y-4.796 Z7.526 
N162 X-156.051 Y-4.796 Z7.526 
N163 X-156.189 Y-4.796 Z7.526 
N164 X-156.326 Y-4.796 Z7.526 
N165 X-156.464 Y-4.796 Z7.526 
N166 X-156.601 Y-4.796 Z7.526 
N167 X-156.739 Y-4.796 Z7.526 
N168 X-156.876 Y-4.796 Z7.526 
N169 X-157.014 Y-4.796 Z7.526 
N170 X-157.151 Y-4.796 Z7.526 
N171 X-157.289 Y-4.796 Z7.526 
N172 X-157.426 Y-4.796 Z7.526 
N173 X-157.564 Y-4.796 Z7.526 
N174 X-157.701 Y-4.796 Z7.526 
N175 X-157.840 Y-4.796 Z7.526 F543 
N176 X-157.979 Y-4.796 Z7.526 F544 
N177 X-158.118 Y-4.796 Z7.526 
N178 X-158.257 Y-4.796 Z7.526 
N179 X-158.396 Y-4.796 Z7.526 
N180 X-158.534 Y-4.796 Z7.526 
N181 X-158.673 Y-4.796 Z7.526 
N182 X-158.812 Y-4.796 Z7.526 
N183 X-158.951 Y-4.796 Z7.526 
N184 X-159.090 Y-4.796 Z7.526 
N185 X-159.229 Y-4.796 Z7.526 
N186 X-159.368 Y-4.796 Z7.526 
N187 X-159.507 Y-4.796 Z7.526 
N188 X-159.646 Y-4.796 Z7.526 
N189 X-159.784 Y-4.796 Z7.526 
N190 X-159.923 Y-4.796 Z7.526 
N191 X-160.062 Y-4.796 Z7.526 
N192 X-160.201 Y-4.796 Z7.526 
N193 X-160.510 Y-4.796 Z7.575 
N194 X-160.789 Y-4.796 Z7.717 
N195 X-161.010 Y-4.796 Z7.938 
N196 X-161.152 Y-4.796 Z8.217 
N197 X-161.201 Y-4.796 Z8.526 
N198 G00 X-161.210 Y-4.796 Z58.526 
;RAPORT("TD999999","Contact Milling:143 End")
;trailer : concat=None
; points cnt = 163
N200 M9 ; chlodziwo wyl.
N201 MSG (" --- KONIEC PODPROGRAMU --- ")
N202 FGROUP()
N203 TRAFOOF
N204 STOPRE
N205 G0 G53 D0 Z550.0 M9 M5
N206 G0 G53 Y150 A0 B0
N207 M17
