; PROGRAM NAME: D99999936
; ORDER       : D999999
; OPER. NAME  : Side Milling:130
; OPER. DESCR.: Side Milling/rowek zgr
; OPER. TYPE  : sideMill
; GEO. OPTION : 1
; MACHINE     : HSTM_300HD_SIM840D_Py
;             : HSTM300/500 - HAMUEL: 5-axis milling machine-SIM840D Traori PP_Script
; CONTROL     : SINUMERIK 840D
; created:   2022-11-03 09:03:00.851751
;-------DODATKOWE DANE-------------------
; PROGRAMISTA : Mariusz Malec
; PARTID      : 139T006893P1018_-
;  ap         : 2.5
;  ae         : 5.0
;  lean_angle : 0.0
;  fin_offset : 0.3
;----------------------------------------
;RAPORT("TD999999","Side Milling:130")
N10 TRAFOOF
N11 D0
N12 G90 G94
N13 G0 G53 D0 Z550
N14 STOPRE
M9 ; chlodziwo wyl
; --- Side Milling:130 - Side Milling/rowek zgr ---
N16 ;ToolChange : concat=None ,current_tdmid=None, PP.tdmId=940663
N17 TRAFOOF
N18 G0 G53 D0 X-200 Y150 Z550 B0
N19 T="7740663"
;RAPORT("TD999999","ToolChangeStart 7740663")
N20 M6
;RAPORT("TD999999","ToolChangeEnd")
N21 STOPRE
N22 MSG(" TLID=940663 D=6.0 R=0.6 Ang=0.0 Len=100.0 ")
N23 ; (Preloading tool)
N24 T="7740664"
N25 S8488 M03
N26 STOPRE
N27 CYCLE832(0.1,1,1)
N28 G0 G53 A302.0000 B-0.0000
N29 TRAORI
N30 G54 D1
;tol5=0.15
STOPRE
E_ZDARZ=500002
;ACS_ROUGH_SLOT=7740663
STOPRE
;UWAGA : ZMIENIONA TOLERANCJA OSI A i B, ruchy osi A i B beda usuniete : TOL5=0.15
N31 ; DELTA A > 40.1
N32 TRAFOOF
N33 D1
N34 STOPRE
N35 G00 G54 Z286.000
N36 G01 A302.0000 F10000
N37 TRAORI
N38 G54 D1
N39 STOPRE
N40 TRANS 
N41 G00 X-148.811 Y65.597 Z3.814 A302.0000 
N42 M342 ; chlodziwo woda
N43 X-148.811 Y23.195 Z-22.682 
N44 ;on NNTE
N45 D1 
N46 G01 G41 X-148.499 Y17.898 Z-14.206 F407
N47 G01 X-148.499 Y17.898 Z-14.206 F407 
N48 X-148.495 Y17.826 Z-14.090 
N49 X-148.490 Y17.754 Z-13.975 
N50 X-148.486 Y17.681 Z-13.859 
N51 X-148.482 Y17.609 Z-13.744 
N52 X-148.477 Y17.537 Z-13.628 
N53 X-148.473 Y17.465 Z-13.512 
N54 X-148.469 Y17.392 Z-13.397 
N55 X-148.465 Y17.320 Z-13.281 
N56 X-148.460 Y17.248 Z-13.166 
N57 X-148.456 Y17.176 Z-13.050 
N58 X-148.452 Y17.104 Z-12.935 
N59 X-148.448 Y17.031 Z-12.819 
N60 X-148.443 Y16.959 Z-12.703 
N61 X-148.439 Y16.887 Z-12.588 
N62 X-148.435 Y16.815 Z-12.472 
N63 X-148.431 Y16.742 Z-12.357 
N64 X-148.426 Y16.670 Z-12.241 
N65 X-148.422 Y16.598 Z-12.125 
N66 X-148.418 Y16.526 Z-12.010 
N67 X-148.414 Y16.454 Z-11.894 
N68 X-148.409 Y16.381 Z-11.779 
N69 X-148.405 Y16.309 Z-11.663 
N70 X-148.401 Y16.237 Z-11.548 
N71 X-148.397 Y16.165 Z-11.432 
N72 X-148.392 Y16.092 Z-11.316 
N73 X-148.388 Y16.020 Z-11.201 
N74 X-148.384 Y15.948 Z-11.085 
N75 X-148.379 Y15.876 Z-10.970 
N76 X-148.375 Y15.803 Z-10.854 
N77 X-148.371 Y15.731 Z-10.738 
N78 X-148.367 Y15.659 Z-10.623 
N79 X-148.362 Y15.587 Z-10.507 
N80 X-148.358 Y15.515 Z-10.392 
N81 X-148.354 Y15.442 Z-10.276 
N82 X-148.350 Y15.370 Z-10.160 
N83 X-148.345 Y15.298 Z-10.045 
N84 X-148.341 Y15.226 Z-9.929 
N85 X-148.337 Y15.153 Z-9.814 
N86 X-148.333 Y15.081 Z-9.698 
N87 X-148.328 Y15.009 Z-9.583 
N88 X-148.324 Y14.937 Z-9.467 
N89 X-148.320 Y14.865 Z-9.351 
N90 X-148.316 Y14.792 Z-9.236 
N91 X-148.311 Y14.720 Z-9.120 
N92 X-148.307 Y14.648 Z-9.005 
N93 X-148.303 Y14.576 Z-8.890 
N94 X-148.299 Y14.505 Z-8.775 
N95 X-148.294 Y14.433 Z-8.660 
N96 X-148.290 Y14.361 Z-8.545 
N97 X-148.286 Y14.289 Z-8.430 
N98 X-148.282 Y14.217 Z-8.315 
N99 X-148.277 Y14.145 Z-8.200 
N100 X-148.273 Y14.073 Z-8.085 
N101 X-148.269 Y14.002 Z-7.970 
N102 X-148.265 Y13.930 Z-7.855 
N103 X-148.260 Y13.858 Z-7.740 
N104 X-148.256 Y13.786 Z-7.625 
N105 X-148.252 Y13.714 Z-7.510 
N106 X-148.248 Y13.642 Z-7.395 
N107 X-148.243 Y13.570 Z-7.280 
N108 X-148.239 Y13.499 Z-7.165 
N109 X-148.235 Y13.427 Z-7.050 
N110 X-148.231 Y13.355 Z-6.935 
N111 X-148.227 Y13.283 Z-6.820 
N112 X-148.222 Y13.211 Z-6.706 
N113 X-148.218 Y13.139 Z-6.591 
N114 X-148.214 Y13.068 Z-6.476 
N115 X-148.210 Y12.996 Z-6.361 
N116 X-148.205 Y12.924 Z-6.246 
N117 X-148.201 Y12.852 Z-6.131 
N118 X-148.197 Y12.780 Z-6.016 
N119 X-148.193 Y12.708 Z-5.901 
N120 X-148.188 Y12.636 Z-5.786 
N121 X-148.184 Y12.565 Z-5.671 
N122 X-148.180 Y12.493 Z-5.556 
N123 X-148.176 Y12.421 Z-5.441 
N124 X-148.171 Y12.349 Z-5.326 
N125 X-148.167 Y12.277 Z-5.211 
N126 X-148.163 Y12.205 Z-5.096 
N127 X-148.159 Y12.133 Z-4.981 
N128 X-148.154 Y12.062 Z-4.866 
N129 X-148.150 Y11.990 Z-4.751 
N130 X-148.146 Y11.918 Z-4.636 
N131 X-148.142 Y11.846 Z-4.521 
N132 X-148.138 Y11.774 Z-4.406 
N133 X-148.133 Y11.702 Z-4.291 
N134 X-148.129 Y11.630 Z-4.176 
N135 X-148.125 Y11.559 Z-4.061 
N136 X-148.121 Y11.487 Z-3.946 
N137 X-148.116 Y11.415 Z-3.831 
N138 X-148.112 Y11.343 Z-3.716 
N139 X-148.108 Y11.271 Z-3.601 
N140 X-148.104 Y11.199 Z-3.486 
N141 X-148.099 Y11.128 Z-3.371 
N142 X-148.095 Y11.056 Z-3.256 
N143 X-148.091 Y10.984 Z-3.141 
N144 X-148.087 Y10.912 Z-3.026 
N145 X-148.084 Y10.840 Z-2.911 
N146 X-148.081 Y10.768 Z-2.796 
N147 X-148.079 Y10.696 Z-2.681 
N148 X-148.076 Y10.624 Z-2.566 
N149 X-148.074 Y10.553 Z-2.451 
N150 X-148.071 Y10.481 Z-2.336 
N151 X-148.068 Y10.409 Z-2.221 
N152 X-148.066 Y10.337 Z-2.106 
N153 X-148.063 Y10.265 Z-1.991 
N154 X-148.061 Y10.193 Z-1.876 
N155 X-148.058 Y10.121 Z-1.761 
N156 X-148.056 Y10.050 Z-1.646 
N157 X-148.053 Y9.978 Z-1.531 
N158 X-148.051 Y9.906 Z-1.416 
N159 X-148.048 Y9.834 Z-1.301 
N160 X-148.045 Y9.762 Z-1.186 
N161 X-148.043 Y9.690 Z-1.071 
N162 X-148.040 Y9.618 Z-0.956 
N163 X-148.038 Y9.546 Z-0.841 
N164 X-148.035 Y9.475 Z-0.726 
N165 X-148.033 Y9.403 Z-0.611 
N166 X-148.030 Y9.331 Z-0.496 
N167 X-148.028 Y9.259 Z-0.380 
N168 X-148.025 Y9.187 Z-0.265 
N169 X-148.022 Y9.115 Z-0.150 
N170 X-148.020 Y9.043 Z-0.035 
N171 X-148.017 Y8.971 Z0.080 
N172 X-148.015 Y8.900 Z0.195 
N173 X-148.012 Y8.828 Z0.310 
N174 X-148.010 Y8.756 Z0.425 
N175 X-148.007 Y8.684 Z0.540 
N176 X-148.005 Y8.612 Z0.655 
N177 X-148.002 Y8.540 Z0.770 
N178 X-147.999 Y8.468 Z0.885 
N179 X-147.997 Y8.396 Z1.000 
N180 X-147.996 Y8.325 Z1.115 
N181 X-147.995 Y8.253 Z1.230 
N182 X-147.994 Y8.181 Z1.345 
N183 X-147.993 Y8.109 Z1.460 
N184 X-147.991 Y8.037 Z1.575 
N185 X-147.990 Y7.965 Z1.690 
N186 X-147.989 Y7.893 Z1.805 
N187 X-147.988 Y7.821 Z1.920 
N188 X-147.987 Y7.749 Z2.035 
N189 X-147.986 Y7.678 Z2.150 
N190 X-147.985 Y7.606 Z2.265 
N191 X-147.984 Y7.534 Z2.380 
N192 X-147.983 Y7.462 Z2.495 
N193 X-147.982 Y7.390 Z2.610 
N194 X-147.981 Y7.318 Z2.725 
N195 X-147.980 Y7.246 Z2.840 
N196 X-147.979 Y7.174 Z2.955 
N197 X-147.978 Y7.103 Z3.070 
N198 X-147.976 Y7.031 Z3.185 
N199 X-147.975 Y6.959 Z3.301 
N200 X-147.974 Y6.887 Z3.416 
N201 X-147.973 Y6.815 Z3.531 
N202 X-147.972 Y6.743 Z3.646 
N203 X-147.971 Y6.671 Z3.761 
N204 X-147.970 Y6.599 Z3.876 
N205 X-147.969 Y6.527 Z3.991 
N206 X-147.968 Y6.456 Z4.106 
N207 X-147.967 Y6.384 Z4.221 
N208 X-147.966 Y6.312 Z4.336 
N209 X-147.965 Y6.240 Z4.451 
N210 X-147.964 Y6.168 Z4.566 
N211 X-147.963 Y6.096 Z4.681 
N212 X-147.962 Y6.024 Z4.796 
N213 X-147.960 Y5.952 Z4.911 
N214 X-147.959 Y5.880 Z5.026 
N215 X-147.958 Y5.809 Z5.141 
N216 X-147.957 Y5.737 Z5.256 
N217 X-147.956 Y5.665 Z5.371 
N218 X-147.955 Y5.593 Z5.486 
N219 X-147.954 Y5.521 Z5.601 
N220 X-147.953 Y5.449 Z5.716 
N221 X-147.952 Y5.377 Z5.831 
N222 X-147.951 Y5.305 Z5.946 
N223 X-147.950 Y5.233 Z6.062 
N224 X-147.949 Y5.161 Z6.178 
N225 X-147.948 Y5.089 Z6.293 
N226 X-147.947 Y5.016 Z6.409 
N227 X-147.945 Y4.944 Z6.525 
N228 X-147.944 Y4.872 Z6.640 
N229 X-147.943 Y4.800 Z6.756 
N230 X-147.942 Y4.727 Z6.872 
N231 X-147.941 Y4.655 Z6.987 
N232 X-147.940 Y4.583 Z7.103 
N233 X-147.939 Y4.511 Z7.218 
N234 X-147.938 Y4.438 Z7.334 
N235 X-147.937 Y4.366 Z7.450 
N236 X-147.936 Y4.294 Z7.565 
N237 X-147.935 Y4.222 Z7.681 
N238 X-147.934 Y4.149 Z7.797 
N239 X-147.933 Y4.077 Z7.912 
N240 X-147.931 Y4.005 Z8.028 
N241 X-147.930 Y3.932 Z8.144 
N242 X-147.929 Y3.860 Z8.259 
N243 X-147.928 Y3.788 Z8.375 
N244 X-147.927 Y3.716 Z8.490 
N245 G40 X-147.848 Y-1.583 Z16.971 F407
N246 X-147.848 Y-1.583 Z16.971 
N247 G00 X-147.848 Y19.618 Z30.219 
N248 X-148.811 Y42.827 Z-10.415 
N249 X-148.811 Y21.626 Z-23.663 
N250 ;on NNTE
N251 D1 
N252 G01 G41 X-148.499 Y16.329 Z-15.186 F407
N253 G01 X-148.499 Y16.329 Z-15.186 F407 
N254 X-148.495 Y16.257 Z-15.071 
N255 X-148.490 Y16.185 Z-14.955 
N256 X-148.486 Y16.112 Z-14.840 
N257 X-148.482 Y16.040 Z-14.724 
N258 X-148.477 Y15.968 Z-14.608 
N259 X-148.473 Y15.896 Z-14.493 
N260 X-148.469 Y15.824 Z-14.377 
N261 X-148.465 Y15.751 Z-14.262 
N262 X-148.460 Y15.679 Z-14.146 
N263 X-148.456 Y15.607 Z-14.030 
N264 X-148.452 Y15.535 Z-13.915 
N265 X-148.448 Y15.462 Z-13.799 
N266 X-148.443 Y15.390 Z-13.684 
N267 X-148.439 Y15.318 Z-13.568 
N268 X-148.435 Y15.246 Z-13.453 
N269 X-148.431 Y15.174 Z-13.337 
N270 X-148.426 Y15.101 Z-13.221 
N271 X-148.422 Y15.029 Z-13.106 
N272 X-148.418 Y14.957 Z-12.990 
N273 X-148.414 Y14.885 Z-12.875 
N274 X-148.409 Y14.812 Z-12.759 
N275 X-148.405 Y14.740 Z-12.643 
N276 X-148.401 Y14.668 Z-12.528 
N277 X-148.397 Y14.596 Z-12.412 
N278 X-148.392 Y14.523 Z-12.297 
N279 X-148.388 Y14.451 Z-12.181 
N280 X-148.384 Y14.379 Z-12.066 
N281 X-148.379 Y14.307 Z-11.950 
N282 X-148.375 Y14.235 Z-11.834 
N283 X-148.371 Y14.162 Z-11.719 
N284 X-148.367 Y14.090 Z-11.603 
N285 X-148.362 Y14.018 Z-11.488 
N286 X-148.358 Y13.946 Z-11.372 
N287 X-148.354 Y13.873 Z-11.256 
N288 X-148.350 Y13.801 Z-11.141 
N289 X-148.345 Y13.729 Z-11.025 
N290 X-148.341 Y13.657 Z-10.910 
N291 X-148.337 Y13.585 Z-10.794 
N292 X-148.333 Y13.512 Z-10.678 
N293 X-148.328 Y13.440 Z-10.563 
N294 X-148.324 Y13.368 Z-10.447 
N295 X-148.320 Y13.296 Z-10.332 
N296 X-148.316 Y13.223 Z-10.216 
N297 X-148.311 Y13.151 Z-10.101 
N298 X-148.307 Y13.079 Z-9.986 
N299 X-148.303 Y13.007 Z-9.871 
N300 X-148.299 Y12.936 Z-9.756 
N301 X-148.294 Y12.864 Z-9.641 
N302 X-148.290 Y12.792 Z-9.526 
N303 X-148.286 Y12.720 Z-9.411 
N304 X-148.282 Y12.648 Z-9.296 
N305 X-148.277 Y12.576 Z-9.181 
N306 X-148.273 Y12.505 Z-9.066 
N307 X-148.269 Y12.433 Z-8.951 
N308 X-148.265 Y12.361 Z-8.836 
N309 X-148.260 Y12.289 Z-8.721 
N310 X-148.256 Y12.217 Z-8.606 
N311 X-148.252 Y12.145 Z-8.491 
N312 X-148.248 Y12.073 Z-8.376 
N313 X-148.243 Y12.002 Z-8.261 
N314 X-148.239 Y11.930 Z-8.146 
N315 X-148.235 Y11.858 Z-8.031 
N316 X-148.231 Y11.786 Z-7.916 
N317 X-148.227 Y11.714 Z-7.801 
N318 X-148.222 Y11.642 Z-7.686 
N319 X-148.218 Y11.570 Z-7.571 
N320 X-148.214 Y11.499 Z-7.456 
N321 X-148.210 Y11.427 Z-7.341 
N322 X-148.205 Y11.355 Z-7.226 
N323 X-148.201 Y11.283 Z-7.111 
N324 X-148.197 Y11.211 Z-6.996 
N325 X-148.193 Y11.139 Z-6.881 
N326 X-148.188 Y11.068 Z-6.766 
N327 X-148.184 Y10.996 Z-6.651 
N328 X-148.180 Y10.924 Z-6.536 
N329 X-148.176 Y10.852 Z-6.421 
N330 X-148.171 Y10.780 Z-6.306 
N331 X-148.167 Y10.708 Z-6.191 
N332 X-148.163 Y10.636 Z-6.076 
N333 X-148.159 Y10.565 Z-5.961 
N334 X-148.154 Y10.493 Z-5.846 
N335 X-148.150 Y10.421 Z-5.731 
N336 X-148.146 Y10.349 Z-5.616 
N337 X-148.142 Y10.277 Z-5.501 
N338 X-148.138 Y10.205 Z-5.386 
N339 X-148.133 Y10.133 Z-5.271 
N340 X-148.129 Y10.062 Z-5.156 
N341 X-148.125 Y9.990 Z-5.041 
N342 X-148.121 Y9.918 Z-4.926 
N343 X-148.116 Y9.846 Z-4.811 
N344 X-148.112 Y9.774 Z-4.696 
N345 X-148.108 Y9.702 Z-4.581 
N346 X-148.104 Y9.630 Z-4.466 
N347 X-148.099 Y9.559 Z-4.351 
N348 X-148.095 Y9.487 Z-4.236 
N349 X-148.091 Y9.415 Z-4.121 
N350 X-148.087 Y9.343 Z-4.006 
N351 X-148.084 Y9.271 Z-3.891 
N352 X-148.081 Y9.199 Z-3.776 
N353 X-148.079 Y9.127 Z-3.661 
N354 X-148.076 Y9.056 Z-3.546 
N355 X-148.074 Y8.984 Z-3.431 
N356 X-148.071 Y8.912 Z-3.316 
N357 X-148.068 Y8.840 Z-3.201 
N358 X-148.066 Y8.768 Z-3.086 
N359 X-148.063 Y8.696 Z-2.971 
N360 X-148.061 Y8.624 Z-2.856 
N361 X-148.058 Y8.552 Z-2.741 
N362 X-148.056 Y8.481 Z-2.626 
N363 X-148.053 Y8.409 Z-2.511 
N364 X-148.051 Y8.337 Z-2.396 
N365 X-148.048 Y8.265 Z-2.281 
N366 X-148.045 Y8.193 Z-2.166 
N367 X-148.043 Y8.121 Z-2.051 
N368 X-148.040 Y8.049 Z-1.936 
N369 X-148.038 Y7.978 Z-1.821 
N370 X-148.035 Y7.906 Z-1.706 
N371 X-148.033 Y7.834 Z-1.591 
N372 X-148.030 Y7.762 Z-1.476 
N373 X-148.028 Y7.690 Z-1.361 
N374 X-148.025 Y7.618 Z-1.246 
N375 X-148.022 Y7.546 Z-1.131 
N376 X-148.020 Y7.474 Z-1.016 
N377 X-148.017 Y7.403 Z-0.901 
N378 X-148.015 Y7.331 Z-0.786 
N379 X-148.012 Y7.259 Z-0.671 
N380 X-148.010 Y7.187 Z-0.556 
N381 X-148.007 Y7.115 Z-0.441 
N382 X-148.005 Y7.043 Z-0.326 
N383 X-148.002 Y6.971 Z-0.211 
N384 X-147.999 Y6.899 Z-0.096 
N385 X-147.997 Y6.828 Z0.019 
N386 X-147.996 Y6.756 Z0.134 
N387 X-147.995 Y6.684 Z0.249 
N388 X-147.994 Y6.612 Z0.365 
N389 X-147.993 Y6.540 Z0.480 
N390 X-147.991 Y6.468 Z0.595 
N391 X-147.990 Y6.396 Z0.710 
N392 X-147.989 Y6.324 Z0.825 
N393 X-147.988 Y6.252 Z0.940 
N394 X-147.987 Y6.181 Z1.055 
N395 X-147.986 Y6.109 Z1.170 
N396 X-147.985 Y6.037 Z1.285 
N397 X-147.984 Y5.965 Z1.400 
N398 X-147.983 Y5.893 Z1.515 
N399 X-147.982 Y5.821 Z1.630 
N400 X-147.981 Y5.749 Z1.745 
N401 X-147.980 Y5.677 Z1.860 
N402 X-147.979 Y5.606 Z1.975 
N403 X-147.978 Y5.534 Z2.090 
N404 X-147.976 Y5.462 Z2.205 
N405 X-147.975 Y5.390 Z2.320 
N406 X-147.974 Y5.318 Z2.435 
N407 X-147.973 Y5.246 Z2.550 
N408 X-147.972 Y5.174 Z2.665 
N409 X-147.971 Y5.102 Z2.780 
N410 X-147.970 Y5.030 Z2.895 
N411 X-147.969 Y4.959 Z3.010 
N412 X-147.968 Y4.887 Z3.125 
N413 X-147.967 Y4.815 Z3.240 
N414 X-147.966 Y4.743 Z3.356 
N415 X-147.965 Y4.671 Z3.471 
N416 X-147.964 Y4.599 Z3.586 
N417 X-147.963 Y4.527 Z3.701 
N418 X-147.962 Y4.455 Z3.816 
N419 X-147.960 Y4.383 Z3.931 
N420 X-147.959 Y4.312 Z4.046 
N421 X-147.958 Y4.240 Z4.161 
N422 X-147.957 Y4.168 Z4.276 
N423 X-147.956 Y4.096 Z4.391 
N424 X-147.955 Y4.024 Z4.506 
N425 X-147.954 Y3.952 Z4.621 
N426 X-147.953 Y3.880 Z4.736 
N427 X-147.952 Y3.808 Z4.851 
N428 X-147.951 Y3.737 Z4.966 
N429 X-147.950 Y3.664 Z5.082 
N430 X-147.949 Y3.592 Z5.197 
N431 X-147.948 Y3.520 Z5.313 
N432 X-147.947 Y3.447 Z5.429 
N433 X-147.945 Y3.375 Z5.544 
N434 X-147.944 Y3.303 Z5.660 
N435 X-147.943 Y3.231 Z5.776 
N436 X-147.942 Y3.158 Z5.891 
N437 X-147.941 Y3.086 Z6.007 
N438 X-147.940 Y3.014 Z6.122 
N439 X-147.939 Y2.942 Z6.238 
N440 X-147.938 Y2.869 Z6.354 
N441 X-147.937 Y2.797 Z6.469 
N442 X-147.936 Y2.725 Z6.585 
N443 X-147.935 Y2.653 Z6.701 
N444 X-147.934 Y2.580 Z6.816 
N445 X-147.933 Y2.508 Z6.932 
N446 X-147.931 Y2.436 Z7.048 
N447 X-147.930 Y2.364 Z7.163 
N448 X-147.929 Y2.291 Z7.279 
N449 X-147.928 Y2.219 Z7.394 
N450 X-147.927 Y2.147 Z7.510 
N451 G40 X-147.848 Y-3.152 Z15.990 F407
N452 X-147.848 Y-3.152 Z15.990 
N453 G00 X-147.848 Y39.250 Z42.486 
;RAPORT("TD999999","Side Milling:130 End")
;trailer : concat=None
; points cnt = 398
N455 MSG (" --- GROUPED OF SUBPROGRAM --- ")
N456 FGROUP()
N457 TRAFOOF
; PROGRAM NAME: D99999936
; ORDER       : D999999
; OPER. NAME  : Side Milling:131
; OPER. DESCR.: rough slot NGA
; OPER. TYPE  : sideMill
; GEO. OPTION : 1
; MACHINE     : HSTM_300HD_SIM840D_Py
;             : HSTM300/500 - HAMUEL: 5-axis milling machine-SIM840D Traori PP_Script
; CONTROL     : SINUMERIK 840D
; created:   2022-11-03 09:03:04.056314
;-------DODATKOWE DANE-------------------
; PROGRAMISTA : Mariusz Malec
; PARTID      : 139T006893P1018_-
;  ap         : 2.5
;  ae         : 5.0
;  lean_angle : 0.0
;  fin_offset : 0.3
;----------------------------------------
;RAPORT("TD999999","Side Milling:131")
N10 TRAFOOF
N11 D0
N12 G90 G94
N13 G0 G53 D0 Z550
N14 STOPRE
M9 ; chlodziwo wyl
; --- Side Milling:131 - rough slot NGA ---
N16 ;ToolChange : concat=None ,current_tdmid=None, PP.tdmId=940663
N17 TRAFOOF
N18 G0 G53 D0 Z550 B0
N19 STOPRE
N20 MSG(" TLID=940663 D=6.0 R=0.6 Ang=0.0 Len=100.0 ")
N21 S8488 M03
N22 STOPRE
N23 CYCLE832(0.1,1,1)
N24 G0 G53 A122.0000 B0.0000
N25 TRAORI
N26 G54 D1
;tol5=0.15
STOPRE
E_ZDARZ=500002
;ACS_ROUGH_SLOT=7740663
STOPRE
;UWAGA : ZMIENIONA TOLERANCJA OSI A i B, ruchy osi A i B beda usuniete : TOL5=0.15
N27 ; DELTA A > 40.1
N28 TRAFOOF
N29 D1
N30 STOPRE
N31 G00 G54 Z286.000
N32 G01 A122.0000 F10000
N33 TRAORI
N34 G54 D1
N35 STOPRE
N36 TRANS 
N37 G00 X-148.441 Y-65.816 Z-3.462 A122.0000 
N38 M342 ; chlodziwo woda
N39 X-148.441 Y-23.414 Z23.034 
N40 ;on NNTA
N41 D3 
N42 G01 G41 X-148.241 Y-18.115 Z14.555 F407
N43 G01 X-148.241 Y-18.115 Z14.555 F407 
N44 X-148.238 Y-18.043 Z14.440 
N45 X-148.235 Y-17.971 Z14.324 
N46 X-148.233 Y-17.899 Z14.208 
N47 X-148.230 Y-17.826 Z14.093 
N48 X-148.227 Y-17.754 Z13.977 
N49 X-148.225 Y-17.682 Z13.861 
N50 X-148.222 Y-17.610 Z13.746 
N51 X-148.219 Y-17.537 Z13.630 
N52 X-148.216 Y-17.465 Z13.515 
N53 X-148.214 Y-17.393 Z13.399 
N54 X-148.211 Y-17.321 Z13.283 
N55 X-148.208 Y-17.248 Z13.168 
N56 X-148.205 Y-17.176 Z13.052 
N57 X-148.203 Y-17.104 Z12.937 
N58 X-148.200 Y-17.032 Z12.821 
N59 X-148.197 Y-16.959 Z12.705 
N60 X-148.195 Y-16.887 Z12.590 
N61 X-148.192 Y-16.815 Z12.474 
N62 X-148.189 Y-16.743 Z12.358 
N63 X-148.186 Y-16.670 Z12.243 
N64 X-148.184 Y-16.598 Z12.127 
N65 X-148.181 Y-16.526 Z12.012 
N66 X-148.178 Y-16.454 Z11.896 
N67 X-148.175 Y-16.381 Z11.780 
N68 X-148.173 Y-16.309 Z11.665 
N69 X-148.170 Y-16.237 Z11.549 
N70 X-148.167 Y-16.165 Z11.433 
N71 X-148.165 Y-16.092 Z11.318 
N72 X-148.162 Y-16.020 Z11.202 
N73 X-148.159 Y-15.948 Z11.087 
N74 X-148.156 Y-15.876 Z10.971 
N75 X-148.154 Y-15.803 Z10.855 
N76 X-148.151 Y-15.731 Z10.740 
N77 X-148.148 Y-15.659 Z10.624 
N78 X-148.146 Y-15.587 Z10.509 
N79 X-148.143 Y-15.514 Z10.393 
N80 X-148.140 Y-15.442 Z10.277 
N81 X-148.137 Y-15.370 Z10.162 
N82 X-148.135 Y-15.298 Z10.046 
N83 X-148.132 Y-15.225 Z9.930 
N84 X-148.129 Y-15.153 Z9.815 
N85 X-148.126 Y-15.081 Z9.699 
N86 X-148.124 Y-15.009 Z9.584 
N87 X-148.121 Y-14.937 Z9.468 
N88 X-148.118 Y-14.865 Z9.353 
N89 X-148.116 Y-14.793 Z9.238 
N90 X-148.113 Y-14.721 Z9.123 
N91 X-148.110 Y-14.649 Z9.008 
N92 X-148.107 Y-14.577 Z8.893 
N93 X-148.105 Y-14.505 Z8.778 
N94 X-148.102 Y-14.433 Z8.663 
N95 X-148.099 Y-14.362 Z8.548 
N96 X-148.097 Y-14.290 Z8.433 
N97 X-148.094 Y-14.218 Z8.318 
N98 X-148.091 Y-14.146 Z8.203 
N99 X-148.088 Y-14.074 Z8.088 
N100 X-148.086 Y-14.002 Z7.973 
N101 X-148.083 Y-13.930 Z7.858 
N102 X-148.080 Y-13.858 Z7.743 
N103 X-148.078 Y-13.787 Z7.628 
N104 X-148.075 Y-13.715 Z7.513 
N105 X-148.072 Y-13.643 Z7.398 
N106 X-148.069 Y-13.571 Z7.283 
N107 X-148.067 Y-13.499 Z7.168 
N108 X-148.064 Y-13.427 Z7.052 
N109 X-148.061 Y-13.355 Z6.937 
N110 X-148.059 Y-13.283 Z6.822 
N111 X-148.056 Y-13.212 Z6.707 
N112 X-148.053 Y-13.140 Z6.592 
N113 X-148.050 Y-13.068 Z6.477 
N114 X-148.048 Y-12.996 Z6.362 
N115 X-148.045 Y-12.924 Z6.247 
N116 X-148.042 Y-12.852 Z6.132 
N117 X-148.040 Y-12.780 Z6.017 
N118 X-148.037 Y-12.708 Z5.902 
N119 X-148.034 Y-12.637 Z5.787 
N120 X-148.032 Y-12.565 Z5.672 
N121 X-148.029 Y-12.493 Z5.557 
N122 X-148.026 Y-12.421 Z5.442 
N123 X-148.023 Y-12.349 Z5.327 
N124 X-148.021 Y-12.277 Z5.212 
N125 X-148.018 Y-12.205 Z5.097 
N126 X-148.015 Y-12.133 Z4.982 
N127 X-148.013 Y-12.062 Z4.867 
N128 X-148.010 Y-11.990 Z4.752 
N129 X-148.007 Y-11.918 Z4.637 
N130 X-148.004 Y-11.846 Z4.522 
N131 X-148.002 Y-11.774 Z4.407 
N132 X-147.999 Y-11.702 Z4.292 
N133 X-147.996 Y-11.630 Z4.177 
N134 X-147.994 Y-11.558 Z4.062 
N135 X-147.992 Y-11.487 Z3.947 
N136 X-147.991 Y-11.415 Z3.832 
N137 X-147.990 Y-11.343 Z3.717 
N138 X-147.989 Y-11.271 Z3.602 
N139 X-147.988 Y-11.199 Z3.487 
N140 X-147.987 Y-11.127 Z3.372 
N141 X-147.986 Y-11.055 Z3.257 
N142 X-147.985 Y-10.983 Z3.142 
N143 X-147.984 Y-10.911 Z3.027 
N144 X-147.982 Y-10.840 Z2.912 
N145 X-147.981 Y-10.768 Z2.796 
N146 X-147.980 Y-10.696 Z2.681 
N147 X-147.979 Y-10.624 Z2.566 
N148 X-147.978 Y-10.552 Z2.451 
N149 X-147.977 Y-10.480 Z2.336 
N150 X-147.976 Y-10.408 Z2.221 
N151 X-147.975 Y-10.336 Z2.106 
N152 X-147.974 Y-10.265 Z1.991 
N153 X-147.973 Y-10.193 Z1.876 
N154 X-147.972 Y-10.121 Z1.761 
N155 X-147.971 Y-10.049 Z1.646 
N156 X-147.970 Y-9.977 Z1.531 
N157 X-147.969 Y-9.905 Z1.416 
N158 X-147.968 Y-9.833 Z1.301 
N159 X-147.967 Y-9.761 Z1.186 
N160 X-147.966 Y-9.689 Z1.071 
N161 X-147.965 Y-9.618 Z0.956 
N162 X-147.963 Y-9.546 Z0.841 
N163 X-147.962 Y-9.474 Z0.726 
N164 X-147.961 Y-9.402 Z0.611 
N165 X-147.960 Y-9.330 Z0.496 
N166 X-147.959 Y-9.258 Z0.381 
N167 X-147.958 Y-9.186 Z0.266 
N168 X-147.957 Y-9.114 Z0.151 
N169 X-147.956 Y-9.042 Z0.035 
N170 X-147.955 Y-8.971 Z-0.080 
N171 X-147.954 Y-8.899 Z-0.195 
N172 X-147.953 Y-8.827 Z-0.310 
N173 X-147.952 Y-8.755 Z-0.425 
N174 X-147.951 Y-8.683 Z-0.540 
N175 X-147.952 Y-8.611 Z-0.655 
N176 X-147.953 Y-8.539 Z-0.770 
N177 X-147.953 Y-8.467 Z-0.885 
N178 X-147.954 Y-8.395 Z-1.000 
N179 X-147.954 Y-8.324 Z-1.115 
N180 X-147.955 Y-8.252 Z-1.230 
N181 X-147.955 Y-8.180 Z-1.345 
N182 X-147.956 Y-8.108 Z-1.460 
N183 X-147.956 Y-8.036 Z-1.575 
N184 X-147.957 Y-7.964 Z-1.690 
N185 X-147.957 Y-7.892 Z-1.805 
N186 X-147.958 Y-7.820 Z-1.920 
N187 X-147.959 Y-7.748 Z-2.035 
N188 X-147.959 Y-7.677 Z-2.150 
N189 X-147.960 Y-7.605 Z-2.265 
N190 X-147.960 Y-7.533 Z-2.380 
N191 X-147.961 Y-7.461 Z-2.495 
N192 X-147.961 Y-7.389 Z-2.611 
N193 X-147.962 Y-7.317 Z-2.726 
N194 X-147.962 Y-7.245 Z-2.841 
N195 X-147.963 Y-7.173 Z-2.956 
N196 X-147.963 Y-7.102 Z-3.071 
N197 X-147.964 Y-7.030 Z-3.186 
N198 X-147.964 Y-6.958 Z-3.301 
N199 X-147.965 Y-6.886 Z-3.416 
N200 X-147.966 Y-6.814 Z-3.531 
N201 X-147.966 Y-6.742 Z-3.646 
N202 X-147.967 Y-6.670 Z-3.761 
N203 X-147.967 Y-6.598 Z-3.876 
N204 X-147.968 Y-6.526 Z-3.991 
N205 X-147.968 Y-6.455 Z-4.106 
N206 X-147.969 Y-6.383 Z-4.221 
N207 X-147.969 Y-6.311 Z-4.336 
N208 X-147.970 Y-6.239 Z-4.451 
N209 X-147.970 Y-6.167 Z-4.566 
N210 X-147.971 Y-6.095 Z-4.681 
N211 X-147.972 Y-6.023 Z-4.796 
N212 X-147.972 Y-5.951 Z-4.911 
N213 X-147.973 Y-5.879 Z-5.026 
N214 X-147.973 Y-5.808 Z-5.141 
N215 X-147.974 Y-5.736 Z-5.257 
N216 X-147.974 Y-5.664 Z-5.372 
N217 X-147.975 Y-5.592 Z-5.487 
N218 X-147.975 Y-5.520 Z-5.602 
N219 X-147.976 Y-5.448 Z-5.717 
N220 X-147.976 Y-5.375 Z-5.833 
N221 X-147.977 Y-5.303 Z-5.949 
N222 X-147.978 Y-5.231 Z-6.064 
N223 X-147.978 Y-5.159 Z-6.180 
N224 X-147.979 Y-5.086 Z-6.295 
N225 X-147.979 Y-5.014 Z-6.411 
N226 X-147.980 Y-4.942 Z-6.527 
N227 X-147.980 Y-4.870 Z-6.642 
N228 X-147.981 Y-4.797 Z-6.758 
N229 X-147.981 Y-4.725 Z-6.874 
N230 X-147.982 Y-4.653 Z-6.989 
N231 X-147.982 Y-4.581 Z-7.105 
N232 X-147.983 Y-4.508 Z-7.221 
N233 X-147.984 Y-4.436 Z-7.336 
N234 X-147.984 Y-4.364 Z-7.452 
N235 X-147.985 Y-4.292 Z-7.568 
N236 X-147.985 Y-4.219 Z-7.683 
N237 X-147.986 Y-4.147 Z-7.799 
N238 X-147.986 Y-4.075 Z-7.914 
N239 X-147.987 Y-4.003 Z-8.030 
N240 X-147.987 Y-3.930 Z-8.146 
N241 G40 X-148.027 Y1.369 Z-16.626 F407
N242 X-148.027 Y1.369 Z-16.626 
N243 G00 X-148.027 Y-19.832 Z-29.874 
N244 X-148.441 Y-43.046 Z10.766 
N245 X-148.441 Y-21.845 Z24.014 
N246 ;on NNTA
N247 D3 
N248 G01 G41 X-148.241 Y-16.546 Z15.536 F407
N249 G01 X-148.241 Y-16.546 Z15.536 F407 
N250 X-148.238 Y-16.474 Z15.420 
N251 X-148.235 Y-16.402 Z15.304 
N252 X-148.233 Y-16.330 Z15.189 
N253 X-148.230 Y-16.258 Z15.073 
N254 X-148.227 Y-16.185 Z14.957 
N255 X-148.225 Y-16.113 Z14.842 
N256 X-148.222 Y-16.041 Z14.726 
N257 X-148.219 Y-15.969 Z14.611 
N258 X-148.216 Y-15.896 Z14.495 
N259 X-148.214 Y-15.824 Z14.379 
N260 X-148.211 Y-15.752 Z14.264 
N261 X-148.208 Y-15.680 Z14.148 
N262 X-148.205 Y-15.607 Z14.033 
N263 X-148.203 Y-15.535 Z13.917 
N264 X-148.200 Y-15.463 Z13.801 
N265 X-148.197 Y-15.391 Z13.686 
N266 X-148.195 Y-15.318 Z13.570 
N267 X-148.192 Y-15.246 Z13.454 
N268 X-148.189 Y-15.174 Z13.339 
N269 X-148.186 Y-15.102 Z13.223 
N270 X-148.184 Y-15.029 Z13.108 
N271 X-148.181 Y-14.957 Z12.992 
N272 X-148.178 Y-14.885 Z12.876 
N273 X-148.175 Y-14.813 Z12.761 
N274 X-148.173 Y-14.740 Z12.645 
N275 X-148.170 Y-14.668 Z12.529 
N276 X-148.167 Y-14.596 Z12.414 
N277 X-148.165 Y-14.524 Z12.298 
N278 X-148.162 Y-14.451 Z12.183 
N279 X-148.159 Y-14.379 Z12.067 
N280 X-148.156 Y-14.307 Z11.951 
N281 X-148.154 Y-14.235 Z11.836 
N282 X-148.151 Y-14.162 Z11.720 
N283 X-148.148 Y-14.090 Z11.604 
N284 X-148.146 Y-14.018 Z11.489 
N285 X-148.143 Y-13.946 Z11.373 
N286 X-148.140 Y-13.873 Z11.258 
N287 X-148.137 Y-13.801 Z11.142 
N288 X-148.135 Y-13.729 Z11.026 
N289 X-148.132 Y-13.657 Z10.911 
N290 X-148.129 Y-13.584 Z10.795 
N291 X-148.126 Y-13.512 Z10.680 
N292 X-148.124 Y-13.440 Z10.564 
N293 X-148.121 Y-13.368 Z10.448 
N294 X-148.118 Y-13.296 Z10.333 
N295 X-148.116 Y-13.224 Z10.218 
N296 X-148.113 Y-13.152 Z10.103 
N297 X-148.110 Y-13.080 Z9.988 
N298 X-148.107 Y-13.008 Z9.873 
N299 X-148.105 Y-12.936 Z9.758 
N300 X-148.102 Y-12.865 Z9.643 
N301 X-148.099 Y-12.793 Z9.528 
N302 X-148.097 Y-12.721 Z9.413 
N303 X-148.094 Y-12.649 Z9.298 
N304 X-148.091 Y-12.577 Z9.183 
N305 X-148.088 Y-12.505 Z9.068 
N306 X-148.086 Y-12.433 Z8.953 
N307 X-148.083 Y-12.361 Z8.838 
N308 X-148.080 Y-12.290 Z8.723 
N309 X-148.078 Y-12.218 Z8.608 
N310 X-148.075 Y-12.146 Z8.493 
N311 X-148.072 Y-12.074 Z8.378 
N312 X-148.069 Y-12.002 Z8.263 
N313 X-148.067 Y-11.930 Z8.148 
N314 X-148.064 Y-11.858 Z8.033 
N315 X-148.061 Y-11.786 Z7.918 
N316 X-148.059 Y-11.715 Z7.803 
N317 X-148.056 Y-11.643 Z7.688 
N318 X-148.053 Y-11.571 Z7.573 
N319 X-148.050 Y-11.499 Z7.458 
N320 X-148.048 Y-11.427 Z7.343 
N321 X-148.045 Y-11.355 Z7.228 
N322 X-148.042 Y-11.283 Z7.113 
N323 X-148.040 Y-11.211 Z6.998 
N324 X-148.037 Y-11.140 Z6.883 
N325 X-148.034 Y-11.068 Z6.768 
N326 X-148.032 Y-10.996 Z6.653 
N327 X-148.029 Y-10.924 Z6.538 
N328 X-148.026 Y-10.852 Z6.423 
N329 X-148.023 Y-10.780 Z6.308 
N330 X-148.021 Y-10.708 Z6.192 
N331 X-148.018 Y-10.636 Z6.077 
N332 X-148.015 Y-10.565 Z5.962 
N333 X-148.013 Y-10.493 Z5.847 
N334 X-148.010 Y-10.421 Z5.732 
N335 X-148.007 Y-10.349 Z5.617 
N336 X-148.004 Y-10.277 Z5.502 
N337 X-148.002 Y-10.205 Z5.387 
N338 X-147.999 Y-10.133 Z5.272 
N339 X-147.996 Y-10.061 Z5.157 
N340 X-147.994 Y-9.990 Z5.042 
N341 X-147.992 Y-9.918 Z4.927 
N342 X-147.991 Y-9.846 Z4.812 
N343 X-147.990 Y-9.774 Z4.697 
N344 X-147.989 Y-9.702 Z4.582 
N345 X-147.988 Y-9.630 Z4.467 
N346 X-147.987 Y-9.558 Z4.352 
N347 X-147.986 Y-9.486 Z4.237 
N348 X-147.985 Y-9.414 Z4.122 
N349 X-147.984 Y-9.343 Z4.007 
N350 X-147.982 Y-9.271 Z3.892 
N351 X-147.981 Y-9.199 Z3.777 
N352 X-147.980 Y-9.127 Z3.662 
N353 X-147.979 Y-9.055 Z3.547 
N354 X-147.978 Y-8.983 Z3.432 
N355 X-147.977 Y-8.911 Z3.317 
N356 X-147.976 Y-8.839 Z3.202 
N357 X-147.975 Y-8.768 Z3.087 
N358 X-147.974 Y-8.696 Z2.972 
N359 X-147.973 Y-8.624 Z2.856 
N360 X-147.972 Y-8.552 Z2.741 
N361 X-147.971 Y-8.480 Z2.626 
N362 X-147.970 Y-8.408 Z2.511 
N363 X-147.969 Y-8.336 Z2.396 
N364 X-147.968 Y-8.264 Z2.281 
N365 X-147.967 Y-8.192 Z2.166 
N366 X-147.966 Y-8.121 Z2.051 
N367 X-147.965 Y-8.049 Z1.936 
N368 X-147.963 Y-7.977 Z1.821 
N369 X-147.962 Y-7.905 Z1.706 
N370 X-147.961 Y-7.833 Z1.591 
N371 X-147.960 Y-7.761 Z1.476 
N372 X-147.959 Y-7.689 Z1.361 
N373 X-147.958 Y-7.617 Z1.246 
N374 X-147.957 Y-7.545 Z1.131 
N375 X-147.956 Y-7.474 Z1.016 
N376 X-147.955 Y-7.402 Z0.901 
N377 X-147.954 Y-7.330 Z0.786 
N378 X-147.953 Y-7.258 Z0.671 
N379 X-147.952 Y-7.186 Z0.556 
N380 X-147.951 Y-7.114 Z0.441 
N381 X-147.952 Y-7.042 Z0.326 
N382 X-147.953 Y-6.970 Z0.211 
N383 X-147.953 Y-6.898 Z0.096 
N384 X-147.954 Y-6.827 Z-0.020 
N385 X-147.954 Y-6.755 Z-0.135 
N386 X-147.955 Y-6.683 Z-0.250 
N387 X-147.955 Y-6.611 Z-0.365 
N388 X-147.956 Y-6.539 Z-0.480 
N389 X-147.956 Y-6.467 Z-0.595 
N390 X-147.957 Y-6.395 Z-0.710 
N391 X-147.957 Y-6.323 Z-0.825 
N392 X-147.958 Y-6.251 Z-0.940 
N393 X-147.959 Y-6.180 Z-1.055 
N394 X-147.959 Y-6.108 Z-1.170 
N395 X-147.960 Y-6.036 Z-1.285 
N396 X-147.960 Y-5.964 Z-1.400 
N397 X-147.961 Y-5.892 Z-1.515 
N398 X-147.961 Y-5.820 Z-1.630 
N399 X-147.962 Y-5.748 Z-1.745 
N400 X-147.962 Y-5.676 Z-1.860 
N401 X-147.963 Y-5.605 Z-1.975 
N402 X-147.963 Y-5.533 Z-2.090 
N403 X-147.964 Y-5.461 Z-2.205 
N404 X-147.964 Y-5.389 Z-2.320 
N405 X-147.965 Y-5.317 Z-2.435 
N406 X-147.966 Y-5.245 Z-2.551 
N407 X-147.966 Y-5.173 Z-2.666 
N408 X-147.967 Y-5.101 Z-2.781 
N409 X-147.967 Y-5.029 Z-2.896 
N410 X-147.968 Y-4.958 Z-3.011 
N411 X-147.968 Y-4.886 Z-3.126 
N412 X-147.969 Y-4.814 Z-3.241 
N413 X-147.969 Y-4.742 Z-3.356 
N414 X-147.970 Y-4.670 Z-3.471 
N415 X-147.970 Y-4.598 Z-3.586 
N416 X-147.971 Y-4.526 Z-3.701 
N417 X-147.972 Y-4.454 Z-3.816 
N418 X-147.972 Y-4.382 Z-3.931 
N419 X-147.973 Y-4.311 Z-4.046 
N420 X-147.973 Y-4.239 Z-4.161 
N421 X-147.974 Y-4.167 Z-4.276 
N422 X-147.974 Y-4.095 Z-4.391 
N423 X-147.975 Y-4.023 Z-4.506 
N424 X-147.975 Y-3.951 Z-4.621 
N425 X-147.976 Y-3.879 Z-4.737 
N426 X-147.976 Y-3.807 Z-4.853 
N427 X-147.977 Y-3.734 Z-4.968 
N428 X-147.978 Y-3.662 Z-5.084 
N429 X-147.978 Y-3.590 Z-5.199 
N430 X-147.979 Y-3.518 Z-5.315 
N431 X-147.979 Y-3.445 Z-5.431 
N432 X-147.980 Y-3.373 Z-5.546 
N433 X-147.980 Y-3.301 Z-5.662 
N434 X-147.981 Y-3.228 Z-5.778 
N435 X-147.981 Y-3.156 Z-5.893 
N436 X-147.982 Y-3.084 Z-6.009 
N437 X-147.982 Y-3.012 Z-6.125 
N438 X-147.983 Y-2.939 Z-6.240 
N439 X-147.984 Y-2.867 Z-6.356 
N440 X-147.984 Y-2.795 Z-6.472 
N441 X-147.985 Y-2.723 Z-6.587 
N442 X-147.985 Y-2.650 Z-6.703 
N443 X-147.986 Y-2.578 Z-6.818 
N444 X-147.986 Y-2.506 Z-6.934 
N445 X-147.987 Y-2.434 Z-7.050 
N446 X-147.987 Y-2.361 Z-7.165 
N447 G40 X-148.027 Y2.938 Z-15.646 F407
N448 X-148.027 Y2.938 Z-15.646 
N449 G00 X-148.027 Y-39.465 Z-42.142 
;RAPORT("TD999999","Side Milling:131 End")
;trailer : concat=None
; points cnt = 398
N451 M9 ; chlodziwo wyl.
N452 MSG (" --- KONIEC PODPROGRAMU --- ")
N453 FGROUP()
N454 TRAFOOF
N455 STOPRE
N456 G0 G53 D0 Z550.0 M9 M5
N457 G0 G53 Y150 A0 B0
N458 M17
