; PROGRAM NAME: D99999937
; ORDER       : D999999
; OPER. NAME  : Side Milling:132
; OPER. DESCR.: Side Milling/rowek wyk
; OPER. TYPE  : sideMill
; GEO. OPTION : 3
; MACHINE     : HSTM_300HD_SIM840D_Py
;             : HSTM300/500 - HAMUEL: 5-axis milling machine-SIM840D Traori PP_Script
; CONTROL     : SINUMERIK 840D
; created:   2022-11-03 09:03:07.039009
;-------DODATKOWE DANE-------------------
; PROGRAMISTA : Mariusz Malec
; PARTID      : 139T006893P1018_-
;  ap         : 5.0
;  ae         : 5.0
;  lean_angle : 0.0
;  fin_offset : 0.0
;----------------------------------------
;RAPORT("TD999999","Side Milling:132")
N10 TRAFOOF
N11 D0
N12 G90 G94
N13 G0 G53 D0 Z550
N14 STOPRE
M9 ; chlodziwo wyl
; --- Side Milling:132 - Side Milling/rowek wyk ---
N16 ;ToolChange : concat=None ,current_tdmid=None, PP.tdmId=940664
N17 TRAFOOF
N18 G0 G53 D0 X-200 Y150 Z550 B0
N19 T="7740664"
;RAPORT("TD999999","ToolChangeStart 7740664")
N20 M6
;RAPORT("TD999999","ToolChangeEnd")
N21 STOPRE
N22 MSG(" TLID=940664 D=6.0 R=0.6 Ang=0.0 Len=100.0 ")
N23 ; (Preloading tool)
N24 T="7740783"
N25 S9018 M03
N26 STOPRE
N27 CYCLE832(0.1,1,1)
N28 G0 G53 A302.0000 B-0.0000
N29 TRAORI
N30 G54 D1
;tol5=0.15
STOPRE
E_ZDARZ=300010
;ACS_FINISH_SLOT=7740664
STOPRE
;UWAGA : ZMIENIONA TOLERANCJA OSI A i B, ruchy osi A i B beda usuniete : TOL5=0.15
N31 ; DELTA A > 40.1
N32 TRAFOOF
N33 D1
N34 STOPRE
N35 G00 G54 Z286.000
N36 G01 A302.0000 F10000
N37 TRAORI
N38 G54 D1
N39 STOPRE
N40 TRANS 
N41 G00 X-147.926 Y35.293 Z48.252 A302.0000 
N42 M342 ; chlodziwo woda
N43 X-147.926 Y-7.109 Z21.757 
N44 ;rowek od strony mocowania
N45 D2 
N46 G01 G41 X-147.866 Y-1.810 Z13.276 F541
N47 G01 X-147.866 Y-1.810 Z13.276 F541 
N48 X-147.865 Y-1.665 Z13.045 
N49 X-147.863 Y-1.521 Z12.814 
N50 X-147.861 Y-1.376 Z12.582 
N51 X-147.860 Y-1.232 Z12.351 
N52 X-147.858 Y-1.087 Z12.120 
N53 X-147.856 Y-0.943 Z11.889 
N54 X-147.855 Y-0.798 Z11.657 
N55 X-147.853 Y-0.654 Z11.426 
N56 X-147.851 Y-0.509 Z11.195 
N57 X-147.850 Y-0.365 Z10.963 
N58 X-147.848 Y-0.220 Z10.732 
N59 X-147.846 Y-0.076 Z10.501 
N60 X-147.845 Y0.069 Z10.270 
N61 X-147.843 Y0.213 Z10.038 
N62 X-147.842 Y0.358 Z9.807 
N63 X-147.840 Y0.502 Z9.576 
N64 X-147.838 Y0.647 Z9.344 
N65 X-147.837 Y0.791 Z9.113 
N66 X-147.835 Y0.936 Z8.882 
N67 X-147.833 Y1.080 Z8.651 
N68 X-147.832 Y1.225 Z8.419 
N69 X-147.830 Y1.369 Z8.188 
N70 X-147.828 Y1.513 Z7.958 
N71 X-147.827 Y1.656 Z7.729 
N72 X-147.825 Y1.800 Z7.499 
N73 X-147.824 Y1.943 Z7.270 
N74 X-147.823 Y2.087 Z7.040 
N75 X-147.822 Y2.230 Z6.810 
N76 X-147.822 Y2.374 Z6.581 
N77 X-147.821 Y2.517 Z6.351 
N78 X-147.820 Y2.661 Z6.122 
N79 X-147.820 Y2.804 Z5.892 
N80 X-147.820 Y2.948 Z5.662 
N81 X-147.820 Y3.091 Z5.433 
N82 X-147.820 Y3.235 Z5.203 
N83 X-147.821 Y3.378 Z4.974 
N84 X-147.821 Y3.522 Z4.744 
N85 X-147.822 Y3.665 Z4.514 
N86 X-147.822 Y3.808 Z4.285 
N87 X-147.823 Y3.952 Z4.055 
N88 X-147.824 Y4.095 Z3.826 
N89 X-147.826 Y4.239 Z3.596 
N90 X-147.827 Y4.382 Z3.366 
N91 X-147.828 Y4.526 Z3.137 
N92 X-147.830 Y4.669 Z2.907 
N93 X-147.832 Y4.813 Z2.678 
N94 X-147.834 Y4.956 Z2.448 
N95 X-147.836 Y5.100 Z2.218 
N96 X-147.838 Y5.243 Z1.989 
N97 X-147.841 Y5.387 Z1.759 
N98 X-147.843 Y5.530 Z1.530 
N99 X-147.846 Y5.674 Z1.300 
N100 X-147.849 Y5.817 Z1.070 
N101 X-147.852 Y5.960 Z0.841 
N102 X-147.855 Y6.104 Z0.611 
N103 X-147.859 Y6.247 Z0.382 
N104 X-147.862 Y6.391 Z0.152 
N105 X-147.866 Y6.534 Z-0.077 
N106 X-147.870 Y6.678 Z-0.307 
N107 X-147.874 Y6.821 Z-0.537 
N108 X-147.878 Y6.965 Z-0.766 
N109 X-147.882 Y7.108 Z-0.996 
N110 X-147.886 Y7.252 Z-1.225 
N111 X-147.891 Y7.395 Z-1.455 
N112 X-147.896 Y7.538 Z-1.684 
N113 X-147.901 Y7.682 Z-1.914 
N114 X-147.906 Y7.825 Z-2.144 
N115 X-147.911 Y7.969 Z-2.373 
N116 X-147.916 Y8.112 Z-2.603 
N117 X-147.922 Y8.256 Z-2.832 
N118 X-147.927 Y8.399 Z-3.062 
N119 X-147.933 Y8.543 Z-3.291 
N120 X-147.939 Y8.686 Z-3.521 
N121 X-147.945 Y8.829 Z-3.750 
N122 X-147.951 Y8.973 Z-3.980 
N123 X-147.958 Y9.116 Z-4.210 
N124 X-147.964 Y9.260 Z-4.439 
N125 X-147.971 Y9.403 Z-4.669 
N126 X-147.978 Y9.547 Z-4.898 
N127 X-147.985 Y9.690 Z-5.128 
N128 X-147.992 Y9.833 Z-5.357 
N129 X-147.999 Y9.977 Z-5.587 
N130 X-148.007 Y10.120 Z-5.816 
N131 X-148.014 Y10.264 Z-6.046 
N132 X-148.022 Y10.407 Z-6.275 
N133 X-148.030 Y10.551 Z-6.505 
N134 X-148.038 Y10.694 Z-6.734 
N135 X-148.046 Y10.837 Z-6.964 
N136 X-148.055 Y10.981 Z-7.193 
N137 X-148.063 Y11.124 Z-7.423 
N138 X-148.072 Y11.268 Z-7.652 
N139 X-148.081 Y11.411 Z-7.882 
N140 X-148.090 Y11.554 Z-8.111 
N141 X-148.099 Y11.698 Z-8.341 
N142 X-148.108 Y11.841 Z-8.570 
N143 X-148.117 Y11.986 Z-8.801 
N144 X-148.127 Y12.130 Z-9.032 
N145 X-148.136 Y12.274 Z-9.264 
N146 X-148.145 Y12.419 Z-9.495 
N147 X-148.155 Y12.563 Z-9.726 
N148 X-148.164 Y12.708 Z-9.957 
N149 X-148.173 Y12.852 Z-10.188 
N150 X-148.183 Y12.997 Z-10.419 
N151 X-148.192 Y13.141 Z-10.650 
N152 X-148.201 Y13.285 Z-10.882 
N153 X-148.211 Y13.430 Z-11.113 
N154 G40 X-148.221 Y13.591 Z-11.370 F795
N155 X-148.221 Y13.591 Z-11.370 
N156 X-148.240 Y13.882 Z-11.836 F1557 
N157 X-148.276 Y14.435 Z-12.721 F2828 
N158 X-148.336 Y15.335 Z-14.162 F4099 
N159 X-148.419 Y16.497 Z-16.022 F4861 
N160 X-148.529 Y17.790 Z-18.090 F5116 
N161 X-148.714 Y19.135 Z-20.243 
N162 X-148.757 Y18.064 Z-18.529 F4861 
N163 X-148.690 Y16.863 Z-16.607 F4099 
N164 X-148.636 Y15.996 Z-15.219 F2828 
N165 X-148.602 Y15.465 Z-14.370 F1557 
N166 X-148.583 Y15.176 Z-13.907 F795 
N167 ;rowek od strony piora
N168 D1 
N169 G01 G41 X-148.572 Y15.006 Z-13.635 F541
N170 X-148.572 Y15.006 Z-13.635 F541 
N171 X-148.563 Y14.862 Z-13.404 
N172 X-148.554 Y14.717 Z-13.173 
N173 X-148.544 Y14.573 Z-12.942 
N174 X-148.535 Y14.428 Z-12.711 
N175 X-148.526 Y14.284 Z-12.480 
N176 X-148.516 Y14.140 Z-12.248 
N177 X-148.507 Y13.995 Z-12.017 
N178 X-148.498 Y13.851 Z-11.786 
N179 X-148.489 Y13.706 Z-11.555 
N180 X-148.479 Y13.562 Z-11.324 
N181 X-148.470 Y13.417 Z-11.093 
N182 X-148.461 Y13.273 Z-10.862 
N183 X-148.451 Y13.128 Z-10.630 
N184 X-148.442 Y12.984 Z-10.399 
N185 X-148.433 Y12.840 Z-10.168 
N186 X-148.423 Y12.695 Z-9.937 
N187 X-148.414 Y12.551 Z-9.706 
N188 X-148.405 Y12.406 Z-9.475 
N189 X-148.395 Y12.262 Z-9.243 
N190 X-148.386 Y12.117 Z-9.012 
N191 X-148.377 Y11.973 Z-8.781 
N192 X-148.367 Y11.829 Z-8.550 
N193 X-148.358 Y11.685 Z-8.320 
N194 X-148.349 Y11.542 Z-8.091 
N195 X-148.340 Y11.398 Z-7.861 
N196 X-148.331 Y11.255 Z-7.631 
N197 X-148.323 Y11.111 Z-7.402 
N198 X-148.314 Y10.968 Z-7.172 
N199 X-148.306 Y10.824 Z-6.942 
N200 X-148.297 Y10.680 Z-6.713 
N201 X-148.289 Y10.537 Z-6.483 
N202 X-148.282 Y10.393 Z-6.253 
N203 X-148.274 Y10.250 Z-6.024 
N204 X-148.266 Y10.106 Z-5.794 
N205 X-148.259 Y9.963 Z-5.564 
N206 X-148.251 Y9.819 Z-5.335 
N207 X-148.244 Y9.676 Z-5.105 
N208 X-148.237 Y9.532 Z-4.875 
N209 X-148.230 Y9.389 Z-4.645 
N210 X-148.224 Y9.245 Z-4.416 
N211 X-148.217 Y9.102 Z-4.186 
N212 X-148.211 Y8.958 Z-3.956 
N213 X-148.205 Y8.815 Z-3.727 
N214 X-148.198 Y8.671 Z-3.497 
N215 X-148.193 Y8.527 Z-3.267 
N216 X-148.187 Y8.384 Z-3.037 
N217 X-148.181 Y8.240 Z-2.808 
N218 X-148.176 Y8.097 Z-2.578 
N219 X-148.170 Y7.953 Z-2.348 
N220 X-148.165 Y7.810 Z-2.118 
N221 X-148.160 Y7.666 Z-1.889 
N222 X-148.155 Y7.523 Z-1.659 
N223 X-148.151 Y7.379 Z-1.429 
N224 X-148.146 Y7.235 Z-1.199 
N225 X-148.142 Y7.092 Z-0.970 
N226 X-148.137 Y6.948 Z-0.740 
N227 X-148.133 Y6.805 Z-0.510 
N228 X-148.129 Y6.661 Z-0.280 
N229 X-148.125 Y6.518 Z-0.051 
N230 X-148.122 Y6.374 Z0.179 
N231 X-148.118 Y6.230 Z0.409 
N232 X-148.115 Y6.087 Z0.639 
N233 X-148.112 Y5.943 Z0.868 
N234 X-148.109 Y5.800 Z1.098 
N235 X-148.106 Y5.656 Z1.328 
N236 X-148.103 Y5.513 Z1.558 
N237 X-148.101 Y5.369 Z1.787 
N238 X-148.098 Y5.225 Z2.017 
N239 X-148.096 Y5.082 Z2.247 
N240 X-148.094 Y4.938 Z2.477 
N241 X-148.092 Y4.795 Z2.707 
N242 X-148.090 Y4.651 Z2.936 
N243 X-148.088 Y4.508 Z3.166 
N244 X-148.087 Y4.364 Z3.396 
N245 X-148.085 Y4.220 Z3.626 
N246 X-148.084 Y4.077 Z3.855 
N247 X-148.083 Y3.933 Z4.085 
N248 X-148.082 Y3.790 Z4.315 
N249 X-148.082 Y3.646 Z4.545 
N250 X-148.081 Y3.502 Z4.775 
N251 X-148.080 Y3.359 Z5.004 
N252 X-148.080 Y3.215 Z5.234 
N253 X-148.080 Y3.072 Z5.464 
N254 X-148.080 Y2.928 Z5.694 
N255 X-148.080 Y2.785 Z5.923 
N256 X-148.081 Y2.641 Z6.153 
N257 X-148.081 Y2.497 Z6.383 
N258 X-148.082 Y2.354 Z6.613 
N259 X-148.082 Y2.210 Z6.843 
N260 X-148.083 Y2.067 Z7.072 
N261 X-148.084 Y1.923 Z7.302 
N262 X-148.086 Y1.779 Z7.532 
N263 X-148.087 Y1.636 Z7.762 
N264 X-148.089 Y1.492 Z7.991 
N265 X-148.090 Y1.349 Z8.221 
N266 X-148.092 Y1.204 Z8.453 
N267 X-148.094 Y1.060 Z8.684 
N268 X-148.095 Y0.915 Z8.915 
N269 X-148.097 Y0.771 Z9.146 
N270 X-148.099 Y0.626 Z9.378 
N271 X-148.100 Y0.482 Z9.609 
N272 X-148.102 Y0.337 Z9.840 
N273 X-148.104 Y0.193 Z10.071 
N274 X-148.105 Y0.048 Z10.303 
N275 X-148.107 Y-0.096 Z10.534 
N276 X-148.109 Y-0.241 Z10.765 
N277 G40 X-148.170 Y-5.540 Z19.246 F541
N278 X-148.170 Y-5.540 Z19.246 
N279 G00 X-148.170 Y36.862 Z45.742 
;RAPORT("TD999999","Side Milling:132 End")
;trailer : concat=None
; points cnt = 227
N281 MSG (" --- GROUPED OF SUBPROGRAM --- ")
N282 FGROUP()
N283 TRAFOOF
; PROGRAM NAME: D99999937
; ORDER       : D999999
; OPER. NAME  : Side Milling:133
; OPER. DESCR.: finish slot NGE
; OPER. TYPE  : sideMill
; GEO. OPTION : 3
; MACHINE     : HSTM_300HD_SIM840D_Py
;             : HSTM300/500 - HAMUEL: 5-axis milling machine-SIM840D Traori PP_Script
; CONTROL     : SINUMERIK 840D
; created:   2022-11-03 09:03:10.501998
;-------DODATKOWE DANE-------------------
; PROGRAMISTA : Mariusz Malec
; PARTID      : 139T006893P1018_-
;  ap         : 5.0
;  ae         : 5.0
;  lean_angle : 0.0
;  fin_offset : 0.03
;----------------------------------------
;RAPORT("TD999999","Side Milling:133")
N10 TRAFOOF
N11 D0
N12 G90 G94
N13 G0 G53 D0 Z550
N14 STOPRE
M9 ; chlodziwo wyl
; --- Side Milling:133 - finish slot NGE ---
N16 ;ToolChange : concat=None ,current_tdmid=None, PP.tdmId=940664
N17 TRAFOOF
N18 G0 G53 D0 Z550 B0
N19 STOPRE
N20 MSG(" TLID=940664 D=6.0 R=0.6 Ang=0.0 Len=100.0 ")
N21 S9018 M03
N22 STOPRE
N23 CYCLE832(0.1,1,1)
N24 G0 G53 A302.0000 B-0.0000
N25 TRAORI
N26 G54 D1
;tol5=0.15
STOPRE
E_ZDARZ=300010
;ACS_FINISH_SLOT=7740664
STOPRE
;UWAGA : ZMIENIONA TOLERANCJA OSI A i B, ruchy osi A i B beda usuniete : TOL5=0.15
N27 ; DELTA A > 40.1
N28 TRAFOOF
N29 D1
N30 STOPRE
N31 G00 G54 Z286.000
N32 G01 A302.0000 F10000
N33 TRAORI
N34 G54 D1
N35 STOPRE
N36 TRANS 
N37 G00 X-147.906 Y35.319 Z48.268 A302.0000 
N38 M342 ; chlodziwo woda
N39 X-147.906 Y-7.084 Z21.773 
N40 ;rowek od strony mocowania
N41 D2 
N42 G01 G41 X-147.846 Y-1.785 Z13.292 F541
N43 G01 X-147.846 Y-1.785 Z13.292 F541 
N44 X-147.845 Y-1.640 Z13.061 
N45 X-147.843 Y-1.496 Z12.830 
N46 X-147.841 Y-1.351 Z12.598 
N47 X-147.840 Y-1.207 Z12.367 
N48 X-147.838 Y-1.062 Z12.136 
N49 X-147.836 Y-0.917 Z11.905 
N50 X-147.835 Y-0.773 Z11.673 
N51 X-147.833 Y-0.628 Z11.442 
N52 X-147.831 Y-0.484 Z11.211 
N53 X-147.830 Y-0.339 Z10.979 
N54 X-147.828 Y-0.195 Z10.748 
N55 X-147.826 Y-0.050 Z10.517 
N56 X-147.825 Y0.094 Z10.286 
N57 X-147.823 Y0.239 Z10.054 
N58 X-147.822 Y0.383 Z9.823 
N59 X-147.820 Y0.528 Z9.592 
N60 X-147.818 Y0.672 Z9.360 
N61 X-147.817 Y0.817 Z9.129 
N62 X-147.815 Y0.961 Z8.898 
N63 X-147.813 Y1.106 Z8.667 
N64 X-147.812 Y1.250 Z8.435 
N65 X-147.810 Y1.395 Z8.204 
N66 X-147.808 Y1.538 Z7.974 
N67 X-147.807 Y1.682 Z7.745 
N68 X-147.805 Y1.825 Z7.515 
N69 X-147.804 Y1.969 Z7.286 
N70 X-147.803 Y2.112 Z7.056 
N71 X-147.802 Y2.256 Z6.826 
N72 X-147.802 Y2.399 Z6.597 
N73 X-147.801 Y2.543 Z6.367 
N74 X-147.801 Y2.686 Z6.138 
N75 X-147.800 Y2.830 Z5.908 
N76 X-147.800 Y2.973 Z5.678 
N77 X-147.800 Y3.117 Z5.449 
N78 X-147.800 Y3.260 Z5.219 
N79 X-147.801 Y3.404 Z4.989 
N80 X-147.801 Y3.547 Z4.760 
N81 X-147.802 Y3.690 Z4.530 
N82 X-147.802 Y3.834 Z4.301 
N83 X-147.803 Y3.977 Z4.071 
N84 X-147.804 Y4.121 Z3.841 
N85 X-147.806 Y4.264 Z3.612 
N86 X-147.807 Y4.408 Z3.382 
N87 X-147.808 Y4.551 Z3.153 
N88 X-147.810 Y4.695 Z2.923 
N89 X-147.812 Y4.838 Z2.693 
N90 X-147.814 Y4.982 Z2.464 
N91 X-147.816 Y5.125 Z2.234 
N92 X-147.818 Y5.269 Z2.005 
N93 X-147.821 Y5.412 Z1.775 
N94 X-147.823 Y5.556 Z1.545 
N95 X-147.826 Y5.699 Z1.316 
N96 X-147.829 Y5.843 Z1.086 
N97 X-147.832 Y5.986 Z0.857 
N98 X-147.835 Y6.130 Z0.627 
N99 X-147.839 Y6.273 Z0.397 
N100 X-147.842 Y6.416 Z0.168 
N101 X-147.846 Y6.560 Z-0.062 
N102 X-147.850 Y6.703 Z-0.291 
N103 X-147.854 Y6.847 Z-0.521 
N104 X-147.858 Y6.990 Z-0.751 
N105 X-147.862 Y7.134 Z-0.980 
N106 X-147.866 Y7.277 Z-1.210 
N107 X-147.871 Y7.421 Z-1.439 
N108 X-147.876 Y7.564 Z-1.669 
N109 X-147.881 Y7.708 Z-1.898 
N110 X-147.886 Y7.851 Z-2.128 
N111 X-147.891 Y7.994 Z-2.358 
N112 X-147.896 Y8.138 Z-2.587 
N113 X-147.902 Y8.281 Z-2.817 
N114 X-147.907 Y8.425 Z-3.046 
N115 X-147.913 Y8.568 Z-3.276 
N116 X-147.919 Y8.712 Z-3.505 
N117 X-147.925 Y8.855 Z-3.735 
N118 X-147.931 Y8.999 Z-3.965 
N119 X-147.938 Y9.142 Z-4.194 
N120 X-147.944 Y9.285 Z-4.424 
N121 X-147.951 Y9.429 Z-4.653 
N122 X-147.958 Y9.572 Z-4.883 
N123 X-147.965 Y9.716 Z-5.112 
N124 X-147.972 Y9.859 Z-5.342 
N125 X-147.979 Y10.003 Z-5.571 
N126 X-147.987 Y10.146 Z-5.801 
N127 X-147.994 Y10.289 Z-6.030 
N128 X-148.002 Y10.433 Z-6.260 
N129 X-148.010 Y10.576 Z-6.489 
N130 X-148.018 Y10.720 Z-6.719 
N131 X-148.026 Y10.863 Z-6.948 
N132 X-148.035 Y11.007 Z-7.178 
N133 X-148.043 Y11.150 Z-7.407 
N134 X-148.052 Y11.293 Z-7.637 
N135 X-148.061 Y11.437 Z-7.866 
N136 X-148.070 Y11.580 Z-8.096 
N137 X-148.079 Y11.724 Z-8.325 
N138 X-148.088 Y11.867 Z-8.555 
N139 X-148.097 Y12.011 Z-8.786 
N140 X-148.107 Y12.156 Z-9.017 
N141 X-148.116 Y12.300 Z-9.248 
N142 X-148.125 Y12.445 Z-9.479 
N143 X-148.135 Y12.589 Z-9.711 
N144 X-148.144 Y12.734 Z-9.942 
N145 X-148.153 Y12.878 Z-10.173 
N146 X-148.163 Y13.022 Z-10.404 
N147 X-148.172 Y13.167 Z-10.635 
N148 X-148.181 Y13.311 Z-10.866 
N149 X-148.191 Y13.456 Z-11.097 
N150 G40 X-148.201 Y13.617 Z-11.355 F795
N151 X-148.201 Y13.617 Z-11.355 
N152 X-148.220 Y13.908 Z-11.821 F1558 
N153 X-148.256 Y14.461 Z-12.706 F2829 
N154 X-148.317 Y15.362 Z-14.148 F4100 
N155 X-148.404 Y16.525 Z-16.009 F4863 
N156 X-148.526 Y17.817 Z-18.077 F5118 
N157 X-148.757 Y19.161 Z-20.228 
N158 X-148.852 Y18.090 Z-18.513 F4863 
N159 X-148.789 Y16.894 Z-16.600 F4100 
N160 X-148.736 Y16.021 Z-15.202 F2829 
N161 X-148.702 Y15.488 Z-14.351 F1558 
N162 X-148.683 Y15.199 Z-13.887 F795 
N163 ;rowek od strony piora
N164 D1 
N165 G01 G41 X-148.672 Y15.030 Z-13.616 F541
N166 X-148.672 Y15.030 Z-13.616 F541 
N167 X-148.663 Y14.885 Z-13.385 
N168 X-148.654 Y14.741 Z-13.154 
N169 X-148.644 Y14.597 Z-12.923 
N170 X-148.635 Y14.452 Z-12.692 
N171 X-148.626 Y14.308 Z-12.461 
N172 X-148.616 Y14.163 Z-12.230 
N173 X-148.607 Y14.019 Z-11.998 
N174 X-148.598 Y13.874 Z-11.767 
N175 X-148.588 Y13.730 Z-11.536 
N176 X-148.579 Y13.585 Z-11.305 
N177 X-148.570 Y13.441 Z-11.074 
N178 X-148.561 Y13.297 Z-10.843 
N179 X-148.551 Y13.152 Z-10.612 
N180 X-148.542 Y13.008 Z-10.380 
N181 X-148.533 Y12.863 Z-10.149 
N182 X-148.523 Y12.719 Z-9.918 
N183 X-148.514 Y12.574 Z-9.687 
N184 X-148.505 Y12.430 Z-9.456 
N185 X-148.495 Y12.285 Z-9.225 
N186 X-148.486 Y12.141 Z-8.993 
N187 X-148.477 Y11.997 Z-8.762 
N188 X-148.467 Y11.852 Z-8.531 
N189 X-148.458 Y11.709 Z-8.302 
N190 X-148.449 Y11.565 Z-8.072 
N191 X-148.440 Y11.422 Z-7.842 
N192 X-148.431 Y11.278 Z-7.613 
N193 X-148.423 Y11.135 Z-7.383 
N194 X-148.414 Y10.991 Z-7.154 
N195 X-148.406 Y10.848 Z-6.924 
N196 X-148.397 Y10.704 Z-6.694 
N197 X-148.389 Y10.561 Z-6.465 
N198 X-148.381 Y10.417 Z-6.235 
N199 X-148.374 Y10.274 Z-6.005 
N200 X-148.366 Y10.130 Z-5.776 
N201 X-148.359 Y9.987 Z-5.546 
N202 X-148.351 Y9.843 Z-5.316 
N203 X-148.344 Y9.700 Z-5.087 
N204 X-148.337 Y9.556 Z-4.857 
N205 X-148.330 Y9.413 Z-4.627 
N206 X-148.324 Y9.269 Z-4.398 
N207 X-148.317 Y9.126 Z-4.168 
N208 X-148.311 Y8.982 Z-3.938 
N209 X-148.305 Y8.839 Z-3.709 
N210 X-148.298 Y8.695 Z-3.479 
N211 X-148.293 Y8.552 Z-3.249 
N212 X-148.287 Y8.408 Z-3.020 
N213 X-148.281 Y8.265 Z-2.790 
N214 X-148.276 Y8.121 Z-2.560 
N215 X-148.270 Y7.978 Z-2.331 
N216 X-148.265 Y7.834 Z-2.101 
N217 X-148.260 Y7.691 Z-1.871 
N218 X-148.255 Y7.547 Z-1.642 
N219 X-148.251 Y7.404 Z-1.412 
N220 X-148.246 Y7.260 Z-1.182 
N221 X-148.242 Y7.116 Z-0.952 
N222 X-148.237 Y6.973 Z-0.723 
N223 X-148.233 Y6.829 Z-0.493 
N224 X-148.229 Y6.686 Z-0.263 
N225 X-148.225 Y6.542 Z-0.034 
N226 X-148.222 Y6.399 Z0.196 
N227 X-148.218 Y6.255 Z0.426 
N228 X-148.215 Y6.112 Z0.655 
N229 X-148.212 Y5.968 Z0.885 
N230 X-148.209 Y5.825 Z1.115 
N231 X-148.206 Y5.681 Z1.345 
N232 X-148.203 Y5.538 Z1.574 
N233 X-148.201 Y5.394 Z1.804 
N234 X-148.198 Y5.250 Z2.034 
N235 X-148.196 Y5.107 Z2.264 
N236 X-148.194 Y4.963 Z2.493 
N237 X-148.192 Y4.820 Z2.723 
N238 X-148.190 Y4.676 Z2.953 
N239 X-148.188 Y4.533 Z3.182 
N240 X-148.187 Y4.389 Z3.412 
N241 X-148.185 Y4.246 Z3.642 
N242 X-148.184 Y4.102 Z3.872 
N243 X-148.183 Y3.958 Z4.101 
N244 X-148.182 Y3.815 Z4.331 
N245 X-148.182 Y3.671 Z4.561 
N246 X-148.181 Y3.528 Z4.791 
N247 X-148.180 Y3.384 Z5.020 
N248 X-148.180 Y3.241 Z5.250 
N249 X-148.180 Y3.097 Z5.480 
N250 X-148.180 Y2.954 Z5.710 
N251 X-148.180 Y2.810 Z5.939 
N252 X-148.181 Y2.666 Z6.169 
N253 X-148.181 Y2.523 Z6.399 
N254 X-148.182 Y2.379 Z6.628 
N255 X-148.182 Y2.236 Z6.858 
N256 X-148.183 Y2.092 Z7.088 
N257 X-148.184 Y1.949 Z7.318 
N258 X-148.186 Y1.805 Z7.547 
N259 X-148.187 Y1.662 Z7.777 
N260 X-148.189 Y1.518 Z8.007 
N261 X-148.190 Y1.375 Z8.237 
N262 X-148.192 Y1.230 Z8.468 
N263 X-148.194 Y1.085 Z8.699 
N264 X-148.195 Y0.941 Z8.930 
N265 X-148.197 Y0.796 Z9.162 
N266 X-148.199 Y0.652 Z9.393 
N267 X-148.200 Y0.507 Z9.624 
N268 X-148.202 Y0.363 Z9.856 
N269 X-148.204 Y0.218 Z10.087 
N270 X-148.205 Y0.074 Z10.318 
N271 X-148.207 Y-0.071 Z10.549 
N272 X-148.209 Y-0.215 Z10.781 
N273 G40 X-148.270 Y-5.514 Z19.261 F541
N274 X-148.270 Y-5.514 Z19.261 
N275 G00 X-148.270 Y36.888 Z45.757 
;RAPORT("TD999999","Side Milling:133 End")
;trailer : concat=None
; points cnt = 227
N277 MSG (" --- GROUPED OF SUBPROGRAM --- ")
N278 FGROUP()
N279 TRAFOOF
; PROGRAM NAME: D99999937
; ORDER       : D999999
; OPER. NAME  : Side Milling:134
; OPER. DESCR.: semifinish slot NGA
; OPER. TYPE  : sideMill
; GEO. OPTION : 3
; MACHINE     : HSTM_300HD_SIM840D_Py
;             : HSTM300/500 - HAMUEL: 5-axis milling machine-SIM840D Traori PP_Script
; CONTROL     : SINUMERIK 840D
; created:   2022-11-03 09:03:13.353864
;-------DODATKOWE DANE-------------------
; PROGRAMISTA : Mariusz Malec
; PARTID      : 139T006893P1018_-
;  ap         : 5.0
;  ae         : 5.0
;  lean_angle : 0.0
;  fin_offset : 0.0
;----------------------------------------
;RAPORT("TD999999","Side Milling:134")
N10 TRAFOOF
N11 D0
N12 G90 G94
N13 G0 G53 D0 Z550
N14 STOPRE
M9 ; chlodziwo wyl
; --- Side Milling:134 - semifinish slot NGA ---
N16 ;ToolChange : concat=None ,current_tdmid=None, PP.tdmId=940664
N17 TRAFOOF
N18 G0 G53 D0 Z550 B0
N19 STOPRE
N20 MSG(" TLID=940664 D=6.0 R=0.6 Ang=0.0 Len=100.0 ")
N21 S9018 M03
N22 STOPRE
N23 CYCLE832(0.1,1,1)
N24 G0 G53 A122.0000 B0.0000
N25 TRAORI
N26 G54 D1
;tol5=0.15
STOPRE
E_ZDARZ=300010
;ACS_FINISH_SLOT=7740664
STOPRE
;UWAGA : ZMIENIONA TOLERANCJA OSI A i B, ruchy osi A i B beda usuniete : TOL5=0.15
N27 ; DELTA A > 40.1
N28 TRAFOOF
N29 D1
N30 STOPRE
N31 G00 G54 Z286.000
N32 G01 A122.0000 F10000
N33 TRAORI
N34 G54 D1
N35 STOPRE
N36 TRANS 
N37 G00 X-148.200 Y-35.426 Z-48.039 A122.0000 
N38 M342 ; chlodziwo woda
N39 X-148.200 Y6.976 Z-21.543 
N40 ;rowek od strony mocowania
N41 D4 
N42 G01 G41 X-148.016 Y1.678 Z-13.064 F541
N43 G01 X-148.016 Y1.678 Z-13.064 F541 
N44 X-148.011 Y1.534 Z-12.832 
N45 X-148.006 Y1.389 Z-12.601 
N46 X-148.001 Y1.245 Z-12.370 
N47 X-147.996 Y1.100 Z-12.139 
N48 X-147.991 Y0.956 Z-11.907 
N49 X-147.986 Y0.811 Z-11.676 
N50 X-147.981 Y0.667 Z-11.445 
N51 X-147.976 Y0.522 Z-11.214 
N52 X-147.971 Y0.378 Z-10.982 
N53 X-147.966 Y0.233 Z-10.751 
N54 X-147.961 Y0.089 Z-10.520 
N55 X-147.956 Y-0.056 Z-10.289 
N56 X-147.951 Y-0.200 Z-10.057 
N57 X-147.946 Y-0.345 Z-9.826 
N58 X-147.941 Y-0.489 Z-9.595 
N59 X-147.936 Y-0.634 Z-9.364 
N60 X-147.931 Y-0.778 Z-9.132 
N61 X-147.926 Y-0.923 Z-8.901 
N62 X-147.921 Y-1.067 Z-8.670 
N63 X-147.916 Y-1.212 Z-8.439 
N64 X-147.911 Y-1.356 Z-8.207 
N65 X-147.906 Y-1.501 Z-7.976 
N66 X-147.901 Y-1.644 Z-7.747 
N67 X-147.896 Y-1.788 Z-7.517 
N68 X-147.891 Y-1.931 Z-7.287 
N69 X-147.887 Y-2.075 Z-7.058 
N70 X-147.882 Y-2.218 Z-6.828 
N71 X-147.878 Y-2.362 Z-6.599 
N72 X-147.874 Y-2.505 Z-6.369 
N73 X-147.870 Y-2.649 Z-6.140 
N74 X-147.866 Y-2.792 Z-5.910 
N75 X-147.862 Y-2.936 Z-5.680 
N76 X-147.859 Y-3.079 Z-5.451 
N77 X-147.855 Y-3.222 Z-5.221 
N78 X-147.852 Y-3.366 Z-4.992 
N79 X-147.849 Y-3.509 Z-4.762 
N80 X-147.846 Y-3.653 Z-4.532 
N81 X-147.843 Y-3.796 Z-4.303 
N82 X-147.841 Y-3.940 Z-4.073 
N83 X-147.838 Y-4.083 Z-3.844 
N84 X-147.836 Y-4.227 Z-3.614 
N85 X-147.834 Y-4.370 Z-3.384 
N86 X-147.832 Y-4.514 Z-3.155 
N87 X-147.830 Y-4.657 Z-2.925 
N88 X-147.829 Y-4.801 Z-2.696 
N89 X-147.827 Y-4.944 Z-2.466 
N90 X-147.826 Y-5.088 Z-2.236 
N91 X-147.824 Y-5.231 Z-2.007 
N92 X-147.823 Y-5.375 Z-1.777 
N93 X-147.822 Y-5.518 Z-1.548 
N94 X-147.822 Y-5.661 Z-1.318 
N95 X-147.821 Y-5.805 Z-1.088 
N96 X-147.821 Y-5.948 Z-0.859 
N97 X-147.820 Y-6.092 Z-0.629 
N98 X-147.820 Y-6.235 Z-0.400 
N99 X-147.820 Y-6.379 Z-0.170 
N100 X-147.820 Y-6.522 Z0.060 
N101 X-147.820 Y-6.666 Z0.289 
N102 X-147.821 Y-6.809 Z0.519 
N103 X-147.822 Y-6.953 Z0.748 
N104 X-147.822 Y-7.096 Z0.978 
N105 X-147.823 Y-7.240 Z1.208 
N106 X-147.824 Y-7.383 Z1.437 
N107 X-147.825 Y-7.527 Z1.667 
N108 X-147.827 Y-7.670 Z1.896 
N109 X-147.828 Y-7.814 Z2.126 
N110 X-147.830 Y-7.957 Z2.356 
N111 X-147.832 Y-8.101 Z2.585 
N112 X-147.834 Y-8.244 Z2.815 
N113 X-147.836 Y-8.387 Z3.044 
N114 X-147.838 Y-8.531 Z3.274 
N115 X-147.841 Y-8.674 Z3.504 
N116 X-147.843 Y-8.818 Z3.733 
N117 X-147.846 Y-8.961 Z3.963 
N118 X-147.849 Y-9.105 Z4.192 
N119 X-147.852 Y-9.248 Z4.422 
N120 X-147.855 Y-9.392 Z4.652 
N121 X-147.858 Y-9.535 Z4.881 
N122 X-147.862 Y-9.679 Z5.111 
N123 X-147.866 Y-9.822 Z5.340 
N124 X-147.869 Y-9.966 Z5.570 
N125 X-147.873 Y-10.109 Z5.800 
N126 X-147.877 Y-10.252 Z6.029 
N127 X-147.882 Y-10.396 Z6.259 
N128 X-147.886 Y-10.539 Z6.488 
N129 X-147.891 Y-10.683 Z6.718 
N130 X-147.895 Y-10.826 Z6.947 
N131 X-147.900 Y-10.970 Z7.177 
N132 X-147.905 Y-11.113 Z7.407 
N133 X-147.910 Y-11.257 Z7.636 
N134 X-147.916 Y-11.400 Z7.866 
N135 X-147.921 Y-11.544 Z8.095 
N136 X-147.927 Y-11.687 Z8.325 
N137 X-147.933 Y-11.830 Z8.554 
N138 X-147.938 Y-11.974 Z8.784 
N139 X-147.944 Y-12.118 Z9.015 
N140 X-147.950 Y-12.263 Z9.246 
N141 X-147.956 Y-12.407 Z9.478 
N142 X-147.962 Y-12.552 Z9.709 
N143 X-147.968 Y-12.696 Z9.940 
N144 X-147.974 Y-12.841 Z10.171 
N145 X-147.980 Y-12.985 Z10.403 
N146 X-147.986 Y-13.130 Z10.634 
N147 X-147.992 Y-13.274 Z10.865 
N148 X-147.998 Y-13.419 Z11.096 
N149 X-148.004 Y-13.563 Z11.328 
N150 G40 X-148.010 Y-13.724 Z11.585 F795
N151 X-148.010 Y-13.724 Z11.585 
N152 X-148.022 Y-14.017 Z12.053 F1560 
N153 X-148.046 Y-14.571 Z12.940 F2834 
N154 X-148.085 Y-15.475 Z14.388 F4108 
N155 X-148.142 Y-16.642 Z16.254 F4872 
N156 X-148.222 Y-17.939 Z18.330 F5127 
N157 X-148.372 Y-19.289 Z20.491 
N158 X-148.448 Y-18.283 Z18.881 F4872 
N159 X-148.408 Y-17.090 Z16.972 F4108 
N160 X-148.374 Y-16.205 Z15.556 F2834 
N161 X-148.352 Y-15.677 Z14.711 F1560 
N162 X-148.341 Y-15.391 Z14.252 F795 
N163 ;rowek od strony piora
N164 D3 
N165 G01 G41 X-148.334 Y-15.224 Z13.985 F541
N166 X-148.334 Y-15.224 Z13.985 F541 
N167 X-148.328 Y-15.080 Z13.754 
N168 X-148.322 Y-14.935 Z13.523 
N169 X-148.316 Y-14.791 Z13.292 
N170 X-148.310 Y-14.646 Z13.060 
N171 X-148.304 Y-14.502 Z12.829 
N172 X-148.298 Y-14.357 Z12.598 
N173 X-148.292 Y-14.213 Z12.367 
N174 X-148.286 Y-14.068 Z12.136 
N175 X-148.280 Y-13.924 Z11.904 
N176 X-148.274 Y-13.779 Z11.673 
N177 X-148.268 Y-13.635 Z11.442 
N178 X-148.262 Y-13.490 Z11.211 
N179 X-148.256 Y-13.346 Z10.979 
N180 X-148.250 Y-13.201 Z10.748 
N181 X-148.244 Y-13.057 Z10.517 
N182 X-148.238 Y-12.912 Z10.286 
N183 X-148.232 Y-12.768 Z10.054 
N184 X-148.226 Y-12.623 Z9.823 
N185 X-148.220 Y-12.479 Z9.592 
N186 X-148.214 Y-12.334 Z9.361 
N187 X-148.208 Y-12.190 Z9.130 
N188 X-148.202 Y-12.045 Z8.898 
N189 X-148.196 Y-11.902 Z8.669 
N190 X-148.190 Y-11.758 Z8.439 
N191 X-148.184 Y-11.615 Z8.209 
N192 X-148.178 Y-11.471 Z7.979 
N193 X-148.173 Y-11.328 Z7.750 
N194 X-148.168 Y-11.184 Z7.520 
N195 X-148.163 Y-11.040 Z7.290 
N196 X-148.158 Y-10.897 Z7.060 
N197 X-148.153 Y-10.753 Z6.831 
N198 X-148.148 Y-10.610 Z6.601 
N199 X-148.144 Y-10.466 Z6.371 
N200 X-148.139 Y-10.323 Z6.141 
N201 X-148.135 Y-10.179 Z5.912 
N202 X-148.131 Y-10.035 Z5.682 
N203 X-148.127 Y-9.892 Z5.452 
N204 X-148.124 Y-9.748 Z5.222 
N205 X-148.120 Y-9.605 Z4.993 
N206 X-148.117 Y-9.461 Z4.763 
N207 X-148.113 Y-9.318 Z4.533 
N208 X-148.110 Y-9.174 Z4.303 
N209 X-148.107 Y-9.030 Z4.073 
N210 X-148.105 Y-8.887 Z3.844 
N211 X-148.102 Y-8.743 Z3.614 
N212 X-148.099 Y-8.600 Z3.384 
N213 X-148.097 Y-8.456 Z3.154 
N214 X-148.095 Y-8.313 Z2.925 
N215 X-148.093 Y-8.169 Z2.695 
N216 X-148.091 Y-8.025 Z2.465 
N217 X-148.089 Y-7.882 Z2.235 
N218 X-148.088 Y-7.738 Z2.005 
N219 X-148.086 Y-7.595 Z1.776 
N220 X-148.085 Y-7.451 Z1.546 
N221 X-148.084 Y-7.307 Z1.316 
N222 X-148.083 Y-7.164 Z1.086 
N223 X-148.082 Y-7.020 Z0.857 
N224 X-148.081 Y-6.877 Z0.627 
N225 X-148.081 Y-6.733 Z0.397 
N226 X-148.080 Y-6.589 Z0.167 
N227 X-148.080 Y-6.446 Z-0.063 
N228 X-148.080 Y-6.302 Z-0.292 
N229 X-148.080 Y-6.159 Z-0.522 
N230 X-148.080 Y-6.015 Z-0.752 
N231 X-148.081 Y-5.872 Z-0.982 
N232 X-148.081 Y-5.728 Z-1.212 
N233 X-148.082 Y-5.584 Z-1.441 
N234 X-148.083 Y-5.441 Z-1.671 
N235 X-148.084 Y-5.297 Z-1.901 
N236 X-148.085 Y-5.154 Z-2.131 
N237 X-148.086 Y-5.010 Z-2.361 
N238 X-148.088 Y-4.866 Z-2.590 
N239 X-148.089 Y-4.723 Z-2.820 
N240 X-148.091 Y-4.579 Z-3.050 
N241 X-148.093 Y-4.436 Z-3.280 
N242 X-148.095 Y-4.292 Z-3.509 
N243 X-148.097 Y-4.149 Z-3.739 
N244 X-148.100 Y-4.005 Z-3.969 
N245 X-148.102 Y-3.861 Z-4.199 
N246 X-148.105 Y-3.718 Z-4.429 
N247 X-148.108 Y-3.574 Z-4.658 
N248 X-148.111 Y-3.431 Z-4.888 
N249 X-148.114 Y-3.287 Z-5.118 
N250 X-148.117 Y-3.143 Z-5.348 
N251 X-148.121 Y-3.000 Z-5.577 
N252 X-148.124 Y-2.856 Z-5.807 
N253 X-148.128 Y-2.713 Z-6.037 
N254 X-148.132 Y-2.569 Z-6.267 
N255 X-148.136 Y-2.426 Z-6.496 
N256 X-148.140 Y-2.282 Z-6.726 
N257 X-148.145 Y-2.138 Z-6.956 
N258 X-148.149 Y-1.995 Z-7.186 
N259 X-148.154 Y-1.851 Z-7.415 
N260 X-148.159 Y-1.708 Z-7.645 
N261 X-148.163 Y-1.564 Z-7.875 
N262 X-148.168 Y-1.420 Z-8.106 
N263 X-148.173 Y-1.275 Z-8.337 
N264 X-148.178 Y-1.131 Z-8.569 
N265 X-148.183 Y-0.986 Z-8.800 
N266 X-148.188 Y-0.842 Z-9.031 
N267 X-148.193 Y-0.697 Z-9.262 
N268 X-148.198 Y-0.553 Z-9.494 
N269 X-148.203 Y-0.408 Z-9.725 
N270 X-148.208 Y-0.264 Z-9.956 
N271 X-148.213 Y-0.119 Z-10.187 
N272 X-148.218 Y0.025 Z-10.419 
N273 G40 X-148.399 Y5.324 Z-18.898 F541
N274 X-148.399 Y5.324 Z-18.898 
N275 G00 X-148.399 Y-37.079 Z-45.394 
;RAPORT("TD999999","Side Milling:134 End")
;trailer : concat=None
; points cnt = 227
N277 MSG (" --- GROUPED OF SUBPROGRAM --- ")
N278 FGROUP()
N279 TRAFOOF
; PROGRAM NAME: D99999937
; ORDER       : D999999
; OPER. NAME  : Side Milling:135
; OPER. DESCR.: finish slot NGA
; OPER. TYPE  : sideMill
; GEO. OPTION : 3
; MACHINE     : HSTM_300HD_SIM840D_Py
;             : HSTM300/500 - HAMUEL: 5-axis milling machine-SIM840D Traori PP_Script
; CONTROL     : SINUMERIK 840D
; created:   2022-11-03 09:03:16.275491
;-------DODATKOWE DANE-------------------
; PROGRAMISTA : Mariusz Malec
; PARTID      : 139T006893P1018_-
;  ap         : 5.0
;  ae         : 5.0
;  lean_angle : 0.0
;  fin_offset : 0.03
;----------------------------------------
;RAPORT("TD999999","Side Milling:135")
N10 TRAFOOF
N11 D0
N12 G90 G94
N13 G0 G53 D0 Z550
N14 STOPRE
M9 ; chlodziwo wyl
; --- Side Milling:135 - finish slot NGA ---
N16 ;ToolChange : concat=None ,current_tdmid=None, PP.tdmId=940664
N17 TRAFOOF
N18 G0 G53 D0 Z550 B0
N19 STOPRE
N20 MSG(" TLID=940664 D=6.0 R=0.6 Ang=0.0 Len=100.0 ")
N21 S9018 M03
N22 STOPRE
N23 CYCLE832(0.1,1,1)
N24 G0 G53 A122.0000 B0.0000
N25 TRAORI
N26 G54 D1
;tol5=0.15
STOPRE
E_ZDARZ=300010
;ACS_FINISH_SLOT=7740664
STOPRE
;UWAGA : ZMIENIONA TOLERANCJA OSI A i B, ruchy osi A i B beda usuniete : TOL5=0.15
N27 ; DELTA A > 40.1
N28 TRAFOOF
N29 D1
N30 STOPRE
N31 G00 G54 Z286.000
N32 G01 A122.0000 F10000
N33 TRAORI
N34 G54 D1
N35 STOPRE
N36 TRANS 
N37 G00 X-148.180 Y-35.451 Z-48.055 A122.0000 
N38 M342 ; chlodziwo woda
N39 X-148.180 Y6.951 Z-21.559 
N40 ;rowek od strony mocowania
N41 D4 
N42 G01 G41 X-147.996 Y1.653 Z-13.080 F541
N43 G01 X-147.996 Y1.653 Z-13.080 F541 
N44 X-147.991 Y1.508 Z-12.849 
N45 X-147.986 Y1.364 Z-12.617 
N46 X-147.981 Y1.219 Z-12.386 
N47 X-147.976 Y1.075 Z-12.155 
N48 X-147.971 Y0.930 Z-11.924 
N49 X-147.966 Y0.786 Z-11.692 
N50 X-147.961 Y0.641 Z-11.461 
N51 X-147.956 Y0.497 Z-11.230 
N52 X-147.951 Y0.352 Z-10.999 
N53 X-147.946 Y0.208 Z-10.767 
N54 X-147.941 Y0.063 Z-10.536 
N55 X-147.936 Y-0.081 Z-10.305 
N56 X-147.931 Y-0.226 Z-10.074 
N57 X-147.926 Y-0.370 Z-9.842 
N58 X-147.921 Y-0.515 Z-9.611 
N59 X-147.916 Y-0.659 Z-9.380 
N60 X-147.911 Y-0.804 Z-9.149 
N61 X-147.906 Y-0.948 Z-8.917 
N62 X-147.901 Y-1.093 Z-8.686 
N63 X-147.896 Y-1.237 Z-8.455 
N64 X-147.891 Y-1.382 Z-8.224 
N65 X-147.886 Y-1.526 Z-7.992 
N66 X-147.881 Y-1.670 Z-7.763 
N67 X-147.876 Y-1.813 Z-7.533 
N68 X-147.871 Y-1.957 Z-7.304 
N69 X-147.867 Y-2.100 Z-7.074 
N70 X-147.862 Y-2.243 Z-6.845 
N71 X-147.858 Y-2.387 Z-6.615 
N72 X-147.854 Y-2.530 Z-6.385 
N73 X-147.850 Y-2.674 Z-6.156 
N74 X-147.846 Y-2.817 Z-5.926 
N75 X-147.842 Y-2.961 Z-5.697 
N76 X-147.839 Y-3.104 Z-5.467 
N77 X-147.835 Y-3.248 Z-5.237 
N78 X-147.832 Y-3.391 Z-5.008 
N79 X-147.829 Y-3.535 Z-4.778 
N80 X-147.826 Y-3.678 Z-4.549 
N81 X-147.823 Y-3.822 Z-4.319 
N82 X-147.821 Y-3.965 Z-4.089 
N83 X-147.818 Y-4.109 Z-3.860 
N84 X-147.816 Y-4.252 Z-3.630 
N85 X-147.814 Y-4.396 Z-3.400 
N86 X-147.812 Y-4.539 Z-3.171 
N87 X-147.810 Y-4.683 Z-2.941 
N88 X-147.809 Y-4.826 Z-2.712 
N89 X-147.807 Y-4.969 Z-2.482 
N90 X-147.806 Y-5.113 Z-2.252 
N91 X-147.804 Y-5.256 Z-2.023 
N92 X-147.803 Y-5.400 Z-1.793 
N93 X-147.802 Y-5.543 Z-1.564 
N94 X-147.802 Y-5.687 Z-1.334 
N95 X-147.801 Y-5.830 Z-1.104 
N96 X-147.801 Y-5.974 Z-0.875 
N97 X-147.800 Y-6.117 Z-0.645 
N98 X-147.800 Y-6.261 Z-0.416 
N99 X-147.800 Y-6.404 Z-0.186 
N100 X-147.800 Y-6.548 Z0.044 
N101 X-147.800 Y-6.691 Z0.273 
N102 X-147.801 Y-6.835 Z0.503 
N103 X-147.802 Y-6.978 Z0.733 
N104 X-147.802 Y-7.122 Z0.962 
N105 X-147.803 Y-7.265 Z1.192 
N106 X-147.804 Y-7.409 Z1.421 
N107 X-147.805 Y-7.552 Z1.651 
N108 X-147.807 Y-7.696 Z1.881 
N109 X-147.808 Y-7.839 Z2.110 
N110 X-147.810 Y-7.983 Z2.340 
N111 X-147.812 Y-8.126 Z2.570 
N112 X-147.814 Y-8.270 Z2.799 
N113 X-147.816 Y-8.413 Z3.029 
N114 X-147.818 Y-8.556 Z3.258 
N115 X-147.821 Y-8.700 Z3.488 
N116 X-147.823 Y-8.843 Z3.718 
N117 X-147.826 Y-8.987 Z3.947 
N118 X-147.829 Y-9.130 Z4.177 
N119 X-147.832 Y-9.274 Z4.406 
N120 X-147.835 Y-9.417 Z4.636 
N121 X-147.838 Y-9.561 Z4.866 
N122 X-147.842 Y-9.704 Z5.095 
N123 X-147.846 Y-9.848 Z5.325 
N124 X-147.849 Y-9.991 Z5.554 
N125 X-147.853 Y-10.135 Z5.784 
N126 X-147.857 Y-10.278 Z6.014 
N127 X-147.862 Y-10.422 Z6.243 
N128 X-147.866 Y-10.565 Z6.473 
N129 X-147.871 Y-10.708 Z6.702 
N130 X-147.875 Y-10.852 Z6.932 
N131 X-147.880 Y-10.995 Z7.161 
N132 X-147.885 Y-11.139 Z7.391 
N133 X-147.890 Y-11.282 Z7.621 
N134 X-147.896 Y-11.426 Z7.850 
N135 X-147.901 Y-11.569 Z8.080 
N136 X-147.907 Y-11.713 Z8.309 
N137 X-147.913 Y-11.856 Z8.539 
N138 X-147.918 Y-12.000 Z8.768 
N139 X-147.924 Y-12.144 Z9.000 
N140 X-147.930 Y-12.289 Z9.231 
N141 X-147.936 Y-12.433 Z9.462 
N142 X-147.942 Y-12.578 Z9.693 
N143 X-147.948 Y-12.722 Z9.925 
N144 X-147.954 Y-12.867 Z10.156 
N145 X-147.960 Y-13.011 Z10.387 
N146 X-147.966 Y-13.155 Z10.618 
N147 X-147.972 Y-13.300 Z10.850 
N148 X-147.978 Y-13.444 Z11.081 
N149 X-147.984 Y-13.589 Z11.312 
N150 G40 X-147.990 Y-13.750 Z11.570 F795
N151 X-147.990 Y-13.750 Z11.570 
N152 X-148.002 Y-14.042 Z12.038 F1560 
N153 X-148.026 Y-14.597 Z12.926 F2835 
N154 X-148.066 Y-15.502 Z14.373 F4109 
N155 X-148.126 Y-16.669 Z16.241 F4874 
N156 X-148.220 Y-17.967 Z18.318 F5129 
N157 X-148.414 Y-19.316 Z20.477 
N158 X-148.542 Y-18.310 Z18.867 F4874 
N159 X-148.507 Y-17.120 Z16.963 F4109 
N160 X-148.474 Y-16.231 Z15.541 F2835 
N161 X-148.452 Y-15.702 Z14.693 F1560 
N162 X-148.441 Y-15.415 Z14.234 F795 
N163 ;rowek od strony piora
N164 D3 
N165 G01 G41 X-148.434 Y-15.248 Z13.968 F541
N166 X-148.434 Y-15.248 Z13.968 F541 
N167 X-148.428 Y-15.104 Z13.736 
N168 X-148.422 Y-14.959 Z13.505 
N169 X-148.416 Y-14.815 Z13.274 
N170 X-148.410 Y-14.670 Z13.043 
N171 X-148.404 Y-14.526 Z12.811 
N172 X-148.398 Y-14.381 Z12.580 
N173 X-148.392 Y-14.237 Z12.349 
N174 X-148.386 Y-14.092 Z12.118 
N175 X-148.380 Y-13.948 Z11.886 
N176 X-148.374 Y-13.803 Z11.655 
N177 X-148.368 Y-13.659 Z11.424 
N178 X-148.362 Y-13.514 Z11.193 
N179 X-148.356 Y-13.370 Z10.962 
N180 X-148.350 Y-13.225 Z10.730 
N181 X-148.344 Y-13.081 Z10.499 
N182 X-148.338 Y-12.937 Z10.268 
N183 X-148.332 Y-12.792 Z10.037 
N184 X-148.326 Y-12.648 Z9.805 
N185 X-148.320 Y-12.503 Z9.574 
N186 X-148.314 Y-12.359 Z9.343 
N187 X-148.308 Y-12.214 Z9.112 
N188 X-148.301 Y-12.070 Z8.881 
N189 X-148.296 Y-11.926 Z8.651 
N190 X-148.290 Y-11.783 Z8.421 
N191 X-148.284 Y-11.639 Z8.191 
N192 X-148.278 Y-11.495 Z7.962 
N193 X-148.273 Y-11.352 Z7.732 
N194 X-148.268 Y-11.208 Z7.502 
N195 X-148.263 Y-11.065 Z7.273 
N196 X-148.258 Y-10.921 Z7.043 
N197 X-148.253 Y-10.778 Z6.813 
N198 X-148.248 Y-10.634 Z6.584 
N199 X-148.244 Y-10.491 Z6.354 
N200 X-148.239 Y-10.347 Z6.124 
N201 X-148.235 Y-10.204 Z5.894 
N202 X-148.231 Y-10.060 Z5.665 
N203 X-148.227 Y-9.917 Z5.435 
N204 X-148.224 Y-9.773 Z5.205 
N205 X-148.220 Y-9.629 Z4.976 
N206 X-148.217 Y-9.486 Z4.746 
N207 X-148.213 Y-9.342 Z4.516 
N208 X-148.210 Y-9.199 Z4.286 
N209 X-148.207 Y-9.055 Z4.057 
N210 X-148.205 Y-8.912 Z3.827 
N211 X-148.202 Y-8.768 Z3.597 
N212 X-148.199 Y-8.625 Z3.367 
N213 X-148.197 Y-8.481 Z3.138 
N214 X-148.195 Y-8.338 Z2.908 
N215 X-148.193 Y-8.194 Z2.678 
N216 X-148.191 Y-8.050 Z2.449 
N217 X-148.189 Y-7.907 Z2.219 
N218 X-148.188 Y-7.763 Z1.989 
N219 X-148.186 Y-7.620 Z1.759 
N220 X-148.185 Y-7.476 Z1.530 
N221 X-148.184 Y-7.333 Z1.300 
N222 X-148.183 Y-7.189 Z1.070 
N223 X-148.182 Y-7.046 Z0.840 
N224 X-148.181 Y-6.902 Z0.611 
N225 X-148.181 Y-6.758 Z0.381 
N226 X-148.180 Y-6.615 Z0.151 
N227 X-148.180 Y-6.471 Z-0.079 
N228 X-148.180 Y-6.328 Z-0.308 
N229 X-148.180 Y-6.184 Z-0.538 
N230 X-148.180 Y-6.041 Z-0.768 
N231 X-148.181 Y-5.897 Z-0.998 
N232 X-148.181 Y-5.754 Z-1.227 
N233 X-148.182 Y-5.610 Z-1.457 
N234 X-148.183 Y-5.466 Z-1.687 
N235 X-148.184 Y-5.323 Z-1.916 
N236 X-148.185 Y-5.179 Z-2.146 
N237 X-148.186 Y-5.036 Z-2.376 
N238 X-148.188 Y-4.892 Z-2.606 
N239 X-148.189 Y-4.749 Z-2.835 
N240 X-148.191 Y-4.605 Z-3.065 
N241 X-148.193 Y-4.462 Z-3.295 
N242 X-148.195 Y-4.318 Z-3.525 
N243 X-148.197 Y-4.174 Z-3.754 
N244 X-148.200 Y-4.031 Z-3.984 
N245 X-148.202 Y-3.887 Z-4.214 
N246 X-148.205 Y-3.744 Z-4.444 
N247 X-148.208 Y-3.600 Z-4.673 
N248 X-148.211 Y-3.457 Z-4.903 
N249 X-148.214 Y-3.313 Z-5.133 
N250 X-148.217 Y-3.170 Z-5.362 
N251 X-148.221 Y-3.026 Z-5.592 
N252 X-148.224 Y-2.882 Z-5.822 
N253 X-148.228 Y-2.739 Z-6.052 
N254 X-148.232 Y-2.595 Z-6.281 
N255 X-148.236 Y-2.452 Z-6.511 
N256 X-148.240 Y-2.308 Z-6.741 
N257 X-148.245 Y-2.165 Z-6.970 
N258 X-148.249 Y-2.021 Z-7.200 
N259 X-148.254 Y-1.878 Z-7.430 
N260 X-148.259 Y-1.734 Z-7.660 
N261 X-148.263 Y-1.591 Z-7.889 
N262 X-148.268 Y-1.446 Z-8.121 
N263 X-148.273 Y-1.302 Z-8.352 
N264 X-148.278 Y-1.157 Z-8.583 
N265 X-148.283 Y-1.013 Z-8.814 
N266 X-148.288 Y-0.868 Z-9.046 
N267 X-148.293 Y-0.724 Z-9.277 
N268 X-148.298 Y-0.579 Z-9.508 
N269 X-148.303 Y-0.435 Z-9.739 
N270 X-148.308 Y-0.290 Z-9.971 
N271 X-148.313 Y-0.146 Z-10.202 
N272 X-148.318 Y-0.001 Z-10.433 
N273 G40 X-148.499 Y5.297 Z-18.912 F541
N274 X-148.499 Y5.297 Z-18.912 
N275 G00 X-148.499 Y-37.105 Z-45.408 
;RAPORT("TD999999","Side Milling:135 End")
;trailer : concat=None
; points cnt = 227
N277 M9 ; chlodziwo wyl.
N278 MSG (" --- KONIEC PODPROGRAMU --- ")
N279 FGROUP()
N280 TRAFOOF
N281 STOPRE
N282 G0 G53 D0 Z550.0 M9 M5
N283 G0 G53 Y150 A0 B0
N284 M17
