; ORDER       : D999999
; OPER. NAME  : Flank Milling Transition:136
; OPER. DESCR.: finish flank root/promienie przejsc wk
; OPER. TYPE  : preFinFlank
; GEO. OPTION : 2
; MACHINE     : HSTM_300HD_SIM840D_Py
;             : HSTM300/500 - HAMUEL: 5-axis milling machine-SIM840D Traori PP_Script
; CONTROL     : SINUMERIK 840D
; created:   2022-11-03 09:03:25.865305
;-------DODATKOWE DANE-------------------
; PROGRAMISTA : Mariusz Malec
; PARTID      : 139T006893P1018_-
;  dec_value  : 0.7
;  lean_angle : 24.0
;  tilt_angle : 0.0
;  airf_offset: 0.05
;  firstoffset: 1.5
;----------------------------------------
;RAPORT("TD999999","Flank Milling Transition:136")
N10 TRAFOOF
N11 D0
N12 G90 G94
N13 G0 G53 D0 Z550
N14 STOPRE
M9 ; chlodziwo wyl
; --- Flank Milling Transition:136 - finish flank root/promienie przejsc wk ---
N16 ;ToolChange : concat=None ,current_tdmid=None, PP.tdmId=940783
N17 TRAFOOF
N18 G0 G53 D0 X-200 Y150 Z550 B0
N19 T="7740783"
;RAPORT("TD999999","ToolChangeStart 7740783")
N20 M6
;RAPORT("TD999999","ToolChangeEnd")
N21 STOPRE
N22 MSG(" TLID=940783 D=3.86 R=2.3 Ang=10.0 Len=175.0 ")
N23 ; (Preloading tool)
N24 T="7741084"
N25 S9978 M03
N26 STOPRE
N27 CYCLE832(0.001,1,1)
N28 G0 G53 A113.9296 B-3.2401
N29 TRAORI
N30 G54 D3
N31 D3 
N32 TRANS  X=R9 A=R25
STOPRE
E_ZDARZ=300017
;ACS_FINISH_UBG_PLATFORM_XLB_ROOT=7740783
STOPRE
N33 ; DELTA A > 40.1
N34 TRAFOOF
N35 D3
N36 STOPRE
N37 G00 G54 Z211.000
N38 G01 A113.9296 F10000
N39 TRAORI
N40 G54 D3
N41 STOPRE
N42 TRANS  X=R9 A=R25
N43 G00 X-176.938 Y-58.995 Z-28.409 A113.9296 B-3.2401 
N44 M342 ; chlodziwo woda
N45 X-174.112 Y-13.366 Z-8.161 
N46 G01 X-174.031 Y-11.640 Z-5.552 F878 
N47 X-173.794 Y-10.796 Z-2.549 
N48 X-173.425 Y-10.917 Z0.556 
N49 X-172.961 Y-11.990 Z3.457 
N50 M342 ; chlodziwo woda
N51 X-172.446 Y-13.912 Z5.872 
N52 X-172.410 Y-13.977 Z5.853 A110.2101 B-3.4014 
N53 X-172.381 Y-14.036 Z5.826 A106.3906 B-3.5990 
N54 X-172.362 Y-14.093 Z5.799 A102.6693 B-3.8220 
N55 X-172.350 Y-14.149 Z5.776 A99.0880 B-4.0640 
N56 X-172.345 Y-14.204 Z5.755 A95.6480 B-4.3208 
N57 X-172.345 Y-14.259 Z5.738 A92.3374 B-4.5895 
N58 X-172.351 Y-14.313 Z5.724 A89.1414 B-4.8681 
N59 X-172.362 Y-14.366 Z5.714 A86.0436 B-5.1550 
N60 X-172.377 Y-14.419 Z5.707 A83.0264 B-5.4496 
N61 X-172.394 Y-14.472 Z5.702 A80.0735 B-5.7516 
N62 X-172.414 Y-14.525 Z5.701 A77.1712 B-6.0604 
N63 X-172.436 Y-14.577 Z5.703 A74.3091 B-6.3759 
N64 X-172.459 Y-14.630 Z5.708 A71.4791 B-6.6976 
N65 X-172.483 Y-14.681 Z5.716 A68.6753 B-7.0249 
N66 X-172.507 Y-14.733 Z5.727 A65.8924 B-7.3573 
N67 X-172.530 Y-14.783 Z5.741 A63.1258 B-7.6943 
N68 X-172.553 Y-14.833 Z5.758 A60.3712 B-8.0354 
N69 X-172.574 Y-14.882 Z5.778 A57.6231 B-8.3802 
N70 X-172.592 Y-14.931 Z5.801 A54.8734 B-8.7289 
N71 X-172.606 Y-14.978 Z5.827 A52.1151 B-9.0813 
N72 X-172.614 Y-15.025 Z5.855 A49.3452 B-9.4369 
N73 X-172.618 Y-15.070 Z5.887 A46.5662 B-9.7944 
N74 X-172.616 Y-15.113 Z5.922 A43.7802 B-10.1526 
N75 X-172.610 Y-15.155 Z5.959 A40.9881 B-10.5105 
N76 X-172.599 Y-15.195 Z5.999 A38.1905 B-10.8670 
N77 X-172.584 Y-15.233 Z6.042 A35.3875 B-11.2212 
N78 X-172.563 Y-15.268 Z6.086 A32.5799 B-11.5721 
N79 X-172.538 Y-15.301 Z6.133 A29.7684 B-11.9186 
N80 X-172.509 Y-15.332 Z6.182 A26.9540 B-12.2598 
N81 X-172.476 Y-15.359 Z6.233 A24.1366 B-12.5949 
N82 X-172.441 Y-15.384 Z6.285 A21.3127 B-12.9235 
N83 X-172.405 Y-15.407 Z6.339 A18.4775 B-13.2452 
N84 X-172.369 Y-15.426 Z6.394 A15.6284 B-13.5595 
N85 X-172.333 Y-15.442 Z6.450 A12.7662 B-13.8655 
N86 X-172.296 Y-15.456 Z6.508 A9.8924 B-14.1622 
N87 X-172.261 Y-15.466 Z6.566 A7.0071 B-14.4488 
N88 X-172.226 Y-15.473 Z6.625 A4.1084 B-14.7247 
N89 X-172.194 Y-15.476 Z6.685 A1.1936 B-14.9893 
N90 X-172.164 Y-15.477 Z6.744 A358.2602 B-15.2421 
N91 X-172.138 Y-15.474 Z6.804 A355.3046 B-15.4826 
N92 X-172.115 Y-15.467 Z6.864 A352.3227 B-15.7102 
N93 X-172.097 Y-15.458 Z6.924 A349.3088 B-15.9245 
N94 X-172.083 Y-15.444 Z6.984 A346.2561 B-16.1249 
N95 X-172.075 Y-15.427 Z7.044 A343.1568 B-16.3109 
N96 X-172.073 Y-15.406 Z7.103 A340.0017 B-16.4817 
N97 X-172.078 Y-15.381 Z7.162 A336.7809 B-16.6364 
N98 X-172.090 Y-15.352 Z7.220 A333.4836 B-16.7757 
N99 X-172.109 Y-15.319 Z7.278 A330.0991 B-16.8946 
N100 X-172.136 Y-15.280 Z7.334 A326.6169 B-16.9933 
N101 X-172.171 Y-15.236 Z7.389 A323.0273 B-17.0698 
N102 X-172.214 Y-15.185 Z7.441 A319.3276 B-17.1218 
N103 X-172.265 Y-15.127 Z7.490 A315.5368 B-17.1468 
N104 X-172.324 Y-15.060 Z7.532 A311.7335 B-17.1431 
N105 X-172.387 Y-14.973 Z7.553 A308.3412 B-17.1155 
N106 X-172.453 Y-14.833 Z7.497 A307.2231 B-17.1002 
N107 X-172.516 Y-14.653 Z7.392 A307.5942 B-17.1027 
N108 X-172.577 Y-14.461 Z7.282 A307.9703 B-17.1045 
N109 X-172.636 Y-14.258 Z7.168 A308.3209 B-17.1053 
N110 X-172.691 Y-14.042 Z7.049 A308.6736 B-17.1055 
N111 X-172.744 Y-13.815 Z6.926 A309.0494 B-17.1051 
N112 X-172.792 Y-13.575 Z6.797 A309.4723 B-17.1042 
N113 X-172.834 Y-13.323 Z6.663 A309.9642 B-17.1027 
N114 X-172.871 Y-13.059 Z6.524 A310.5433 B-17.1003 
N115 X-172.903 Y-12.783 Z6.381 A311.2168 B-17.0966 
N116 X-172.929 Y-12.496 Z6.236 A311.9750 B-17.0910 
N117 X-172.949 Y-12.200 Z6.089 A312.8028 B-17.0830 
N118 X-172.967 Y-11.895 Z5.943 A313.6880 B-17.0725 
N119 X-172.985 Y-11.582 Z5.799 A314.6322 B-17.0593 
N120 X-173.004 Y-11.263 Z5.657 A315.6432 B-17.0427 
N121 X-173.024 Y-10.937 Z5.517 A316.7274 B-17.0220 
N122 X-173.044 Y-10.606 Z5.381 A317.8898 B-16.9968 
N123 X-173.066 Y-10.270 Z5.250 A319.1337 B-16.9662 
N124 X-173.089 Y-9.929 Z5.123 A320.4622 B-16.9296 
N125 X-173.113 Y-9.584 Z5.003 A321.8776 B-16.8863 
N126 X-173.138 Y-9.236 Z4.889 A323.3815 B-16.8353 
N127 X-173.164 Y-8.883 Z4.782 A324.9742 B-16.7760 
N128 X-173.192 Y-8.528 Z4.683 A326.6548 B-16.7074 
N129 X-173.220 Y-8.168 Z4.593 A328.4208 B-16.6289 
N130 X-173.249 Y-7.806 Z4.512 A330.2671 B-16.5399 
N131 X-173.280 Y-7.440 Z4.443 A332.1860 B-16.4398 
N132 X-173.312 Y-7.072 Z4.383 A334.1667 B-16.3287 
N133 X-173.345 Y-6.700 Z4.334 A336.1948 B-16.2068 
N134 X-173.379 Y-6.326 Z4.298 A338.2519 B-16.0747 
N135 X-173.415 Y-5.950 Z4.275 A340.3170 B-15.9337 
N136 X-173.451 Y-5.573 Z4.265 A342.3664 B-15.7856 
N137 X-173.489 Y-5.196 Z4.269 A344.3748 B-15.6325 
N138 X-173.528 Y-4.819 Z4.287 A346.3170 B-15.4771 
N139 X-173.568 Y-4.445 Z4.318 A348.1699 B-15.3221 
N140 X-173.608 Y-4.073 Z4.363 A349.9126 B-15.1701 
N141 X-173.650 Y-3.704 Z4.420 A351.5281 B-15.0238 
N142 X-173.691 Y-3.341 Z4.488 A353.0035 B-14.8854 
N143 X-173.733 Y-2.983 Z4.567 A354.3299 B-14.7568 
N144 X-173.775 Y-2.631 Z4.655 A355.4984 B-14.6399 
N145 X-173.816 Y-2.286 Z4.752 A356.4994 B-14.5364 
N146 X-173.858 Y-1.949 Z4.855 A357.3253 B-14.4479 
N147 X-173.899 Y-1.621 Z4.964 A357.9769 B-14.3750 
N148 X-173.941 Y-1.300 Z5.077 A358.4641 B-14.2946 
N149 X-174.004 Y-0.971 Z5.196 A358.5768 B-13.6493 
N150 X-174.064 Y-0.645 Z5.319 A358.5313 B-12.9241 
N151 X-174.114 Y-0.323 Z5.443 A358.3984 B-12.2110 
N152 X-174.153 Y-0.008 Z5.568 A358.1872 B-11.5059 
N153 X-174.180 Y0.302 Z5.692 A357.9041 B-10.8043 
N154 X-174.196 Y0.606 Z5.814 A357.5545 B-10.1029 
N155 X-174.202 Y0.903 Z5.933 A357.1400 B-9.3981 
N156 X-174.199 Y1.194 Z6.050 A356.6547 B-8.6869 
N157 X-174.187 Y1.476 Z6.162 A356.0855 B-7.9649 
N158 X-174.168 Y1.749 Z6.270 A355.4173 B-7.2284 
N159 X-174.142 Y2.013 Z6.373 A354.6362 B-6.4706 
N160 X-174.111 Y2.266 Z6.469 A353.7392 B-5.6882 
N161 X-174.077 Y2.510 Z6.558 A352.7324 B-4.8783 
N162 X-174.040 Y2.743 Z6.641 A351.6221 B-4.0390 
N163 X-174.002 Y2.966 Z6.716 A350.4034 B-3.1692 
N164 X-173.964 Y3.177 Z6.783 A349.0639 B-2.2654 
N165 X-173.929 Y3.377 Z6.843 A347.6330 B-1.3329 
N166 X-173.896 Y3.570 Z6.893 A346.2066 B-0.3913 
N167 X-173.865 Y3.760 Z6.934 A344.8828 B0.5355 
N168 X-173.837 Y3.948 Z6.964 A343.7381 B1.4251 
N169 X-173.813 Y4.139 Z6.980 A342.8744 B2.2484 
N170 X-173.791 Y4.335 Z6.982 A342.3713 B2.9788 
N171 X-173.773 Y4.533 Z6.969 A342.1866 B3.6157 
N172 X-173.760 Y4.726 Z6.945 A342.1433 B4.1916 
N173 X-173.756 Y4.905 Z6.913 A341.9879 B4.7634 
N174 X-173.761 Y5.059 Z6.878 A341.4603 B5.3976 
N175 X-173.779 Y5.181 Z6.844 A340.3471 B6.1527 
N176 X-173.809 Y5.267 Z6.816 A338.5193 B7.0615 
N177 X-173.851 Y5.317 Z6.798 A335.9357 B8.1020 
N178 X-173.896 Y5.335 Z6.793 A332.6356 B9.1350 
N179 X-173.942 Y5.330 Z6.803 A328.7564 B10.1063 
N180 X-173.985 Y5.309 Z6.827 A324.4686 B10.9724 
N181 X-174.024 Y5.280 Z6.865 A319.9260 B11.6984 
N182 X-174.057 Y5.250 Z6.913 A315.2386 B12.2646 
N183 X-174.082 Y5.221 Z6.971 A310.4717 B12.6627 
N184 X-174.099 Y5.197 Z7.037 A305.6621 B12.8907 
N185 X-174.106 Y5.178 Z7.110 A300.8392 B12.9492 
N186 X-174.103 Y5.167 Z7.187 A296.0423 B12.8419 
N187 X-174.091 Y5.166 Z7.266 A291.3273 B12.5778 
N188 X-174.072 Y5.176 Z7.343 A286.7654 B12.1745 
N189 X-174.049 Y5.195 Z7.411 A282.4232 B11.6573 
N190 X-174.025 Y5.225 Z7.470 A278.3429 B11.0543 
N191 X-174.000 Y5.264 Z7.516 A274.5157 B10.3865 
N192 X-173.974 Y5.310 Z7.552 A270.8844 B9.6625 
N193 X-173.948 Y5.361 Z7.577 A267.3704 B8.8780 
N194 X-173.920 Y5.418 Z7.595 A263.8895 B8.0189 
N195 X-173.891 Y5.481 Z7.606 A260.3593 B7.0627 
N196 X-173.860 Y5.549 Z7.611 A256.7119 B5.9828 
N197 X-173.827 Y5.624 Z7.610 A252.9219 B4.7586 
N198 X-173.792 Y5.706 Z7.600 A249.0302 B3.3885 
N199 X-173.756 Y5.793 Z7.573 A245.1460 B1.8971 
N200 X-173.721 Y5.880 Z7.524 A241.4144 B0.3284 
N201 X-173.697 Y5.965 Z7.450 A237.8917 B-1.0780 
N202 X-173.683 Y6.042 Z7.349 A234.6939 B-2.3949 
N203 X-173.676 Y6.107 Z7.220 A231.8726 B-3.5899 
N204 X-173.678 Y6.156 Z7.064 A229.4639 B-4.6415 
N205 X-173.688 Y6.188 Z6.883 A227.4550 B-5.5502 
N206 X-173.707 Y6.201 Z6.680 A225.8672 B-6.3059 
N207 X-173.735 Y6.193 Z6.455 A224.7161 B-6.8997 
N208 X-173.770 Y6.165 Z6.211 A223.9383 B-7.3519 
N209 X-173.810 Y6.120 Z5.954 A223.4198 B-7.7041 
N210 X-173.852 Y6.060 Z5.687 A223.0631 B-7.9933 
N211 X-173.896 Y5.989 Z5.413 A222.7952 B-8.2477 
N212 X-173.939 Y5.908 Z5.134 A222.5613 B-8.4879 
N213 X-173.980 Y5.818 Z4.853 A222.3170 B-8.7260 
N214 X-174.019 Y5.722 Z4.571 A222.0169 B-8.9766 
N215 X-174.054 Y5.621 Z4.291 A221.6104 B-9.2511 
N216 X-174.084 Y5.517 Z4.014 A221.0449 B-9.5550 
N217 X-174.111 Y5.411 Z3.744 A220.2779 B-9.8842 
N218 X-174.133 Y5.305 Z3.481 A219.2896 B-10.2230 
N219 X-174.151 Y5.198 Z3.225 A218.0909 B-10.5467 
N220 X-174.167 Y5.089 Z2.976 A216.7188 B-10.8293 
N221 X-174.180 Y4.977 Z2.733 A215.2177 B-11.0501 
N222 X-174.192 Y4.862 Z2.496 A213.6238 B-11.1961 
N223 X-174.201 Y4.742 Z2.265 A211.9614 B-11.2604 
N224 X-174.209 Y4.618 Z2.039 A210.2441 B-11.2395 
N225 X-174.214 Y4.489 Z1.820 A208.4796 B-11.1312 
N226 X-174.218 Y4.356 Z1.607 A206.6729 B-10.9339 
N227 X-174.219 Y4.219 Z1.399 A204.8292 B-10.6465 
N228 X-174.216 Y4.077 Z1.199 A202.9516 B-10.3024 
N229 X-174.207 Y3.931 Z1.004 A201.0375 B-9.9762 
N230 X-174.191 Y3.780 Z0.817 A199.0869 B-9.6757 
N231 X-174.168 Y3.629 Z0.639 A197.1430 B-9.4110 
N232 X-174.144 Y3.485 Z0.479 A195.3498 B-9.1770 
N233 X-174.120 Y3.337 Z0.326 A193.5204 B-8.9393 
N234 X-174.096 Y3.188 Z0.179 A191.6570 B-8.6985 
N235 X-174.072 Y3.035 Z0.038 A189.7623 B-8.4551 
N236 X-174.048 Y2.879 Z-0.097 A187.8391 B-8.2100 
N237 X-174.024 Y2.721 Z-0.225 A185.8907 B-7.9639 
N238 X-174.001 Y2.560 Z-0.348 A183.9203 B-7.7176 
N239 X-173.977 Y2.396 Z-0.464 A181.9313 B-7.4720 
N240 X-173.953 Y2.229 Z-0.574 A179.9268 B-7.2277 
N241 X-173.929 Y2.059 Z-0.678 A177.9107 B-6.9857 
N242 X-173.905 Y1.885 Z-0.776 A175.8866 B-6.7467 
N243 X-173.881 Y1.709 Z-0.867 A173.8588 B-6.5117 
N244 X-173.857 Y1.529 Z-0.952 A171.8312 B-6.2814 
N245 X-173.833 Y1.345 Z-1.031 A169.8075 B-6.0566 
N246 X-173.809 Y1.158 Z-1.103 A167.7909 B-5.8378 
N247 X-173.785 Y0.966 Z-1.169 A165.7848 B-5.6258 
N248 X-173.761 Y0.771 Z-1.228 A163.7925 B-5.4210 
N249 X-173.737 Y0.572 Z-1.280 A161.8177 B-5.2240 
N250 X-173.712 Y0.368 Z-1.325 A159.8641 B-5.0352 
N251 X-173.688 Y0.160 Z-1.363 A157.9353 B-4.8551 
N252 X-173.663 Y-0.053 Z-1.394 A156.0348 B-4.6839 
N253 X-173.638 Y-0.271 Z-1.417 A154.1657 B-4.5219 
N254 X-173.614 Y-0.494 Z-1.432 A152.3308 B-4.3692 
N255 X-173.589 Y-0.721 Z-1.440 A150.5328 B-4.2259 
N256 X-173.564 Y-0.954 Z-1.439 A148.7741 B-4.0920 
N257 X-173.539 Y-1.192 Z-1.430 A147.0566 B-3.9674 
N258 X-173.514 Y-1.435 Z-1.413 A145.3815 B-3.8520 
N259 X-173.489 Y-1.683 Z-1.386 A143.7486 B-3.7453 
N260 X-173.464 Y-1.936 Z-1.351 A142.1574 B-3.6473 
N261 X-173.439 Y-2.194 Z-1.306 A140.6086 B-3.5575 
N262 X-173.414 Y-2.457 Z-1.252 A139.1042 B-3.4758 
N263 X-173.390 Y-2.725 Z-1.189 A137.6489 B-3.4001 
N264 X-173.365 Y-2.997 Z-1.116 A136.2485 B-3.3324 
N265 X-173.341 Y-3.275 Z-1.032 A134.9086 B-3.2730 
N266 X-173.316 Y-3.558 Z-0.939 A133.6320 B-3.2213 
N267 X-173.292 Y-3.846 Z-0.836 A132.4188 B-3.1768 
N268 X-173.269 Y-4.139 Z-0.722 A131.2654 B-3.1386 
N269 X-173.245 Y-4.436 Z-0.599 A130.1683 B-3.1062 
N270 X-173.222 Y-4.737 Z-0.466 A129.1246 B-3.0790 
N271 X-173.199 Y-5.042 Z-0.324 A128.1327 B-3.0566 
N272 X-173.176 Y-5.351 Z-0.172 A127.1914 B-3.0385 
N273 X-173.154 Y-5.664 Z-0.011 A126.2997 B-3.0242 
N274 X-173.132 Y-5.980 Z0.159 A125.4565 B-3.0135 
N275 X-173.111 Y-6.299 Z0.337 A124.6609 B-3.0059 
N276 X-173.090 Y-6.620 Z0.524 A123.9116 B-3.0011 
N277 X-173.070 Y-6.944 Z0.719 A123.2078 B-2.9988 
N278 X-173.050 Y-7.270 Z0.921 A122.5487 B-2.9986 
N279 X-173.031 Y-7.598 Z1.131 A121.9343 B-3.0003 
N280 X-173.012 Y-7.927 Z1.347 A121.3656 B-3.0036 
N281 X-172.994 Y-8.256 Z1.569 A120.8435 B-3.0082 
N282 X-172.977 Y-8.586 Z1.796 A120.3663 B-3.0137 
N283 X-172.960 Y-8.915 Z2.027 A119.9301 B-3.0202 
N284 X-172.944 Y-9.242 Z2.261 A119.5302 B-3.0272 
N285 X-172.929 Y-9.567 Z2.498 A119.1632 B-3.0348 
N286 X-172.914 Y-9.888 Z2.736 A118.8271 B-3.0428 
N287 X-172.901 Y-10.206 Z2.974 A118.5207 B-3.0510 
N288 X-172.887 Y-10.517 Z3.211 A118.2439 B-3.0593 
N289 X-172.875 Y-10.823 Z3.445 A117.9968 B-3.0676 
N290 X-172.864 Y-11.121 Z3.677 A117.7790 B-3.0756 
N291 X-172.852 Y-11.410 Z3.904 A117.5892 B-3.0834 
N292 X-172.835 Y-11.690 Z4.126 A117.4263 B-3.0908 
N293 X-172.814 Y-11.960 Z4.340 A117.2895 B-3.0976 
N294 X-172.788 Y-12.218 Z4.547 A117.1772 B-3.1039 
N295 X-172.758 Y-12.464 Z4.746 A117.0864 B-3.1096 
N296 X-172.724 Y-12.697 Z4.934 A117.0122 B-3.1149 
N297 X-172.688 Y-12.917 Z5.113 A116.9498 B-3.1197 
N298 X-172.650 Y-13.124 Z5.282 A116.8957 B-3.1241 
N299 X-172.610 Y-13.318 Z5.440 A116.8480 B-3.1283 
N300 X-172.570 Y-13.498 Z5.587 A116.8068 B-3.1321 
N301 X-172.529 Y-13.666 Z5.725 A116.7660 B-3.1357 
N302 X-172.487 Y-13.816 Z5.842 A116.4184 B-3.1492 
N303 X-172.446 Y-13.912 Z5.872 A113.9296 B-3.2401 
N304 X-173.012 Y-23.038 Z1.823 
N305 G00 X-174.425 Y-45.852 Z-8.301 
N306 X-176.233 Y-58.988 Z-28.415 
N307 X-173.407 Y-13.359 Z-8.167 
N308 G01 X-173.325 Y-11.633 Z-5.559 F878 
N309 X-173.089 Y-10.789 Z-2.555 
N310 X-172.720 Y-10.910 Z0.549 
N311 X-172.256 Y-11.984 Z3.451 
N312 M342 ; chlodziwo woda
N313 X-171.741 Y-13.905 Z5.866 
N314 X-171.704 Y-13.975 Z5.851 A110.2101 B-3.4014 
N315 X-171.676 Y-14.038 Z5.828 A106.3906 B-3.5990 
N316 X-171.657 Y-14.098 Z5.807 A102.6693 B-3.8220 
N317 X-171.645 Y-14.157 Z5.788 A99.0880 B-4.0640 
N318 X-171.640 Y-14.214 Z5.773 A95.6480 B-4.3208 
N319 X-171.640 Y-14.270 Z5.761 A92.3374 B-4.5895 
N320 X-171.647 Y-14.325 Z5.752 A89.1414 B-4.8681 
N321 X-171.658 Y-14.379 Z5.746 A86.0436 B-5.1550 
N322 X-171.673 Y-14.432 Z5.744 A83.0264 B-5.4496 
N323 X-171.691 Y-14.484 Z5.744 A80.0735 B-5.7516 
N324 X-171.712 Y-14.536 Z5.747 A77.1712 B-6.0604 
N325 X-171.734 Y-14.587 Z5.753 A74.3091 B-6.3759 
N326 X-171.758 Y-14.637 Z5.762 A71.4791 B-6.6976 
N327 X-171.782 Y-14.686 Z5.774 A68.6753 B-7.0249 
N328 X-171.806 Y-14.734 Z5.788 A65.8924 B-7.3573 
N329 X-171.831 Y-14.782 Z5.805 A63.1258 B-7.6943 
N330 X-171.854 Y-14.829 Z5.825 A60.3712 B-8.0354 
N331 X-171.875 Y-14.874 Z5.847 A57.6231 B-8.3802 
N332 X-171.894 Y-14.919 Z5.872 A54.8734 B-8.7289 
N333 X-171.908 Y-14.963 Z5.900 A52.1151 B-9.0813 
N334 X-171.917 Y-15.005 Z5.930 A49.3452 B-9.4369 
N335 X-171.921 Y-15.046 Z5.963 A46.5662 B-9.7944 
N336 X-171.920 Y-15.085 Z5.998 A43.7802 B-10.1526 
N337 X-171.915 Y-15.123 Z6.035 A40.9881 B-10.5105 
N338 X-171.904 Y-15.158 Z6.074 A38.1905 B-10.8670 
N339 X-171.888 Y-15.192 Z6.116 A35.3875 B-11.2212 
N340 X-171.868 Y-15.224 Z6.159 A32.5799 B-11.5721 
N341 X-171.844 Y-15.253 Z6.204 A29.7684 B-11.9186 
N342 X-171.815 Y-15.279 Z6.251 A26.9540 B-12.2598 
N343 X-171.782 Y-15.304 Z6.299 A24.1366 B-12.5949 
N344 X-171.747 Y-15.325 Z6.349 A21.3127 B-12.9235 
N345 X-171.711 Y-15.345 Z6.400 A18.4775 B-13.2452 
N346 X-171.674 Y-15.361 Z6.451 A15.6284 B-13.5595 
N347 X-171.638 Y-15.375 Z6.504 A12.7662 B-13.8655 
N348 X-171.601 Y-15.387 Z6.558 A9.8924 B-14.1622 
N349 X-171.565 Y-15.395 Z6.612 A7.0071 B-14.4488 
N350 X-171.531 Y-15.401 Z6.667 A4.1084 B-14.7247 
N351 X-171.498 Y-15.403 Z6.722 A1.1936 B-14.9893 
N352 X-171.468 Y-15.404 Z6.777 A358.2602 B-15.2421 
N353 X-171.441 Y-15.401 Z6.832 A355.3046 B-15.4826 
N354 X-171.418 Y-15.395 Z6.888 A352.3227 B-15.7102 
N355 X-171.399 Y-15.386 Z6.944 A349.3088 B-15.9245 
N356 X-171.385 Y-15.374 Z6.999 A346.2561 B-16.1249 
N357 X-171.377 Y-15.359 Z7.054 A343.1568 B-16.3109 
N358 X-171.374 Y-15.341 Z7.110 A340.0017 B-16.4817 
N359 X-171.378 Y-15.319 Z7.165 A336.7809 B-16.6364 
N360 X-171.389 Y-15.293 Z7.220 A333.4836 B-16.7757 
N361 X-171.408 Y-15.263 Z7.274 A330.0991 B-16.8946 
N362 X-171.434 Y-15.228 Z7.328 A326.6169 B-16.9933 
N363 X-171.469 Y-15.189 Z7.380 A323.0273 B-17.0698 
N364 X-171.511 Y-15.144 Z7.430 A319.3276 B-17.1218 
N365 X-171.561 Y-15.091 Z7.478 A315.5368 B-17.1468 
N366 X-171.620 Y-15.030 Z7.519 A311.7335 B-17.1431 
N367 X-171.683 Y-14.948 Z7.539 A308.3412 B-17.1155 
N368 X-171.748 Y-14.809 Z7.484 A307.2231 B-17.1002 
N369 X-171.812 Y-14.628 Z7.379 A307.5942 B-17.1027 
N370 X-171.873 Y-14.436 Z7.269 A307.9703 B-17.1045 
N371 X-171.932 Y-14.231 Z7.154 A308.3209 B-17.1053 
N372 X-171.987 Y-14.015 Z7.035 A308.6736 B-17.1055 
N373 X-172.040 Y-13.788 Z6.912 A309.0494 B-17.1051 
N374 X-172.088 Y-13.547 Z6.782 A309.4723 B-17.1042 
N375 X-172.130 Y-13.294 Z6.648 A309.9642 B-17.1027 
N376 X-172.168 Y-13.029 Z6.509 A310.5433 B-17.1003 
N377 X-172.200 Y-12.751 Z6.366 A311.2168 B-17.0966 
N378 X-172.226 Y-12.463 Z6.221 A311.9750 B-17.0910 
N379 X-172.246 Y-12.165 Z6.074 A312.8028 B-17.0830 
N380 X-172.263 Y-11.858 Z5.928 A313.6880 B-17.0725 
N381 X-172.282 Y-11.544 Z5.784 A314.6322 B-17.0593 
N382 X-172.301 Y-11.223 Z5.642 A315.6432 B-17.0427 
N383 X-172.321 Y-10.895 Z5.502 A316.7274 B-17.0220 
N384 X-172.342 Y-10.562 Z5.367 A317.8898 B-16.9968 
N385 X-172.364 Y-10.224 Z5.235 A319.1337 B-16.9662 
N386 X-172.388 Y-9.881 Z5.110 A320.4622 B-16.9296 
N387 X-172.412 Y-9.534 Z4.990 A321.8776 B-16.8863 
N388 X-172.437 Y-9.184 Z4.877 A323.3815 B-16.8353 
N389 X-172.463 Y-8.829 Z4.771 A324.9742 B-16.7760 
N390 X-172.491 Y-8.471 Z4.673 A326.6548 B-16.7074 
N391 X-172.520 Y-8.110 Z4.584 A328.4208 B-16.6289 
N392 X-172.549 Y-7.745 Z4.505 A330.2671 B-16.5399 
N393 X-172.580 Y-7.377 Z4.436 A332.1860 B-16.4398 
N394 X-172.613 Y-7.006 Z4.378 A334.1667 B-16.3287 
N395 X-172.646 Y-6.632 Z4.332 A336.1948 B-16.2068 
N396 X-172.681 Y-6.256 Z4.298 A338.2519 B-16.0747 
N397 X-172.717 Y-5.879 Z4.278 A340.3170 B-15.9337 
N398 X-172.754 Y-5.500 Z4.271 A342.3664 B-15.7856 
N399 X-172.792 Y-5.122 Z4.277 A344.3748 B-15.6325 
N400 X-172.831 Y-4.744 Z4.298 A346.3170 B-15.4771 
N401 X-172.871 Y-4.368 Z4.332 A348.1699 B-15.3221 
N402 X-172.912 Y-3.996 Z4.379 A349.9126 B-15.1701 
N403 X-172.953 Y-3.627 Z4.438 A351.5281 B-15.0238 
N404 X-172.995 Y-3.263 Z4.509 A353.0035 B-14.8854 
N405 X-173.037 Y-2.905 Z4.590 A354.3299 B-14.7568 
N406 X-173.079 Y-2.554 Z4.681 A355.4984 B-14.6399 
N407 X-173.121 Y-2.209 Z4.779 A356.4994 B-14.5364 
N408 X-173.162 Y-1.872 Z4.884 A357.3253 B-14.4479 
N409 X-173.204 Y-1.543 Z4.993 A357.9769 B-14.3750 
N410 X-173.245 Y-1.223 Z5.107 A358.4641 B-14.2946 
N411 X-173.308 Y-0.905 Z5.222 A358.5768 B-13.6493 
N412 X-173.366 Y-0.593 Z5.340 A358.5313 B-12.9241 
N413 X-173.415 Y-0.285 Z5.459 A358.3984 B-12.2110 
N414 X-173.454 Y0.016 Z5.578 A358.1872 B-11.5059 
N415 X-173.480 Y0.312 Z5.696 A357.9041 B-10.8043 
N416 X-173.496 Y0.603 Z5.812 A357.5545 B-10.1029 
N417 X-173.502 Y0.886 Z5.927 A357.1400 B-9.3981 
N418 X-173.500 Y1.163 Z6.038 A356.6547 B-8.6869 
N419 X-173.489 Y1.432 Z6.146 A356.0855 B-7.9649 
N420 X-173.470 Y1.693 Z6.250 A355.4173 B-7.2284 
N421 X-173.446 Y1.943 Z6.349 A354.6362 B-6.4706 
N422 X-173.416 Y2.184 Z6.442 A353.7392 B-5.6882 
N423 X-173.384 Y2.415 Z6.530 A352.7324 B-4.8783 
N424 X-173.348 Y2.636 Z6.612 A351.6221 B-4.0390 
N425 X-173.312 Y2.847 Z6.688 A350.4034 B-3.1692 
N426 X-173.276 Y3.047 Z6.755 A349.0639 B-2.2654 
N427 X-173.242 Y3.237 Z6.817 A347.6330 B-1.3329 
N428 X-173.210 Y3.421 Z6.871 A346.2066 B-0.3913 
N429 X-173.180 Y3.602 Z6.917 A344.8828 B0.5355 
N430 X-173.153 Y3.783 Z6.953 A343.7381 B1.4251 
N431 X-173.129 Y3.967 Z6.977 A342.8744 B2.2484 
N432 X-173.107 Y4.158 Z6.987 A342.3713 B2.9788 
N433 X-173.087 Y4.354 Z6.984 A342.1866 B3.6157 
N434 X-173.073 Y4.546 Z6.970 A342.1433 B4.1916 
N435 X-173.066 Y4.726 Z6.948 A341.9879 B4.7634 
N436 X-173.069 Y4.884 Z6.922 A341.4603 B5.3976 
N437 X-173.083 Y5.011 Z6.897 A340.3471 B6.1527 
N438 X-173.108 Y5.104 Z6.877 A338.5193 B7.0615 
N439 X-173.144 Y5.163 Z6.865 A335.9357 B8.1020 
N440 X-173.185 Y5.191 Z6.865 A332.6356 B9.1350 
N441 X-173.225 Y5.196 Z6.879 A328.7564 B10.1063 
N442 X-173.262 Y5.187 Z6.905 A324.4686 B10.9724 
N443 X-173.295 Y5.171 Z6.942 A319.9260 B11.6984 
N444 X-173.322 Y5.153 Z6.988 A315.2386 B12.2646 
N445 X-173.342 Y5.138 Z7.042 A310.4717 B12.6627 
N446 X-173.354 Y5.127 Z7.103 A305.6621 B12.8907 
N447 X-173.357 Y5.121 Z7.168 A300.8392 B12.9492 
N448 X-173.349 Y5.124 Z7.237 A296.0423 B12.8419 
N449 X-173.334 Y5.135 Z7.304 A291.3273 B12.5778 
N450 X-173.313 Y5.156 Z7.368 A286.7654 B12.1745 
N451 X-173.289 Y5.187 Z7.423 A282.4232 B11.6573 
N452 X-173.265 Y5.227 Z7.467 A278.3429 B11.0543 
N453 X-173.240 Y5.274 Z7.498 A274.5157 B10.3865 
N454 X-173.216 Y5.327 Z7.517 A270.8844 B9.6625 
N455 X-173.192 Y5.385 Z7.526 A267.3704 B8.8780 
N456 X-173.168 Y5.445 Z7.527 A263.8895 B8.0189 
N457 X-173.144 Y5.509 Z7.521 A260.3593 B7.0627 
N458 X-173.118 Y5.577 Z7.512 A256.7119 B5.9828 
N459 X-173.090 Y5.650 Z7.497 A252.9219 B4.7586 
N460 X-173.061 Y5.728 Z7.474 A249.0302 B3.3885 
N461 X-173.030 Y5.809 Z7.438 A245.1460 B1.8971 
N462 X-173.001 Y5.890 Z7.381 A241.4144 B0.3284 
N463 X-172.981 Y5.969 Z7.301 A237.8917 B-1.0780 
N464 X-172.971 Y6.039 Z7.197 A234.6939 B-2.3949 
N465 X-172.967 Y6.098 Z7.066 A231.8726 B-3.5899 
N466 X-172.972 Y6.142 Z6.910 A229.4639 B-4.6415 
N467 X-172.985 Y6.169 Z6.730 A227.4550 B-5.5502 
N468 X-173.007 Y6.178 Z6.529 A225.8672 B-6.3059 
N469 X-173.037 Y6.165 Z6.307 A224.7161 B-6.8997 
N470 X-173.073 Y6.134 Z6.069 A223.9383 B-7.3519 
N471 X-173.114 Y6.085 Z5.817 A223.4198 B-7.7041 
N472 X-173.157 Y6.024 Z5.555 A223.0631 B-7.9933 
N473 X-173.201 Y5.952 Z5.288 A222.7952 B-8.2477 
N474 X-173.244 Y5.869 Z5.016 A222.5613 B-8.4879 
N475 X-173.285 Y5.779 Z4.742 A222.3170 B-8.7260 
N476 X-173.324 Y5.683 Z4.468 A222.0169 B-8.9766 
N477 X-173.358 Y5.583 Z4.196 A221.6104 B-9.2511 
N478 X-173.389 Y5.480 Z3.929 A221.0449 B-9.5550 
N479 X-173.414 Y5.376 Z3.668 A220.2779 B-9.8842 
N480 X-173.436 Y5.272 Z3.414 A219.2896 B-10.2230 
N481 X-173.454 Y5.168 Z3.168 A218.0909 B-10.5467 
N482 X-173.469 Y5.062 Z2.929 A216.7188 B-10.8293 
N483 X-173.482 Y4.955 Z2.696 A215.2177 B-11.0501 
N484 X-173.493 Y4.845 Z2.470 A213.6238 B-11.1961 
N485 X-173.502 Y4.731 Z2.248 A211.9614 B-11.2604 
N486 X-173.509 Y4.614 Z2.033 A210.2441 B-11.2395 
N487 X-173.514 Y4.492 Z1.824 A208.4796 B-11.1312 
N488 X-173.518 Y4.367 Z1.620 A206.6729 B-10.9339 
N489 X-173.519 Y4.239 Z1.423 A204.8292 B-10.6465 
N490 X-173.517 Y4.106 Z1.231 A202.9516 B-10.3024 
N491 X-173.509 Y3.970 Z1.045 A201.0375 B-9.9762 
N492 X-173.494 Y3.832 Z0.865 A199.0869 B-9.6757 
N493 X-173.472 Y3.691 Z0.693 A197.1430 B-9.4110 
N494 X-173.448 Y3.549 Z0.532 A195.3498 B-9.1770 
N495 X-173.425 Y3.404 Z0.377 A193.5204 B-8.9393 
N496 X-173.401 Y3.256 Z0.228 A191.6570 B-8.6985 
N497 X-173.377 Y3.105 Z0.085 A189.7623 B-8.4551 
N498 X-173.353 Y2.952 Z-0.052 A187.8391 B-8.2100 
N499 X-173.330 Y2.796 Z-0.183 A185.8907 B-7.9639 
N500 X-173.306 Y2.636 Z-0.308 A183.9203 B-7.7176 
N501 X-173.282 Y2.473 Z-0.427 A181.9313 B-7.4720 
N502 X-173.258 Y2.308 Z-0.540 A179.9268 B-7.2277 
N503 X-173.234 Y2.139 Z-0.647 A177.9107 B-6.9857 
N504 X-173.210 Y1.966 Z-0.748 A175.8866 B-6.7467 
N505 X-173.186 Y1.790 Z-0.842 A173.8588 B-6.5117 
N506 X-173.162 Y1.611 Z-0.930 A171.8312 B-6.2814 
N507 X-173.138 Y1.427 Z-1.012 A169.8075 B-6.0566 
N508 X-173.114 Y1.240 Z-1.087 A167.7909 B-5.8378 
N509 X-173.090 Y1.048 Z-1.156 A165.7848 B-5.6258 
N510 X-173.065 Y0.852 Z-1.218 A163.7925 B-5.4210 
N511 X-173.041 Y0.652 Z-1.273 A161.8177 B-5.2240 
N512 X-173.016 Y0.448 Z-1.321 A159.8641 B-5.0352 
N513 X-172.991 Y0.238 Z-1.361 A157.9353 B-4.8551 
N514 X-172.966 Y0.024 Z-1.395 A156.0348 B-4.6839 
N515 X-172.941 Y-0.195 Z-1.420 A154.1657 B-4.5219 
N516 X-172.916 Y-0.420 Z-1.438 A152.3308 B-4.3692 
N517 X-172.891 Y-0.649 Z-1.447 A150.5328 B-4.2259 
N518 X-172.866 Y-0.884 Z-1.449 A148.7741 B-4.0920 
N519 X-172.841 Y-1.123 Z-1.441 A147.0566 B-3.9674 
N520 X-172.815 Y-1.368 Z-1.425 A145.3815 B-3.8520 
N521 X-172.790 Y-1.618 Z-1.400 A143.7486 B-3.7453 
N522 X-172.765 Y-1.874 Z-1.366 A142.1574 B-3.6473 
N523 X-172.740 Y-2.134 Z-1.323 A140.6086 B-3.5575 
N524 X-172.714 Y-2.399 Z-1.270 A139.1042 B-3.4758 
N525 X-172.689 Y-2.669 Z-1.207 A137.6489 B-3.4001 
N526 X-172.665 Y-2.944 Z-1.135 A136.2485 B-3.3324 
N527 X-172.640 Y-3.224 Z-1.052 A134.9086 B-3.2730 
N528 X-172.615 Y-3.509 Z-0.959 A133.6320 B-3.2213 
N529 X-172.591 Y-3.799 Z-0.856 A132.4188 B-3.1768 
N530 X-172.567 Y-4.094 Z-0.743 A131.2654 B-3.1386 
N531 X-172.543 Y-4.393 Z-0.620 A130.1683 B-3.1062 
N532 X-172.519 Y-4.696 Z-0.487 A129.1246 B-3.0790 
N533 X-172.496 Y-5.003 Z-0.345 A128.1327 B-3.0566 
N534 X-172.473 Y-5.314 Z-0.193 A127.1914 B-3.0385 
N535 X-172.451 Y-5.628 Z-0.032 A126.2997 B-3.0242 
N536 X-172.429 Y-5.946 Z0.139 A125.4565 B-3.0135 
N537 X-172.407 Y-6.266 Z0.317 A124.6609 B-3.0059 
N538 X-172.386 Y-6.589 Z0.505 A123.9116 B-3.0011 
N539 X-172.366 Y-6.915 Z0.700 A123.2078 B-2.9988 
N540 X-172.346 Y-7.242 Z0.903 A122.5487 B-2.9986 
N541 X-172.327 Y-7.571 Z1.113 A121.9343 B-3.0003 
N542 X-172.308 Y-7.901 Z1.329 A121.3656 B-3.0036 
N543 X-172.290 Y-8.232 Z1.552 A120.8435 B-3.0082 
N544 X-172.273 Y-8.563 Z1.779 A120.3663 B-3.0137 
N545 X-172.256 Y-8.893 Z2.011 A119.9301 B-3.0202 
N546 X-172.240 Y-9.221 Z2.246 A119.5302 B-3.0272 
N547 X-172.224 Y-9.547 Z2.483 A119.1632 B-3.0348 
N548 X-172.210 Y-9.869 Z2.721 A118.8271 B-3.0428 
N549 X-172.196 Y-10.187 Z2.960 A118.5207 B-3.0510 
N550 X-172.183 Y-10.500 Z3.197 A118.2439 B-3.0593 
N551 X-172.171 Y-10.806 Z3.432 A117.9968 B-3.0676 
N552 X-172.159 Y-11.105 Z3.664 A117.7790 B-3.0756 
N553 X-172.147 Y-11.395 Z3.892 A117.5892 B-3.0834 
N554 X-172.130 Y-11.676 Z4.114 A117.4263 B-3.0908 
N555 X-172.109 Y-11.946 Z4.329 A117.2895 B-3.0976 
N556 X-172.083 Y-12.205 Z4.536 A117.1772 B-3.1039 
N557 X-172.053 Y-12.451 Z4.735 A117.0864 B-3.1096 
N558 X-172.019 Y-12.685 Z4.924 A117.0122 B-3.1149 
N559 X-171.983 Y-12.905 Z5.103 A116.9498 B-3.1197 
N560 X-171.945 Y-13.112 Z5.272 A116.8957 B-3.1241 
N561 X-171.905 Y-13.306 Z5.430 A116.8480 B-3.1283 
N562 X-171.865 Y-13.487 Z5.578 A116.8068 B-3.1321 
N563 X-171.823 Y-13.655 Z5.716 A116.7660 B-3.1357 
N564 X-171.782 Y-13.805 Z5.833 A116.4184 B-3.1492 
N565 X-171.741 Y-13.905 Z5.866 A113.9296 B-3.2401 
N566 X-172.306 Y-23.031 Z1.817 
N567 G00 X-173.719 Y-45.845 Z-8.308 
N568 X-175.528 Y-58.981 Z-28.421 
N569 X-172.702 Y-13.352 Z-8.173 
N570 G01 X-172.620 Y-11.626 Z-5.565 F878 
N571 X-172.383 Y-10.783 Z-2.561 
N572 X-172.015 Y-10.903 Z0.543 
N573 X-171.551 Y-11.977 Z3.445 
N574 M342 ; chlodziwo woda
VELOLIM[A]=100 ;PRZYWOLANIE VELOLIM
N575 X-171.036 Y-13.898 Z5.860 
N575 X-171.036 Y-13.898 Z5.860 
F200
N576 X-170.999 Y-13.973 Z5.848 A110.2101 B-3.4014 F199 
N577 X-170.971 Y-14.040 Z5.830 A106.3906 B-3.5990 
N578 X-170.951 Y-14.104 Z5.814 A102.6693 B-3.8220 
N579 X-170.940 Y-14.165 Z5.800 A99.0880 B-4.0640 
N580 X-170.935 Y-14.224 Z5.790 A95.6480 B-4.3208 
N581 X-170.936 Y-14.281 Z5.783 A92.3374 B-4.5895 
N582 X-170.943 Y-14.336 Z5.780 A89.1414 B-4.8681 
N583 X-170.954 Y-14.390 Z5.779 A86.0436 B-5.1550 
N584 X-170.970 Y-14.443 Z5.781 A83.0264 B-5.4496 
N585 X-170.989 Y-14.494 Z5.786 A80.0735 B-5.7516 
N586 X-171.010 Y-14.544 Z5.794 A77.1712 B-6.0604 
N587 X-171.032 Y-14.593 Z5.804 A74.3091 B-6.3759 
N588 X-171.056 Y-14.641 Z5.817 A71.4791 B-6.6976 
N589 X-171.081 Y-14.688 Z5.832 A68.6753 B-7.0249 
N590 X-171.106 Y-14.734 Z5.850 A65.8924 B-7.3573 
N591 X-171.131 Y-14.779 Z5.870 A63.1258 B-7.6943 
N592 X-171.155 Y-14.822 Z5.892 A60.3712 B-8.0354 
N593 X-171.177 Y-14.864 Z5.917 A57.6231 B-8.3802 
N594 X-171.196 Y-14.905 Z5.944 A54.8734 B-8.7289 
N595 X-171.211 Y-14.945 Z5.973 A52.1151 B-9.0813 
N596 X-171.220 Y-14.983 Z6.004 A49.3452 B-9.4369 
N597 X-171.225 Y-15.020 Z6.037 A46.5662 B-9.7944 
N598 X-171.224 Y-15.055 Z6.072 A43.7802 B-10.1526 
N599 X-171.219 Y-15.088 Z6.110 A40.9881 B-10.5105 
N600 X-171.208 Y-15.120 Z6.149 A38.1905 B-10.8670 
N601 X-171.193 Y-15.149 Z6.189 A35.3875 B-11.2212 
N602 X-171.173 Y-15.176 Z6.231 A32.5799 B-11.5721 
N603 X-171.149 Y-15.202 Z6.274 A29.7684 B-11.9186 
N604 X-171.120 Y-15.225 Z6.319 A26.9540 B-12.2598 
N605 X-171.087 Y-15.245 Z6.364 A24.1366 B-12.5949 
N606 X-171.052 Y-15.264 Z6.411 A21.3127 B-12.9235 
N607 X-171.016 Y-15.280 Z6.458 A18.4775 B-13.2452 
N608 X-170.980 Y-15.294 Z6.507 A15.6284 B-13.5595 
N609 X-170.943 Y-15.306 Z6.556 A12.7662 B-13.8655 
N610 X-170.906 Y-15.316 Z6.605 A9.8924 B-14.1622 
N611 X-170.870 Y-15.323 Z6.655 A7.0071 B-14.4488 
N612 X-170.835 Y-15.327 Z6.706 A4.1084 B-14.7247 
N613 X-170.802 Y-15.329 Z6.757 A1.1936 B-14.9893 
N614 X-170.772 Y-15.329 Z6.807 A358.2602 B-15.2421 
N615 X-170.744 Y-15.327 Z6.858 A355.3046 B-15.4826 
N616 X-170.721 Y-15.322 Z6.909 A352.3227 B-15.7102 
N617 X-170.701 Y-15.314 Z6.961 A349.3088 B-15.9245 
N618 X-170.687 Y-15.304 Z7.012 A346.2561 B-16.1249 
N619 X-170.678 Y-15.291 Z7.063 A343.1568 B-16.3109 
N620 X-170.675 Y-15.275 Z7.114 A340.0017 B-16.4817 
N621 X-170.678 Y-15.256 Z7.166 A336.7809 B-16.6364 
N622 X-170.689 Y-15.234 Z7.217 A333.4836 B-16.7757 
N623 X-170.707 Y-15.208 Z7.268 A330.0991 B-16.8946 
N624 X-170.733 Y-15.177 Z7.319 A326.6169 B-16.9933 
N625 X-170.766 Y-15.143 Z7.369 A323.0273 B-17.0698 
N626 X-170.808 Y-15.103 Z7.418 A319.3276 B-17.1218 
N627 X-170.858 Y-15.056 Z7.464 A315.5368 B-17.1468 
N628 X-170.916 Y-14.999 Z7.505 A311.7335 B-17.1431 
N629 X-170.979 Y-14.923 Z7.526 A308.3412 B-17.1155 
N630 X-171.044 Y-14.785 Z7.471 A307.2231 B-17.1002 
N631 X-171.107 Y-14.604 Z7.366 A307.5942 B-17.1027 
N632 X-171.169 Y-14.410 Z7.255 A307.9703 B-17.1045 
N633 X-171.228 Y-14.205 Z7.141 A308.3209 B-17.1053 
N634 X-171.283 Y-13.989 Z7.022 A308.6736 B-17.1055 
N635 X-171.336 Y-13.760 Z6.898 A309.0494 B-17.1051 
N636 X-171.384 Y-13.518 Z6.768 A309.4723 B-17.1042 
N637 X-171.426 Y-13.265 Z6.634 A309.9642 B-17.1027 
N638 X-171.464 Y-12.998 Z6.494 A310.5433 B-17.1003 
N639 X-171.496 Y-12.720 Z6.351 A311.2168 B-17.0966 
N640 X-171.522 Y-12.430 Z6.206 A311.9750 B-17.0910 
N641 X-171.543 Y-12.130 Z6.059 A312.8028 B-17.0830 
N642 X-171.560 Y-11.822 Z5.913 A313.6880 B-17.0725 
N643 X-171.579 Y-11.506 Z5.769 A314.6322 B-17.0593 
N644 X-171.598 Y-11.183 Z5.627 A315.6432 B-17.0427 
N645 X-171.618 Y-10.854 Z5.487 A316.7274 B-17.0220 
N646 X-171.640 Y-10.519 Z5.352 A317.8898 B-16.9968 
N647 X-171.662 Y-10.179 Z5.221 A319.1337 B-16.9662 
N648 X-171.686 Y-9.834 Z5.096 A320.4622 B-16.9296 
N649 X-171.710 Y-9.485 Z4.977 A321.8776 B-16.8863 
N650 X-171.736 Y-9.132 Z4.864 A323.3815 B-16.8353 
N651 X-171.763 Y-8.775 Z4.760 A324.9742 B-16.7760 
N652 X-171.790 Y-8.414 Z4.663 A326.6548 B-16.7074 
N653 X-171.819 Y-8.051 Z4.576 A328.4208 B-16.6289 
N654 X-171.850 Y-7.684 Z4.498 A330.2671 B-16.5399 
N655 X-171.881 Y-7.313 Z4.431 A332.1860 B-16.4398 
N656 X-171.913 Y-6.940 Z4.375 A334.1667 B-16.3287 
N657 X-171.947 Y-6.565 Z4.331 A336.1948 B-16.2068 
N658 X-171.982 Y-6.187 Z4.300 A338.2519 B-16.0747 
N659 X-172.019 Y-5.807 Z4.282 A340.3170 B-15.9337 
N660 X-172.056 Y-5.427 Z4.277 A342.3664 B-15.7856 
N661 X-172.095 Y-5.047 Z4.287 A344.3748 B-15.6325 
N662 X-172.134 Y-4.669 Z4.310 A346.3170 B-15.4771 
N663 X-172.175 Y-4.292 Z4.346 A348.1699 B-15.3221 
N664 X-172.216 Y-3.919 Z4.396 A349.9126 B-15.1701 
N665 X-172.257 Y-3.550 Z4.458 A351.5281 B-15.0238 
N666 X-172.299 Y-3.186 Z4.531 A353.0035 B-14.8854 
N667 X-172.341 Y-2.828 Z4.614 A354.3299 B-14.7568 
N668 X-172.383 Y-2.476 Z4.706 A355.4984 B-14.6399 
N669 X-172.425 Y-2.131 Z4.806 A356.4994 B-14.5364 
N670 X-172.467 Y-1.795 Z4.912 A357.3253 B-14.4479 
N671 X-172.508 Y-1.466 Z5.023 A357.9769 B-14.3750 
N672 X-172.550 Y-1.145 Z5.136 A358.4641 B-14.2946 
N673 X-172.611 Y-0.839 Z5.248 A358.5768 B-13.6493 
N674 X-172.668 Y-0.541 Z5.360 A358.5313 B-12.9241 
N675 X-172.716 Y-0.248 Z5.474 A358.3984 B-12.2110 
N676 X-172.754 Y0.040 Z5.587 A358.1872 B-11.5059 
N677 X-172.780 Y0.323 Z5.700 A357.9041 B-10.8043 
N678 X-172.796 Y0.599 Z5.811 A357.5545 B-10.1029 
N679 X-172.803 Y0.869 Z5.920 A357.1400 B-9.3981 
N680 X-172.801 Y1.133 Z6.026 A356.6547 B-8.6869 
N681 X-172.790 Y1.389 Z6.130 A356.0855 B-7.9649 
N682 X-172.773 Y1.636 Z6.229 A355.4173 B-7.2284 
N683 X-172.749 Y1.874 Z6.324 A354.6362 B-6.4706 
N684 X-172.721 Y2.102 Z6.415 A353.7392 B-5.6882 
N685 X-172.690 Y2.321 Z6.501 A352.7324 B-4.8783 
N686 X-172.656 Y2.530 Z6.581 A351.6221 B-4.0390 
N687 X-172.622 Y2.729 Z6.656 A350.4034 B-3.1692 
N688 X-172.587 Y2.918 Z6.725 A349.0639 B-2.2654 
N689 X-172.555 Y3.098 Z6.789 A347.6330 B-1.3329 
N690 X-172.524 Y3.272 Z6.846 A346.2066 B-0.3913 
N691 X-172.495 Y3.444 Z6.896 A344.8828 B0.5355 
N692 X-172.469 Y3.617 Z6.937 A343.7381 B1.4251 
N693 X-172.445 Y3.795 Z6.968 A342.8744 B2.2484 
N694 X-172.423 Y3.981 Z6.986 A342.3713 B2.9788 
N695 X-172.402 Y4.173 Z6.991 A342.1866 B3.6157 
N696 X-172.386 Y4.364 Z6.986 A342.1433 B4.1916 
N697 X-172.377 Y4.545 Z6.973 A341.9879 B4.7634 
N698 X-172.376 Y4.705 Z6.957 A341.4603 B5.3976 
N699 X-172.386 Y4.837 Z6.941 A340.3471 B6.1527 
N700 X-172.407 Y4.937 Z6.929 A338.5193 B7.0615 
N701 X-172.438 Y5.004 Z6.924 A335.9357 B8.1020 
N702 X-172.473 Y5.041 Z6.930 A332.6356 B9.1350 
N703 X-172.507 Y5.057 Z6.948 A328.7564 B10.1063 
N704 X-172.539 Y5.060 Z6.976 A324.4686 B10.9724 
N705 X-172.566 Y5.057 Z7.014 A319.9260 B11.6984 
N706 X-172.587 Y5.053 Z7.059 A315.2386 B12.2646 
N707 X-172.602 Y5.052 Z7.110 A310.4717 B12.6627 
N708 X-172.609 Y5.054 Z7.166 A305.6621 B12.8907 
N709 X-172.607 Y5.063 Z7.225 A300.8392 B12.9492 
N710 X-172.596 Y5.079 Z7.284 A296.0423 B12.8419 
N711 X-172.578 Y5.103 Z7.342 A291.3273 B12.5778 
N712 X-172.555 Y5.136 Z7.393 A286.7654 B12.1745 
N713 X-172.529 Y5.179 Z7.435 A282.4232 B11.6573 
N714 X-172.504 Y5.228 Z7.464 A278.3429 B11.0543 
N715 X-172.480 Y5.284 Z7.479 A274.5157 B10.3865 
N716 X-172.458 Y5.344 Z7.482 A270.8844 B9.6625 
N717 X-172.437 Y5.406 Z7.474 A267.3704 B8.8780 
N718 X-172.417 Y5.469 Z7.458 A263.8895 B8.0189 
N719 X-172.397 Y5.534 Z7.437 A260.3593 B7.0627 
N720 X-172.376 Y5.601 Z7.412 A256.7119 B5.9828 
N721 X-172.354 Y5.671 Z7.383 A252.9219 B4.7586 
N722 X-172.330 Y5.745 Z7.348 A249.0302 B3.3885 
N723 X-172.304 Y5.821 Z7.301 A245.1460 B1.8971 
N724 X-172.280 Y5.896 Z7.237 A241.4144 B0.3284 
N725 X-172.266 Y5.968 Z7.152 A237.8917 B-1.0780 
N726 X-172.259 Y6.033 Z7.045 A234.6939 B-2.3949 
N727 X-172.259 Y6.086 Z6.912 A231.8726 B-3.5899 
N728 X-172.267 Y6.124 Z6.756 A229.4639 B-4.6415 
N729 X-172.283 Y6.147 Z6.578 A227.4550 B-5.5502 
N730 X-172.307 Y6.151 Z6.379 A225.8672 B-6.3059 
N731 X-172.338 Y6.135 Z6.161 A224.7161 B-6.8997 
N732 X-172.376 Y6.100 Z5.926 A223.9383 B-7.3519 
N733 X-172.418 Y6.049 Z5.679 A223.4198 B-7.7041 
N734 X-172.461 Y5.985 Z5.424 A223.0631 B-7.9933 
N735 X-172.506 Y5.911 Z5.163 A222.7952 B-8.2477 
N736 X-172.550 Y5.828 Z4.898 A222.5613 B-8.4879 
N737 X-172.591 Y5.738 Z4.632 A222.3170 B-8.7260 
N738 X-172.629 Y5.642 Z4.366 A222.0169 B-8.9766 
N739 X-172.663 Y5.543 Z4.103 A221.6104 B-9.2511 
N740 X-172.693 Y5.441 Z3.845 A221.0449 B-9.5550 
N741 X-172.718 Y5.340 Z3.593 A220.2779 B-9.8842 
N742 X-172.739 Y5.238 Z3.348 A219.2896 B-10.2230 
N743 X-172.756 Y5.137 Z3.112 A218.0909 B-10.5467 
N744 X-172.771 Y5.036 Z2.882 A216.7188 B-10.8293 
N745 X-172.783 Y4.933 Z2.660 A215.2177 B-11.0501 
N746 X-172.793 Y4.828 Z2.443 A213.6238 B-11.1961 
N747 X-172.802 Y4.720 Z2.232 A211.9614 B-11.2604 
N748 X-172.809 Y4.609 Z2.027 A210.2441 B-11.2395 
N749 X-172.814 Y4.495 Z1.827 A208.4796 B-11.1312 
N750 X-172.818 Y4.378 Z1.634 A206.6729 B-10.9339 
N751 X-172.820 Y4.258 Z1.446 A204.8292 B-10.6465 
N752 X-172.818 Y4.135 Z1.263 A202.9516 B-10.3024 
N753 X-172.811 Y4.010 Z1.086 A201.0375 B-9.9762 
N754 X-172.797 Y3.883 Z0.915 A199.0869 B-9.6757 
N755 X-172.777 Y3.751 Z0.748 A197.1430 B-9.4110 
N756 X-172.753 Y3.611 Z0.586 A195.3498 B-9.1770 
N757 X-172.729 Y3.469 Z0.429 A193.5204 B-8.9393 
N758 X-172.706 Y3.323 Z0.279 A191.6570 B-8.6985 
N759 X-172.682 Y3.175 Z0.134 A189.7623 B-8.4551 
N760 X-172.658 Y3.023 Z-0.006 A187.8391 B-8.2100 
N761 X-172.635 Y2.869 Z-0.139 A185.8907 B-7.9639 
N762 X-172.611 Y2.711 Z-0.267 A183.9203 B-7.7176 
N763 X-172.587 Y2.550 Z-0.388 A181.9313 B-7.4720 
N764 X-172.563 Y2.386 Z-0.504 A179.9268 B-7.2277 
N765 X-172.540 Y2.218 Z-0.614 A177.9107 B-6.9857 
N766 X-172.516 Y2.046 Z-0.717 A175.8866 B-6.7467 
N767 X-172.492 Y1.871 Z-0.815 A173.8588 B-6.5117 
N768 X-172.467 Y1.692 Z-0.906 A171.8312 B-6.2814 
N769 X-172.443 Y1.509 Z-0.991 A169.8075 B-6.0566 
N770 X-172.419 Y1.321 Z-1.069 A167.7909 B-5.8378 
N771 X-172.394 Y1.130 Z-1.141 A165.7848 B-5.6258 
N772 X-172.370 Y0.934 Z-1.206 A163.7925 B-5.4210 
N773 X-172.345 Y0.733 Z-1.264 A161.8177 B-5.2240 
N774 X-172.320 Y0.527 Z-1.315 A159.8641 B-5.0352 
N775 X-172.295 Y0.317 Z-1.358 A157.9353 B-4.8551 
N776 X-172.270 Y0.101 Z-1.394 A156.0348 B-4.6839 
N777 X-172.244 Y-0.119 Z-1.422 A154.1657 B-4.5219 
N778 X-172.219 Y-0.345 Z-1.442 A152.3308 B-4.3692 
N779 X-172.194 Y-0.576 Z-1.454 A150.5328 B-4.2259 
N780 X-172.168 Y-0.813 Z-1.457 A148.7741 B-4.0920 
N781 X-172.142 Y-1.054 Z-1.452 A147.0566 B-3.9674 
N782 X-172.117 Y-1.301 Z-1.437 A145.3815 B-3.8520 
N783 X-172.091 Y-1.554 Z-1.414 A143.7486 B-3.7453 
N784 X-172.065 Y-1.811 Z-1.381 A142.1574 B-3.6473 
N785 X-172.040 Y-2.073 Z-1.339 A140.6086 B-3.5575 
N786 X-172.014 Y-2.341 Z-1.287 A139.1042 B-3.4758 
N787 X-171.989 Y-2.613 Z-1.226 A137.6489 B-3.4001 
N788 X-171.964 Y-2.890 Z-1.154 A136.2485 B-3.3324 
N789 X-171.939 Y-3.172 Z-1.072 A134.9086 B-3.2730 
N790 X-171.914 Y-3.460 Z-0.980 A133.6320 B-3.2213 
N791 X-171.889 Y-3.752 Z-0.877 A132.4188 B-3.1768 
N792 X-171.865 Y-4.048 Z-0.764 A131.2654 B-3.1386 
N793 X-171.841 Y-4.349 Z-0.641 A130.1683 B-3.1062 
N794 X-171.817 Y-4.655 Z-0.508 A129.1246 B-3.0790 
N795 X-171.794 Y-4.964 Z-0.365 A128.1327 B-3.0566 
N796 X-171.771 Y-5.276 Z-0.213 A127.1914 B-3.0385 
N797 X-171.748 Y-5.592 Z-0.052 A126.2997 B-3.0242 
N798 X-171.726 Y-5.911 Z0.118 A125.4565 B-3.0135 
N799 X-171.704 Y-6.234 Z0.298 A124.6609 B-3.0059 
N800 X-171.683 Y-6.558 Z0.485 A123.9116 B-3.0011 
N801 X-171.663 Y-6.885 Z0.681 A123.2078 B-2.9988 
N802 X-171.642 Y-7.214 Z0.884 A122.5487 B-2.9986 
N803 X-171.623 Y-7.545 Z1.095 A121.9343 B-3.0003 
N804 X-171.604 Y-7.876 Z1.311 A121.3656 B-3.0036 
N805 X-171.586 Y-8.208 Z1.534 A120.8435 B-3.0082 
N806 X-171.568 Y-8.540 Z1.762 A120.3663 B-3.0137 
N807 X-171.552 Y-8.871 Z1.995 A119.9301 B-3.0202 
N808 X-171.535 Y-9.200 Z2.230 A119.5302 B-3.0272 
N809 X-171.520 Y-9.527 Z2.468 A119.1632 B-3.0348 
N810 X-171.505 Y-9.850 Z2.707 A118.8271 B-3.0428 
N811 X-171.491 Y-10.169 Z2.946 A118.5207 B-3.0510 
N812 X-171.478 Y-10.483 Z3.184 A118.2439 B-3.0593 
N813 X-171.466 Y-10.790 Z3.419 A117.9968 B-3.0676 
N814 X-171.454 Y-11.089 Z3.652 A117.7790 B-3.0756 
N815 X-171.442 Y-11.380 Z3.880 A117.5892 B-3.0834 
N816 X-171.426 Y-11.661 Z4.102 A117.4263 B-3.0908 
N817 X-171.404 Y-11.932 Z4.318 A117.2895 B-3.0976 
N818 X-171.378 Y-12.191 Z4.525 A117.1772 B-3.1039 
N819 X-171.348 Y-12.438 Z4.724 A117.0864 B-3.1096 
N820 X-171.314 Y-12.672 Z4.914 A117.0122 B-3.1149 
N821 X-171.278 Y-12.893 Z5.093 A116.9498 B-3.1197 
N822 X-171.240 Y-13.101 Z5.262 A116.8957 B-3.1241 
N823 X-171.200 Y-13.295 Z5.421 A116.8480 B-3.1283 
N824 X-171.159 Y-13.476 Z5.569 A116.8068 B-3.1321 
N825 X-171.118 Y-13.644 Z5.707 A116.7660 B-3.1357 
N826 X-171.077 Y-13.795 Z5.825 A116.4184 B-3.1492 
N827 X-171.036 Y-13.898 Z5.860 A113.9296 B-3.2401 
N828 X-171.601 Y-23.024 Z1.810 F878 
N829 G00 X-173.862 Y-59.527 Z-14.388 
;RAPORT("TD999999","Flank Milling Transition:136 End")
;trailer : concat=None
; points cnt = 774
N831 MSG (" --- GROUPED OF SUBPROGRAM --- ")
VELOLIM[A]=100 ;ODWOLANIE VELOLIM
N832 FGROUP()
N833 TRAFOOF
; PROGRAM NAME: D99999933
; ORDER       : D999999
; OPER. NAME  : Flank Milling Transition:137
; OPER. DESCR.: finish flank shroud
; OPER. TYPE  : preFinFlank
; GEO. OPTION : 2
; MACHINE     : HSTM_300HD_SIM840D_Py
;             : HSTM300/500 - HAMUEL: 5-axis milling machine-SIM840D Traori PP_Script
; CONTROL     : SINUMERIK 840D
; created:   2022-11-03 09:03:39.051286
;-------DODATKOWE DANE-------------------
; PROGRAMISTA : Mariusz Malec
; PARTID      : 139T006893P1018_-
;  dec_value  : 0.7
;  lean_angle : 10.0
;  tilt_angle : 0.0
;  airf_offset: 0.05
;  firstoffset: 1.5
;----------------------------------------
;RAPORT("TD999999","Flank Milling Transition:137")
N10 TRAFOOF
N11 D0
N12 G90 G94
N13 G0 G53 D0 Z550
N14 STOPRE
M9 ; chlodziwo wyl
; --- Flank Milling Transition:137 - finish flank shroud ---
N16 ;ToolChange : concat=None ,current_tdmid=None, PP.tdmId=940783
N17 TRAFOOF
N18 G0 G53 D0 Z550 B0
N19 STOPRE
N20 MSG(" TLID=940783 D=3.86 R=2.3 Ang=10.0 Len=175.0 ")
N21 S9978 M03
N22 STOPRE
N23 CYCLE832(0.001,1,1)
N24 G0 G53 A147.6349 B13.2855
N25 TRAORI
N26 G54 D4
N27 D4 
N28 TRANS  X=R8 A=R25
STOPRE
E_ZDARZ=300018
;ACS_FINISH_UBG_PLATFORM_XLB_SHROUD=7740783
STOPRE
N29 ; DELTA A > 40.1
N30 TRAFOOF
N31 D4
N32 STOPRE
N33 G00 G54 Z211.000
N34 G01 A147.6349 F10000
N35 TRAORI
N36 G54 D4
N37 STOPRE
N38 TRANS  X=R8 A=R25
N39 G00 X-212.298 Y-54.775 Z-35.116 A147.6349 B13.2855 
N40 M342 ; chlodziwo woda
N41 X-223.788 Y-28.725 Z5.987 
N42 G01 X-223.673 Y-26.291 Z7.950 F878 
N43 X-223.337 Y-23.393 Z9.079 
N44 X-222.814 Y-20.314 Z9.265 
N45 X-222.155 Y-17.356 Z8.489 
N46 M342 ; chlodziwo woda
N47 X-221.424 Y-14.807 Z6.827 
N48 X-221.377 Y-14.744 Z6.749 A150.1824 B13.2662 
N49 X-221.327 Y-14.598 Z6.625 A150.5437 B13.2515 
N50 X-221.277 Y-14.430 Z6.487 A150.5928 B13.2373 
N51 X-221.227 Y-14.251 Z6.339 A150.6427 B13.2221 
N52 X-221.178 Y-14.059 Z6.182 A150.6995 B13.2058 
N53 X-221.130 Y-13.856 Z6.014 A150.7629 B13.1884 
N54 X-221.084 Y-13.640 Z5.837 A150.8347 B13.1699 
N55 X-221.040 Y-13.413 Z5.651 A150.9180 B13.1503 
N56 X-221.000 Y-13.174 Z5.456 A151.0172 B13.1294 
N57 X-220.963 Y-12.925 Z5.254 A151.1369 B13.1073 
N58 X-220.931 Y-12.666 Z5.043 A151.2798 B13.0840 
N59 X-220.903 Y-12.398 Z4.827 A151.4476 B13.0594 
N60 X-220.881 Y-12.121 Z4.604 A151.6408 B13.0336 
N61 X-220.865 Y-11.836 Z4.377 A151.8606 B13.0064 
N62 X-220.856 Y-11.545 Z4.146 A152.1081 B12.9780 
N63 X-220.855 Y-11.248 Z3.912 A152.3840 B12.9482 
N64 X-220.856 Y-10.945 Z3.676 A152.6884 B12.9142 
N65 X-220.858 Y-10.638 Z3.439 A153.0216 B12.8786 
N66 X-220.860 Y-10.326 Z3.202 A153.3844 B12.8413 
N67 X-220.863 Y-10.012 Z2.965 A153.7786 B12.8024 
N68 X-220.866 Y-9.695 Z2.729 A154.2071 B12.7616 
N69 X-220.870 Y-9.376 Z2.496 A154.6741 B12.7187 
N70 X-220.874 Y-9.057 Z2.266 A155.1845 B12.6737 
N71 X-220.879 Y-8.738 Z2.039 A155.7413 B12.6261 
N72 X-220.884 Y-8.419 Z1.818 A156.3450 B12.5760 
N73 X-220.889 Y-8.101 Z1.601 A156.9946 B12.5232 
N74 X-220.895 Y-7.784 Z1.391 A157.6898 B12.4675 
N75 X-220.902 Y-7.469 Z1.187 A158.4308 B12.4087 
N76 X-220.908 Y-7.157 Z0.989 A159.2184 B12.3467 
N77 X-220.915 Y-6.847 Z0.799 A160.0538 B12.2813 
N78 X-220.922 Y-6.540 Z0.617 A160.9378 B12.2122 
N79 X-220.930 Y-6.237 Z0.442 A161.8714 B12.1391 
N80 X-220.938 Y-5.937 Z0.276 A162.8560 B12.0726 
N81 X-220.947 Y-5.641 Z0.118 A163.8923 B12.0070 
N82 X-220.956 Y-5.350 Z-0.031 A164.9813 B11.9381 
N83 X-220.965 Y-5.062 Z-0.172 A166.1250 B11.8658 
N84 X-220.974 Y-4.780 Z-0.304 A167.3266 B11.7899 
N85 X-220.984 Y-4.502 Z-0.427 A168.5897 B11.7102 
N86 X-220.993 Y-4.229 Z-0.542 A169.9169 B11.6263 
N87 X-221.003 Y-3.961 Z-0.647 A171.3069 B11.5383 
N88 X-221.013 Y-3.698 Z-0.744 A172.7556 B11.4463 
N89 X-221.023 Y-3.440 Z-0.832 A174.2571 B11.3505 
N90 X-221.032 Y-3.187 Z-0.911 A175.8056 B11.2513 
N91 X-221.042 Y-2.938 Z-0.982 A177.3974 B11.1487 
N92 X-221.053 Y-2.694 Z-1.045 A179.0308 B11.0429 
N93 X-221.063 Y-2.454 Z-1.100 A180.7058 B10.9340 
N94 X-221.073 Y-2.219 Z-1.146 A182.4229 B10.8219 
N95 X-221.083 Y-1.989 Z-1.186 A184.1817 B10.7068 
N96 X-221.093 Y-1.763 Z-1.217 A185.9809 B10.5888 
N97 X-221.103 Y-1.541 Z-1.242 A187.8182 B10.4682 
N98 X-221.113 Y-1.324 Z-1.259 A189.6911 B10.3451 
N99 X-221.123 Y-1.111 Z-1.269 A191.5968 B10.2198 
N100 X-221.133 Y-0.901 Z-1.272 A193.5323 B10.0928 
N101 X-221.143 Y-0.696 Z-1.269 A195.4936 B9.9642 
N102 X-221.153 Y-0.494 Z-1.258 A197.4749 B9.8347 
N103 X-221.162 Y-0.295 Z-1.241 A199.4658 B9.7050 
N104 X-221.172 Y-0.099 Z-1.218 A201.4471 B9.5763 
N105 X-221.182 Y0.097 Z-1.187 A203.3863 B9.4507 
N106 X-221.192 Y0.293 Z-1.147 A205.2393 B9.3306 
N107 X-221.203 Y0.491 Z-1.099 A206.9619 B9.2186 
N108 X-221.214 Y0.691 Z-1.040 A208.5293 B9.1162 
N109 X-221.225 Y0.894 Z-0.971 A209.9544 B9.0224 
N110 X-221.236 Y1.096 Z-0.893 A211.2912 B8.9344 
N111 X-221.247 Y1.296 Z-0.806 A212.6213 B8.8475 
N112 X-221.258 Y1.497 Z-0.711 A214.0856 B8.7431 
N113 X-221.271 Y1.691 Z-0.609 A215.6885 B8.6027 
N114 X-221.284 Y1.878 Z-0.502 A217.4281 B8.4209 
N115 X-221.298 Y2.058 Z-0.390 A219.2783 B8.1941 
N116 X-221.312 Y2.232 Z-0.271 A221.1935 B7.9213 
N117 X-221.326 Y2.403 Z-0.147 A223.1285 B7.6032 
N118 X-221.341 Y2.570 Z-0.015 A225.0507 B7.2409 
N119 X-221.357 Y2.736 Z0.125 A226.9415 B6.8344 
N120 X-221.373 Y2.899 Z0.273 A228.7933 B6.3829 
N121 X-221.389 Y3.059 Z0.428 A230.6077 B5.8840 
N122 X-221.406 Y3.217 Z0.591 A232.3972 B5.3322 
N123 X-221.422 Y3.370 Z0.761 A234.1858 B4.7178 
N124 X-221.438 Y3.519 Z0.935 A236.0055 B4.0256 
N125 X-221.452 Y3.664 Z1.114 A237.8855 B3.2354 
N126 X-221.463 Y3.803 Z1.295 A239.8372 B2.3257 
N127 X-221.470 Y3.938 Z1.479 A241.8475 B1.2762 
N128 X-221.498 Y4.067 Z1.663 A243.9837 B0.6936 
N129 X-221.531 Y4.194 Z1.849 A246.1504 B0.1620 
N130 X-221.564 Y4.316 Z2.040 A248.3136 B-0.3799 
N131 X-221.599 Y4.436 Z2.234 A250.4628 B-0.9267 
N132 X-221.635 Y4.551 Z2.431 A252.5938 B-1.4747 
N133 X-221.672 Y4.664 Z2.631 A254.6979 B-2.0193 
N134 X-221.711 Y4.772 Z2.835 A256.7586 B-2.5550 
N135 X-221.750 Y4.876 Z3.041 A258.7499 B-3.0747 
N136 X-221.792 Y4.976 Z3.252 A260.6403 B-3.5712 
N137 X-221.834 Y5.072 Z3.467 A262.4051 B-4.0390 
N138 X-221.878 Y5.162 Z3.684 A264.0386 B-4.4768 
N139 X-221.922 Y5.246 Z3.904 A265.5583 B-4.8876 
N140 X-221.966 Y5.323 Z4.123 A266.9949 B-5.2767 
N141 X-222.009 Y5.393 Z4.340 A268.3721 B-5.6476 
N142 X-222.051 Y5.455 Z4.554 A269.6904 B-5.9997 
N143 X-222.092 Y5.509 Z4.765 A270.9239 B-6.3286 
N144 X-222.132 Y5.554 Z4.973 A272.0498 B-6.6305 
N145 X-222.169 Y5.591 Z5.178 A273.0514 B-6.9032 
N146 X-222.205 Y5.618 Z5.378 A273.9433 B-7.1494 
N147 X-222.238 Y5.638 Z5.568 A274.8633 B-7.3900 
N148 X-222.263 Y5.650 Z5.738 A276.0424 B-7.7430 
N149 X-222.282 Y5.658 Z5.881 A277.6547 B-8.1210 
N150 X-222.298 Y5.661 Z5.995 A279.7404 B-8.4963 
N151 X-222.311 Y5.663 Z6.081 A282.2531 B-8.8585 
N152 X-222.320 Y5.666 Z6.144 A285.0972 B-9.1900 
N153 X-222.328 Y5.669 Z6.190 A288.1696 B-9.4747 
N154 X-222.334 Y5.675 Z6.222 A291.3900 B-9.7022 
N155 X-222.340 Y5.684 Z6.244 A294.6989 B-9.8666 
N156 X-222.346 Y5.695 Z6.258 A298.0564 B-9.9672 
N157 X-222.353 Y5.709 Z6.268 A301.4240 B-10.0036 
N158 X-222.360 Y5.726 Z6.276 A304.7829 B-9.9753 
N159 X-222.368 Y5.744 Z6.283 A308.1215 B-9.8834 
N160 X-222.376 Y5.764 Z6.290 A311.4321 B-9.7296 
N161 X-222.383 Y5.784 Z6.298 A314.7091 B-9.5160 
N162 X-222.391 Y5.806 Z6.307 A317.9490 B-9.2452 
N163 X-222.400 Y5.827 Z6.319 A321.1525 B-8.9194 
N164 X-222.413 Y5.848 Z6.333 A324.3220 B-8.5407 
N165 X-222.431 Y5.868 Z6.350 A327.4598 B-8.1112 
N166 X-222.454 Y5.887 Z6.369 A330.5674 B-7.6328 
N167 X-222.482 Y5.903 Z6.393 A333.6432 B-7.1061 
N168 X-222.515 Y5.917 Z6.420 A336.6895 B-6.5299 
N169 X-222.550 Y5.926 Z6.450 A339.7083 B-5.9033 
N170 X-222.587 Y5.932 Z6.483 A342.7011 B-5.2243 
N171 X-222.625 Y5.933 Z6.520 A345.6685 B-4.4898 
N172 X-222.664 Y5.928 Z6.559 A348.6092 B-3.6949 
N173 X-222.703 Y5.916 Z6.601 A351.5190 B-2.8335 
N174 X-222.740 Y5.896 Z6.645 A354.3981 B-1.9289 
N175 X-222.772 Y5.868 Z6.690 A357.2433 B-1.0109 
N176 X-222.798 Y5.830 Z6.737 A0.0366 B-0.0901 
N177 X-222.816 Y5.779 Z6.783 A2.7542 B0.8204 
N178 X-222.826 Y5.715 Z6.827 A5.3697 B1.7068 
N179 X-222.825 Y5.636 Z6.868 A7.8575 B2.5559 
N180 X-222.814 Y5.541 Z6.904 A10.2031 B3.3584 
N181 X-222.792 Y5.430 Z6.934 A12.4037 B4.1094 
N182 X-222.760 Y5.303 Z6.956 A14.4577 B4.8056 
N183 X-222.717 Y5.160 Z6.970 A16.3545 B5.4417 
N184 X-222.665 Y5.002 Z6.974 A18.0979 B6.0178 
N185 X-222.604 Y4.829 Z6.968 A19.7388 B6.5478 
N186 X-222.537 Y4.644 Z6.952 A21.3069 B7.0393 
N187 X-222.463 Y4.446 Z6.927 A22.7656 B7.4821 
N188 X-222.384 Y4.233 Z6.889 A24.0817 B7.8682 
N189 X-222.302 Y4.006 Z6.840 A25.2683 B8.2025 
N190 X-222.217 Y3.766 Z6.780 A26.3362 B8.4897 
N191 X-222.131 Y3.513 Z6.709 A27.2800 B8.7306 
N192 X-222.045 Y3.248 Z6.627 A28.0906 B8.9259 
N193 X-221.962 Y2.970 Z6.534 A28.7634 B9.0777 
N194 X-221.882 Y2.681 Z6.432 A29.3098 B9.1919 
N195 X-221.807 Y2.382 Z6.322 A29.7448 B9.2748 
N196 X-221.739 Y2.073 Z6.205 A30.0821 B9.3322 
N197 X-221.677 Y1.757 Z6.081 A30.3272 B9.3679 
N198 X-221.620 Y1.434 Z5.953 A30.4761 B9.3840 
N199 X-221.566 Y1.104 Z5.821 A30.5217 B9.3802 
N200 X-221.515 Y0.770 Z5.686 A30.4557 B9.3532 
N201 X-221.466 Y0.430 Z5.549 A30.2642 B9.3125 
N202 X-221.421 Y0.084 Z5.411 A29.9290 B9.2597 
N203 X-221.379 Y-0.267 Z5.273 A29.4280 B9.1969 
N204 X-221.341 Y-0.623 Z5.136 A28.7452 B9.1271 
N205 X-221.307 Y-0.986 Z5.002 A27.8765 B9.0550 
N206 X-221.277 Y-1.353 Z4.872 A26.8310 B8.9862 
N207 X-221.251 Y-1.726 Z4.748 A25.6223 B8.9256 
N208 X-221.229 Y-2.103 Z4.632 A24.2630 B8.8775 
N209 X-221.211 Y-2.480 Z4.525 A22.7415 B8.8399 
N210 X-221.193 Y-2.854 Z4.429 A21.0456 B8.7453 
N211 X-221.174 Y-3.231 Z4.344 A19.2452 B8.6389 
N212 X-221.156 Y-3.611 Z4.270 A17.3599 B8.5299 
N213 X-221.139 Y-3.993 Z4.209 A15.4117 B8.4195 
N214 X-221.121 Y-4.377 Z4.160 A13.4241 B8.3091 
N215 X-221.105 Y-4.761 Z4.126 A11.4211 B8.2002 
N216 X-221.089 Y-5.146 Z4.104 A9.4248 B8.0937 
N217 X-221.073 Y-5.530 Z4.097 A7.4551 B7.9906 
N218 X-221.058 Y-5.913 Z4.103 A5.5296 B7.8917 
N219 X-221.044 Y-6.295 Z4.122 A3.6623 B7.7975 
N220 X-221.031 Y-6.675 Z4.154 A1.8638 B7.7082 
N221 X-221.018 Y-7.053 Z4.199 A0.1420 B7.6241 
N222 X-221.006 Y-7.428 Z4.255 A358.5019 B7.5450 
N223 X-220.994 Y-7.801 Z4.322 A356.9467 B7.4709 
N224 X-220.983 Y-8.170 Z4.399 A355.4774 B7.4016 
N225 X-220.973 Y-8.536 Z4.486 A354.0940 B7.3368 
N226 X-220.964 Y-8.898 Z4.582 A352.7956 B7.2764 
N227 X-220.955 Y-9.256 Z4.686 A351.5802 B7.2201 
N228 X-220.947 Y-9.608 Z4.797 A350.4453 B7.1676 
N229 X-220.939 Y-9.954 Z4.913 A349.3878 B7.1186 
N230 X-220.932 Y-10.293 Z5.035 A348.4036 B7.0729 
N231 X-220.926 Y-10.624 Z5.161 A347.4870 B7.0303 
N232 X-220.920 Y-10.948 Z5.290 A346.6307 B6.9904 
N233 X-220.915 Y-11.262 Z5.421 A345.8299 B6.9501 
N234 X-220.910 Y-11.566 Z5.553 A345.0928 B6.9114 
N235 X-220.907 Y-11.858 Z5.684 A344.4340 B6.8756 
N236 X-220.910 Y-12.137 Z5.814 A343.8649 B6.8430 
N237 X-220.920 Y-12.402 Z5.941 A343.3832 B6.8132 
N238 X-220.937 Y-12.654 Z6.064 A342.9728 B6.7859 
N239 X-220.958 Y-12.892 Z6.183 A342.6127 B6.7607 
N240 X-220.986 Y-13.117 Z6.297 A342.2804 B6.7372 
N241 X-221.018 Y-13.330 Z6.407 A341.9550 B6.7151 
N242 X-221.055 Y-13.531 Z6.512 A341.6128 B6.6941 
N243 X-221.095 Y-13.722 Z6.612 A341.2377 B6.6740 
N244 X-221.138 Y-13.870 Z6.696 A341.6968 B6.6646 
N245 X-221.183 Y-13.915 Z6.742 A344.6247 B6.6890 
N246 X-221.224 Y-13.926 Z6.775 A348.2323 B6.7336 
N247 X-221.260 Y-13.931 Z6.804 A351.8709 B6.7917 
N248 X-221.290 Y-13.934 Z6.832 A355.4229 B6.8606 
N249 X-221.313 Y-13.937 Z6.859 A358.8676 B6.9388 
N250 X-221.331 Y-13.941 Z6.884 A2.2057 B7.0253 
N251 X-221.342 Y-13.946 Z6.909 A5.4453 B7.1191 
N252 X-221.347 Y-13.951 Z6.933 A8.5975 B7.2196 
N253 X-221.347 Y-13.958 Z6.957 A11.6740 B7.3263 
N254 X-221.342 Y-13.965 Z6.980 A14.6860 B7.4388 
N255 X-221.332 Y-13.974 Z7.002 A17.6433 B7.5568 
N256 X-221.317 Y-13.984 Z7.023 A20.5552 B7.6801 
N257 X-221.299 Y-13.996 Z7.044 A23.4303 B7.8084 
N258 X-221.278 Y-14.008 Z7.065 A26.2758 B7.9416 
N259 X-221.253 Y-14.021 Z7.084 A29.0976 B8.0795 
N260 X-221.227 Y-14.036 Z7.102 A31.8999 B8.2219 
N261 X-221.199 Y-14.051 Z7.120 A34.6860 B8.3685 
N262 X-221.170 Y-14.068 Z7.136 A37.4581 B8.5190 
N263 X-221.140 Y-14.086 Z7.152 A40.2167 B8.6731 
N264 X-221.110 Y-14.105 Z7.167 A42.9621 B8.8303 
N265 X-221.080 Y-14.125 Z7.181 A45.6952 B8.9902 
N266 X-221.052 Y-14.145 Z7.194 A48.4218 B9.1528 
N267 X-221.025 Y-14.166 Z7.206 A51.1489 B9.3180 
N268 X-221.003 Y-14.189 Z7.216 A53.8819 B9.4858 
N269 X-220.985 Y-14.212 Z7.226 A56.6219 B9.6557 
N270 X-220.971 Y-14.235 Z7.234 A59.3687 B9.8274 
N271 X-220.963 Y-14.260 Z7.241 A62.1214 B10.0001 
N272 X-220.959 Y-14.284 Z7.246 A64.8782 B10.1735 
N273 X-220.960 Y-14.310 Z7.251 A67.6378 B10.3467 
N274 X-220.966 Y-14.335 Z7.253 A70.4001 B10.5194 
N275 X-220.976 Y-14.361 Z7.255 A73.1659 B10.6911 
N276 X-220.991 Y-14.387 Z7.254 A75.9352 B10.8611 
N277 X-221.010 Y-14.413 Z7.253 A78.7076 B11.0290 
N278 X-221.034 Y-14.438 Z7.250 A81.4823 B11.1943 
N279 X-221.062 Y-14.464 Z7.246 A84.2583 B11.3562 
N280 X-221.094 Y-14.489 Z7.240 A87.0346 B11.5144 
N281 X-221.129 Y-14.515 Z7.233 A89.8140 B11.6684 
N282 X-221.166 Y-14.539 Z7.224 A92.6024 B11.8181 
N283 X-221.204 Y-14.563 Z7.214 A95.4069 B11.9635 
N284 X-221.242 Y-14.587 Z7.203 A98.2311 B12.1040 
N285 X-221.280 Y-14.611 Z7.191 A101.0766 B12.2393 
N286 X-221.316 Y-14.633 Z7.177 A103.9454 B12.3689 
N287 X-221.352 Y-14.655 Z7.162 A106.8419 B12.4923 
N288 X-221.386 Y-14.678 Z7.145 A109.7731 B12.6093 
N289 X-221.418 Y-14.698 Z7.127 A112.7485 B12.7196 
N290 X-221.447 Y-14.717 Z7.108 A115.7802 B12.8227 
N291 X-221.472 Y-14.736 Z7.087 A118.8827 B12.9184 
N292 X-221.492 Y-14.754 Z7.064 A122.0728 B13.0059 
N293 X-221.506 Y-14.770 Z7.039 A125.3682 B13.0845 
N294 X-221.514 Y-14.785 Z7.013 A128.7852 B13.1530 
N295 X-221.515 Y-14.799 Z6.983 A132.3381 B13.2101 
N296 X-221.507 Y-14.810 Z6.951 A136.0371 B13.2539 
N297 X-221.490 Y-14.817 Z6.916 A139.8770 B13.2825 
N298 X-221.462 Y-14.819 Z6.876 A143.8104 B13.2933 
N299 X-221.424 Y-14.807 Z6.827 A147.6349 B13.2855 
N300 X-219.126 Y-20.017 Z-1.393 
N301 G00 X-213.381 Y-33.042 Z-21.945 
N302 X-212.999 Y-54.770 Z-35.120 
N303 X-224.490 Y-28.721 Z5.983 
N304 G01 X-224.374 Y-26.287 Z7.946 F878 
N305 X-224.038 Y-23.389 Z9.075 
N306 X-223.515 Y-20.310 Z9.261 
N307 X-222.856 Y-17.351 Z8.485 
N308 M342 ; chlodziwo woda
N309 X-222.125 Y-14.803 Z6.823 
N310 X-222.078 Y-14.741 Z6.747 A150.1824 B13.2662 
N311 X-222.028 Y-14.595 Z6.623 A150.5437 B13.2515 
N312 X-221.978 Y-14.428 Z6.485 A150.5928 B13.2373 
N313 X-221.928 Y-14.249 Z6.337 A150.6427 B13.2221 
N314 X-221.879 Y-14.058 Z6.180 A150.6995 B13.2058 
N315 X-221.831 Y-13.854 Z6.013 A150.7629 B13.1884 
N316 X-221.785 Y-13.639 Z5.837 A150.8347 B13.1699 
N317 X-221.742 Y-13.412 Z5.651 A150.9180 B13.1503 
N318 X-221.701 Y-13.174 Z5.456 A151.0172 B13.1294 
N319 X-221.664 Y-12.925 Z5.254 A151.1369 B13.1073 
N320 X-221.632 Y-12.667 Z5.044 A151.2798 B13.0840 
N321 X-221.604 Y-12.399 Z4.828 A151.4476 B13.0594 
N322 X-221.582 Y-12.123 Z4.606 A151.6408 B13.0336 
N323 X-221.566 Y-11.839 Z4.379 A151.8606 B13.0064 
N324 X-221.557 Y-11.548 Z4.149 A152.1081 B12.9780 
N325 X-221.556 Y-11.251 Z3.915 A152.3840 B12.9482 
N326 X-221.557 Y-10.949 Z3.680 A152.6884 B12.9142 
N327 X-221.559 Y-10.642 Z3.443 A153.0216 B12.8786 
N328 X-221.561 Y-10.332 Z3.206 A153.3844 B12.8413 
N329 X-221.564 Y-10.018 Z2.970 A153.7786 B12.8024 
N330 X-221.567 Y-9.702 Z2.734 A154.2071 B12.7616 
N331 X-221.571 Y-9.384 Z2.502 A154.6741 B12.7187 
N332 X-221.575 Y-9.066 Z2.272 A155.1845 B12.6737 
N333 X-221.580 Y-8.747 Z2.046 A155.7413 B12.6261 
N334 X-221.585 Y-8.429 Z1.825 A156.3450 B12.5760 
N335 X-221.590 Y-8.112 Z1.609 A156.9946 B12.5232 
N336 X-221.596 Y-7.796 Z1.398 A157.6898 B12.4675 
N337 X-221.602 Y-7.482 Z1.195 A158.4308 B12.4087 
N338 X-221.609 Y-7.171 Z0.998 A159.2184 B12.3467 
N339 X-221.616 Y-6.862 Z0.808 A160.0538 B12.2813 
N340 X-221.623 Y-6.556 Z0.626 A160.9378 B12.2122 
N341 X-221.630 Y-6.254 Z0.452 A161.8714 B12.1391 
N342 X-221.639 Y-5.955 Z0.286 A162.8560 B12.0726 
N343 X-221.647 Y-5.660 Z0.128 A163.8923 B12.0070 
N344 X-221.656 Y-5.370 Z-0.022 A164.9813 B11.9381 
N345 X-221.665 Y-5.084 Z-0.163 A166.1250 B11.8658 
N346 X-221.674 Y-4.802 Z-0.295 A167.3266 B11.7899 
N347 X-221.684 Y-4.525 Z-0.418 A168.5897 B11.7102 
N348 X-221.693 Y-4.254 Z-0.532 A169.9169 B11.6263 
N349 X-221.703 Y-3.987 Z-0.638 A171.3069 B11.5383 
N350 X-221.712 Y-3.725 Z-0.735 A172.7556 B11.4463 
N351 X-221.722 Y-3.468 Z-0.823 A174.2571 B11.3505 
N352 X-221.732 Y-3.216 Z-0.903 A175.8056 B11.2513 
N353 X-221.742 Y-2.968 Z-0.975 A177.3974 B11.1487 
N354 X-221.752 Y-2.725 Z-1.038 A179.0308 B11.0429 
N355 X-221.762 Y-2.486 Z-1.094 A180.7058 B10.9340 
N356 X-221.772 Y-2.252 Z-1.142 A182.4229 B10.8219 
N357 X-221.782 Y-2.022 Z-1.182 A184.1817 B10.7068 
N358 X-221.792 Y-1.797 Z-1.215 A185.9809 B10.5888 
N359 X-221.802 Y-1.576 Z-1.240 A187.8182 B10.4682 
N360 X-221.812 Y-1.360 Z-1.258 A189.6911 B10.3451 
N361 X-221.822 Y-1.147 Z-1.269 A191.5968 B10.2198 
N362 X-221.832 Y-0.938 Z-1.274 A193.5323 B10.0928 
N363 X-221.842 Y-0.733 Z-1.272 A195.4936 B9.9642 
N364 X-221.852 Y-0.531 Z-1.263 A197.4749 B9.8347 
N365 X-221.861 Y-0.333 Z-1.247 A199.4658 B9.7050 
N366 X-221.871 Y-0.136 Z-1.225 A201.4471 B9.5763 
N367 X-221.881 Y0.059 Z-1.195 A203.3863 B9.4507 
N368 X-221.891 Y0.256 Z-1.157 A205.2393 B9.3306 
N369 X-221.902 Y0.454 Z-1.110 A206.9619 B9.2186 
N370 X-221.912 Y0.655 Z-1.053 A208.5293 B9.1162 
N371 X-221.924 Y0.858 Z-0.985 A209.9544 B9.0224 
N372 X-221.935 Y1.061 Z-0.908 A211.2912 B8.9344 
N373 X-221.946 Y1.262 Z-0.823 A212.6213 B8.8475 
N374 X-221.957 Y1.459 Z-0.730 A214.0856 B8.7431 
N375 X-221.969 Y1.650 Z-0.632 A215.6885 B8.6027 
N376 X-221.982 Y1.833 Z-0.529 A217.4281 B8.4209 
N377 X-221.995 Y2.009 Z-0.422 A219.2783 B8.1941 
N378 X-222.009 Y2.181 Z-0.309 A221.1935 B7.9213 
N379 X-222.023 Y2.349 Z-0.189 A223.1285 B7.6032 
N380 X-222.038 Y2.514 Z-0.063 A225.0507 B7.2409 
N381 X-222.053 Y2.678 Z0.072 A226.9415 B6.8344 
N382 X-222.068 Y2.839 Z0.214 A228.7933 B6.3829 
N383 X-222.084 Y2.998 Z0.364 A230.6077 B5.8840 
N384 X-222.101 Y3.154 Z0.522 A232.3972 B5.3322 
N385 X-222.117 Y3.307 Z0.686 A234.1858 B4.7178 
N386 X-222.132 Y3.456 Z0.855 A236.0055 B4.0256 
N387 X-222.145 Y3.599 Z1.028 A237.8855 B3.2354 
N388 X-222.156 Y3.739 Z1.204 A239.8372 B2.3257 
N389 X-222.163 Y3.874 Z1.383 A241.8475 B1.2762 
N390 X-222.191 Y4.004 Z1.562 A243.9837 B0.6936 
N391 X-222.223 Y4.131 Z1.744 A246.1504 B0.1620 
N392 X-222.257 Y4.255 Z1.929 A248.3136 B-0.3799 
N393 X-222.291 Y4.375 Z2.119 A250.4628 B-0.9267 
N394 X-222.327 Y4.493 Z2.312 A252.5938 B-1.4747 
N395 X-222.365 Y4.606 Z2.508 A254.6979 B-2.0193 
N396 X-222.404 Y4.716 Z2.707 A256.7586 B-2.5550 
N397 X-222.444 Y4.823 Z2.910 A258.7499 B-3.0747 
N398 X-222.486 Y4.924 Z3.118 A260.6403 B-3.5712 
N399 X-222.529 Y5.022 Z3.329 A262.4051 B-4.0390 
N400 X-222.573 Y5.115 Z3.544 A264.0386 B-4.4768 
N401 X-222.618 Y5.202 Z3.762 A265.5583 B-4.8876 
N402 X-222.663 Y5.282 Z3.979 A266.9949 B-5.2767 
N403 X-222.707 Y5.356 Z4.194 A268.3721 B-5.6476 
N404 X-222.751 Y5.422 Z4.407 A269.6904 B-5.9997 
N405 X-222.793 Y5.480 Z4.617 A270.9239 B-6.3286 
N406 X-222.835 Y5.530 Z4.825 A272.0498 B-6.6305 
N407 X-222.875 Y5.572 Z5.031 A273.0514 B-6.9032 
N408 X-222.913 Y5.604 Z5.233 A273.9433 B-7.1494 
N409 X-222.948 Y5.629 Z5.426 A274.8633 B-7.3900 
N410 X-222.976 Y5.647 Z5.600 A276.0424 B-7.7430 
N411 X-222.999 Y5.660 Z5.748 A277.6547 B-8.1210 
N412 X-223.018 Y5.670 Z5.869 A279.7404 B-8.4963 
N413 X-223.034 Y5.677 Z5.963 A282.2531 B-8.8585 
N414 X-223.047 Y5.683 Z6.037 A285.0972 B-9.1900 
N415 X-223.058 Y5.690 Z6.094 A288.1696 B-9.4747 
N416 X-223.068 Y5.697 Z6.139 A291.3900 B-9.7022 
N417 X-223.077 Y5.706 Z6.174 A294.6989 B-9.8666 
N418 X-223.086 Y5.717 Z6.203 A298.0564 B-9.9672 
N419 X-223.095 Y5.728 Z6.227 A301.4240 B-10.0036 
N420 X-223.104 Y5.739 Z6.248 A304.7829 B-9.9753 
N421 X-223.113 Y5.752 Z6.269 A308.1215 B-9.8834 
N422 X-223.121 Y5.764 Z6.288 A311.4321 B-9.7296 
N423 X-223.128 Y5.777 Z6.308 A314.7091 B-9.5160 
N424 X-223.135 Y5.790 Z6.329 A317.9490 B-9.2452 
N425 X-223.143 Y5.802 Z6.350 A321.1525 B-8.9194 
N426 X-223.154 Y5.812 Z6.374 A324.3220 B-8.5407 
N427 X-223.169 Y5.821 Z6.398 A327.4598 B-8.1112 
N428 X-223.190 Y5.828 Z6.424 A330.5674 B-7.6328 
N429 X-223.215 Y5.833 Z6.453 A333.6432 B-7.1061 
N430 X-223.244 Y5.834 Z6.484 A336.6895 B-6.5299 
N431 X-223.275 Y5.832 Z6.516 A339.7083 B-5.9033 
N432 X-223.308 Y5.826 Z6.550 A342.7011 B-5.2243 
N433 X-223.342 Y5.816 Z6.586 A345.6685 B-4.4898 
N434 X-223.377 Y5.800 Z6.624 A348.6092 B-3.6949 
N435 X-223.411 Y5.777 Z6.662 A351.5190 B-2.8335 
N436 X-223.444 Y5.748 Z6.702 A354.3981 B-1.9289 
N437 X-223.472 Y5.711 Z6.741 A357.2433 B-1.0109 
N438 X-223.494 Y5.665 Z6.781 A0.0366 B-0.0901 
N439 X-223.508 Y5.608 Z6.819 A2.7542 B0.8204 
N440 X-223.515 Y5.539 Z6.855 A5.3697 B1.7068 
N441 X-223.512 Y5.456 Z6.887 A7.8575 B2.5559 
N442 X-223.499 Y5.358 Z6.915 A10.2031 B3.3584 
N443 X-223.476 Y5.246 Z6.936 A12.4037 B4.1094 
N444 X-223.442 Y5.120 Z6.950 A14.4577 B4.8056 
N445 X-223.398 Y4.979 Z6.955 A16.3545 B5.4417 
N446 X-223.346 Y4.822 Z6.952 A18.0979 B6.0178 
N447 X-223.285 Y4.653 Z6.940 A19.7388 B6.5478 
N448 X-223.218 Y4.472 Z6.919 A21.3069 B7.0393 
N449 X-223.144 Y4.278 Z6.889 A22.7656 B7.4821 
N450 X-223.066 Y4.070 Z6.848 A24.0817 B7.8682 
N451 X-222.984 Y3.849 Z6.796 A25.2683 B8.2025 
N452 X-222.900 Y3.615 Z6.734 A26.3362 B8.4897 
N453 X-222.815 Y3.368 Z6.662 A27.2800 B8.7306 
N454 X-222.731 Y3.109 Z6.579 A28.0906 B8.9259 
N455 X-222.648 Y2.837 Z6.486 A28.7634 B9.0777 
N456 X-222.570 Y2.555 Z6.385 A29.3098 B9.1919 
N457 X-222.496 Y2.262 Z6.275 A29.7448 B9.2748 
N458 X-222.429 Y1.960 Z6.160 A30.0821 B9.3322 
N459 X-222.368 Y1.650 Z6.038 A30.3272 B9.3679 
N460 X-222.312 Y1.333 Z5.912 A30.4761 B9.3840 
N461 X-222.259 Y1.010 Z5.783 A30.5217 B9.3802 
N462 X-222.209 Y0.682 Z5.651 A30.4557 B9.3532 
N463 X-222.161 Y0.349 Z5.517 A30.2642 B9.3125 
N464 X-222.117 Y0.010 Z5.383 A29.9290 B9.2597 
N465 X-222.076 Y-0.335 Z5.248 A29.4280 B9.1969 
N466 X-222.038 Y-0.685 Z5.114 A28.7452 B9.1271 
N467 X-222.005 Y-1.041 Z4.983 A27.8765 B9.0550 
N468 X-221.975 Y-1.402 Z4.856 A26.8310 B8.9862 
N469 X-221.950 Y-1.768 Z4.736 A25.6223 B8.9256 
N470 X-221.928 Y-2.139 Z4.622 A24.2630 B8.8775 
N471 X-221.911 Y-2.512 Z4.518 A22.7415 B8.8399 
N472 X-221.892 Y-2.885 Z4.423 A21.0456 B8.7453 
N473 X-221.874 Y-3.262 Z4.339 A19.2452 B8.6389 
N474 X-221.856 Y-3.641 Z4.266 A17.3599 B8.5299 
N475 X-221.838 Y-4.022 Z4.206 A15.4117 B8.4195 
N476 X-221.821 Y-4.405 Z4.159 A13.4241 B8.3091 
N477 X-221.805 Y-4.789 Z4.125 A11.4211 B8.2002 
N478 X-221.789 Y-5.172 Z4.105 A9.4248 B8.0937 
N479 X-221.773 Y-5.555 Z4.098 A7.4551 B7.9906 
N480 X-221.759 Y-5.937 Z4.105 A5.5296 B7.8917 
N481 X-221.745 Y-6.318 Z4.125 A3.6623 B7.7975 
N482 X-221.731 Y-6.697 Z4.157 A1.8638 B7.7082 
N483 X-221.718 Y-7.073 Z4.202 A0.1420 B7.6241 
N484 X-221.706 Y-7.447 Z4.259 A358.5019 B7.5450 
N485 X-221.695 Y-7.819 Z4.326 A356.9467 B7.4709 
N486 X-221.684 Y-8.187 Z4.404 A355.4774 B7.4016 
N487 X-221.674 Y-8.552 Z4.491 A354.0940 B7.3368 
N488 X-221.665 Y-8.912 Z4.587 A352.7956 B7.2764 
N489 X-221.656 Y-9.268 Z4.690 A351.5802 B7.2201 
N490 X-221.648 Y-9.619 Z4.801 A350.4453 B7.1676 
N491 X-221.640 Y-9.964 Z4.918 A349.3878 B7.1186 
N492 X-221.633 Y-10.302 Z5.039 A348.4036 B7.0729 
N493 X-221.627 Y-10.633 Z5.165 A347.4870 B7.0303 
N494 X-221.621 Y-10.956 Z5.294 A346.6307 B6.9904 
N495 X-221.616 Y-11.269 Z5.424 A345.8299 B6.9501 
N496 X-221.612 Y-11.572 Z5.556 A345.0928 B6.9114 
N497 X-221.608 Y-11.863 Z5.687 A344.4340 B6.8756 
N498 X-221.611 Y-12.142 Z5.816 A343.8649 B6.8430 
N499 X-221.621 Y-12.406 Z5.943 A343.3832 B6.8132 
N500 X-221.638 Y-12.657 Z6.066 A342.9728 B6.7859 
N501 X-221.659 Y-12.895 Z6.185 A342.6127 B6.7607 
N502 X-221.687 Y-13.119 Z6.299 A342.2804 B6.7372 
N503 X-221.719 Y-13.332 Z6.408 A341.9550 B6.7151 
N504 X-221.756 Y-13.533 Z6.512 A341.6128 B6.6941 
N505 X-221.796 Y-13.723 Z6.613 A341.2377 B6.6740 
N506 X-221.840 Y-13.871 Z6.697 A341.6968 B6.6646 
N507 X-221.884 Y-13.917 Z6.743 A344.6247 B6.6890 
N508 X-221.925 Y-13.931 Z6.777 A348.2323 B6.7336 
N509 X-221.961 Y-13.939 Z6.807 A351.8709 B6.7917 
N510 X-221.991 Y-13.944 Z6.835 A355.4229 B6.8606 
N511 X-222.014 Y-13.950 Z6.861 A358.8676 B6.9388 
N512 X-222.032 Y-13.956 Z6.886 A2.2057 B7.0253 
N513 X-222.043 Y-13.963 Z6.911 A5.4453 B7.1191 
N514 X-222.048 Y-13.970 Z6.934 A8.5975 B7.2196 
N515 X-222.048 Y-13.979 Z6.956 A11.6740 B7.3263 
N516 X-222.043 Y-13.988 Z6.978 A14.6860 B7.4388 
N517 X-222.032 Y-13.999 Z6.999 A17.6433 B7.5568 
N518 X-222.018 Y-14.010 Z7.018 A20.5552 B7.6801 
N519 X-221.999 Y-14.023 Z7.038 A23.4303 B7.8084 
N520 X-221.978 Y-14.036 Z7.056 A26.2758 B7.9416 
N521 X-221.953 Y-14.051 Z7.074 A29.0976 B8.0795 
N522 X-221.927 Y-14.066 Z7.090 A31.8999 B8.2219 
N523 X-221.899 Y-14.083 Z7.106 A34.6860 B8.3685 
N524 X-221.870 Y-14.100 Z7.121 A37.4581 B8.5190 
N525 X-221.840 Y-14.118 Z7.135 A40.2167 B8.6731 
N526 X-221.810 Y-14.137 Z7.148 A42.9621 B8.8303 
N527 X-221.780 Y-14.156 Z7.160 A45.6952 B8.9902 
N528 X-221.751 Y-14.176 Z7.171 A48.4218 B9.1528 
N529 X-221.725 Y-14.197 Z7.181 A51.1489 B9.3180 
N530 X-221.702 Y-14.219 Z7.189 A53.8819 B9.4858 
N531 X-221.684 Y-14.241 Z7.197 A56.6219 B9.6557 
N532 X-221.670 Y-14.263 Z7.203 A59.3687 B9.8274 
N533 X-221.661 Y-14.286 Z7.209 A62.1214 B10.0001 
N534 X-221.658 Y-14.310 Z7.213 A64.8782 B10.1735 
N535 X-221.659 Y-14.333 Z7.216 A67.6378 B10.3467 
N536 X-221.665 Y-14.357 Z7.217 A70.4001 B10.5194 
N537 X-221.675 Y-14.381 Z7.217 A73.1659 B10.6911 
N538 X-221.689 Y-14.405 Z7.217 A75.9352 B10.8611 
N539 X-221.709 Y-14.429 Z7.214 A78.7076 B11.0290 
N540 X-221.733 Y-14.453 Z7.211 A81.4823 B11.1943 
N541 X-221.761 Y-14.476 Z7.207 A84.2583 B11.3562 
N542 X-221.793 Y-14.500 Z7.201 A87.0346 B11.5144 
N543 X-221.828 Y-14.523 Z7.194 A89.8140 B11.6684 
N544 X-221.866 Y-14.545 Z7.186 A92.6024 B11.8181 
N545 X-221.904 Y-14.567 Z7.177 A95.4069 B11.9635 
N546 X-221.941 Y-14.589 Z7.167 A98.2311 B12.1040 
N547 X-221.979 Y-14.611 Z7.155 A101.0766 B12.2393 
N548 X-222.016 Y-14.632 Z7.143 A103.9454 B12.3689 
N549 X-222.052 Y-14.652 Z7.129 A106.8419 B12.4923 
N550 X-222.086 Y-14.672 Z7.114 A109.7731 B12.6093 
N551 X-222.118 Y-14.691 Z7.098 A112.7485 B12.7196 
N552 X-222.147 Y-14.710 Z7.081 A115.7802 B12.8227 
N553 X-222.172 Y-14.728 Z7.062 A118.8827 B12.9184 
N554 X-222.192 Y-14.745 Z7.042 A122.0728 B13.0059 
N555 X-222.207 Y-14.761 Z7.020 A125.3682 B13.0845 
N556 X-222.215 Y-14.776 Z6.995 A128.7852 B13.1530 
N557 X-222.215 Y-14.790 Z6.969 A132.3381 B13.2101 
N558 X-222.208 Y-14.801 Z6.939 A136.0371 B13.2539 
N559 X-222.191 Y-14.810 Z6.907 A139.8770 B13.2825 
N560 X-222.163 Y-14.813 Z6.869 A143.8104 B13.2933 
N561 X-222.125 Y-14.803 Z6.823 A147.6349 B13.2855 
N562 X-219.827 Y-20.013 Z-1.397 
N563 G00 X-214.082 Y-33.038 Z-21.949 
N564 X-213.701 Y-54.766 Z-35.124 
N565 X-225.191 Y-28.716 Z5.979 
N566 G01 X-225.075 Y-26.283 Z7.942 F878 
N567 X-224.739 Y-23.384 Z9.071 
N568 X-224.216 Y-20.305 Z9.257 
N569 X-223.557 Y-17.347 Z8.481 
N570 M342 ; chlodziwo woda
VELOLIM[A]=100 ;PRZYWOLANIE VELOLIM
N571 X-222.827 Y-14.799 Z6.819 
N571 X-222.827 Y-14.799 Z6.819 
F200
N572 X-222.779 Y-14.738 Z6.744 A150.1824 B13.2662 F199 
N573 X-222.729 Y-14.593 Z6.621 A150.5437 B13.2515 
N574 X-222.679 Y-14.426 Z6.483 A150.5928 B13.2373 
N575 X-222.629 Y-14.247 Z6.336 A150.6427 B13.2221 
N576 X-222.580 Y-14.056 Z6.179 A150.6995 B13.2058 
N577 X-222.532 Y-13.853 Z6.012 A150.7629 B13.1884 
N578 X-222.486 Y-13.638 Z5.836 A150.8347 B13.1699 
N579 X-222.443 Y-13.412 Z5.650 A150.9180 B13.1503 
N580 X-222.402 Y-13.174 Z5.456 A151.0172 B13.1294 
N581 X-222.365 Y-12.926 Z5.254 A151.1369 B13.1073 
N582 X-222.333 Y-12.667 Z5.045 A151.2798 B13.0840 
N583 X-222.305 Y-12.400 Z4.829 A151.4476 B13.0594 
N584 X-222.283 Y-12.125 Z4.607 A151.6408 B13.0336 
N585 X-222.267 Y-11.841 Z4.381 A151.8606 B13.0064 
N586 X-222.258 Y-11.551 Z4.151 A152.1081 B12.9780 
N587 X-222.257 Y-11.255 Z3.918 A152.3840 B12.9482 
N588 X-222.258 Y-10.953 Z3.683 A152.6884 B12.9142 
N589 X-222.260 Y-10.647 Z3.447 A153.0216 B12.8786 
N590 X-222.262 Y-10.337 Z3.210 A153.3844 B12.8413 
N591 X-222.265 Y-10.024 Z2.974 A153.7786 B12.8024 
N592 X-222.268 Y-9.709 Z2.740 A154.2071 B12.7616 
N593 X-222.272 Y-9.392 Z2.507 A154.6741 B12.7187 
N594 X-222.276 Y-9.074 Z2.278 A155.1845 B12.6737 
N595 X-222.280 Y-8.757 Z2.052 A155.7413 B12.6261 
N596 X-222.285 Y-8.439 Z1.832 A156.3450 B12.5760 
N597 X-222.291 Y-8.123 Z1.616 A156.9946 B12.5232 
N598 X-222.297 Y-7.808 Z1.406 A157.6898 B12.4675 
N599 X-222.303 Y-7.495 Z1.203 A158.4308 B12.4087 
N600 X-222.309 Y-7.185 Z1.006 A159.2184 B12.3467 
N601 X-222.316 Y-6.877 Z0.817 A160.0538 B12.2813 
N602 X-222.323 Y-6.572 Z0.635 A160.9378 B12.2122 
N603 X-222.331 Y-6.271 Z0.461 A161.8714 B12.1391 
N604 X-222.339 Y-5.973 Z0.295 A162.8560 B12.0726 
N605 X-222.347 Y-5.679 Z0.137 A163.8923 B12.0070 
N606 X-222.356 Y-5.390 Z-0.012 A164.9813 B11.9381 
N607 X-222.365 Y-5.105 Z-0.153 A166.1250 B11.8658 
N608 X-222.374 Y-4.824 Z-0.285 A167.3266 B11.7899 
N609 X-222.384 Y-4.549 Z-0.408 A168.5897 B11.7102 
N610 X-222.393 Y-4.278 Z-0.523 A169.9169 B11.6263 
N611 X-222.403 Y-4.013 Z-0.629 A171.3069 B11.5383 
N612 X-222.412 Y-3.752 Z-0.726 A172.7556 B11.4463 
N613 X-222.422 Y-3.496 Z-0.815 A174.2571 B11.3505 
N614 X-222.432 Y-3.245 Z-0.896 A175.8056 B11.2513 
N615 X-222.442 Y-2.998 Z-0.968 A177.3974 B11.1487 
N616 X-222.452 Y-2.756 Z-1.032 A179.0308 B11.0429 
N617 X-222.462 Y-2.518 Z-1.088 A180.7058 B10.9340 
N618 X-222.472 Y-2.285 Z-1.137 A182.4229 B10.8219 
N619 X-222.482 Y-2.056 Z-1.178 A184.1817 B10.7068 
N620 X-222.491 Y-1.832 Z-1.212 A185.9809 B10.5888 
N621 X-222.501 Y-1.612 Z-1.238 A187.8182 B10.4682 
N622 X-222.511 Y-1.396 Z-1.258 A189.6911 B10.3451 
N623 X-222.521 Y-1.183 Z-1.270 A191.5968 B10.2198 
N624 X-222.531 Y-0.975 Z-1.276 A193.5323 B10.0928 
N625 X-222.541 Y-0.770 Z-1.275 A195.4936 B9.9642 
N626 X-222.551 Y-0.569 Z-1.267 A197.4749 B9.8347 
N627 X-222.560 Y-0.370 Z-1.253 A199.4658 B9.7050 
N628 X-222.570 Y-0.174 Z-1.232 A201.4471 B9.5763 
N629 X-222.580 Y0.022 Z-1.204 A203.3863 B9.4507 
N630 X-222.590 Y0.219 Z-1.167 A205.2393 B9.3306 
N631 X-222.601 Y0.417 Z-1.121 A206.9619 B9.2186 
N632 X-222.611 Y0.619 Z-1.065 A208.5293 B9.1162 
N633 X-222.622 Y0.823 Z-0.999 A209.9544 B9.0224 
N634 X-222.634 Y1.027 Z-0.923 A211.2912 B8.9344 
N635 X-222.645 Y1.228 Z-0.839 A212.6213 B8.8475 
N636 X-222.656 Y1.422 Z-0.749 A214.0856 B8.7431 
N637 X-222.668 Y1.609 Z-0.655 A215.6885 B8.6027 
N638 X-222.680 Y1.788 Z-0.557 A217.4281 B8.4209 
N639 X-222.693 Y1.961 Z-0.454 A219.2783 B8.1941 
N640 X-222.706 Y2.129 Z-0.346 A221.1935 B7.9213 
N641 X-222.720 Y2.294 Z-0.231 A223.1285 B7.6032 
N642 X-222.734 Y2.457 Z-0.109 A225.0507 B7.2409 
N643 X-222.749 Y2.618 Z0.020 A226.9415 B6.8344 
N644 X-222.764 Y2.778 Z0.157 A228.7933 B6.3829 
N645 X-222.780 Y2.935 Z0.302 A230.6077 B5.8840 
N646 X-222.795 Y3.090 Z0.454 A232.3972 B5.3322 
N647 X-222.811 Y3.242 Z0.613 A234.1858 B4.7178 
N648 X-222.826 Y3.390 Z0.777 A236.0055 B4.0256 
N649 X-222.839 Y3.533 Z0.944 A237.8855 B3.2354 
N650 X-222.849 Y3.672 Z1.115 A239.8372 B2.3257 
N651 X-222.856 Y3.808 Z1.289 A241.8475 B1.2762 
N652 X-222.884 Y3.938 Z1.463 A243.9837 B0.6936 
N653 X-222.916 Y4.066 Z1.640 A246.1504 B0.1620 
N654 X-222.949 Y4.190 Z1.821 A248.3136 B-0.3799 
N655 X-222.984 Y4.312 Z2.005 A250.4628 B-0.9267 
N656 X-223.020 Y4.431 Z2.194 A252.5938 B-1.4747 
N657 X-223.058 Y4.546 Z2.386 A254.6979 B-2.0193 
N658 X-223.097 Y4.658 Z2.582 A256.7586 B-2.5550 
N659 X-223.138 Y4.766 Z2.781 A258.7499 B-3.0747 
N660 X-223.180 Y4.871 Z2.985 A260.6403 B-3.5712 
N661 X-223.224 Y4.971 Z3.193 A262.4051 B-4.0390 
N662 X-223.269 Y5.066 Z3.405 A264.0386 B-4.4768 
N663 X-223.314 Y5.156 Z3.620 A265.5583 B-4.8876 
N664 X-223.360 Y5.240 Z3.835 A266.9949 B-5.2767 
N665 X-223.406 Y5.317 Z4.048 A268.3721 B-5.6476 
N666 X-223.451 Y5.386 Z4.260 A269.6904 B-5.9997 
N667 X-223.495 Y5.449 Z4.470 A270.9239 B-6.3286 
N668 X-223.538 Y5.503 Z4.678 A272.0498 B-6.6305 
N669 X-223.580 Y5.550 Z4.885 A273.0514 B-6.9032 
N670 X-223.621 Y5.587 Z5.089 A273.9433 B-7.1494 
N671 X-223.658 Y5.617 Z5.285 A274.8633 B-7.3900 
N672 X-223.689 Y5.641 Z5.462 A276.0424 B-7.7430 
N673 X-223.715 Y5.659 Z5.615 A277.6547 B-8.1210 
N674 X-223.737 Y5.674 Z5.742 A279.7404 B-8.4963 
N675 X-223.757 Y5.686 Z5.845 A282.2531 B-8.8585 
N676 X-223.774 Y5.697 Z5.929 A285.0972 B-9.1900 
N677 X-223.789 Y5.708 Z5.997 A288.1696 B-9.4747 
N678 X-223.803 Y5.718 Z6.055 A291.3900 B-9.7022 
N679 X-223.815 Y5.727 Z6.104 A294.6989 B-9.8666 
N680 X-223.826 Y5.736 Z6.146 A298.0564 B-9.9672 
N681 X-223.837 Y5.744 Z6.185 A301.4240 B-10.0036 
N682 X-223.848 Y5.752 Z6.221 A304.7829 B-9.9753 
N683 X-223.858 Y5.759 Z6.254 A308.1215 B-9.8834 
N684 X-223.866 Y5.765 Z6.287 A311.4321 B-9.7296 
N685 X-223.873 Y5.770 Z6.318 A314.7091 B-9.5160 
N686 X-223.878 Y5.773 Z6.350 A317.9490 B-9.2452 
N687 X-223.885 Y5.775 Z6.381 A321.1525 B-8.9194 
N688 X-223.895 Y5.775 Z6.413 A324.3220 B-8.5407 
N689 X-223.908 Y5.772 Z6.445 A327.4598 B-8.1112 
N690 X-223.926 Y5.767 Z6.478 A330.5674 B-7.6328 
N691 X-223.948 Y5.760 Z6.511 A333.6432 B-7.1061 
N692 X-223.973 Y5.749 Z6.544 A336.6895 B-6.5299 
N693 X-224.000 Y5.735 Z6.578 A339.7083 B-5.9033 
N694 X-224.029 Y5.717 Z6.613 A342.7011 B-5.2243 
N695 X-224.059 Y5.695 Z6.647 A345.6685 B-4.4898 
N696 X-224.089 Y5.668 Z6.682 A348.6092 B-3.6949 
N697 X-224.119 Y5.635 Z6.717 A351.5190 B-2.8335 
N698 X-224.148 Y5.596 Z6.751 A354.3981 B-1.9289 
N699 X-224.172 Y5.551 Z6.785 A357.2433 B-1.0109 
N700 X-224.190 Y5.497 Z6.817 A0.0366 B-0.0901 
N701 X-224.201 Y5.434 Z6.847 A2.7542 B0.8204 
N702 X-224.205 Y5.360 Z6.874 A5.3697 B1.7068 
N703 X-224.199 Y5.274 Z6.898 A7.8575 B2.5559 
N704 X-224.184 Y5.175 Z6.917 A10.2031 B3.3584 
N705 X-224.159 Y5.062 Z6.930 A12.4037 B4.1094 
N706 X-224.124 Y4.937 Z6.936 A14.4577 B4.8056 
N707 X-224.080 Y4.797 Z6.935 A16.3545 B5.4417 
N708 X-224.026 Y4.643 Z6.925 A18.0979 B6.0178 
N709 X-223.966 Y4.477 Z6.908 A19.7388 B6.5478 
N710 X-223.899 Y4.301 Z6.882 A21.3069 B7.0393 
N711 X-223.826 Y4.111 Z6.848 A22.7656 B7.4821 
N712 X-223.748 Y3.908 Z6.803 A24.0817 B7.8682 
N713 X-223.667 Y3.692 Z6.749 A25.2683 B8.2025 
N714 X-223.584 Y3.464 Z6.685 A26.3362 B8.4897 
N715 X-223.499 Y3.223 Z6.612 A27.2800 B8.7306 
N716 X-223.416 Y2.970 Z6.529 A28.0906 B8.9259 
N717 X-223.335 Y2.705 Z6.437 A28.7634 B9.0777 
N718 X-223.257 Y2.428 Z6.336 A29.3098 B9.1919 
N719 X-223.184 Y2.142 Z6.228 A29.7448 B9.2748 
N720 X-223.119 Y1.846 Z6.115 A30.0821 B9.3322 
N721 X-223.059 Y1.543 Z5.995 A30.3272 B9.3679 
N722 X-223.004 Y1.233 Z5.872 A30.4761 B9.3840 
N723 X-222.952 Y0.916 Z5.745 A30.5217 B9.3802 
N724 X-222.903 Y0.595 Z5.616 A30.4557 B9.3532 
N725 X-222.856 Y0.268 Z5.486 A30.2642 B9.3125 
N726 X-222.812 Y-0.065 Z5.354 A29.9290 B9.2597 
N727 X-222.772 Y-0.403 Z5.223 A29.4280 B9.1969 
N728 X-222.736 Y-0.747 Z5.092 A28.7452 B9.1271 
N729 X-222.703 Y-1.096 Z4.965 A27.8765 B9.0550 
N730 X-222.674 Y-1.451 Z4.841 A26.8310 B8.9862 
N731 X-222.649 Y-1.811 Z4.723 A25.6223 B8.9256 
N732 X-222.628 Y-2.175 Z4.613 A24.2630 B8.8775 
N733 X-222.610 Y-2.543 Z4.510 A22.7415 B8.8399 
N734 X-222.592 Y-2.916 Z4.417 A21.0456 B8.7453 
N735 X-222.574 Y-3.292 Z4.333 A19.2452 B8.6389 
N736 X-222.556 Y-3.671 Z4.262 A17.3599 B8.5299 
N737 X-222.538 Y-4.052 Z4.203 A15.4117 B8.4195 
N738 X-222.521 Y-4.434 Z4.157 A13.4241 B8.3091 
N739 X-222.505 Y-4.816 Z4.124 A11.4211 B8.2002 
N740 X-222.489 Y-5.199 Z4.105 A9.4248 B8.0937 
N741 X-222.473 Y-5.581 Z4.099 A7.4551 B7.9906 
N742 X-222.459 Y-5.961 Z4.107 A5.5296 B7.8917 
N743 X-222.445 Y-6.341 Z4.127 A3.6623 B7.7975 
N744 X-222.431 Y-6.718 Z4.160 A1.8638 B7.7082 
N745 X-222.419 Y-7.093 Z4.206 A0.1420 B7.6241 
N746 X-222.407 Y-7.466 Z4.262 A358.5019 B7.5450 
N747 X-222.395 Y-7.836 Z4.330 A356.9467 B7.4709 
N748 X-222.385 Y-8.203 Z4.408 A355.4774 B7.4016 
N749 X-222.375 Y-8.567 Z4.495 A354.0940 B7.3368 
N750 X-222.365 Y-8.926 Z4.591 A352.7956 B7.2764 
N751 X-222.357 Y-9.281 Z4.694 A351.5802 B7.2201 
N752 X-222.348 Y-9.631 Z4.805 A350.4453 B7.1676 
N753 X-222.341 Y-9.975 Z4.922 A349.3878 B7.1186 
N754 X-222.334 Y-10.312 Z5.043 A348.4036 B7.0729 
N755 X-222.328 Y-10.642 Z5.168 A347.4870 B7.0303 
N756 X-222.322 Y-10.964 Z5.297 A346.6307 B6.9904 
N757 X-222.317 Y-11.276 Z5.427 A345.8299 B6.9501 
N758 X-222.313 Y-11.578 Z5.559 A345.0928 B6.9114 
N759 X-222.309 Y-11.869 Z5.690 A344.4340 B6.8756 
N760 X-222.312 Y-12.146 Z5.819 A343.8649 B6.8430 
N761 X-222.322 Y-12.410 Z5.945 A343.3832 B6.8132 
N762 X-222.339 Y-12.661 Z6.068 A342.9728 B6.7859 
N763 X-222.361 Y-12.898 Z6.186 A342.6127 B6.7607 
N764 X-222.388 Y-13.122 Z6.300 A342.2804 B6.7372 
N765 X-222.420 Y-13.334 Z6.409 A341.9550 B6.7151 
N766 X-222.457 Y-13.535 Z6.513 A341.6128 B6.6941 
N767 X-222.497 Y-13.724 Z6.613 A341.2377 B6.6740 
N768 X-222.541 Y-13.872 Z6.697 A341.6968 B6.6646 
N769 X-222.585 Y-13.920 Z6.745 A344.6247 B6.6890 
N770 X-222.627 Y-13.937 Z6.779 A348.2323 B6.7336 
N771 X-222.662 Y-13.946 Z6.809 A351.8709 B6.7917 
N772 X-222.692 Y-13.955 Z6.837 A355.4229 B6.8606 
N773 X-222.715 Y-13.963 Z6.864 A358.8676 B6.9388 
N774 X-222.732 Y-13.971 Z6.888 A2.2057 B7.0253 
N775 X-222.744 Y-13.980 Z6.912 A5.4453 B7.1191 
N776 X-222.749 Y-13.990 Z6.934 A8.5975 B7.2196 
N777 X-222.749 Y-14.000 Z6.955 A11.6740 B7.3263 
N778 X-222.743 Y-14.011 Z6.976 A14.6860 B7.4388 
N779 X-222.733 Y-14.024 Z6.995 A17.6433 B7.5568 
N780 X-222.718 Y-14.036 Z7.013 A20.5552 B7.6801 
N781 X-222.699 Y-14.050 Z7.031 A23.4303 B7.8084 
N782 X-222.678 Y-14.065 Z7.048 A26.2758 B7.9416 
N783 X-222.653 Y-14.080 Z7.063 A29.0976 B8.0795 
N784 X-222.627 Y-14.096 Z7.078 A31.8999 B8.2219 
N785 X-222.598 Y-14.113 Z7.092 A34.6860 B8.3685 
N786 X-222.569 Y-14.131 Z7.105 A37.4581 B8.5190 
N787 X-222.539 Y-14.149 Z7.117 A40.2167 B8.6731 
N788 X-222.509 Y-14.168 Z7.127 A42.9621 B8.8303 
N789 X-222.479 Y-14.187 Z7.137 A45.6952 B8.9902 
N790 X-222.450 Y-14.207 Z7.146 A48.4218 B9.1528 
N791 X-222.424 Y-14.227 Z7.154 A51.1489 B9.3180 
N792 X-222.401 Y-14.247 Z7.161 A53.8819 B9.4858 
N793 X-222.382 Y-14.268 Z7.167 A56.6219 B9.6557 
N794 X-222.369 Y-14.290 Z7.172 A59.3687 B9.8274 
N795 X-222.360 Y-14.312 Z7.175 A62.1214 B10.0001 
N796 X-222.357 Y-14.333 Z7.178 A64.8782 B10.1735 
N797 X-222.358 Y-14.355 Z7.180 A67.6378 B10.3467 
N798 X-222.363 Y-14.377 Z7.180 A70.4001 B10.5194 
N799 X-222.374 Y-14.400 Z7.180 A73.1659 B10.6911 
N800 X-222.388 Y-14.422 Z7.178 A75.9352 B10.8611 
N801 X-222.407 Y-14.444 Z7.175 A78.7076 B11.0290 
N802 X-222.431 Y-14.465 Z7.172 A81.4823 B11.1943 
N803 X-222.460 Y-14.487 Z7.167 A84.2583 B11.3562 
N804 X-222.492 Y-14.508 Z7.162 A87.0346 B11.5144 
N805 X-222.527 Y-14.529 Z7.155 A89.8140 B11.6684 
N806 X-222.565 Y-14.550 Z7.148 A92.6024 B11.8181 
N807 X-222.603 Y-14.570 Z7.139 A95.4069 B11.9635 
N808 X-222.641 Y-14.590 Z7.130 A98.2311 B12.1040 
N809 X-222.679 Y-14.610 Z7.120 A101.0766 B12.2393 
N810 X-222.716 Y-14.629 Z7.109 A103.9454 B12.3689 
N811 X-222.752 Y-14.648 Z7.097 A106.8419 B12.4923 
N812 X-222.786 Y-14.666 Z7.084 A109.7731 B12.6093 
N813 X-222.818 Y-14.684 Z7.069 A112.7485 B12.7196 
N814 X-222.847 Y-14.702 Z7.054 A115.7802 B12.8227 
N815 X-222.872 Y-14.719 Z7.038 A118.8827 B12.9184 
N816 X-222.893 Y-14.735 Z7.020 A122.0728 B13.0059 
N817 X-222.907 Y-14.751 Z7.000 A125.3682 B13.0845 
N818 X-222.915 Y-14.766 Z6.978 A128.7852 B13.1530 
N819 X-222.916 Y-14.780 Z6.954 A132.3381 B13.2101 
N820 X-222.909 Y-14.793 Z6.928 A136.0371 B13.2539 
N821 X-222.892 Y-14.802 Z6.898 A139.8770 B13.2825 
N822 X-222.864 Y-14.807 Z6.863 A143.8104 B13.2933 
N823 X-222.827 Y-14.799 Z6.819 A147.6349 B13.2855 
N824 X-220.529 Y-20.009 Z-1.401 F878 
N825 G00 X-211.336 Y-40.848 Z-34.283 
;RAPORT("TD999999","Flank Milling Transition:137 End")
;trailer : concat=None
; points cnt = 774
N827 M9 ; chlodziwo wyl.
N828 MSG (" --- KONIEC PODPROGRAMU --- ")
VELOLIM[A]=100 ;ODWOLANIE VELOLIM
N829 FGROUP()
N830 TRAFOOF
N831 STOPRE
N832 G0 G53 D0 Z550.0 M9 M5
N833 G0 G53 Y150 A0 B0
N834 M17
