; PROGRAM NAME: D99999934
; ORDER       : D999999
; OPER. NAME  : Spiral Finish Airfoil:138
; OPER. DESCR.: Spiral Finishing Airfoil/pioro wk
; OPER. TYPE  : finAirfoil
; GEO. OPTION : 5
; MACHINE     : HSTM_300HD_SIM840D_Py
;             : HSTM300/500 - HAMUEL: 5-axis milling machine-SIM840D Traori PP_Script
; CONTROL     : SINUMERIK 840D
; created:   2022-11-03 09:03:47.049341
;-------DODATKOWE DANE-------------------
; PROGRAMISTA : Mariusz Malec
; PARTID      : 139T006893P1018_-
;  ae         : 1.5
;  lean_angle : 20.0
;  airf_offset: 0.05
;----------------------------------------
;RAPORT("TD999999","Spiral Finish Airfoil:138")
N10 TRAFOOF
N11 D0
N12 G90 G94
N13 G0 G53 D0 Z550
N14 STOPRE
M9 ; chlodziwo wyl
; --- Spiral Finish Airfoil:138 - Spiral Finishing Airfoil/pioro wk ---
N16 ;ToolChange : concat=None ,current_tdmid=None, PP.tdmId=941084
N17 TRAFOOF
N18 G0 G53 D0 X-200 Y150 Z550 B0
N19 T="7741084"
;RAPORT("TD999999","ToolChangeStart 7741084")
N20 M6
;RAPORT("TD999999","ToolChangeEnd")
N21 STOPRE
N22 MSG(" TLID=941084 D=12.0 R=3.0 Ang=0.0 Len=130.0 ")
N23 ; (Preloading tool)
N24 T="7757774"
N25 S7427 M03
N26 STOPRE
N27 CYCLE832(0.01,1,1)
N28 G0 G53 A117.6308 B0.3508
N29 TRAORI
N30 G54 D1
N31 D1 
N32 TRANS  A=R25
STOPRE
E_ZDARZ=300001
;ACS_FINISH_AIRFOIL=7741084
STOPRE
N33 ; DELTA A > 40.1
N34 TRAFOOF
N35 D1
N36 STOPRE
N37 G00 G54 Z256.000
N38 G01 A117.6308 F10000
N39 TRAORI
N40 G54 D1
N41 STOPRE
N42 TRANS  A=R25
N43 G00 X-215.525 Y-57.841 Z-35.098 A117.6308 B0.3508 
N44 M342 ; chlodziwo woda
N45 X-215.831 Y-13.544 Z-11.909 
N46 G01 X-215.822 Y-11.823 Z-9.297 F2079 
N47 X-215.797 Y-10.994 Z-6.280 
N48 X-215.757 Y-11.137 Z-3.155 
N49 X-215.707 Y-12.239 Z-0.227 
N50 X-215.652 Y-14.191 Z2.217 
N51 X-215.636 Y-14.654 Z2.244 A111.9422 B0.2532 
N52 X-215.599 Y-15.645 Z2.427 A99.1569 B0.0295 
N53 X-215.550 Y-16.768 Z2.932 A83.3958 B-0.2601 
N54 X-215.512 Y-17.548 Z3.553 A70.6404 B-0.4807 
N55 X-215.487 Y-18.094 Z4.211 A59.6866 B-0.6349 
N56 X-215.469 Y-18.453 Z4.845 A50.3322 B-0.7461 
N57 X-215.457 Y-18.683 Z5.451 A42.0264 B-0.8295 
N58 X-215.447 Y-18.817 Z6.045 A34.1924 B-0.8933 
N59 X-215.439 Y-18.870 Z6.659 A26.2756 B-0.9413 
N60 X-215.433 Y-18.832 Z7.323 A17.7232 B-0.9745 
N61 X-215.430 Y-18.671 Z8.064 A7.9712 B-0.9906 
N62 X-215.433 Y-18.327 Z8.885 A356.5266 B-0.9757 
N63 X-215.446 Y-17.742 Z9.722 A343.3813 B-0.9074 
N64 X-215.473 Y-16.954 Z10.420 A329.8529 B-0.7714 
N65 X-215.496 Y-16.234 Z10.819 A319.3555 B-0.6510 
N66 X-215.507 Y-15.883 Z10.937 A314.8292 B-0.5934 
N67 X-215.512 Y-15.710 Z10.961 A312.9507 B-0.5737 
N68 X-215.515 Y-15.596 Z10.952 A312.0411 B-0.5690 
N69 X-215.517 Y-15.511 Z10.923 A311.6917 B-0.5690 
N70 X-215.519 Y-15.435 Z10.879 A311.6359 B-0.5717 
N71 X-215.521 Y-15.354 Z10.824 A311.7254 B-0.5744 
N72 X-215.525 Y-15.261 Z10.758 A311.8866 B-0.5773 
N73 X-215.528 Y-15.153 Z10.682 A312.0880 B-0.5807 
N74 X-215.533 Y-15.028 Z10.596 A312.3191 B-0.5840 
N75 X-215.537 Y-14.884 Z10.499 A312.5795 B-0.5879 
N76 X-215.543 Y-14.722 Z10.391 A312.8749 B-0.5917 
N77 X-215.549 Y-14.543 Z10.273 A313.2150 B-0.5968 
N78 X-215.556 Y-14.348 Z10.144 A313.6127 B-0.6020 
N79 X-215.563 Y-14.139 Z10.006 A314.0809 B-0.6088 
N80 X-215.571 Y-13.918 Z9.860 A314.6297 B-0.6166 
N81 X-215.580 Y-13.686 Z9.706 A315.2623 B-0.6258 
N82 X-215.588 Y-13.445 Z9.547 A315.9747 B-0.6360 
N83 X-215.597 Y-13.196 Z9.384 A316.7591 B-0.6471 
N84 X-215.607 Y-12.941 Z9.219 A317.6091 B-0.6589 
N85 X-215.617 Y-12.681 Z9.053 A318.5228 B-0.6713 
N86 X-215.627 Y-12.417 Z8.887 A319.5013 B-0.6845 
N87 X-215.637 Y-12.153 Z8.722 A320.5457 B-0.6983 
N88 X-215.648 Y-11.888 Z8.560 A321.6566 B-0.7129 
N89 X-215.659 Y-11.624 Z8.400 A322.8330 B-0.7280 
N90 X-215.670 Y-11.362 Z8.243 A324.0724 B-0.7438 
N91 X-215.681 Y-11.102 Z8.091 A325.3694 B-0.7603 
N92 X-215.692 Y-10.844 Z7.943 A326.7148 B-0.7779 
N93 X-215.703 Y-10.589 Z7.801 A328.0942 B-0.7967 
N94 X-215.715 Y-10.335 Z7.666 A329.4879 B-0.8176 
N95 X-215.727 Y-10.084 Z7.539 A330.8724 B-0.8413 
N96 X-215.739 Y-9.834 Z7.422 A332.2241 B-0.8686 
N97 X-215.751 Y-9.586 Z7.315 A333.5248 B-0.9001 
N98 X-215.763 Y-9.338 Z7.219 A334.7672 B-0.9359 
N99 X-215.776 Y-9.091 Z7.134 A335.9578 B-0.9755 
N100 X-215.789 Y-8.844 Z7.058 A337.1155 B-1.0177 
N101 X-215.803 Y-8.597 Z6.990 A338.2663 B-1.0608 
N102 X-215.817 Y-8.347 Z6.929 A339.4343 B-1.1034 
N103 X-215.831 Y-8.094 Z6.874 A340.6359 B-1.1437 
N104 X-215.846 Y-7.837 Z6.825 A341.8793 B-1.1809 
N105 X-215.862 Y-7.575 Z6.782 A343.1698 B-1.2137 
N106 X-215.878 Y-7.306 Z6.744 A344.5156 B-1.2411 
N107 X-215.894 Y-7.028 Z6.712 A345.9284 B-1.2616 
N108 X-215.911 Y-6.741 Z6.684 A347.4181 B-1.2740 
N109 X-215.929 Y-6.443 Z6.663 A348.9876 B-1.2773 
N110 X-215.947 Y-6.134 Z6.648 A350.6284 B-1.2711 
N111 X-215.966 Y-5.812 Z6.640 A352.3194 B-1.2556 
N112 X-215.985 Y-5.477 Z6.643 A354.0231 B-1.2317 
N113 X-216.004 Y-5.131 Z6.658 A355.6826 B-1.2013 
N114 X-216.024 Y-4.776 Z6.689 A357.2256 B-1.1671 
N115 X-216.044 Y-4.414 Z6.739 A358.5777 B-1.1328 
N116 X-216.064 Y-4.048 Z6.808 A359.6802 B-1.1016 
N117 X-216.084 Y-3.683 Z6.897 A0.5014 B-1.0756 
N118 X-216.104 Y-3.320 Z7.004 A1.0372 B-1.0559 
N119 X-216.124 Y-2.963 Z7.126 A1.3048 B-1.0419 
N120 X-216.143 Y-2.613 Z7.259 A1.3335 B-1.0332 
N121 X-216.162 Y-2.270 Z7.400 A1.1524 B-1.0270 
N122 X-216.180 Y-1.936 Z7.547 A0.7803 B-1.0238 
N123 X-216.197 Y-1.611 Z7.699 A0.2219 B-1.0207 
N124 X-216.214 Y-1.296 Z7.855 A359.4723 B-1.0189 
N125 X-216.230 Y-0.990 Z8.014 A358.5256 B-1.0154 
N126 X-216.245 Y-0.693 Z8.175 A357.3827 B-1.0124 
N127 X-216.259 Y-0.407 Z8.337 A356.0450 B-1.0077 
N128 X-216.272 Y-0.130 Z8.501 A354.5075 B-1.0014 
N129 X-216.284 Y0.140 Z8.666 A352.7620 B-0.9939 
N130 X-216.295 Y0.402 Z8.830 A350.8206 B-0.9845 
N131 X-216.306 Y0.658 Z8.995 A348.6882 B-0.9727 
N132 X-216.317 Y0.912 Z9.163 A346.3085 B-0.9585 
N133 X-216.326 Y1.171 Z9.339 A343.5934 B-0.9406 
N134 X-216.336 Y1.443 Z9.526 A340.4512 B-0.9174 
N135 X-216.347 Y1.738 Z9.729 A336.7575 B-0.8871 
N136 X-216.358 Y2.073 Z9.950 A332.3501 B-0.8458 
N137 X-216.371 Y2.463 Z10.186 A327.0786 B-0.7896 
N138 X-216.388 Y2.923 Z10.423 A320.8912 B-0.7132 
N139 X-216.407 Y3.455 Z10.637 A313.8752 B-0.6155 
N140 X-216.430 Y4.051 Z10.801 A306.2091 B-0.4979 
N141 X-216.455 Y4.693 Z10.891 A298.1051 B-0.3631 
N142 X-216.481 Y5.355 Z10.890 A289.8060 B-0.2160 
N143 X-216.508 Y6.001 Z10.795 A281.6331 B-0.0627 
N144 X-216.533 Y6.590 Z10.616 A273.9908 B0.0813 
N145 X-216.553 Y7.089 Z10.382 A267.2459 B0.2060 
N146 X-216.569 Y7.487 Z10.122 A261.5887 B0.3044 
N147 X-216.580 Y7.794 Z9.859 A256.9875 B0.3796 
N148 X-216.587 Y8.028 Z9.601 A253.2609 B0.4370 
N149 X-216.592 Y8.208 Z9.349 A250.1948 B0.4829 
N150 X-216.595 Y8.348 Z9.098 A247.6009 B0.5212 
N151 X-216.597 Y8.458 Z8.845 A245.3377 B0.5541 
N152 X-216.597 Y8.547 Z8.587 A243.2998 B0.5829 
N153 X-216.596 Y8.617 Z8.319 A241.3986 B0.6102 
N154 X-216.595 Y8.672 Z8.040 A239.5906 B0.6363 
N155 X-216.593 Y8.711 Z7.751 A237.8732 B0.6599 
N156 X-216.589 Y8.735 Z7.453 A236.2390 B0.6821 
N157 X-216.585 Y8.745 Z7.146 A234.6683 B0.7026 
N158 X-216.579 Y8.741 Z6.829 A233.1468 B0.7222 
N159 X-216.573 Y8.723 Z6.505 A231.6641 B0.7407 
N160 X-216.567 Y8.694 Z6.174 A230.2068 B0.7582 
N161 X-216.559 Y8.653 Z5.837 A228.7531 B0.7750 
N162 X-216.551 Y8.602 Z5.492 A227.2779 B0.7920 
N163 X-216.543 Y8.542 Z5.142 A225.7606 B0.8087 
N164 X-216.534 Y8.472 Z4.786 A224.1922 B0.8259 
N165 X-216.525 Y8.393 Z4.426 A222.5738 B0.8428 
N166 X-216.515 Y8.304 Z4.065 A220.9097 B0.8595 
N167 X-216.505 Y8.206 Z3.703 A219.2014 B0.8757 
N168 X-216.495 Y8.099 Z3.341 A217.4436 B0.8916 
N169 X-216.485 Y7.983 Z2.980 A215.6273 B0.9071 
N170 X-216.474 Y7.858 Z2.620 A213.7440 B0.9223 
N171 X-216.463 Y7.724 Z2.261 A211.7869 B0.9371 
N172 X-216.453 Y7.582 Z1.904 A209.7515 B0.9512 
N173 X-216.442 Y7.430 Z1.549 A207.6352 B0.9647 
N174 X-216.430 Y7.269 Z1.197 A205.4374 B0.9774 
N175 X-216.419 Y7.097 Z0.848 A203.1587 B0.9890 
N176 X-216.407 Y6.915 Z0.503 A200.8009 B0.9993 
N177 X-216.396 Y6.721 Z0.162 A198.3676 B1.0083 
N178 X-216.384 Y6.516 Z-0.173 A195.8640 B1.0156 
N179 X-216.371 Y6.298 Z-0.501 A193.2969 B1.0210 
N180 X-216.359 Y6.068 Z-0.822 A190.6744 B1.0245 
N181 X-216.346 Y5.824 Z-1.135 A188.0056 B1.0259 
N182 X-216.333 Y5.567 Z-1.437 A185.3005 B1.0250 
N183 X-216.319 Y5.297 Z-1.729 A182.5699 B1.0218 
N184 X-216.306 Y5.014 Z-2.008 A179.8261 B1.0162 
N185 X-216.291 Y4.717 Z-2.273 A177.0815 B1.0083 
N186 X-216.277 Y4.408 Z-2.523 A174.3487 B0.9981 
N187 X-216.262 Y4.086 Z-2.757 A171.6393 B0.9858 
N188 X-216.247 Y3.754 Z-2.973 A168.9647 B0.9715 
N189 X-216.232 Y3.410 Z-3.171 A166.3357 B0.9554 
N190 X-216.216 Y3.058 Z-3.350 A163.7627 B0.9376 
N191 X-216.200 Y2.697 Z-3.510 A161.2548 B0.9185 
N192 X-216.184 Y2.328 Z-3.650 A158.8193 B0.8983 
N193 X-216.168 Y1.952 Z-3.769 A156.4621 B0.8771 
N194 X-216.152 Y1.571 Z-3.868 A154.1873 B0.8554 
N195 X-216.136 Y1.185 Z-3.947 A151.9971 B0.8331 
N196 X-216.120 Y0.795 Z-4.006 A149.8923 B0.8106 
N197 X-216.104 Y0.401 Z-4.046 A147.8716 B0.7880 
N198 X-216.088 Y0.004 Z-4.066 A145.9336 B0.7653 
N199 X-216.073 Y-0.396 Z-4.068 A144.0787 B0.7428 
N200 X-216.057 Y-0.797 Z-4.051 A142.3098 B0.7205 
N201 X-216.041 Y-1.200 Z-4.016 A140.6316 B0.6987 
N202 X-216.026 Y-1.602 Z-3.963 A139.0483 B0.6777 
N203 X-216.011 Y-2.004 Z-3.893 A137.5611 B0.6575 
N204 X-215.996 Y-2.406 Z-3.806 A136.1670 B0.6382 
N205 X-215.982 Y-2.806 Z-3.703 A134.8602 B0.6198 
N206 X-215.967 Y-3.206 Z-3.586 A133.6344 B0.6023 
N207 X-215.953 Y-3.606 Z-3.454 A132.4843 B0.5855 
N208 X-215.939 Y-4.004 Z-3.308 A131.4056 B0.5696 
N209 X-215.926 Y-4.402 Z-3.150 A130.3948 B0.5545 
N210 X-215.912 Y-4.798 Z-2.980 A129.4489 B0.5402 
N211 X-215.899 Y-5.194 Z-2.798 A128.5651 B0.5267 
N212 X-215.886 Y-5.588 Z-2.605 A127.7408 B0.5140 
N213 X-215.873 Y-5.980 Z-2.402 A126.9739 B0.5020 
N214 X-215.861 Y-6.371 Z-2.189 A126.2629 B0.4909 
N215 X-215.849 Y-6.759 Z-1.967 A125.6069 B0.4805 
N216 X-215.837 Y-7.145 Z-1.737 A125.0051 B0.4710 
N217 X-215.825 Y-7.528 Z-1.501 A124.4559 B0.4623 
N218 X-215.814 Y-7.907 Z-1.258 A123.9560 B0.4543 
N219 X-215.802 Y-8.282 Z-1.010 A123.5011 B0.4471 
N220 X-215.791 Y-8.652 Z-0.758 A123.0870 B0.4404 
N221 X-215.781 Y-9.016 Z-0.505 A122.7110 B0.4344 
N222 X-215.771 Y-9.373 Z-0.251 A122.3712 B0.4288 
N223 X-215.761 Y-9.721 Z0.003 A122.0668 B0.4239 
N224 X-215.751 Y-10.059 Z0.253 A121.7973 B0.4195 
N225 X-215.742 Y-10.384 Z0.499 A121.5621 B0.4157 
N226 X-215.733 Y-10.696 Z0.738 A121.3596 B0.4123 
N227 X-215.725 Y-10.991 Z0.968 A121.1884 B0.4097 
N228 X-215.717 Y-11.268 Z1.187 A121.0463 B0.4072 
N229 X-215.710 Y-11.527 Z1.394 A120.9305 B0.4056 
N230 X-215.704 Y-11.765 Z1.587 A120.8370 B0.4039 
N231 X-215.698 Y-11.982 Z1.764 A120.7614 B0.4029 
N232 X-215.692 Y-12.178 Z1.926 A120.6996 B0.4019 
N233 X-215.688 Y-12.352 Z2.071 A120.6484 B0.4012 
N234 X-215.683 Y-12.505 Z2.200 A120.6053 B0.4004 
N235 X-215.680 Y-12.637 Z2.312 A120.5683 B0.4000 
N236 X-215.677 Y-12.751 Z2.409 A120.5351 B0.3993 
N237 X-215.674 Y-12.847 Z2.492 A120.5009 B0.3992 
N238 X-215.672 Y-12.927 Z2.561 A120.4570 B0.3988 
N239 X-215.670 Y-12.995 Z2.618 A120.3897 B0.3975 
N240 X-215.668 Y-13.057 Z2.662 A120.2119 B0.3942 
N241 X-215.665 Y-13.140 Z2.688 A119.5910 B0.3841 
N242 X-215.658 Y-13.305 Z2.681 A117.6308 B0.3508 
N243 X-215.640 Y-13.727 Z2.618 A111.9422 B0.2532 
N244 X-215.600 Y-14.658 Z2.586 A99.1569 B0.0295 
N245 X-215.546 Y-15.775 Z2.817 A83.3958 B-0.2601 
N246 X-215.503 Y-16.604 Z3.221 A70.6404 B-0.4807 
N247 X-215.476 Y-17.230 Z3.706 A59.6866 B-0.6349 
N248 X-215.456 Y-17.684 Z4.207 A50.3322 B-0.7461 
N249 X-215.442 Y-18.013 Z4.708 A42.0264 B-0.8295 
N250 X-215.431 Y-18.255 Z5.218 A34.1924 B-0.8933 
N251 X-215.422 Y-18.427 Z5.763 A26.2756 B-0.9413 
N252 X-215.416 Y-18.528 Z6.371 A17.7232 B-0.9745 
N253 X-215.413 Y-18.533 Z7.074 A7.9712 B-0.9906 
N254 X-215.416 Y-18.388 Z7.887 A356.5266 B-0.9757 
N255 X-215.430 Y-18.028 Z8.763 A343.3813 B-0.9074 
N256 X-215.459 Y-17.457 Z9.555 A329.8529 B-0.7714 
N257 X-215.485 Y-16.886 Z10.060 A319.3555 B-0.6510 
N258 X-215.497 Y-16.592 Z10.232 A314.8292 B-0.5934 
N259 X-215.502 Y-16.441 Z10.280 A312.9507 B-0.5737 
N260 X-215.505 Y-16.338 Z10.283 A312.0411 B-0.5690 
N261 X-215.507 Y-16.258 Z10.258 A311.6917 B-0.5690 
N262 X-215.509 Y-16.182 Z10.215 A311.6359 B-0.5717 
N263 X-215.511 Y-16.100 Z10.158 A311.7254 B-0.5744 
N264 X-215.514 Y-16.006 Z10.091 A311.8866 B-0.5773 
N265 X-215.518 Y-15.895 Z10.012 A312.0880 B-0.5807 
N266 X-215.522 Y-15.767 Z9.923 A312.3191 B-0.5840 
N267 X-215.527 Y-15.620 Z9.822 A312.5795 B-0.5879 
N268 X-215.533 Y-15.455 Z9.711 A312.8749 B-0.5917 
N269 X-215.539 Y-15.272 Z9.588 A313.2150 B-0.5968 
N270 X-215.546 Y-15.072 Z9.454 A313.6127 B-0.6020 
N271 X-215.553 Y-14.857 Z9.311 A314.0809 B-0.6088 
N272 X-215.561 Y-14.629 Z9.157 A314.6297 B-0.6166 
N273 X-215.569 Y-14.390 Z8.996 A315.2623 B-0.6258 
N274 X-215.577 Y-14.140 Z8.828 A315.9747 B-0.6360 
N275 X-215.586 Y-13.881 Z8.656 A316.7591 B-0.6471 
N276 X-215.595 Y-13.615 Z8.480 A317.6091 B-0.6589 
N277 X-215.605 Y-13.343 Z8.304 A318.5228 B-0.6713 
N278 X-215.615 Y-13.067 Z8.127 A319.5013 B-0.6845 
N279 X-215.625 Y-12.788 Z7.950 A320.5457 B-0.6983 
N280 X-215.635 Y-12.508 Z7.776 A321.6566 B-0.7129 
N281 X-215.646 Y-12.228 Z7.603 A322.8330 B-0.7280 
N282 X-215.657 Y-11.948 Z7.434 A324.0724 B-0.7438 
N283 X-215.667 Y-11.670 Z7.268 A325.3694 B-0.7603 
N284 X-215.678 Y-11.393 Z7.107 A326.7148 B-0.7779 
N285 X-215.689 Y-11.117 Z6.952 A328.0942 B-0.7967 
N286 X-215.701 Y-10.843 Z6.805 A329.4879 B-0.8176 
N287 X-215.712 Y-10.571 Z6.666 A330.8724 B-0.8413 
N288 X-215.723 Y-10.300 Z6.537 A332.2241 B-0.8686 
N289 X-215.735 Y-10.032 Z6.420 A333.5248 B-0.9001 
N290 X-215.747 Y-9.765 Z6.314 A334.7672 B-0.9359 
N291 X-215.759 Y-9.499 Z6.220 A335.9578 B-0.9755 
N292 X-215.771 Y-9.233 Z6.137 A337.1155 B-1.0177 
N293 X-215.784 Y-8.967 Z6.061 A338.2663 B-1.0608 
N294 X-215.797 Y-8.698 Z5.993 A339.4343 B-1.1034 
N295 X-215.811 Y-8.426 Z5.931 A340.6359 B-1.1437 
N296 X-215.825 Y-8.148 Z5.875 A341.8793 B-1.1809 
N297 X-215.840 Y-7.864 Z5.825 A343.1698 B-1.2137 
N298 X-215.856 Y-7.573 Z5.780 A344.5156 B-1.2411 
N299 X-215.872 Y-7.271 Z5.742 A345.9284 B-1.2616 
N300 X-215.889 Y-6.959 Z5.709 A347.4181 B-1.2740 
N301 X-215.907 Y-6.634 Z5.682 A348.9876 B-1.2773 
N302 X-215.925 Y-6.296 Z5.661 A350.6284 B-1.2711 
N303 X-215.944 Y-5.945 Z5.650 A352.3194 B-1.2556 
N304 X-215.963 Y-5.581 Z5.648 A354.0231 B-1.2317 
N305 X-215.983 Y-5.207 Z5.661 A355.6826 B-1.2013 
N306 X-216.004 Y-4.824 Z5.690 A357.2256 B-1.1671 
N307 X-216.024 Y-4.438 Z5.739 A358.5777 B-1.1328 
N308 X-216.045 Y-4.054 Z5.808 A359.6802 B-1.1016 
N309 X-216.066 Y-3.674 Z5.898 A0.5014 B-1.0756 
N310 X-216.086 Y-3.302 Z6.004 A1.0372 B-1.0559 
N311 X-216.106 Y-2.940 Z6.126 A1.3048 B-1.0419 
N312 X-216.125 Y-2.589 Z6.259 A1.3335 B-1.0332 
N313 X-216.144 Y-2.250 Z6.400 A1.1524 B-1.0270 
N314 X-216.162 Y-1.922 Z6.547 A0.7803 B-1.0238 
N315 X-216.180 Y-1.607 Z6.699 A0.2219 B-1.0207 
N316 X-216.196 Y-1.305 Z6.855 A359.4723 B-1.0189 
N317 X-216.212 Y-1.015 Z7.014 A358.5256 B-1.0154 
N318 X-216.227 Y-0.739 Z7.176 A357.3827 B-1.0124 
N319 X-216.241 Y-0.476 Z7.340 A356.0450 B-1.0077 
N320 X-216.254 Y-0.225 Z7.506 A354.5075 B-1.0014 
N321 X-216.267 Y0.014 Z7.674 A352.7620 B-0.9939 
N322 X-216.278 Y0.242 Z7.843 A350.8206 B-0.9845 
N323 X-216.289 Y0.462 Z8.015 A348.6882 B-0.9727 
N324 X-216.300 Y0.676 Z8.191 A346.3085 B-0.9585 
N325 X-216.310 Y0.889 Z8.380 A343.5934 B-0.9406 
N326 X-216.320 Y1.108 Z8.584 A340.4512 B-0.9174 
N327 X-216.331 Y1.344 Z8.811 A336.7575 B-0.8871 
N328 X-216.343 Y1.609 Z9.065 A332.3501 B-0.8458 
N329 X-216.358 Y1.920 Z9.347 A327.0786 B-0.7896 
N330 X-216.375 Y2.293 Z9.647 A320.8912 B-0.7132 
N331 X-216.396 Y2.735 Z9.944 A313.8752 B-0.6155 
N332 X-216.421 Y3.244 Z10.210 A306.2091 B-0.4979 
N333 X-216.448 Y3.811 Z10.420 A298.1051 B-0.3631 
N334 X-216.477 Y4.414 Z10.552 A289.8060 B-0.2160 
N335 X-216.507 Y5.022 Z10.593 A281.6331 B-0.0627 
N336 X-216.534 Y5.592 Z10.547 A273.9908 B0.0813 
N337 X-216.557 Y6.090 Z10.430 A267.2459 B0.2060 
N338 X-216.574 Y6.498 Z10.269 A261.5887 B0.3044 
N339 X-216.586 Y6.820 Z10.084 A256.9875 B0.3796 
N340 X-216.595 Y7.071 Z9.889 A253.2609 B0.4370 
N341 X-216.600 Y7.267 Z9.687 A250.1948 B0.4829 
N342 X-216.604 Y7.423 Z9.479 A247.6009 B0.5212 
N343 X-216.606 Y7.550 Z9.263 A245.3377 B0.5541 
N344 X-216.607 Y7.653 Z9.036 A243.2998 B0.5829 
N345 X-216.607 Y7.739 Z8.798 A241.3986 B0.6102 
N346 X-216.606 Y7.810 Z8.546 A239.5906 B0.6363 
N347 X-216.604 Y7.864 Z8.283 A237.8732 B0.6599 
N348 X-216.601 Y7.904 Z8.009 A236.2390 B0.6821 
N349 X-216.597 Y7.929 Z7.724 A234.6683 B0.7026 
N350 X-216.592 Y7.940 Z7.429 A233.1468 B0.7222 
N351 X-216.586 Y7.939 Z7.126 A231.6641 B0.7407 
N352 X-216.580 Y7.926 Z6.814 A230.2068 B0.7582 
N353 X-216.573 Y7.901 Z6.496 A228.7531 B0.7750 
N354 X-216.565 Y7.868 Z6.171 A227.2779 B0.7920 
N355 X-216.557 Y7.826 Z5.839 A225.7606 B0.8087 
N356 X-216.548 Y7.775 Z5.503 A224.1922 B0.8259 
N357 X-216.539 Y7.717 Z5.163 A222.5738 B0.8428 
N358 X-216.530 Y7.650 Z4.821 A220.9097 B0.8595 
N359 X-216.521 Y7.574 Z4.478 A219.2014 B0.8757 
N360 X-216.511 Y7.491 Z4.135 A217.4436 B0.8916 
N361 X-216.501 Y7.401 Z3.793 A215.6273 B0.9071 
N362 X-216.490 Y7.303 Z3.451 A213.7440 B0.9223 
N363 X-216.480 Y7.198 Z3.111 A211.7869 B0.9371 
N364 X-216.469 Y7.086 Z2.772 A209.7515 B0.9512 
N365 X-216.458 Y6.966 Z2.435 A207.6352 B0.9647 
N366 X-216.447 Y6.839 Z2.100 A205.4374 B0.9774 
N367 X-216.436 Y6.704 Z1.767 A203.1587 B0.9890 
N368 X-216.425 Y6.560 Z1.437 A200.8009 B0.9993 
N369 X-216.413 Y6.406 Z1.111 A198.3676 B1.0083 
N370 X-216.401 Y6.243 Z0.789 A195.8640 B1.0156 
N371 X-216.389 Y6.068 Z0.472 A193.2969 B1.0210 
N372 X-216.377 Y5.883 Z0.160 A190.6744 B1.0245 
N373 X-216.364 Y5.685 Z-0.145 A188.0056 B1.0259 
N374 X-216.351 Y5.475 Z-0.442 A185.3005 B1.0250 
N375 X-216.337 Y5.252 Z-0.730 A182.5699 B1.0218 
N376 X-216.323 Y5.017 Z-1.008 A179.8261 B1.0162 
N377 X-216.309 Y4.768 Z-1.274 A177.0815 B1.0083 
N378 X-216.294 Y4.506 Z-1.528 A174.3487 B0.9981 
N379 X-216.279 Y4.232 Z-1.767 A171.6393 B0.9858 
N380 X-216.264 Y3.945 Z-1.992 A168.9647 B0.9715 
N381 X-216.248 Y3.647 Z-2.200 A166.3357 B0.9554 
N382 X-216.232 Y3.337 Z-2.390 A163.7627 B0.9376 
N383 X-216.216 Y3.018 Z-2.563 A161.2548 B0.9185 
N384 X-216.200 Y2.689 Z-2.717 A158.8193 B0.8983 
N385 X-216.184 Y2.352 Z-2.852 A156.4621 B0.8771 
N386 X-216.167 Y2.006 Z-2.968 A154.1873 B0.8554 
N387 X-216.151 Y1.654 Z-3.064 A151.9971 B0.8331 
N388 X-216.134 Y1.296 Z-3.141 A149.8923 B0.8106 
N389 X-216.118 Y0.932 Z-3.199 A147.8716 B0.7880 
N390 X-216.102 Y0.564 Z-3.238 A145.9336 B0.7653 
N391 X-216.086 Y0.191 Z-3.258 A144.0787 B0.7428 
N392 X-216.069 Y-0.186 Z-3.260 A142.3098 B0.7205 
N393 X-216.054 Y-0.565 Z-3.243 A140.6316 B0.6987 
N394 X-216.038 Y-0.947 Z-3.208 A139.0483 B0.6777 
N395 X-216.022 Y-1.329 Z-3.155 A137.5611 B0.6575 
N396 X-216.007 Y-1.713 Z-3.085 A136.1670 B0.6382 
N397 X-215.992 Y-2.097 Z-2.998 A134.8602 B0.6198 
N398 X-215.978 Y-2.483 Z-2.896 A133.6344 B0.6023 
N399 X-215.963 Y-2.868 Z-2.778 A132.4843 B0.5855 
N400 X-215.949 Y-3.254 Z-2.647 A131.4056 B0.5696 
N401 X-215.935 Y-3.640 Z-2.502 A130.3948 B0.5545 
N402 X-215.922 Y-4.026 Z-2.344 A129.4489 B0.5402 
N403 X-215.908 Y-4.412 Z-2.174 A128.5651 B0.5267 
N404 X-215.895 Y-4.797 Z-1.993 A127.7408 B0.5140 
N405 X-215.882 Y-5.181 Z-1.800 A126.9739 B0.5020 
N406 X-215.870 Y-5.565 Z-1.597 A126.2629 B0.4909 
N407 X-215.857 Y-5.946 Z-1.385 A125.6069 B0.4805 
N408 X-215.845 Y-6.326 Z-1.164 A125.0051 B0.4710 
N409 X-215.833 Y-6.703 Z-0.935 A124.4559 B0.4623 
N410 X-215.822 Y-7.078 Z-0.699 A123.9560 B0.4543 
N411 X-215.810 Y-7.448 Z-0.458 A123.5011 B0.4471 
N412 X-215.799 Y-7.814 Z-0.213 A123.0870 B0.4404 
N413 X-215.788 Y-8.175 Z0.036 A122.7110 B0.4344 
N414 X-215.778 Y-8.529 Z0.285 A122.3712 B0.4288 
N415 X-215.768 Y-8.874 Z0.534 A122.0668 B0.4239 
N416 X-215.758 Y-9.209 Z0.780 A121.7973 B0.4195 
N417 X-215.749 Y-9.532 Z1.022 A121.5621 B0.4157 
N418 X-215.740 Y-9.842 Z1.258 A121.3596 B0.4123 
N419 X-215.732 Y-10.135 Z1.485 A121.1884 B0.4097 
N420 X-215.724 Y-10.412 Z1.703 A121.0463 B0.4072 
N421 X-215.717 Y-10.669 Z1.908 A120.9305 B0.4056 
N422 X-215.711 Y-10.906 Z2.099 A120.8370 B0.4039 
N423 X-215.705 Y-11.123 Z2.276 A120.7614 B0.4029 
N424 X-215.699 Y-11.318 Z2.437 A120.6996 B0.4019 
N425 X-215.695 Y-11.492 Z2.581 A120.6484 B0.4012 
N426 X-215.690 Y-11.644 Z2.709 A120.6053 B0.4004 
N427 X-215.687 Y-11.776 Z2.821 A120.5683 B0.4000 
N428 X-215.684 Y-11.889 Z2.917 A120.5351 B0.3993 
N429 X-215.681 Y-11.985 Z2.999 A120.5009 B0.3992 
N430 X-215.679 Y-12.065 Z3.068 A120.4570 B0.3988 
N431 X-215.677 Y-12.132 Z3.123 A120.3897 B0.3975 
N432 X-215.675 Y-12.193 Z3.165 A120.2119 B0.3942 
N433 X-215.672 Y-12.270 Z3.182 A119.5910 B0.3841 
N434 X-215.664 Y-12.419 Z3.144 A117.6308 B0.3508 
N435 X-215.645 Y-12.804 Z2.990 A111.9422 B0.2532 
N436 X-215.600 Y-13.681 Z2.743 A99.1569 B0.0295 
N437 X-215.541 Y-14.797 Z2.704 A83.3958 B-0.2601 
N438 X-215.495 Y-15.681 Z2.897 A70.6404 B-0.4807 
N439 X-215.465 Y-16.390 Z3.215 A59.6866 B-0.6349 
N440 X-215.444 Y-16.938 Z3.589 A50.3322 B-0.7461 
N441 X-215.428 Y-17.368 Z3.992 A42.0264 B-0.8295 
N442 X-215.416 Y-17.716 Z4.426 A34.1924 B-0.8933 
N443 X-215.407 Y-18.005 Z4.908 A26.2756 B-0.9413 
N444 X-215.400 Y-18.239 Z5.468 A17.7232 B-0.9745 
N445 X-215.396 Y-18.402 Z6.141 A7.9712 B-0.9906 
N446 X-215.400 Y-18.445 Z6.951 A356.5266 B-0.9757 
N447 X-215.415 Y-18.294 Z7.870 A343.3813 B-0.9074 
N448 X-215.447 Y-17.922 Z8.754 A329.8529 B-0.7714 
N449 X-215.474 Y-17.486 Z9.361 A319.3555 B-0.6510 
N450 X-215.488 Y-17.243 Z9.586 A314.8292 B-0.5934 
N451 X-215.493 Y-17.109 Z9.659 A312.9507 B-0.5737 
N452 X-215.496 Y-17.011 Z9.676 A312.0411 B-0.5690 
N453 X-215.498 Y-16.931 Z9.658 A311.6917 B-0.5690 
N454 X-215.500 Y-16.852 Z9.620 A311.6359 B-0.5717 
N455 X-215.503 Y-16.765 Z9.566 A311.7254 B-0.5744 
N456 X-215.506 Y-16.665 Z9.499 A311.8866 B-0.5773 
N457 X-215.509 Y-16.548 Z9.422 A312.0880 B-0.5807 
N458 X-215.513 Y-16.414 Z9.333 A312.3191 B-0.5840 
N459 X-215.518 Y-16.261 Z9.234 A312.5795 B-0.5879 
N460 X-215.524 Y-16.088 Z9.122 A312.8749 B-0.5917 
N461 X-215.530 Y-15.898 Z8.999 A313.2150 B-0.5968 
N462 X-215.537 Y-15.690 Z8.865 A313.6127 B-0.6020 
N463 X-215.544 Y-15.467 Z8.720 A314.0809 B-0.6088 
N464 X-215.551 Y-15.230 Z8.565 A314.6297 B-0.6166 
N465 X-215.559 Y-14.980 Z8.400 A315.2623 B-0.6258 
N466 X-215.568 Y-14.719 Z8.229 A315.9747 B-0.6360 
N467 X-215.577 Y-14.448 Z8.052 A316.7591 B-0.6471 
N468 X-215.586 Y-14.170 Z7.873 A317.6091 B-0.6589 
N469 X-215.595 Y-13.884 Z7.691 A318.5228 B-0.6713 
N470 X-215.605 Y-13.594 Z7.509 A319.5013 B-0.6845 
N471 X-215.615 Y-13.301 Z7.327 A320.5457 B-0.6983 
N472 X-215.625 Y-13.006 Z7.147 A321.6566 B-0.7129 
N473 X-215.636 Y-12.709 Z6.968 A322.8330 B-0.7280 
N474 X-215.646 Y-12.413 Z6.793 A324.0724 B-0.7438 
N475 X-215.657 Y-12.117 Z6.621 A325.3694 B-0.7603 
N476 X-215.668 Y-11.821 Z6.454 A326.7148 B-0.7779 
N477 X-215.679 Y-11.527 Z6.294 A328.0942 B-0.7967 
N478 X-215.690 Y-11.234 Z6.141 A329.4879 B-0.8176 
N479 X-215.701 Y-10.943 Z5.997 A330.8724 B-0.8413 
N480 X-215.712 Y-10.655 Z5.864 A332.2241 B-0.8686 
N481 X-215.723 Y-10.368 Z5.744 A333.5248 B-0.9001 
N482 X-215.735 Y-10.084 Z5.636 A334.7672 B-0.9359 
N483 X-215.746 Y-9.802 Z5.540 A335.9578 B-0.9755 
N484 X-215.758 Y-9.521 Z5.455 A337.1155 B-1.0177 
N485 X-215.771 Y-9.239 Z5.379 A338.2663 B-1.0608 
N486 X-215.783 Y-8.954 Z5.310 A339.4343 B-1.1034 
N487 X-215.797 Y-8.666 Z5.248 A340.6359 B-1.1437 
N488 X-215.811 Y-8.372 Z5.192 A341.8793 B-1.1809 
N489 X-215.825 Y-8.071 Z5.142 A343.1698 B-1.2137 
N490 X-215.841 Y-7.762 Z5.098 A344.5156 B-1.2411 
N491 X-215.857 Y-7.442 Z5.060 A345.9284 B-1.2616 
N492 X-215.873 Y-7.111 Z5.028 A347.4181 B-1.2740 
N493 X-215.891 Y-6.766 Z5.002 A348.9876 B-1.2773 
N494 X-215.910 Y-6.408 Z4.983 A350.6284 B-1.2711 
N495 X-215.929 Y-6.036 Z4.974 A352.3194 B-1.2556 
N496 X-215.949 Y-5.652 Z4.975 A354.0231 B-1.2317 
N497 X-215.969 Y-5.257 Z4.991 A355.6826 B-1.2013 
N498 X-215.990 Y-4.857 Z5.025 A357.2256 B-1.1671 
N499 X-216.011 Y-4.455 Z5.078 A358.5777 B-1.1328 
N500 X-216.032 Y-4.057 Z5.152 A359.6802 B-1.1016 
N501 X-216.053 Y-3.668 Z5.247 A0.5014 B-1.0756 
N502 X-216.074 Y-3.290 Z5.359 A1.0372 B-1.0559 
N503 X-216.094 Y-2.926 Z5.486 A1.3048 B-1.0419 
N504 X-216.114 Y-2.575 Z5.624 A1.3335 B-1.0332 
N505 X-216.133 Y-2.237 Z5.770 A1.1524 B-1.0270 
N506 X-216.151 Y-1.914 Z5.923 A0.7803 B-1.0238 
N507 X-216.169 Y-1.605 Z6.080 A0.2219 B-1.0207 
N508 X-216.185 Y-1.310 Z6.241 A359.4723 B-1.0189 
N509 X-216.201 Y-1.031 Z6.405 A358.5256 B-1.0154 
N510 X-216.216 Y-0.767 Z6.573 A357.3827 B-1.0124 
N511 X-216.230 Y-0.517 Z6.743 A356.0450 B-1.0077 
N512 X-216.244 Y-0.282 Z6.915 A354.5075 B-1.0014 
N513 X-216.256 Y-0.060 Z7.090 A352.7620 B-0.9939 
N514 X-216.268 Y0.149 Z7.268 A350.8206 B-0.9845 
N515 X-216.280 Y0.348 Z7.448 A348.6882 B-0.9727 
N516 X-216.290 Y0.540 Z7.635 A346.3085 B-0.9585 
N517 X-216.301 Y0.729 Z7.835 A343.5934 B-0.9406 
N518 X-216.311 Y0.920 Z8.054 A340.4512 B-0.9174 
N519 X-216.323 Y1.124 Z8.299 A336.7575 B-0.8871 
N520 X-216.335 Y1.353 Z8.576 A332.3501 B-0.8458 
N521 X-216.350 Y1.623 Z8.888 A327.0786 B-0.7896 
N522 X-216.368 Y1.951 Z9.227 A320.8912 B-0.7132 
N523 X-216.391 Y2.348 Z9.572 A313.8752 B-0.6155 
N524 X-216.416 Y2.816 Z9.897 A306.2091 B-0.4979 
N525 X-216.445 Y3.347 Z10.172 A298.1051 B-0.3631 
N526 X-216.475 Y3.924 Z10.375 A289.8060 B-0.2160 
N527 X-216.507 Y4.517 Z10.489 A281.6331 B-0.0627 
N528 X-216.535 Y5.083 Z10.511 A273.9908 B0.0813 
N529 X-216.559 Y5.585 Z10.454 A267.2459 B0.2060 
N530 X-216.577 Y6.004 Z10.342 A261.5887 B0.3044 
N531 X-216.590 Y6.338 Z10.196 A256.9875 B0.3796 
N532 X-216.598 Y6.602 Z10.030 A253.2609 B0.4370 
N533 X-216.604 Y6.811 Z9.851 A250.1948 B0.4829 
N534 X-216.608 Y6.980 Z9.662 A247.6009 B0.5212 
N535 X-216.611 Y7.119 Z9.460 A245.3377 B0.5541 
N536 X-216.612 Y7.234 Z9.247 A243.2998 B0.5829 
N537 X-216.612 Y7.332 Z9.020 A241.3986 B0.6102 
N538 X-216.611 Y7.414 Z8.778 A239.5906 B0.6363 
N539 X-216.609 Y7.481 Z8.524 A237.8732 B0.6599 
N540 X-216.606 Y7.531 Z8.258 A236.2390 B0.6821 
N541 X-216.602 Y7.568 Z7.980 A234.6683 B0.7026 
N542 X-216.598 Y7.590 Z7.691 A233.1468 B0.7222 
N543 X-216.592 Y7.600 Z7.394 A231.6641 B0.7407 
N544 X-216.585 Y7.598 Z7.088 A230.2068 B0.7582 
N545 X-216.578 Y7.584 Z6.774 A228.7531 B0.7750 
N546 X-216.571 Y7.562 Z6.453 A227.2779 B0.7920 
N547 X-216.563 Y7.531 Z6.126 A225.7606 B0.8087 
N548 X-216.554 Y7.492 Z5.794 A224.1922 B0.8259 
N549 X-216.545 Y7.445 Z5.458 A222.5738 B0.8428 
N550 X-216.536 Y7.390 Z5.120 A220.9097 B0.8595 
N551 X-216.526 Y7.328 Z4.780 A219.2014 B0.8757 
N552 X-216.517 Y7.257 Z4.441 A217.4436 B0.8916 
N553 X-216.507 Y7.179 Z4.102 A215.6273 B0.9071 
N554 X-216.496 Y7.094 Z3.763 A213.7440 B0.9223 
N555 X-216.486 Y7.003 Z3.425 A211.7869 B0.9371 
N556 X-216.475 Y6.905 Z3.088 A209.7515 B0.9512 
N557 X-216.464 Y6.800 Z2.753 A207.6352 B0.9647 
N558 X-216.453 Y6.687 Z2.420 A205.4374 B0.9774 
N559 X-216.442 Y6.567 Z2.088 A203.1587 B0.9890 
N560 X-216.431 Y6.438 Z1.759 A200.8009 B0.9993 
N561 X-216.419 Y6.300 Z1.432 A198.3676 B1.0083 
N562 X-216.407 Y6.151 Z1.110 A195.8640 B1.0156 
N563 X-216.395 Y5.993 Z0.791 A193.2969 B1.0210 
N564 X-216.383 Y5.823 Z0.477 A190.6744 B1.0245 
N565 X-216.370 Y5.641 Z0.170 A188.0056 B1.0259 
N566 X-216.356 Y5.446 Z-0.131 A185.3005 B1.0250 
N567 X-216.343 Y5.239 Z-0.423 A182.5699 B1.0218 
N568 X-216.329 Y5.018 Z-0.706 A179.8261 B1.0162 
N569 X-216.314 Y4.783 Z-0.978 A177.0815 B1.0083 
N570 X-216.299 Y4.535 Z-1.238 A174.3487 B0.9981 
N571 X-216.284 Y4.273 Z-1.484 A171.6393 B0.9858 
N572 X-216.269 Y3.999 Z-1.716 A168.9647 B0.9715 
N573 X-216.253 Y3.712 Z-1.931 A166.3357 B0.9554 
N574 X-216.237 Y3.413 Z-2.130 A163.7627 B0.9376 
N575 X-216.221 Y3.103 Z-2.312 A161.2548 B0.9185 
N576 X-216.204 Y2.783 Z-2.474 A158.8193 B0.8983 
N577 X-216.188 Y2.453 Z-2.618 A156.4621 B0.8771 
N578 X-216.171 Y2.115 Z-2.743 A154.1873 B0.8554 
N579 X-216.154 Y1.769 Z-2.848 A151.9971 B0.8331 
N580 X-216.138 Y1.416 Z-2.934 A149.8923 B0.8106 
N581 X-216.121 Y1.057 Z-3.001 A147.8716 B0.7880 
N582 X-216.105 Y0.692 Z-3.048 A145.9336 B0.7653 
N583 X-216.088 Y0.322 Z-3.077 A144.0787 B0.7428 
N584 X-216.072 Y-0.052 Z-3.087 A142.3098 B0.7205 
N585 X-216.056 Y-0.430 Z-3.078 A140.6316 B0.6987 
N586 X-216.040 Y-0.810 Z-3.051 A139.0483 B0.6777 
N587 X-216.025 Y-1.192 Z-3.005 A137.5611 B0.6575 
N588 X-216.010 Y-1.576 Z-2.942 A136.1670 B0.6382 
N589 X-215.995 Y-1.961 Z-2.862 A134.8602 B0.6198 
N590 X-215.980 Y-2.347 Z-2.766 A133.6344 B0.6023 
N591 X-215.965 Y-2.734 Z-2.655 A132.4843 B0.5855 
N592 X-215.951 Y-3.121 Z-2.530 A131.4056 B0.5696 
N593 X-215.937 Y-3.509 Z-2.391 A130.3948 B0.5545 
N594 X-215.923 Y-3.897 Z-2.238 A129.4489 B0.5402 
N595 X-215.910 Y-4.285 Z-2.074 A128.5651 B0.5267 
N596 X-215.896 Y-4.673 Z-1.897 A127.7408 B0.5140 
N597 X-215.883 Y-5.061 Z-1.709 A126.9739 B0.5020 
N598 X-215.871 Y-5.447 Z-1.511 A126.2629 B0.4909 
N599 X-215.858 Y-5.832 Z-1.303 A125.6069 B0.4805 
N600 X-215.846 Y-6.215 Z-1.086 A125.0051 B0.4710 
N601 X-215.834 Y-6.596 Z-0.861 A124.4559 B0.4623 
N602 X-215.823 Y-6.974 Z-0.629 A123.9560 B0.4543 
N603 X-215.811 Y-7.348 Z-0.392 A123.5011 B0.4471 
N604 X-215.800 Y-7.718 Z-0.150 A123.0870 B0.4404 
N605 X-215.789 Y-8.083 Z0.095 A122.7110 B0.4344 
N606 X-215.779 Y-8.441 Z0.341 A122.3712 B0.4288 
N607 X-215.769 Y-8.790 Z0.586 A122.0668 B0.4239 
N608 X-215.759 Y-9.130 Z0.829 A121.7973 B0.4195 
N609 X-215.750 Y-9.457 Z1.068 A121.5621 B0.4157 
N610 X-215.741 Y-9.771 Z1.301 A121.3596 B0.4123 
N611 X-215.733 Y-10.068 Z1.526 A121.1884 B0.4097 
N612 X-215.725 Y-10.349 Z1.740 A121.0463 B0.4072 
N613 X-215.718 Y-10.611 Z1.943 A120.9305 B0.4056 
N614 X-215.711 Y-10.853 Z2.131 A120.8370 B0.4039 
N615 X-215.705 Y-11.074 Z2.305 A120.7614 B0.4029 
N616 X-215.700 Y-11.273 Z2.463 A120.6996 B0.4019 
N617 X-215.695 Y-11.451 Z2.605 A120.6484 B0.4012 
N618 X-215.691 Y-11.608 Z2.730 A120.6053 B0.4004 
N619 X-215.687 Y-11.745 Z2.839 A120.5683 B0.4000 
N620 X-215.684 Y-11.863 Z2.933 A120.5351 B0.3993 
N621 X-215.681 Y-11.962 Z3.012 A120.5009 B0.3992 
N622 X-215.679 Y-12.047 Z3.078 A120.4570 B0.3988 
N623 X-215.677 Y-12.119 Z3.131 A120.3897 B0.3975 
N624 X-215.675 Y-12.184 Z3.170 A120.2119 B0.3942 
N625 X-215.672 Y-12.266 Z3.184 A119.5910 B0.3841 
N626 X-215.664 Y-12.419 Z3.144 A117.6308 B0.3508 
N627 X-215.645 Y-12.804 Z2.990 A111.9387 B0.2533 
N628 X-215.600 Y-13.682 Z2.743 A99.1426 B0.0297 
N629 X-215.541 Y-14.798 Z2.704 A83.3726 B-0.2600 
N630 X-215.495 Y-15.683 Z2.897 A70.6127 B-0.4806 
N631 X-215.465 Y-16.392 Z3.216 A59.6549 B-0.6346 
N632 X-215.444 Y-16.940 Z3.590 A50.2958 B-0.7457 
N633 X-215.428 Y-17.370 Z3.994 A41.9836 B-0.8290 
N634 X-215.416 Y-17.719 Z4.429 A34.1406 B-0.8928 
N635 X-215.407 Y-18.007 Z4.912 A26.2114 B-0.9406 
N636 X-215.400 Y-18.241 Z5.474 A17.6420 B-0.9736 
N637 X-215.397 Y-18.403 Z6.148 A7.8677 B-0.9894 
N638 X-215.400 Y-18.444 Z6.960 A356.3974 B-0.9740 
N639 X-215.416 Y-18.291 Z7.880 A343.2335 B-0.9047 
N640 X-215.447 Y-17.917 Z8.762 A329.7147 B-0.7680 
N641 X-215.475 Y-17.482 Z9.366 A319.2692 B-0.6481 
N642 X-215.488 Y-17.240 Z9.588 A314.7855 B-0.5909 
N643 X-215.494 Y-17.107 Z9.660 A312.9288 B-0.5711 
N644 X-215.496 Y-17.010 Z9.676 A312.0314 B-0.5661 
N645 X-215.499 Y-16.930 Z9.658 A311.6884 B-0.5655 
N646 X-215.501 Y-16.851 Z9.619 A311.6358 B-0.5674 
N647 X-215.504 Y-16.764 Z9.565 A311.7268 B-0.5691 
N648 X-215.507 Y-16.663 Z9.498 A311.8888 B-0.5706 
N649 X-215.511 Y-16.547 Z9.421 A312.0906 B-0.5723 
N650 X-215.515 Y-16.412 Z9.332 A312.3221 B-0.5733 
N651 X-215.521 Y-16.258 Z9.232 A312.5828 B-0.5744 
N652 X-215.527 Y-16.086 Z9.121 A312.8785 B-0.5744 
N653 X-215.534 Y-15.895 Z8.998 A313.2192 B-0.5746 
N654 X-215.541 Y-15.688 Z8.864 A313.6174 B-0.5734 
N655 X-215.550 Y-15.464 Z8.718 A314.0862 B-0.5719 
N656 X-215.559 Y-15.227 Z8.563 A314.6355 B-0.5686 
N657 X-215.569 Y-14.977 Z8.398 A315.2685 B-0.5632 
N658 X-215.580 Y-14.716 Z8.227 A315.9809 B-0.5543 
N659 X-215.592 Y-14.446 Z8.051 A316.7650 B-0.5407 
N660 X-215.605 Y-14.167 Z7.871 A317.6142 B-0.5210 
N661 X-215.620 Y-13.883 Z7.690 A318.5269 B-0.4937 
N662 X-215.635 Y-13.593 Z7.508 A319.5039 B-0.4578 
N663 X-215.652 Y-13.300 Z7.326 A320.5465 B-0.4121 
N664 X-215.670 Y-13.005 Z7.146 A321.6553 B-0.3561 
N665 X-215.689 Y-12.710 Z6.968 A322.8295 B-0.2900 
N666 X-215.709 Y-12.414 Z6.793 A324.0665 B-0.2148 
N667 X-215.728 Y-12.118 Z6.621 A325.3612 B-0.1332 
N668 X-215.746 Y-11.823 Z6.455 A326.7044 B-0.0480 
N669 X-215.763 Y-11.530 Z6.294 A328.0818 B0.0361 
N670 X-215.777 Y-11.237 Z6.141 A329.4736 B0.1149 
N671 X-215.787 Y-10.947 Z5.997 A330.8563 B0.1844 
N672 X-215.794 Y-10.658 Z5.865 A332.2062 B0.2403 
N673 X-215.797 Y-10.372 Z5.744 A333.5049 B0.2809 
N674 X-215.795 Y-10.089 Z5.637 A334.7451 B0.3037 
N675 X-215.790 Y-9.807 Z5.541 A335.9331 B0.3085 
N676 X-215.782 Y-9.526 Z5.456 A337.0880 B0.2946 
N677 X-215.771 Y-9.244 Z5.380 A338.2351 B0.2641 
N678 X-215.758 Y-8.960 Z5.311 A339.3978 B0.2182 
N679 X-215.745 Y-8.672 Z5.249 A340.5906 B0.1606 
N680 X-215.732 Y-8.379 Z5.193 A341.8200 B0.0948 
N681 X-215.719 Y-8.079 Z5.144 A343.0911 B0.0240 
N682 X-215.708 Y-7.771 Z5.101 A344.4155 B-0.0476 
N683 X-215.698 Y-7.452 Z5.064 A345.8110 B-0.1175 
N684 X-215.690 Y-7.121 Z5.032 A347.2945 B-0.1824 
N685 X-215.684 Y-6.777 Z5.005 A348.8710 B-0.2402 
N686 X-215.680 Y-6.418 Z4.986 A350.5297 B-0.2892 
N687 X-215.677 Y-6.045 Z4.974 A352.2427 B-0.3286 
N688 X-215.677 Y-5.660 Z4.975 A353.9661 B-0.3584 
N689 X-215.678 Y-5.265 Z4.990 A355.6399 B-0.3793 
N690 X-215.680 Y-4.864 Z5.023 A357.1915 B-0.3928 
N691 X-215.684 Y-4.462 Z5.076 A358.5486 B-0.4009 
N692 X-215.689 Y-4.064 Z5.150 A359.6541 B-0.4056 
N693 X-215.694 Y-3.675 Z5.244 A0.4774 B-0.4096 
N694 X-215.698 Y-3.297 Z5.356 A1.0152 B-0.4261 
N695 X-215.701 Y-2.933 Z5.483 A1.2848 B-0.4451 
N696 X-215.709 Y-2.581 Z5.621 A1.3148 B-0.4466 
N697 X-215.717 Y-2.244 Z5.767 A1.1350 B-0.4444 
N698 X-215.725 Y-1.921 Z5.920 A0.7643 B-0.4432 
N699 X-215.732 Y-1.611 Z6.077 A0.2074 B-0.4419 
N700 X-215.739 Y-1.317 Z6.238 A359.4594 B-0.4407 
N701 X-215.747 Y-1.037 Z6.403 A358.5145 B-0.4383 
N702 X-215.753 Y-0.773 Z6.570 A357.3732 B-0.4356 
N703 X-215.760 Y-0.523 Z6.740 A356.0372 B-0.4314 
N704 X-215.766 Y-0.288 Z6.912 A354.5014 B-0.4256 
N705 X-215.772 Y-0.066 Z7.088 A352.7575 B-0.4183 
N706 X-215.778 Y0.144 Z7.265 A350.8174 B-0.4089 
N707 X-215.784 Y0.343 Z7.446 A348.6863 B-0.3974 
N708 X-215.790 Y0.535 Z7.633 A346.3085 B-0.3832 
N709 X-215.796 Y0.723 Z7.834 A343.5956 B-0.3650 
N710 X-215.803 Y0.915 Z8.053 A340.4559 B-0.3415 
N711 X-215.811 Y1.119 Z8.297 A336.7652 B-0.3108 
N712 X-215.821 Y1.348 Z8.574 A332.3611 B-0.2688 
N713 X-215.833 Y1.618 Z8.887 A327.0928 B-0.2112 
N714 X-215.849 Y1.947 Z9.226 A320.9074 B-0.1332 
N715 X-215.869 Y2.345 Z9.572 A313.8921 B-0.0331 
N716 X-215.893 Y2.813 Z9.896 A306.2254 B0.0873 
N717 X-215.920 Y3.346 Z10.172 A298.1200 B0.2252 
N718 X-215.949 Y3.924 Z10.374 A289.8194 B0.3760 
N719 X-215.979 Y4.517 Z10.488 A281.6453 B0.5332 
N720 X-216.006 Y5.084 Z10.509 A274.0027 B0.6802 
N721 X-216.028 Y5.586 Z10.451 A267.2584 B0.8080 
N722 X-216.043 Y6.005 Z10.338 A261.6023 B0.9083 
N723 X-216.053 Y6.339 Z10.191 A257.0027 B0.9854 
N724 X-216.059 Y6.602 Z10.025 A253.2776 B1.0438 
N725 X-216.062 Y6.812 Z9.846 A250.2129 B1.0907 
N726 X-216.062 Y6.980 Z9.656 A247.6202 B1.1300 
N727 X-216.060 Y7.119 Z9.455 A245.3581 B1.1637 
N728 X-216.056 Y7.234 Z9.241 A243.3212 B1.1931 
N729 X-216.051 Y7.332 Z9.013 A241.4208 B1.2214 
N730 X-216.045 Y7.413 Z8.772 A239.6135 B1.2485 
N731 X-216.037 Y7.479 Z8.518 A237.8969 B1.2726 
N732 X-216.027 Y7.530 Z8.251 A236.2634 B1.2959 
N733 X-216.016 Y7.566 Z7.973 A234.6934 B1.3169 
N734 X-216.004 Y7.589 Z7.684 A233.1725 B1.3373 
N735 X-215.991 Y7.598 Z7.387 A231.6905 B1.3567 
N736 X-215.977 Y7.595 Z7.080 A230.2337 B1.3750 
N737 X-215.961 Y7.582 Z6.767 A228.7804 B1.3924 
N738 X-215.945 Y7.559 Z6.446 A227.3056 B1.4106 
N739 X-215.928 Y7.528 Z6.119 A225.7886 B1.4279 
N740 X-215.911 Y7.489 Z5.787 A224.2206 B1.4463 
N741 X-215.893 Y7.442 Z5.450 A222.6024 B1.4640 
N742 X-215.875 Y7.387 Z5.112 A220.9386 B1.4816 
N743 X-215.856 Y7.323 Z4.773 A219.2306 B1.4988 
N744 X-215.838 Y7.253 Z4.433 A217.4729 B1.5155 
N745 X-215.819 Y7.174 Z4.094 A215.6568 B1.5320 
N746 X-215.799 Y7.089 Z3.755 A213.7735 B1.5481 
N747 X-215.780 Y6.998 Z3.418 A211.8163 B1.5638 
N748 X-215.761 Y6.899 Z3.081 A209.7807 B1.5789 
N749 X-215.741 Y6.794 Z2.746 A207.6642 B1.5933 
N750 X-215.722 Y6.681 Z2.412 A205.4660 B1.6067 
N751 X-215.702 Y6.560 Z2.081 A203.1867 B1.6192 
N752 X-215.682 Y6.431 Z1.752 A200.8283 B1.6303 
N753 X-215.662 Y6.292 Z1.425 A198.3943 B1.6400 
N754 X-215.642 Y6.144 Z1.103 A195.8898 B1.6480 
N755 X-215.622 Y5.985 Z0.784 A193.3217 B1.6541 
N756 X-215.601 Y5.814 Z0.471 A190.6982 B1.6582 
N757 X-215.580 Y5.632 Z0.164 A188.0282 B1.6601 
N758 X-215.559 Y5.437 Z-0.137 A185.3218 B1.6596 
N759 X-215.537 Y5.229 Z-0.429 A182.5900 B1.6568 
N760 X-215.515 Y5.008 Z-0.711 A179.8448 B1.6515 
N761 X-215.492 Y4.773 Z-0.983 A177.0990 B1.6438 
N762 X-215.469 Y4.524 Z-1.242 A174.3650 B1.6338 
N763 X-215.446 Y4.263 Z-1.488 A171.6545 B1.6216 
N764 X-215.422 Y3.988 Z-1.719 A168.9788 B1.6072 
N765 X-215.398 Y3.701 Z-1.934 A166.3489 B1.5910 
N766 X-215.373 Y3.402 Z-2.133 A163.7751 B1.5732 
N767 X-215.349 Y3.092 Z-2.314 A161.2665 B1.5539 
N768 X-215.323 Y2.772 Z-2.476 A158.8306 B1.5335 
N769 X-215.298 Y2.442 Z-2.619 A156.4730 B1.5121 
N770 X-215.272 Y2.104 Z-2.743 A154.1979 B1.4901 
N771 X-215.246 Y1.758 Z-2.848 A152.0076 B1.4675 
N772 X-215.220 Y1.405 Z-2.934 A149.9027 B1.4447 
N773 X-215.194 Y1.046 Z-3.000 A147.8820 B1.4218 
N774 X-215.168 Y0.681 Z-3.047 A145.9442 B1.3988 
N775 X-215.141 Y0.311 Z-3.075 A144.0895 B1.3759 
N776 X-215.115 Y-0.063 Z-3.085 A142.3208 B1.3533 
N777 X-215.088 Y-0.441 Z-3.076 A140.6431 B1.3312 
N778 X-215.061 Y-0.821 Z-3.048 A139.0604 B1.3099 
N779 X-215.035 Y-1.203 Z-3.002 A137.5738 B1.2894 
N780 X-215.008 Y-1.586 Z-2.939 A136.1803 B1.2699 
N781 X-214.982 Y-1.971 Z-2.858 A134.8741 B1.2513 
N782 X-214.955 Y-2.356 Z-2.762 A133.6488 B1.2335 
N783 X-214.929 Y-2.743 Z-2.651 A132.4992 B1.2166 
N784 X-214.902 Y-3.130 Z-2.526 A131.4210 B1.2005 
N785 X-214.876 Y-3.518 Z-2.386 A130.4107 B1.1852 
N786 X-214.849 Y-3.906 Z-2.234 A129.4653 B1.1708 
N787 X-214.823 Y-4.294 Z-2.069 A128.5819 B1.1572 
N788 X-214.797 Y-4.682 Z-1.892 A127.7581 B1.1444 
N789 X-214.770 Y-5.069 Z-1.705 A126.9916 B1.1324 
N790 X-214.744 Y-5.455 Z-1.506 A126.2811 B1.1212 
N791 X-214.718 Y-5.839 Z-1.298 A125.6254 B1.1108 
N792 X-214.692 Y-6.222 Z-1.081 A125.0240 B1.1012 
N793 X-214.667 Y-6.603 Z-0.857 A124.4752 B1.0925 
N794 X-214.641 Y-6.981 Z-0.625 A123.9756 B1.0846 
N795 X-214.616 Y-7.355 Z-0.387 A123.5209 B1.0775 
N796 X-214.591 Y-7.725 Z-0.145 A123.1071 B1.0709 
N797 X-214.566 Y-8.089 Z0.099 A122.7312 B1.0649 
N798 X-214.542 Y-8.447 Z0.345 A122.3916 B1.0595 
N799 X-214.518 Y-8.796 Z0.590 A122.0874 B1.0547 
N800 X-214.495 Y-9.135 Z0.834 A121.8181 B1.0504 
N801 X-214.473 Y-9.462 Z1.073 A121.5830 B1.0468 
N802 X-214.452 Y-9.776 Z1.305 A121.3807 B1.0436 
N803 X-214.432 Y-10.073 Z1.530 A121.2096 B1.0413 
N804 X-214.413 Y-10.354 Z1.744 A121.0676 B1.0385 
N805 X-214.395 Y-10.616 Z1.946 A120.9519 B1.0375 
N806 X-214.379 Y-10.857 Z2.135 A120.8584 B1.0356 
N807 X-214.364 Y-11.078 Z2.309 A120.7829 B1.0350 
N808 X-214.350 Y-11.277 Z2.467 A120.7212 B1.0341 
N809 X-214.338 Y-11.455 Z2.608 A120.6700 B1.0336 
N810 X-214.328 Y-11.612 Z2.733 A120.6269 B1.0328 
N811 X-214.318 Y-11.749 Z2.842 A120.5900 B1.0327 
N812 X-214.310 Y-11.866 Z2.936 A120.5567 B1.0319 
N813 X-214.304 Y-11.966 Z3.015 A120.5226 B1.0322 
N814 X-214.298 Y-12.051 Z3.081 A120.4786 B1.0317 
N815 X-214.293 Y-12.122 Z3.134 A120.4112 B1.0303 
N816 X-214.289 Y-12.188 Z3.173 A120.2330 B1.0268 
N817 X-214.284 Y-12.269 Z3.187 A119.6116 B1.0166 
N818 X-214.274 Y-12.423 Z3.147 A117.6510 B0.9811 
N819 X-214.252 Y-12.806 Z2.993 A111.9673 B0.8789 
N820 X-214.205 Y-13.679 Z2.745 A99.1970 B0.6456 
N821 X-214.142 Y-14.794 Z2.704 A83.4369 B0.3608 
N822 X-214.092 Y-15.678 Z2.895 A70.6754 B0.1537 
N823 X-214.060 Y-16.387 Z3.211 A59.7193 B-0.0033 
N824 X-214.037 Y-16.936 Z3.584 A50.3670 B-0.1227 
N825 X-214.020 Y-17.367 Z3.986 A42.0677 B-0.2129 
N826 X-214.007 Y-17.716 Z4.419 A34.2455 B-0.2800 
N827 X-213.997 Y-18.005 Z4.900 A26.3468 B-0.3266 
N828 X-213.989 Y-18.240 Z5.458 A17.8201 B-0.3543 
N829 X-213.985 Y-18.404 Z6.128 A8.1022 B-0.3625 
N830 X-213.987 Y-18.449 Z6.936 A356.6974 B-0.3442 
N831 X-214.004 Y-18.302 Z7.855 A343.5823 B-0.2797 
N832 X-214.037 Y-17.932 Z8.742 A330.0442 B-0.1652 
N833 X-214.065 Y-17.494 Z9.355 A319.4743 B-0.0593 
N834 X-214.079 Y-17.248 Z9.583 A314.8860 B-0.0041 
N835 X-214.083 Y-17.113 Z9.658 A312.9753 B0.0150 
N836 X-214.084 Y-17.015 Z9.676 A312.0472 B0.0189 
N837 X-214.084 Y-16.934 Z9.660 A311.6883 B0.0180 
N838 X-214.084 Y-16.855 Z9.621 A311.6277 B0.0153 
N839 X-214.083 Y-16.768 Z9.568 A311.7149 B0.0121 
N840 X-214.082 Y-16.668 Z9.502 A311.8749 B0.0086 
N841 X-214.081 Y-16.552 Z9.424 A312.0756 B0.0051 
N842 X-214.081 Y-16.418 Z9.336 A312.3060 B0.0013 
N843 X-214.080 Y-16.265 Z9.236 A312.5658 B-0.0029 
N844 X-214.079 Y-16.093 Z9.125 A312.8602 B-0.0075 
N845 X-214.078 Y-15.903 Z9.003 A313.1993 B-0.0128 
N846 X-214.077 Y-15.696 Z8.869 A313.5957 B-0.0189 
N847 X-214.076 Y-15.473 Z8.724 A314.0624 B-0.0262 
N848 X-214.075 Y-15.236 Z8.568 A314.6095 B-0.0348 
N849 X-214.073 Y-14.986 Z8.404 A315.2406 B-0.0448 
N850 X-214.072 Y-14.726 Z8.233 A315.9516 B-0.0561 
N851 X-214.071 Y-14.455 Z8.056 A316.7348 B-0.0683 
N852 X-214.069 Y-14.177 Z7.877 A317.5837 B-0.0812 
N853 X-214.068 Y-13.891 Z7.695 A318.4964 B-0.0949 
N854 X-214.067 Y-13.601 Z7.513 A319.4739 B-0.1093 
N855 X-214.067 Y-13.308 Z7.331 A320.5175 B-0.1245 
N856 X-214.066 Y-13.013 Z7.150 A321.6275 B-0.1403 
N857 X-214.065 Y-12.716 Z6.972 A322.8032 B-0.1569 
N858 X-214.065 Y-12.420 Z6.796 A324.0420 B-0.1740 
N859 X-214.065 Y-12.123 Z6.624 A325.3385 B-0.1917 
N860 X-214.065 Y-11.828 Z6.457 A326.6835 B-0.2100 
N861 X-214.065 Y-11.534 Z6.296 A328.0625 B-0.2289 
N862 X-214.066 Y-11.241 Z6.143 A329.4560 B-0.2487 
N863 X-214.067 Y-10.950 Z5.999 A330.8404 B-0.2696 
N864 X-214.068 Y-10.661 Z5.866 A332.1921 B-0.2918 
N865 X-214.069 Y-10.374 Z5.746 A333.4929 B-0.3157 
N866 X-214.071 Y-10.090 Z5.638 A334.7354 B-0.3415 
N867 X-214.073 Y-9.808 Z5.542 A335.9262 B-0.3688 
N868 X-214.075 Y-9.527 Z5.456 A337.0840 B-0.3974 
N869 X-214.078 Y-9.244 Z5.380 A338.2342 B-0.4265 
N870 X-214.081 Y-8.960 Z5.311 A339.3999 B-0.4553 
N871 X-214.085 Y-8.671 Z5.249 A340.5956 B-0.4833 
N872 X-214.089 Y-8.378 Z5.193 A341.8276 B-0.5096 
N873 X-214.094 Y-8.077 Z5.144 A343.1010 B-0.5338 
N874 X-214.100 Y-7.769 Z5.101 A344.4272 B-0.5551 
N875 X-214.106 Y-7.450 Z5.064 A345.8243 B-0.5726 
N876 X-214.112 Y-7.118 Z5.032 A347.3087 B-0.5854 
N877 X-214.119 Y-6.774 Z5.006 A348.8859 B-0.5930 
N878 X-214.127 Y-6.414 Z4.986 A350.5448 B-0.5951 
N879 X-214.136 Y-6.041 Z4.975 A352.2575 B-0.5919 
N880 X-214.144 Y-5.656 Z4.975 A353.9802 B-0.5840 
N881 X-214.154 Y-5.260 Z4.991 A355.6528 B-0.5724 
N882 X-214.163 Y-4.859 Z5.024 A357.2029 B-0.5585 
N883 X-214.173 Y-4.457 Z5.077 A358.5580 B-0.5441 
N884 X-214.183 Y-4.059 Z5.152 A359.6614 B-0.5306 
N885 X-214.193 Y-3.669 Z5.246 A0.4825 B-0.5194 
N886 X-214.203 Y-3.291 Z5.358 A1.0176 B-0.5110 
N887 X-214.212 Y-2.926 Z5.485 A1.2844 B-0.5051 
N888 X-214.222 Y-2.575 Z5.624 A1.3119 B-0.5015 
N889 X-214.231 Y-2.238 Z5.770 A1.1294 B-0.4989 
N890 X-214.240 Y-1.914 Z5.923 A0.7555 B-0.4975 
N891 X-214.248 Y-1.605 Z6.080 A0.1949 B-0.4958 
N892 X-214.256 Y-1.311 Z6.241 A359.4427 B-0.4943 
N893 X-214.264 Y-1.031 Z6.406 A358.4931 B-0.4914 
N894 X-214.272 Y-0.767 Z6.574 A357.3472 B-0.4881 
N895 X-214.279 Y-0.518 Z6.744 A356.0064 B-0.4833 
N896 X-214.286 Y-0.283 Z6.916 A354.4654 B-0.4768 
N897 X-214.293 Y-0.061 Z7.092 A352.7165 B-0.4685 
N898 X-214.299 Y0.149 Z7.270 A350.7718 B-0.4581 
N899 X-214.306 Y0.348 Z7.450 A348.6358 B-0.4452 
N900 X-214.312 Y0.539 Z7.638 A346.2513 B-0.4294 
N901 X-214.319 Y0.728 Z7.838 A343.5301 B-0.4091 
N902 X-214.327 Y0.920 Z8.058 A340.3801 B-0.3829 
N903 X-214.335 Y1.124 Z8.303 A336.6764 B-0.3488 
N904 X-214.345 Y1.353 Z8.581 A332.2565 B-0.3027 
N905 X-214.359 Y1.625 Z8.894 A326.9708 B-0.2405 
N906 X-214.376 Y1.955 Z9.233 A320.7700 B-0.1579 
N907 X-214.397 Y2.353 Z9.579 A313.7438 B-0.0536 
N908 X-214.423 Y2.823 Z9.902 A306.0716 B0.0702 
N909 X-214.452 Y3.356 Z10.176 A297.9661 B0.2111 
N910 X-214.483 Y3.934 Z10.377 A289.6709 B0.3649 
N911 X-214.514 Y4.527 Z10.489 A281.5087 B0.5262 
N912 X-214.542 Y5.093 Z10.508 A273.8839 B0.6782 
N913 X-214.565 Y5.594 Z10.450 A267.1609 B0.8120 
N914 X-214.581 Y6.010 Z10.336 A261.5257 B0.9184 
N915 X-214.592 Y6.343 Z10.189 A256.9435 B1.0011 
N916 X-214.598 Y6.606 Z10.023 A253.2316 B1.0642 
N917 X-214.601 Y6.814 Z9.844 A250.1763 B1.1148 
N918 X-214.601 Y6.982 Z9.653 A247.5902 B1.1571 
N919 X-214.600 Y7.120 Z9.452 A245.3327 B1.1931 
N920 X-214.596 Y7.235 Z9.238 A243.2987 B1.2244 
N921 X-214.591 Y7.333 Z9.010 A241.4003 B1.2543 
N922 X-214.584 Y7.414 Z8.769 A239.5947 B1.2830 
N923 X-214.576 Y7.480 Z8.514 A237.8796 B1.3085 
N924 X-214.566 Y7.530 Z8.247 A236.2474 B1.3329 
N925 X-214.555 Y7.566 Z7.969 A234.6784 B1.3551 
N926 X-214.543 Y7.589 Z7.681 A233.1584 B1.3765 
N927 X-214.529 Y7.598 Z7.383 A231.6771 B1.3969 
N928 X-214.514 Y7.595 Z7.077 A230.2208 B1.4160 
N929 X-214.498 Y7.581 Z6.763 A228.7678 B1.4342 
N930 X-214.482 Y7.558 Z6.442 A227.2930 B1.4532 
N931 X-214.465 Y7.527 Z6.115 A225.7759 B1.4712 
N932 X-214.447 Y7.488 Z5.783 A224.2077 B1.4903 
N933 X-214.429 Y7.441 Z5.446 A222.5894 B1.5087 
N934 X-214.410 Y7.386 Z5.108 A220.9256 B1.5270 
N935 X-214.391 Y7.322 Z4.769 A219.2175 B1.5449 
N936 X-214.371 Y7.251 Z4.429 A217.4598 B1.5623 
N937 X-214.352 Y7.173 Z4.090 A215.6435 B1.5793 
N938 X-214.332 Y7.088 Z3.752 A213.7600 B1.5959 
N939 X-214.312 Y6.996 Z3.414 A211.8027 B1.6121 
N940 X-214.292 Y6.898 Z3.077 A209.7669 B1.6276 
N941 X-214.272 Y6.792 Z2.742 A207.6502 B1.6424 
N942 X-214.252 Y6.679 Z2.409 A205.4519 B1.6562 
N943 X-214.231 Y6.558 Z2.077 A203.1726 B1.6689 
N944 X-214.211 Y6.429 Z1.749 A200.8142 B1.6802 
N945 X-214.190 Y6.290 Z1.423 A198.3802 B1.6900 
N946 X-214.170 Y6.142 Z1.100 A195.8759 B1.6981 
N947 X-214.148 Y5.983 Z0.782 A193.3080 B1.7042 
N948 X-214.127 Y5.812 Z0.469 A190.6848 B1.7082 
N949 X-214.105 Y5.630 Z0.161 A188.0152 B1.7099 
N950 X-214.083 Y5.435 Z-0.139 A185.3093 B1.7093 
N951 X-214.061 Y5.227 Z-0.431 A182.5780 B1.7061 
N952 X-214.038 Y5.005 Z-0.713 A179.8334 B1.7005 
N953 X-214.015 Y4.771 Z-0.984 A177.0882 B1.6924 
N954 X-213.991 Y4.522 Z-1.244 A174.3549 B1.6818 
N955 X-213.967 Y4.260 Z-1.489 A171.6451 B1.6690 
N956 X-213.942 Y3.986 Z-1.720 A168.9702 B1.6540 
N957 X-213.917 Y3.699 Z-1.935 A166.3410 B1.6371 
N958 X-213.892 Y3.400 Z-2.134 A163.7680 B1.6185 
N959 X-213.866 Y3.090 Z-2.314 A161.2601 B1.5984 
N960 X-213.840 Y2.770 Z-2.476 A158.8249 B1.5771 
N961 X-213.814 Y2.440 Z-2.620 A156.4680 B1.5548 
N962 X-213.787 Y2.102 Z-2.744 A154.1935 B1.5318 
N963 X-213.760 Y1.756 Z-2.848 A152.0038 B1.5082 
N964 X-213.733 Y1.404 Z-2.934 A149.8995 B1.4844 
N965 X-213.706 Y1.044 Z-3.000 A147.8793 B1.4604 
N966 X-213.679 Y0.680 Z-3.047 A145.9419 B1.4363 
N967 X-213.652 Y0.310 Z-3.075 A144.0876 B1.4124 
N968 X-213.624 Y-0.064 Z-3.085 A142.3194 B1.3887 
N969 X-213.597 Y-0.442 Z-3.076 A140.6420 B1.3655 
N970 X-213.569 Y-0.822 Z-3.048 A139.0596 B1.3431 
N971 X-213.542 Y-1.204 Z-3.002 A137.5733 B1.3216 
N972 X-213.515 Y-1.587 Z-2.938 A136.1801 B1.3012 
N973 X-213.487 Y-1.972 Z-2.858 A134.8740 B1.2816 
N974 X-213.460 Y-2.357 Z-2.762 A133.6490 B1.2629 
N975 X-213.433 Y-2.744 Z-2.651 A132.4995 B1.2451 
N976 X-213.406 Y-3.131 Z-2.525 A131.4215 B1.2282 
N977 X-213.378 Y-3.519 Z-2.386 A130.4113 B1.2121 
N978 X-213.351 Y-3.907 Z-2.234 A129.4660 B1.1969 
N979 X-213.324 Y-4.294 Z-2.069 A128.5827 B1.1826 
N980 X-213.297 Y-4.682 Z-1.892 A127.7589 B1.1691 
N981 X-213.270 Y-5.069 Z-1.704 A126.9925 B1.1565 
N982 X-213.244 Y-5.455 Z-1.506 A126.2820 B1.1447 
N983 X-213.217 Y-5.840 Z-1.298 A125.6263 B1.1338 
N984 X-213.190 Y-6.223 Z-1.081 A125.0249 B1.1237 
N985 X-213.164 Y-6.603 Z-0.856 A124.4761 B1.1146 
N986 X-213.138 Y-6.981 Z-0.625 A123.9766 B1.1063 
N987 X-213.112 Y-7.355 Z-0.387 A123.5219 B1.0987 
N988 X-213.087 Y-7.725 Z-0.145 A123.1081 B1.0918 
N989 X-213.061 Y-8.089 Z0.099 A122.7322 B1.0855 
N990 X-213.037 Y-8.447 Z0.345 A122.3926 B1.0798 
N991 X-213.013 Y-8.796 Z0.591 A122.0884 B1.0746 
N992 X-212.989 Y-9.135 Z0.834 A121.8191 B1.0701 
N993 X-212.967 Y-9.462 Z1.073 A121.5840 B1.0663 
N994 X-212.945 Y-9.776 Z1.306 A121.3817 B1.0629 
N995 X-212.925 Y-10.074 Z1.530 A121.2106 B1.0605 
N996 X-212.905 Y-10.354 Z1.744 A121.0685 B1.0576 
N997 X-212.887 Y-10.616 Z1.947 A120.9528 B1.0565 
N998 X-212.870 Y-10.857 Z2.135 A120.8594 B1.0545 
N999 X-212.855 Y-11.078 Z2.309 A120.7839 B1.0538 
N1000 X-212.841 Y-11.277 Z2.467 A120.7221 B1.0528 
N1001 X-212.829 Y-11.455 Z2.608 A120.6709 B1.0523 
N1002 X-212.818 Y-11.612 Z2.733 A120.6278 B1.0515 
N1003 X-212.809 Y-11.749 Z2.842 A120.5909 B1.0513 
N1004 X-212.801 Y-11.867 Z2.936 A120.5576 B1.0505 
N1005 X-212.794 Y-11.966 Z3.015 A120.5235 B1.0508 
N1006 X-212.788 Y-12.051 Z3.081 A120.4796 B1.0503 
N1007 X-212.783 Y-12.122 Z3.134 A120.4121 B1.0488 
N1008 X-212.779 Y-12.188 Z3.173 A120.2339 B1.0452 
N1009 X-212.773 Y-12.269 Z3.187 A119.6123 B1.0344 
N1010 X-212.764 Y-12.423 Z3.147 A117.6517 B0.9971 
N1011 X-212.741 Y-12.806 Z2.993 A111.9684 B0.8896 
N1012 X-212.691 Y-13.679 Z2.745 A99.1994 B0.6444 
N1013 X-212.624 Y-14.794 Z2.704 A83.4400 B0.3441 
N1014 X-212.573 Y-15.678 Z2.894 A70.6790 B0.1254 
N1015 X-212.538 Y-16.387 Z3.211 A59.7236 B-0.0396 
N1016 X-212.515 Y-16.936 Z3.584 A50.3721 B-0.1646 
N1017 X-212.497 Y-17.367 Z3.986 A42.0738 B-0.2591 
N1018 X-212.483 Y-17.715 Z4.419 A34.2527 B-0.3292 
N1019 X-212.473 Y-18.005 Z4.899 A26.3555 B-0.3781 
N1020 X-212.465 Y-18.240 Z5.457 A17.8306 B-0.4072 
N1021 X-212.460 Y-18.404 Z6.127 A8.1148 B-0.4159 
N1022 X-212.463 Y-18.449 Z6.935 A356.7122 B-0.3964 
N1023 X-212.480 Y-18.302 Z7.854 A343.5980 B-0.3276 
N1024 X-212.515 Y-17.933 Z8.741 A330.0578 B-0.2051 
N1025 X-212.546 Y-17.495 Z9.354 A319.4822 B-0.0922 
N1026 X-212.559 Y-17.248 Z9.583 A314.8898 B-0.0336 
N1027 X-212.564 Y-17.113 Z9.658 A312.9771 B-0.0134 
N1028 X-212.565 Y-17.015 Z9.676 A312.0480 B-0.0092 
N1029 X-212.566 Y-16.934 Z9.660 A311.6885 B-0.0101 
N1030 X-212.565 Y-16.855 Z9.621 A311.6277 B-0.0130 
N1031 X-212.565 Y-16.768 Z9.568 A311.7148 B-0.0163 
N1032 X-212.564 Y-16.669 Z9.502 A311.8748 B-0.0199 
N1033 X-212.563 Y-16.552 Z9.425 A312.0754 B-0.0237 
N1034 X-212.563 Y-16.418 Z9.336 A312.3058 B-0.0277 
N1035 X-212.562 Y-16.265 Z9.237 A312.5656 B-0.0320 
N1036 X-212.562 Y-16.094 Z9.125 A312.8600 B-0.0369 
N1037 X-212.561 Y-15.904 Z9.003 A313.1991 B-0.0424 
N1038 X-212.560 Y-15.696 Z8.869 A313.5954 B-0.0489 
N1039 X-212.560 Y-15.473 Z8.724 A314.0621 B-0.0565 
N1040 X-212.559 Y-15.236 Z8.569 A314.6092 B-0.0656 
N1041 X-212.558 Y-14.986 Z8.404 A315.2402 B-0.0761 
N1042 X-212.557 Y-14.726 Z8.233 A315.9512 B-0.0879 
N1043 X-212.556 Y-14.455 Z8.057 A316.7344 B-0.1007 
N1044 X-212.555 Y-14.177 Z7.877 A317.5833 B-0.1143 
N1045 X-212.555 Y-13.891 Z7.695 A318.4961 B-0.1287 
N1046 X-212.554 Y-13.601 Z7.513 A319.4736 B-0.1438 
N1047 X-212.554 Y-13.308 Z7.331 A320.5172 B-0.1598 
N1048 X-212.553 Y-13.013 Z7.150 A321.6273 B-0.1764 
N1049 X-212.554 Y-12.716 Z6.972 A322.8030 B-0.1938 
N1050 X-212.554 Y-12.420 Z6.796 A324.0418 B-0.2118 
N1051 X-212.554 Y-12.123 Z6.624 A325.3384 B-0.2305 
N1052 X-212.555 Y-11.828 Z6.457 A326.6835 B-0.2497 
N1053 X-212.556 Y-11.534 Z6.296 A328.0626 B-0.2697 
N1054 X-212.557 Y-11.241 Z6.143 A329.4562 B-0.2907 
N1055 X-212.558 Y-10.950 Z5.999 A330.8407 B-0.3129 
N1056 X-212.560 Y-10.661 Z5.866 A332.1925 B-0.3366 
N1057 X-212.562 Y-10.374 Z5.746 A333.4934 B-0.3623 
N1058 X-212.564 Y-10.090 Z5.638 A334.7361 B-0.3899 
N1059 X-212.567 Y-9.808 Z5.542 A335.9269 B-0.4195 
N1060 X-212.570 Y-9.526 Z5.456 A337.0849 B-0.4503 
N1061 X-212.573 Y-9.244 Z5.380 A338.2353 B-0.4818 
N1062 X-212.577 Y-8.960 Z5.311 A339.4011 B-0.5130 
N1063 X-212.581 Y-8.671 Z5.249 A340.5970 B-0.5432 
N1064 X-212.586 Y-8.378 Z5.193 A341.8291 B-0.5716 
N1065 X-212.592 Y-8.077 Z5.144 A343.1026 B-0.5977 
N1066 X-212.598 Y-7.768 Z5.101 A344.4289 B-0.6206 
N1067 X-212.605 Y-7.449 Z5.064 A345.8261 B-0.6393 
N1068 X-212.612 Y-7.118 Z5.032 A347.3106 B-0.6529 
N1069 X-212.621 Y-6.773 Z5.006 A348.8878 B-0.6607 
N1070 X-212.629 Y-6.414 Z4.986 A350.5467 B-0.6625 
N1071 X-212.639 Y-6.041 Z4.975 A352.2594 B-0.6586 
N1072 X-212.648 Y-5.655 Z4.975 A353.9821 B-0.6494 
N1073 X-212.659 Y-5.260 Z4.991 A355.6547 B-0.6362 
N1074 X-212.670 Y-4.858 Z5.024 A357.2046 B-0.6205 
N1075 X-212.680 Y-4.456 Z5.077 A358.5596 B-0.6043 
N1076 X-212.691 Y-4.058 Z5.152 A359.6630 B-0.5892 
N1077 X-212.702 Y-3.669 Z5.246 A0.4840 B-0.5767 
N1078 X-212.713 Y-3.291 Z5.359 A1.0191 B-0.5672 
N1079 X-212.724 Y-2.926 Z5.486 A1.2858 B-0.5605 
N1080 X-212.734 Y-2.575 Z5.624 A1.3132 B-0.5564 
N1081 X-212.745 Y-2.237 Z5.771 A1.1306 B-0.5535 
N1082 X-212.754 Y-1.914 Z5.923 A0.7566 B-0.5519 
N1083 X-212.764 Y-1.605 Z6.080 A0.1959 B-0.5500 
N1084 X-212.773 Y-1.310 Z6.242 A359.4436 B-0.5484 
N1085 X-212.782 Y-1.031 Z6.406 A358.4939 B-0.5453 
N1086 X-212.790 Y-0.767 Z6.574 A357.3478 B-0.5418 
N1087 X-212.798 Y-0.517 Z6.744 A356.0069 B-0.5367 
N1088 X-212.806 Y-0.282 Z6.916 A354.4658 B-0.5297 
N1089 X-212.813 Y-0.061 Z7.092 A352.7166 B-0.5210 
N1090 X-212.821 Y0.149 Z7.270 A350.7719 B-0.5099 
N1091 X-212.828 Y0.348 Z7.450 A348.6357 B-0.4964 
N1092 X-212.835 Y0.540 Z7.638 A346.2510 B-0.4797 
N1093 X-212.842 Y0.728 Z7.838 A343.5296 B-0.4583 
N1094 X-212.850 Y0.920 Z8.058 A340.3794 B-0.4307 
N1095 X-212.859 Y1.124 Z8.303 A336.6754 B-0.3948 
N1096 X-212.870 Y1.354 Z8.581 A332.2551 B-0.3463 
N1097 X-212.884 Y1.625 Z8.894 A326.9692 B-0.2809 
N1098 X-212.903 Y1.955 Z9.233 A320.7683 B-0.1940 
N1099 X-212.925 Y2.354 Z9.579 A313.7421 B-0.0842 
N1100 X-212.952 Y2.823 Z9.902 A306.0702 B0.0461 
N1101 X-212.983 Y3.356 Z10.176 A297.9652 B0.1945 
N1102 X-213.015 Y3.934 Z10.377 A289.6707 B0.3562 
N1103 X-213.048 Y4.527 Z10.489 A281.5092 B0.5258 
N1104 X-213.078 Y5.092 Z10.508 A273.8852 B0.6854 
N1105 X-213.102 Y5.594 Z10.449 A267.1628 B0.8259 
N1106 X-213.119 Y6.010 Z10.336 A261.5281 B0.9374 
N1107 X-213.131 Y6.343 Z10.189 A256.9461 B1.0240 
N1108 X-213.137 Y6.605 Z10.022 A253.2344 B1.0901 
N1109 X-213.140 Y6.814 Z9.843 A250.1793 B1.1430 
N1110 X-213.141 Y6.982 Z9.653 A247.5933 B1.1873 
N1111 X-213.139 Y7.120 Z9.451 A245.3359 B1.2250 
N1112 X-213.135 Y7.235 Z9.237 A243.3020 B1.2577 
N1113 X-213.130 Y7.332 Z9.010 A241.4037 B1.2891 
N1114 X-213.124 Y7.414 Z8.768 A239.5982 B1.3191 
N1115 X-213.115 Y7.480 Z8.514 A237.8832 B1.3457 
N1116 X-213.105 Y7.530 Z8.247 A236.2512 B1.3713 
N1117 X-213.094 Y7.566 Z7.969 A234.6822 B1.3945 
N1118 X-213.081 Y7.588 Z7.680 A233.1623 B1.4169 
N1119 X-213.067 Y7.598 Z7.382 A231.6811 B1.4382 
N1120 X-213.052 Y7.595 Z7.076 A230.2249 B1.4582 
N1121 X-213.036 Y7.581 Z6.763 A228.7721 B1.4773 
N1122 X-213.019 Y7.558 Z6.442 A227.2974 B1.4971 
N1123 X-213.001 Y7.527 Z6.115 A225.7804 B1.5159 
N1124 X-212.983 Y7.488 Z5.782 A224.2124 B1.5359 
N1125 X-212.964 Y7.441 Z5.446 A222.5942 B1.5551 
N1126 X-212.945 Y7.385 Z5.108 A220.9306 B1.5742 
N1127 X-212.925 Y7.322 Z4.768 A219.2226 B1.5928 
N1128 X-212.905 Y7.251 Z4.429 A217.4650 B1.6110 
N1129 X-212.885 Y7.173 Z4.090 A215.6489 B1.6288 
N1130 X-212.865 Y7.088 Z3.751 A213.7656 B1.6461 
N1131 X-212.844 Y6.996 Z3.414 A211.8083 B1.6630 
N1132 X-212.823 Y6.897 Z3.077 A209.7727 B1.6791 
N1133 X-212.803 Y6.792 Z2.742 A207.6562 B1.6945 
N1134 X-212.782 Y6.679 Z2.408 A205.4580 B1.7089 
N1135 X-212.761 Y6.558 Z2.077 A203.1787 B1.7221 
N1136 X-212.740 Y6.428 Z1.748 A200.8204 B1.7338 
N1137 X-212.719 Y6.290 Z1.422 A198.3865 B1.7440 
N1138 X-212.697 Y6.141 Z1.100 A195.8822 B1.7523 
N1139 X-212.675 Y5.982 Z0.781 A193.3143 B1.7586 
N1140 X-212.653 Y5.812 Z0.468 A190.6911 B1.7627 
N1141 X-212.631 Y5.629 Z0.161 A188.0214 B1.7643 
N1142 X-212.608 Y5.434 Z-0.139 A185.3154 B1.7635 
N1143 X-212.585 Y5.226 Z-0.431 A182.5841 B1.7601 
N1144 X-212.561 Y5.005 Z-0.713 A179.8394 B1.7540 
N1145 X-212.537 Y4.770 Z-0.984 A177.0940 B1.7453 
N1146 X-212.513 Y4.521 Z-1.244 A174.3605 B1.7341 
N1147 X-212.488 Y4.260 Z-1.489 A171.6505 B1.7205 
N1148 X-212.462 Y3.985 Z-1.720 A168.9754 B1.7047 
N1149 X-212.436 Y3.698 Z-1.935 A166.3461 B1.6868 
N1150 X-212.410 Y3.399 Z-2.134 A163.7728 B1.6671 
N1151 X-212.383 Y3.089 Z-2.314 A161.2647 B1.6459 
N1152 X-212.356 Y2.769 Z-2.476 A158.8292 B1.6234 
N1153 X-212.329 Y2.440 Z-2.620 A156.4721 B1.5998 
N1154 X-212.302 Y2.102 Z-2.744 A154.1975 B1.5756 
N1155 X-212.274 Y1.756 Z-2.848 A152.0076 B1.5508 
N1156 X-212.246 Y1.403 Z-2.934 A149.9030 B1.5257 
N1157 X-212.218 Y1.044 Z-3.000 A147.8827 B1.5004 
N1158 X-212.190 Y0.679 Z-3.047 A145.9451 B1.4751 
N1159 X-212.162 Y0.309 Z-3.075 A144.0906 B1.4499 
N1160 X-212.134 Y-0.065 Z-3.085 A142.3222 B1.4249 
N1161 X-212.105 Y-0.442 Z-3.076 A140.6447 B1.4006 
N1162 X-212.077 Y-0.822 Z-3.048 A139.0621 B1.3770 
N1163 X-212.049 Y-1.204 Z-3.002 A137.5757 B1.3544 
N1164 X-212.021 Y-1.587 Z-2.938 A136.1823 B1.3329 
N1165 X-211.993 Y-1.972 Z-2.858 A134.8762 B1.3123 
N1166 X-211.965 Y-2.358 Z-2.762 A133.6510 B1.2926 
N1167 X-211.937 Y-2.744 Z-2.651 A132.5015 B1.2739 
N1168 X-211.909 Y-3.131 Z-2.525 A131.4233 B1.2561 
N1169 X-211.881 Y-3.519 Z-2.386 A130.4131 B1.2392 
N1170 X-211.853 Y-3.907 Z-2.234 A129.4676 B1.2233 
N1171 X-211.826 Y-4.295 Z-2.069 A128.5842 B1.2082 
N1172 X-211.798 Y-4.682 Z-1.892 A127.7604 B1.1940 
N1173 X-211.770 Y-5.069 Z-1.704 A126.9939 B1.1807 
N1174 X-211.743 Y-5.455 Z-1.506 A126.2833 B1.1683 
N1175 X-211.716 Y-5.840 Z-1.298 A125.6277 B1.1568 
N1176 X-211.689 Y-6.223 Z-1.081 A125.0262 B1.1463 
N1177 X-211.662 Y-6.604 Z-0.856 A124.4774 B1.1366 
N1178 X-211.635 Y-6.981 Z-0.624 A123.9778 B1.1279 
N1179 X-211.609 Y-7.355 Z-0.387 A123.5230 B1.1199 
N1180 X-211.583 Y-7.725 Z-0.145 A123.1092 B1.1126 
N1181 X-211.557 Y-8.090 Z0.099 A122.7333 B1.1060 
N1182 X-211.532 Y-8.447 Z0.345 A122.3937 B1.1000 
N1183 X-211.507 Y-8.796 Z0.591 A122.0894 B1.0946 
N1184 X-211.483 Y-9.135 Z0.834 A121.8201 B1.0899 
N1185 X-211.460 Y-9.463 Z1.073 A121.5849 B1.0858 
N1186 X-211.438 Y-9.776 Z1.306 A121.3826 B1.0822 
N1187 X-211.417 Y-10.074 Z1.530 A121.2115 B1.0797 
N1188 X-211.397 Y-10.354 Z1.744 A121.0695 B1.0767 
N1189 X-211.379 Y-10.616 Z1.947 A120.9538 B1.0754 
N1190 X-211.362 Y-10.857 Z2.135 A120.8603 B1.0734 
N1191 X-211.346 Y-11.078 Z2.309 A120.7848 B1.0727 
N1192 X-211.332 Y-11.278 Z2.467 A120.7231 B1.0716 
N1193 X-211.320 Y-11.456 Z2.608 A120.6719 B1.0710 
N1194 X-211.309 Y-11.613 Z2.733 A120.6288 B1.0702 
N1195 X-211.299 Y-11.749 Z2.843 A120.5918 B1.0700 
N1196 X-211.291 Y-11.867 Z2.936 A120.5586 B1.0691 
N1197 X-211.284 Y-11.967 Z3.016 A120.5245 B1.0694 
N1198 X-211.278 Y-12.051 Z3.081 A120.4805 B1.0689 
N1199 X-211.273 Y-12.122 Z3.135 A120.4130 B1.0673 
N1200 X-211.268 Y-12.188 Z3.173 A120.2348 B1.0635 
N1201 X-211.263 Y-12.269 Z3.187 A119.6132 B1.0522 
N1202 X-211.253 Y-12.423 Z3.147 A117.6525 B1.0131 
N1203 X-211.229 Y-12.806 Z2.993 A111.9696 B0.9004 
N1204 X-211.177 Y-13.679 Z2.745 A99.2018 B0.6431 
N1205 X-211.107 Y-14.794 Z2.704 A83.4432 B0.3274 
N1206 X-211.053 Y-15.677 Z2.894 A70.6828 B0.0970 
N1207 X-211.017 Y-16.387 Z3.211 A59.7280 B-0.0760 
N1208 X-210.992 Y-16.936 Z3.584 A50.3774 B-0.2066 
N1209 X-210.974 Y-17.366 Z3.986 A42.0801 B-0.3052 
N1210 X-210.960 Y-17.715 Z4.418 A34.2602 B-0.3785 
N1211 X-210.949 Y-18.004 Z4.899 A26.3644 B-0.4296 
N1212 X-210.940 Y-18.239 Z5.457 A17.8413 B-0.4602 
N1213 X-210.936 Y-18.403 Z6.127 A8.1277 B-0.4693 
N1214 X-210.939 Y-18.449 Z6.935 A356.7272 B-0.4485 
N1215 X-210.957 Y-18.302 Z7.853 A343.6139 B-0.3756 
N1216 X-210.994 Y-17.933 Z8.740 A330.0715 B-0.2451 
N1217 X-211.026 Y-17.495 Z9.354 A319.4902 B-0.1252 
N1218 X-211.040 Y-17.248 Z9.583 A314.8936 B-0.0632 
N1219 X-211.045 Y-17.113 Z9.658 A312.9789 B-0.0418 
N1220 X-211.047 Y-17.015 Z9.676 A312.0488 B-0.0373 
N1221 X-211.047 Y-16.934 Z9.660 A311.6888 B-0.0382 
N1222 X-211.047 Y-16.855 Z9.621 A311.6278 B-0.0412 
N1223 X-211.046 Y-16.768 Z9.568 A311.7147 B-0.0447 
N1224 X-211.046 Y-16.669 Z9.502 A311.8747 B-0.0485 
N1225 X-211.045 Y-16.553 Z9.425 A312.0753 B-0.0524 
N1226 X-211.045 Y-16.418 Z9.336 A312.3057 B-0.0566 
N1227 X-211.045 Y-16.266 Z9.237 A312.5654 B-0.0612 
N1228 X-211.044 Y-16.094 Z9.126 A312.8598 B-0.0663 
N1229 X-211.044 Y-15.904 Z9.003 A313.1989 B-0.0721 
N1230 X-211.044 Y-15.696 Z8.869 A313.5952 B-0.0788 
N1231 X-211.043 Y-15.473 Z8.724 A314.0618 B-0.0868 
N1232 X-211.043 Y-15.236 Z8.569 A314.6089 B-0.0963 
N1233 X-211.042 Y-14.987 Z8.404 A315.2399 B-0.1073 
N1234 X-211.042 Y-14.726 Z8.233 A315.9509 B-0.1197 
N1235 X-211.041 Y-14.455 Z8.057 A316.7341 B-0.1331 
N1236 X-211.041 Y-14.177 Z7.877 A317.5830 B-0.1474 
N1237 X-211.041 Y-13.892 Z7.695 A318.4958 B-0.1624 
N1238 X-211.041 Y-13.602 Z7.513 A319.4734 B-0.1783 
N1239 X-211.041 Y-13.308 Z7.331 A320.5170 B-0.1950 
N1240 X-211.041 Y-13.013 Z7.150 A321.6271 B-0.2125 
N1241 X-211.042 Y-12.716 Z6.972 A322.8029 B-0.2308 
N1242 X-211.042 Y-12.420 Z6.796 A324.0418 B-0.2497 
N1243 X-211.043 Y-12.123 Z6.624 A325.3384 B-0.2692 
N1244 X-211.045 Y-11.828 Z6.457 A326.6836 B-0.2895 
N1245 X-211.046 Y-11.534 Z6.296 A328.0628 B-0.3106 
N1246 X-211.048 Y-11.241 Z6.143 A329.4565 B-0.3327 
N1247 X-211.050 Y-10.950 Z5.999 A330.8411 B-0.3562 
N1248 X-211.052 Y-10.661 Z5.866 A332.1930 B-0.3814 
N1249 X-211.054 Y-10.374 Z5.746 A333.4941 B-0.4088 
N1250 X-211.057 Y-10.090 Z5.638 A334.7369 B-0.4384 
N1251 X-211.060 Y-9.808 Z5.542 A335.9279 B-0.4701 
N1252 X-211.064 Y-9.526 Z5.456 A337.0860 B-0.5033 
N1253 X-211.068 Y-9.244 Z5.380 A338.2365 B-0.5371 
N1254 X-211.073 Y-8.959 Z5.311 A339.4025 B-0.5706 
N1255 X-211.078 Y-8.671 Z5.249 A340.5985 B-0.6030 
N1256 X-211.083 Y-8.377 Z5.193 A341.8307 B-0.6336 
N1257 X-211.090 Y-8.077 Z5.144 A343.1044 B-0.6616 
N1258 X-211.097 Y-7.768 Z5.101 A344.4308 B-0.6860 
N1259 X-211.104 Y-7.449 Z5.064 A345.8280 B-0.7060 
N1260 X-211.113 Y-7.118 Z5.032 A347.3126 B-0.7203 
N1261 X-211.122 Y-6.773 Z5.006 A348.8899 B-0.7284 
N1262 X-211.131 Y-6.414 Z4.986 A350.5488 B-0.7300 
N1263 X-211.142 Y-6.041 Z4.975 A352.2616 B-0.7252 
N1264 X-211.153 Y-5.655 Z4.976 A353.9842 B-0.7148 
N1265 X-211.164 Y-5.259 Z4.991 A355.6567 B-0.7000 
N1266 X-211.176 Y-4.858 Z5.024 A357.2066 B-0.6826 
N1267 X-211.188 Y-4.456 Z5.078 A358.5615 B-0.6645 
N1268 X-211.200 Y-4.058 Z5.152 A359.6647 B-0.6478 
N1269 X-211.212 Y-3.668 Z5.246 A0.4857 B-0.6339 
N1270 X-211.224 Y-3.290 Z5.359 A1.0206 B-0.6233 
N1271 X-211.236 Y-2.926 Z5.486 A1.2873 B-0.6159 
N1272 X-211.247 Y-2.574 Z5.624 A1.3146 B-0.6114 
N1273 X-211.258 Y-2.237 Z5.771 A1.1319 B-0.6081 
N1274 X-211.269 Y-1.913 Z5.923 A0.7579 B-0.6063 
N1275 X-211.280 Y-1.604 Z6.080 A0.1970 B-0.6042 
N1276 X-211.290 Y-1.310 Z6.242 A359.4446 B-0.6025 
N1277 X-211.299 Y-1.030 Z6.407 A358.4948 B-0.5991 
N1278 X-211.308 Y-0.766 Z6.574 A357.3486 B-0.5954 
N1279 X-211.317 Y-0.517 Z6.744 A356.0075 B-0.5900 
N1280 X-211.326 Y-0.282 Z6.917 A354.4662 B-0.5827 
N1281 X-211.334 Y-0.060 Z7.092 A352.7169 B-0.5734 
N1282 X-211.342 Y0.149 Z7.270 A350.7720 B-0.5617 
N1283 X-211.349 Y0.349 Z7.450 A348.6357 B-0.5475 
N1284 X-211.357 Y0.540 Z7.638 A346.2508 B-0.5299 
N1285 X-211.365 Y0.729 Z7.839 A343.5292 B-0.5074 
N1286 X-211.374 Y0.921 Z8.058 A340.3787 B-0.4785 
N1287 X-211.383 Y1.125 Z8.303 A336.6745 B-0.4408 
N1288 X-211.395 Y1.354 Z8.581 A332.2539 B-0.3900 
N1289 X-211.410 Y1.625 Z8.894 A326.9678 B-0.3214 
N1290 X-211.429 Y1.955 Z9.233 A320.7668 B-0.2301 
N1291 X-211.453 Y2.354 Z9.579 A313.7407 B-0.1148 
N1292 X-211.482 Y2.823 Z9.902 A306.0691 B0.0220 
N1293 X-211.514 Y3.356 Z10.176 A297.9646 B0.1778 
N1294 X-211.548 Y3.934 Z10.377 A289.6707 B0.3475 
N1295 X-211.582 Y4.527 Z10.489 A281.5100 B0.5254 
N1296 X-211.613 Y5.092 Z10.508 A273.8868 B0.6927 
N1297 X-211.639 Y5.594 Z10.449 A267.1651 B0.8397 
N1298 X-211.657 Y6.010 Z10.335 A261.5308 B0.9563 
N1299 X-211.669 Y6.343 Z10.189 A256.9491 B1.0469 
N1300 X-211.676 Y6.605 Z10.022 A253.2375 B1.1159 
N1301 X-211.679 Y6.814 Z9.843 A250.1825 B1.1712 
N1302 X-211.680 Y6.982 Z9.653 A247.5965 B1.2174 
N1303 X-211.679 Y7.120 Z9.451 A245.3392 B1.2569 
N1304 X-211.675 Y7.235 Z9.237 A243.3055 B1.2910 
N1305 X-211.670 Y7.332 Z9.010 A241.4073 B1.3238 
N1306 X-211.663 Y7.414 Z8.768 A239.6020 B1.3551 
N1307 X-211.655 Y7.480 Z8.513 A237.8870 B1.3829 
N1308 X-211.645 Y7.530 Z8.247 A236.2551 B1.4096 
N1309 X-211.633 Y7.566 Z7.969 A234.6862 B1.4339 
N1310 X-211.620 Y7.588 Z7.680 A233.1664 B1.4573 
N1311 X-211.605 Y7.598 Z7.382 A231.6854 B1.4795 
N1312 X-211.590 Y7.595 Z7.076 A230.2292 B1.5003 
N1313 X-211.573 Y7.581 Z6.762 A228.7765 B1.5203 
N1314 X-211.556 Y7.558 Z6.441 A227.3019 B1.5409 
N1315 X-211.538 Y7.527 Z6.114 A225.7851 B1.5606 
N1316 X-211.519 Y7.488 Z5.782 A224.2172 B1.5814 
N1317 X-211.500 Y7.440 Z5.446 A222.5993 B1.6014 
N1318 X-211.480 Y7.385 Z5.107 A220.9357 B1.6214 
N1319 X-211.459 Y7.322 Z4.768 A219.2279 B1.6408 
N1320 X-211.439 Y7.251 Z4.429 A217.4705 B1.6597 
N1321 X-211.418 Y7.172 Z4.090 A215.6545 B1.6782 
N1322 X-211.397 Y7.087 Z3.751 A213.7713 B1.6963 
N1323 X-211.376 Y6.995 Z3.413 A211.8143 B1.7138 
N1324 X-211.355 Y6.897 Z3.077 A209.7788 B1.7306 
N1325 X-211.334 Y6.791 Z2.741 A207.6624 B1.7466 
N1326 X-211.312 Y6.678 Z2.408 A205.4643 B1.7615 
N1327 X-211.291 Y6.557 Z2.077 A203.1851 B1.7753 
N1328 X-211.269 Y6.428 Z1.748 A200.8269 B1.7874 
N1329 X-211.247 Y6.289 Z1.422 A198.3930 B1.7980 
N1330 X-211.225 Y6.141 Z1.099 A195.8888 B1.8066 
N1331 X-211.202 Y5.981 Z0.781 A193.3209 B1.8130 
N1332 X-211.180 Y5.811 Z0.468 A190.6977 B1.8171 
N1333 X-211.156 Y5.628 Z0.161 A188.0280 B1.8187 
N1334 X-211.133 Y5.433 Z-0.139 A185.3219 B1.8177 
N1335 X-211.109 Y5.225 Z-0.431 A182.5904 B1.8140 
N1336 X-211.085 Y5.004 Z-0.713 A179.8456 B1.8075 
N1337 X-211.060 Y4.769 Z-0.985 A177.1001 B1.7983 
N1338 X-211.034 Y4.521 Z-1.244 A174.3664 B1.7864 
N1339 X-211.008 Y4.259 Z-1.489 A171.6562 B1.7720 
N1340 X-210.982 Y3.984 Z-1.720 A168.9809 B1.7553 
N1341 X-210.955 Y3.697 Z-1.935 A166.3513 B1.7364 
N1342 X-210.928 Y3.398 Z-2.134 A163.7779 B1.7157 
N1343 X-210.901 Y3.089 Z-2.314 A161.2695 B1.6933 
N1344 X-210.873 Y2.768 Z-2.476 A158.8338 B1.6697 
N1345 X-210.845 Y2.439 Z-2.619 A156.4765 B1.6449 
N1346 X-210.816 Y2.101 Z-2.743 A154.2016 B1.6194 
N1347 X-210.788 Y1.755 Z-2.848 A152.0115 B1.5933 
N1348 X-210.759 Y1.402 Z-2.933 A149.9068 B1.5670 
N1349 X-210.730 Y1.043 Z-3.000 A147.8862 B1.5404 
N1350 X-210.701 Y0.679 Z-3.047 A145.9484 B1.5138 
N1351 X-210.672 Y0.309 Z-3.075 A144.0938 B1.4873 
N1352 X-210.643 Y-0.065 Z-3.085 A142.3252 B1.4612 
N1353 X-210.614 Y-0.443 Z-3.075 A140.6475 B1.4356 
N1354 X-210.585 Y-0.822 Z-3.048 A139.0648 B1.4109 
N1355 X-210.556 Y-1.204 Z-3.002 A137.5782 B1.3872 
N1356 X-210.527 Y-1.588 Z-2.938 A136.1847 B1.3645 
N1357 X-210.498 Y-1.972 Z-2.858 A134.8784 B1.3430 
N1358 X-210.470 Y-2.358 Z-2.762 A133.6531 B1.3224 
N1359 X-210.441 Y-2.744 Z-2.651 A132.5035 B1.3027 
N1360 X-210.412 Y-3.132 Z-2.525 A131.4252 B1.2840 
N1361 X-210.384 Y-3.519 Z-2.386 A130.4149 B1.2663 
N1362 X-210.355 Y-3.907 Z-2.233 A129.4694 B1.2496 
N1363 X-210.327 Y-4.295 Z-2.069 A128.5859 B1.2338 
N1364 X-210.299 Y-4.682 Z-1.892 A127.7620 B1.2189 
N1365 X-210.270 Y-5.069 Z-1.704 A126.9954 B1.2050 
N1366 X-210.242 Y-5.455 Z-1.506 A126.2848 B1.1919 
N1367 X-210.214 Y-5.840 Z-1.298 A125.6290 B1.1799 
N1368 X-210.187 Y-6.223 Z-1.081 A125.0275 B1.1688 
N1369 X-210.159 Y-6.604 Z-0.856 A124.4786 B1.1587 
N1370 X-210.132 Y-6.981 Z-0.624 A123.9790 B1.1495 
N1371 X-210.105 Y-7.356 Z-0.387 A123.5242 B1.1411 
N1372 X-210.078 Y-7.725 Z-0.145 A123.1103 B1.1335 
N1373 X-210.052 Y-8.090 Z0.100 A122.7344 B1.1265 
N1374 X-210.027 Y-8.447 Z0.345 A122.3947 B1.1202 
N1375 X-210.001 Y-8.797 Z0.591 A122.0905 B1.1146 
N1376 X-209.977 Y-9.136 Z0.834 A121.8211 B1.1096 
N1377 X-209.954 Y-9.463 Z1.073 A121.5860 B1.1053 
N1378 X-209.931 Y-9.776 Z1.306 A121.3836 B1.1016 
N1379 X-209.910 Y-10.074 Z1.530 A121.2125 B1.0989 
N1380 X-209.890 Y-10.354 Z1.745 A121.0705 B1.0957 
N1381 X-209.871 Y-10.616 Z1.947 A120.9547 B1.0944 
N1382 X-209.854 Y-10.858 Z2.135 A120.8613 B1.0922 
N1383 X-209.838 Y-11.078 Z2.309 A120.7858 B1.0915 
N1384 X-209.824 Y-11.278 Z2.467 A120.7240 B1.0904 
N1385 X-209.811 Y-11.456 Z2.608 A120.6728 B1.0898 
N1386 X-209.799 Y-11.613 Z2.734 A120.6297 B1.0889 
N1387 X-209.790 Y-11.749 Z2.843 A120.5928 B1.0887 
N1388 X-209.781 Y-11.867 Z2.936 A120.5595 B1.0878 
N1389 X-209.774 Y-11.967 Z3.016 A120.5254 B1.0880 
N1390 X-209.768 Y-12.051 Z3.082 A120.4814 B1.0875 
N1391 X-209.763 Y-12.123 Z3.135 A120.4140 B1.0859 
N1392 X-209.758 Y-12.188 Z3.174 A120.2357 B1.0819 
N1393 X-209.753 Y-12.269 Z3.187 A119.6140 B1.0699 
N1394 X-209.742 Y-12.423 Z3.148 A117.6533 B1.0291 
N1395 X-209.717 Y-12.806 Z2.993 A111.9707 B0.9111 
N1396 X-209.663 Y-13.679 Z2.745 A99.2043 B0.6419 
N1397 X-209.590 Y-14.793 Z2.704 A83.4464 B0.3107 
N1398 X-209.533 Y-15.677 Z2.894 A70.6866 B0.0687 
N1399 X-209.496 Y-16.387 Z3.211 A59.7326 B-0.1123 
N1400 X-209.470 Y-16.935 Z3.584 A50.3828 B-0.2486 
N1401 X-209.451 Y-17.366 Z3.986 A42.0866 B-0.3513 
N1402 X-209.436 Y-17.714 Z4.418 A34.2679 B-0.4277 
N1403 X-209.425 Y-18.004 Z4.899 A26.3736 B-0.4810 
N1404 X-209.416 Y-18.239 Z5.456 A17.8523 B-0.5131 
N1405 X-209.411 Y-18.403 Z6.126 A8.1409 B-0.5227 
N1406 X-209.415 Y-18.449 Z6.934 A356.7424 B-0.5007 
N1407 X-209.434 Y-18.302 Z7.852 A343.6300 B-0.4235 
N1408 X-209.472 Y-17.933 Z8.739 A330.0854 B-0.2851 
N1409 X-209.506 Y-17.495 Z9.354 A319.4982 B-0.1581 
N1410 X-209.521 Y-17.249 Z9.583 A314.8975 B-0.0928 
N1411 X-209.527 Y-17.113 Z9.658 A312.9808 B-0.0702 
N1412 X-209.528 Y-17.015 Z9.676 A312.0496 B-0.0654 
N1413 X-209.528 Y-16.934 Z9.660 A311.6891 B-0.0664 
N1414 X-209.528 Y-16.855 Z9.621 A311.6278 B-0.0695 
N1415 X-209.528 Y-16.769 Z9.568 A311.7147 B-0.0732 
N1416 X-209.528 Y-16.669 Z9.502 A311.8746 B-0.0771 
N1417 X-209.527 Y-16.553 Z9.425 A312.0752 B-0.0812 
N1418 X-209.527 Y-16.419 Z9.336 A312.3056 B-0.0856 
N1419 X-209.527 Y-16.266 Z9.237 A312.5653 B-0.0903 
N1420 X-209.527 Y-16.094 Z9.126 A312.8597 B-0.0956 
N1421 X-209.527 Y-15.904 Z9.003 A313.1987 B-0.1017 
N1422 X-209.527 Y-15.696 Z8.869 A313.5950 B-0.1087 
N1423 X-209.527 Y-15.473 Z8.724 A314.0616 B-0.1171 
N1424 X-209.527 Y-15.236 Z8.569 A314.6086 B-0.1271 
N1425 X-209.527 Y-14.987 Z8.404 A315.2396 B-0.1386 
N1426 X-209.527 Y-14.726 Z8.233 A315.9506 B-0.1515 
N1427 X-209.526 Y-14.456 Z8.057 A316.7338 B-0.1655 
N1428 X-209.527 Y-14.177 Z7.877 A317.5828 B-0.1805 
N1429 X-209.527 Y-13.892 Z7.695 A318.4956 B-0.1962 
N1430 X-209.527 Y-13.602 Z7.513 A319.4732 B-0.2128 
N1431 X-209.528 Y-13.308 Z7.331 A320.5168 B-0.2303 
N1432 X-209.529 Y-13.013 Z7.150 A321.6270 B-0.2486 
N1433 X-209.530 Y-12.716 Z6.972 A322.8029 B-0.2677 
N1434 X-209.531 Y-12.420 Z6.796 A324.0418 B-0.2875 
N1435 X-209.533 Y-12.123 Z6.624 A325.3385 B-0.3080 
N1436 X-209.534 Y-11.828 Z6.457 A326.6838 B-0.3292 
N1437 X-209.536 Y-11.534 Z6.296 A328.0631 B-0.3514 
N1438 X-209.538 Y-11.241 Z6.143 A329.4569 B-0.3746 
N1439 X-209.541 Y-10.949 Z5.999 A330.8416 B-0.3994 
N1440 X-209.544 Y-10.661 Z5.866 A332.1937 B-0.4262 
N1441 X-209.547 Y-10.374 Z5.746 A333.4949 B-0.4553 
N1442 X-209.550 Y-10.090 Z5.638 A334.7378 B-0.4869 
N1443 X-209.554 Y-9.808 Z5.542 A335.9289 B-0.5208 
N1444 X-209.558 Y-9.526 Z5.456 A337.0872 B-0.5562 
N1445 X-209.563 Y-9.244 Z5.380 A338.2379 B-0.5924 
N1446 X-209.568 Y-8.959 Z5.311 A339.4040 B-0.6283 
N1447 X-209.574 Y-8.671 Z5.249 A340.6002 B-0.6629 
N1448 X-209.580 Y-8.377 Z5.193 A341.8326 B-0.6956 
N1449 X-209.587 Y-8.076 Z5.144 A343.1063 B-0.7254 
N1450 X-209.595 Y-7.768 Z5.101 A344.4329 B-0.7515 
N1451 X-209.603 Y-7.449 Z5.064 A345.8302 B-0.7726 
N1452 X-209.613 Y-7.117 Z5.032 A347.3149 B-0.7878 
N1453 X-209.623 Y-6.772 Z5.006 A348.8922 B-0.7961 
N1454 X-209.633 Y-6.413 Z4.986 A350.5511 B-0.7974 
N1455 X-209.645 Y-6.040 Z4.975 A352.2639 B-0.7918 
N1456 X-209.657 Y-5.654 Z4.976 A353.9865 B-0.7802 
N1457 X-209.669 Y-5.259 Z4.991 A355.6589 B-0.7638 
N1458 X-209.682 Y-4.858 Z5.024 A357.2087 B-0.7446 
N1459 X-209.695 Y-4.455 Z5.078 A358.5635 B-0.7247 
N1460 X-209.708 Y-4.057 Z5.152 A359.6666 B-0.7064 
N1461 X-209.722 Y-3.668 Z5.247 A0.4875 B-0.6910 
N1462 X-209.735 Y-3.290 Z5.359 A1.0224 B-0.6795 
N1463 X-209.748 Y-2.925 Z5.486 A1.2889 B-0.6713 
N1464 X-209.760 Y-2.574 Z5.624 A1.3162 B-0.6663 
N1465 X-209.772 Y-2.236 Z5.771 A1.1334 B-0.6627 
N1466 X-209.784 Y-1.913 Z5.923 A0.7593 B-0.6607 
N1467 X-209.795 Y-1.604 Z6.081 A0.1983 B-0.6584 
N1468 X-209.806 Y-1.309 Z6.242 A359.4458 B-0.6566 
N1469 X-209.817 Y-1.030 Z6.407 A358.4958 B-0.6530 
N1470 X-209.827 Y-0.766 Z6.575 A357.3495 B-0.6490 
N1471 X-209.836 Y-0.516 Z6.744 A356.0082 B-0.6433 
N1472 X-209.845 Y-0.281 Z6.917 A354.4668 B-0.6355 
N1473 X-209.854 Y-0.060 Z7.092 A352.7174 B-0.6258 
N1474 X-209.863 Y0.150 Z7.270 A350.7723 B-0.6135 
N1475 X-209.871 Y0.349 Z7.450 A348.6359 B-0.5986 
N1476 X-209.879 Y0.541 Z7.638 A346.2508 B-0.5801 
N1477 X-209.888 Y0.729 Z7.839 A343.5289 B-0.5566 
N1478 X-209.897 Y0.921 Z8.058 A340.3782 B-0.5263 
N1479 X-209.907 Y1.125 Z8.303 A336.6737 B-0.4868 
N1480 X-209.920 Y1.354 Z8.581 A332.2529 B-0.4336 
N1481 X-209.936 Y1.626 Z8.894 A326.9665 B-0.3618 
N1482 X-209.956 Y1.955 Z9.233 A320.7655 B-0.2661 
N1483 X-209.981 Y2.354 Z9.579 A313.7395 B-0.1454 
N1484 X-210.011 Y2.823 Z9.902 A306.0682 B-0.0021 
N1485 X-210.044 Y3.356 Z10.177 A297.9642 B0.1611 
N1486 X-210.080 Y3.934 Z10.377 A289.6710 B0.3388 
N1487 X-210.116 Y4.527 Z10.489 A281.5112 B0.5249 
N1488 X-210.149 Y5.092 Z10.508 A273.8888 B0.6999 
N1489 X-210.176 Y5.593 Z10.449 A267.1676 B0.8535 
N1490 X-210.195 Y6.010 Z10.335 A261.5337 B0.9753 
N1491 X-210.208 Y6.343 Z10.188 A256.9522 B1.0697 
N1492 X-210.215 Y6.605 Z10.022 A253.2408 B1.1417 
N1493 X-210.219 Y6.814 Z9.843 A250.1859 B1.1994 
N1494 X-210.220 Y6.982 Z9.653 A247.6000 B1.2476 
N1495 X-210.218 Y7.120 Z9.451 A245.3428 B1.2887 
N1496 X-210.214 Y7.235 Z9.237 A243.3092 B1.3243 
N1497 X-210.209 Y7.332 Z9.009 A241.4111 B1.3585 
N1498 X-210.203 Y7.414 Z8.768 A239.6059 B1.3911 
N1499 X-210.194 Y7.480 Z8.513 A237.8911 B1.4202 
N1500 X-210.184 Y7.530 Z8.247 A236.2592 B1.4480 
N1501 X-210.172 Y7.566 Z7.968 A234.6904 B1.4732 
N1502 X-210.158 Y7.588 Z7.680 A233.1707 B1.4976 
N1503 X-210.144 Y7.597 Z7.382 A231.6897 B1.5208 
N1504 X-210.128 Y7.594 Z7.076 A230.2337 B1.5425 
N1505 X-210.111 Y7.581 Z6.762 A228.7811 B1.5632 
N1506 X-210.093 Y7.558 Z6.441 A227.3067 B1.5848 
N1507 X-210.074 Y7.526 Z6.114 A225.7900 B1.6052 
N1508 X-210.055 Y7.487 Z5.782 A224.2223 B1.6269 
N1509 X-210.035 Y7.440 Z5.445 A222.6045 B1.6477 
N1510 X-210.015 Y7.385 Z5.107 A220.9412 B1.6685 
N1511 X-209.994 Y7.321 Z4.768 A219.2335 B1.6887 
N1512 X-209.973 Y7.250 Z4.428 A217.4762 B1.7084 
N1513 X-209.951 Y7.172 Z4.089 A215.6604 B1.7276 
N1514 X-209.930 Y7.087 Z3.751 A213.7774 B1.7464 
N1515 X-209.908 Y6.995 Z3.413 A211.8205 B1.7646 
N1516 X-209.886 Y6.896 Z3.076 A209.7851 B1.7821 
N1517 X-209.864 Y6.791 Z2.741 A207.6688 B1.7987 
N1518 X-209.842 Y6.678 Z2.408 A205.4709 B1.8142 
N1519 X-209.820 Y6.557 Z2.076 A203.1919 B1.8284 
N1520 X-209.798 Y6.427 Z1.747 A200.8337 B1.8410 
N1521 X-209.775 Y6.288 Z1.421 A198.3999 B1.8519 
N1522 X-209.752 Y6.140 Z1.099 A195.8957 B1.8607 
N1523 X-209.729 Y5.981 Z0.781 A193.3279 B1.8674 
N1524 X-209.706 Y5.810 Z0.468 A190.7046 B1.8715 
N1525 X-209.682 Y5.628 Z0.161 A188.0348 B1.8730 
N1526 X-209.658 Y5.433 Z-0.139 A185.3287 B1.8719 
N1527 X-209.633 Y5.225 Z-0.431 A182.5971 B1.8678 
N1528 X-209.608 Y5.003 Z-0.713 A179.8521 B1.8609 
N1529 X-209.582 Y4.768 Z-0.985 A177.1065 B1.8511 
N1530 X-209.556 Y4.520 Z-1.244 A174.3726 B1.8386 
N1531 X-209.529 Y4.258 Z-1.489 A171.6622 B1.8235 
N1532 X-209.502 Y3.984 Z-1.720 A168.9867 B1.8058 
N1533 X-209.474 Y3.697 Z-1.935 A166.3569 B1.7860 
N1534 X-209.446 Y3.398 Z-2.134 A163.7832 B1.7642 
N1535 X-209.418 Y3.088 Z-2.314 A161.2746 B1.7407 
N1536 X-209.389 Y2.768 Z-2.476 A158.8387 B1.7159 
N1537 X-209.360 Y2.438 Z-2.619 A156.4811 B1.6899 
N1538 X-209.331 Y2.100 Z-2.743 A154.2060 B1.6632 
N1539 X-209.302 Y1.755 Z-2.848 A152.0156 B1.6359 
N1540 X-209.272 Y1.402 Z-2.933 A149.9107 B1.6083 
N1541 X-209.243 Y1.043 Z-2.999 A147.8899 B1.5804 
N1542 X-209.213 Y0.678 Z-3.047 A145.9519 B1.5526 
N1543 X-209.183 Y0.308 Z-3.075 A144.0971 B1.5248 
N1544 X-209.153 Y-0.066 Z-3.084 A142.3283 B1.4974 
N1545 X-209.123 Y-0.443 Z-3.075 A140.6504 B1.4706 
N1546 X-209.093 Y-0.823 Z-3.047 A139.0676 B1.4447 
N1547 X-209.063 Y-1.205 Z-3.001 A137.5808 B1.4199 
N1548 X-209.034 Y-1.588 Z-2.938 A136.1872 B1.3962 
N1549 X-209.004 Y-1.972 Z-2.858 A134.8808 B1.3736 
N1550 X-208.974 Y-2.358 Z-2.762 A133.6554 B1.3521 
N1551 X-208.945 Y-2.745 Z-2.651 A132.5056 B1.3315 
N1552 X-208.916 Y-3.132 Z-2.525 A131.4272 B1.3119 
N1553 X-208.886 Y-3.519 Z-2.386 A130.4168 B1.2934 
N1554 X-208.857 Y-3.907 Z-2.233 A129.4712 B1.2759 
N1555 X-208.828 Y-4.295 Z-2.068 A128.5876 B1.2593 
N1556 X-208.799 Y-4.683 Z-1.892 A127.7636 B1.2438 
N1557 X-208.770 Y-5.070 Z-1.704 A126.9970 B1.2292 
N1558 X-208.742 Y-5.456 Z-1.506 A126.2862 B1.2155 
N1559 X-208.713 Y-5.840 Z-1.298 A125.6304 B1.2029 
N1560 X-208.685 Y-6.223 Z-1.081 A125.0289 B1.1913 
N1561 X-208.657 Y-6.604 Z-0.856 A124.4799 B1.1807 
N1562 X-208.629 Y-6.982 Z-0.624 A123.9802 B1.1711 
N1563 X-208.601 Y-7.356 Z-0.387 A123.5254 B1.1623 
N1564 X-208.574 Y-7.726 Z-0.145 A123.1115 B1.1543 
N1565 X-208.548 Y-8.090 Z0.100 A122.7355 B1.1470 
N1566 X-208.521 Y-8.447 Z0.346 A122.3958 B1.1404 
N1567 X-208.496 Y-8.797 Z0.591 A122.0915 B1.1345 
N1568 X-208.471 Y-9.136 Z0.834 A121.8222 B1.1293 
N1569 X-208.447 Y-9.463 Z1.073 A121.5870 B1.1248 
N1570 X-208.424 Y-9.776 Z1.306 A121.3846 B1.1209 
N1571 X-208.402 Y-10.074 Z1.530 A121.2135 B1.1181 
N1572 X-208.382 Y-10.355 Z1.745 A121.0715 B1.1148 
N1573 X-208.363 Y-10.616 Z1.947 A120.9557 B1.1133 
N1574 X-208.345 Y-10.858 Z2.136 A120.8623 B1.1111 
N1575 X-208.329 Y-11.079 Z2.309 A120.7868 B1.1103 
N1576 X-208.315 Y-11.278 Z2.467 A120.7250 B1.1091 
N1577 X-208.302 Y-11.456 Z2.609 A120.6738 B1.1085 
N1578 X-208.290 Y-11.613 Z2.734 A120.6307 B1.1076 
N1579 X-208.280 Y-11.750 Z2.843 A120.5938 B1.1073 
N1580 X-208.272 Y-11.867 Z2.937 A120.5605 B1.1064 
N1581 X-208.265 Y-11.967 Z3.016 A120.5264 B1.1066 
N1582 X-208.258 Y-12.051 Z3.082 A120.4824 B1.1061 
N1583 X-208.253 Y-12.123 Z3.135 A120.4149 B1.1044 
N1584 X-208.248 Y-12.188 Z3.174 A120.2366 B1.1002 
N1585 X-208.243 Y-12.270 Z3.188 A119.6148 B1.0877 
N1586 X-208.232 Y-12.423 Z3.148 A117.6541 B1.0451 
N1587 X-208.206 Y-12.806 Z2.993 A111.9719 B0.9218 
N1588 X-208.149 Y-13.679 Z2.745 A99.2068 B0.6406 
N1589 X-208.073 Y-14.793 Z2.704 A83.4497 B0.2941 
N1590 X-208.014 Y-15.677 Z2.894 A70.6905 B0.0403 
N1591 X-207.975 Y-16.386 Z3.211 A59.7373 B-0.1486 
N1592 X-207.948 Y-16.935 Z3.584 A50.3885 B-0.2905 
N1593 X-207.928 Y-17.365 Z3.986 A42.0933 B-0.3974 
N1594 X-207.913 Y-17.714 Z4.418 A34.2759 B-0.4769 
N1595 X-207.901 Y-18.003 Z4.898 A26.3831 B-0.5325 
N1596 X-207.892 Y-18.238 Z5.456 A17.8636 B-0.5660 
N1597 X-207.887 Y-18.402 Z6.125 A8.1543 B-0.5761 
N1598 X-207.891 Y-18.448 Z6.933 A356.7580 B-0.5528 
N1599 X-207.911 Y-18.302 Z7.851 A343.6464 B-0.4715 
N1600 X-207.951 Y-17.934 Z8.738 A330.0994 B-0.3251 
N1601 X-207.986 Y-17.496 Z9.353 A319.5063 B-0.1911 
N1602 X-208.002 Y-17.249 Z9.583 A314.9014 B-0.1223 
N1603 X-208.008 Y-17.113 Z9.658 A312.9828 B-0.0986 
N1604 X-208.010 Y-17.015 Z9.676 A312.0505 B-0.0936 
N1605 X-208.010 Y-16.934 Z9.660 A311.6895 B-0.0945 
N1606 X-208.010 Y-16.855 Z9.621 A311.6280 B-0.0978 
N1607 X-208.010 Y-16.769 Z9.568 A311.7147 B-0.1016 
N1608 X-208.009 Y-16.669 Z9.502 A311.8746 B-0.1056 
N1609 X-208.009 Y-16.553 Z9.425 A312.0751 B-0.1099 
N1610 X-208.009 Y-16.419 Z9.336 A312.3055 B-0.1145 
N1611 X-208.010 Y-16.266 Z9.237 A312.5652 B-0.1195 
N1612 X-208.010 Y-16.094 Z9.126 A312.8596 B-0.1250 
N1613 X-208.010 Y-15.904 Z9.003 A313.1986 B-0.1314 
N1614 X-208.010 Y-15.697 Z8.869 A313.5949 B-0.1387 
N1615 X-208.011 Y-15.474 Z8.724 A314.0614 B-0.1474 
N1616 X-208.011 Y-15.236 Z8.569 A314.6085 B-0.1578 
N1617 X-208.011 Y-14.987 Z8.405 A315.2394 B-0.1698 
N1618 X-208.011 Y-14.726 Z8.233 A315.9504 B-0.1833 
N1619 X-208.012 Y-14.456 Z8.057 A316.7336 B-0.1980 
N1620 X-208.012 Y-14.177 Z7.877 A317.5826 B-0.2135 
N1621 X-208.013 Y-13.892 Z7.695 A318.4955 B-0.2300 
N1622 X-208.014 Y-13.602 Z7.513 A319.4731 B-0.2474 
N1623 X-208.015 Y-13.308 Z7.331 A320.5168 B-0.2656 
N1624 X-208.016 Y-13.013 Z7.150 A321.6270 B-0.2847 
N1625 X-208.018 Y-12.716 Z6.972 A322.8029 B-0.3047 
N1626 X-208.020 Y-12.420 Z6.796 A324.0420 B-0.3254 
N1627 X-208.022 Y-12.123 Z6.624 A325.3388 B-0.3468 
N1628 X-208.024 Y-11.828 Z6.457 A326.6841 B-0.3690 
N1629 X-208.027 Y-11.533 Z6.296 A328.0635 B-0.3922 
N1630 X-208.029 Y-11.240 Z6.143 A329.4574 B-0.4166 
N1631 X-208.032 Y-10.949 Z5.999 A330.8423 B-0.4427 
N1632 X-208.036 Y-10.660 Z5.866 A332.1945 B-0.4710 
N1633 X-208.039 Y-10.374 Z5.746 A333.4958 B-0.5018 
N1634 X-208.043 Y-10.090 Z5.638 A334.7389 B-0.5354 
N1635 X-208.048 Y-9.807 Z5.542 A335.9302 B-0.5714 
N1636 X-208.052 Y-9.526 Z5.456 A337.0886 B-0.6092 
N1637 X-208.058 Y-9.243 Z5.380 A338.2395 B-0.6477 
N1638 X-208.064 Y-8.959 Z5.311 A339.4058 B-0.6859 
N1639 X-208.070 Y-8.670 Z5.249 A340.6021 B-0.7228 
N1640 X-208.077 Y-8.377 Z5.193 A341.8346 B-0.7575 
N1641 X-208.085 Y-8.076 Z5.144 A343.1085 B-0.7892 
N1642 X-208.093 Y-7.767 Z5.101 A344.4352 B-0.8169 
N1643 X-208.103 Y-7.448 Z5.064 A345.8326 B-0.8393 
N1644 X-208.113 Y-7.117 Z5.032 A347.3173 B-0.8552 
N1645 X-208.124 Y-6.772 Z5.006 A348.8947 B-0.8638 
N1646 X-208.135 Y-6.413 Z4.986 A350.5537 B-0.8648 
N1647 X-208.148 Y-6.040 Z4.975 A352.2664 B-0.8584 
N1648 X-208.161 Y-5.654 Z4.976 A353.9889 B-0.8456 
N1649 X-208.174 Y-5.258 Z4.991 A355.6613 B-0.8276 
N1650 X-208.188 Y-4.857 Z5.024 A357.2110 B-0.8065 
N1651 X-208.203 Y-4.455 Z5.078 A358.5657 B-0.7849 
N1652 X-208.217 Y-4.057 Z5.152 A359.6687 B-0.7649 
N1653 X-208.231 Y-3.667 Z5.247 A0.4894 B-0.7482 
N1654 X-208.246 Y-3.289 Z5.359 A1.0242 B-0.7356 
N1655 X-208.259 Y-2.925 Z5.486 A1.2907 B-0.7267 
N1656 X-208.273 Y-2.573 Z5.625 A1.3179 B-0.7212 
N1657 X-208.286 Y-2.236 Z5.771 A1.1350 B-0.7172 
N1658 X-208.299 Y-1.912 Z5.924 A0.7608 B-0.7151 
N1659 X-208.311 Y-1.603 Z6.081 A0.1997 B-0.7126 
N1660 X-208.323 Y-1.309 Z6.242 A359.4471 B-0.7106 
N1661 X-208.334 Y-1.029 Z6.407 A358.4970 B-0.7068 
N1662 X-208.345 Y-0.765 Z6.575 A357.3505 B-0.7026 
N1663 X-208.355 Y-0.516 Z6.745 A356.0091 B-0.6966 
N1664 X-208.365 Y-0.281 Z6.917 A354.4676 B-0.6884 
N1665 X-208.375 Y-0.059 Z7.092 A352.7180 B-0.6782 
N1666 X-208.384 Y0.150 Z7.270 A350.7728 B-0.6653 
N1667 X-208.393 Y0.349 Z7.451 A348.6361 B-0.6496 
N1668 X-208.402 Y0.541 Z7.638 A346.2509 B-0.6303 
N1669 X-208.411 Y0.729 Z7.839 A343.5288 B-0.6057 
N1670 X-208.421 Y0.921 Z8.058 A340.3779 B-0.5740 
N1671 X-208.432 Y1.125 Z8.303 A336.6731 B-0.5328 
N1672 X-208.445 Y1.355 Z8.581 A332.2521 B-0.4772 
N1673 X-208.461 Y1.626 Z8.894 A326.9655 B-0.4022 
N1674 X-208.483 Y1.955 Z9.233 A320.7643 B-0.3022 
N1675 X-208.509 Y2.354 Z9.579 A313.7384 B-0.1760 
N1676 X-208.540 Y2.823 Z9.902 A306.0675 B-0.0262 
N1677 X-208.575 Y3.356 Z10.177 A297.9641 B0.1444 
N1678 X-208.613 Y3.934 Z10.377 A289.6717 B0.3302 
N1679 X-208.651 Y4.527 Z10.489 A281.5126 B0.5245 
N1680 X-208.685 Y5.092 Z10.508 A273.8910 B0.7071 
N1681 X-208.713 Y5.593 Z10.449 A267.1705 B0.8673 
N1682 X-208.733 Y6.010 Z10.335 A261.5369 B0.9942 
N1683 X-208.746 Y6.343 Z10.188 A256.9557 B1.0926 
N1684 X-208.754 Y6.605 Z10.022 A253.2443 B1.1675 
N1685 X-208.758 Y6.814 Z9.843 A250.1895 B1.2275 
N1686 X-208.759 Y6.982 Z9.652 A247.6037 B1.2777 
N1687 X-208.758 Y7.120 Z9.451 A245.3466 B1.3205 
N1688 X-208.754 Y7.235 Z9.237 A243.3131 B1.3576 
N1689 X-208.749 Y7.332 Z9.009 A241.4151 B1.3932 
N1690 X-208.742 Y7.414 Z8.768 A239.6100 B1.4271 
N1691 X-208.733 Y7.479 Z8.513 A237.8953 B1.4574 
N1692 X-208.723 Y7.530 Z8.246 A236.2635 B1.4863 
N1693 X-208.711 Y7.566 Z7.968 A234.6948 B1.5126 
N1694 X-208.697 Y7.588 Z7.679 A233.1752 B1.5379 
N1695 X-208.682 Y7.597 Z7.382 A231.6943 B1.5620 
N1696 X-208.666 Y7.594 Z7.075 A230.2384 B1.5846 
N1697 X-208.648 Y7.580 Z6.762 A228.7860 B1.6062 
N1698 X-208.630 Y7.557 Z6.441 A227.3117 B1.6286 
N1699 X-208.610 Y7.526 Z6.114 A225.7952 B1.6498 
N1700 X-208.591 Y7.487 Z5.781 A224.2277 B1.6724 
N1701 X-208.570 Y7.440 Z5.445 A222.6100 B1.6940 
N1702 X-208.550 Y7.384 Z5.107 A220.9468 B1.7156 
N1703 X-208.528 Y7.321 Z4.767 A219.2393 B1.7366 
N1704 X-208.507 Y7.250 Z4.428 A217.4822 B1.7570 
N1705 X-208.485 Y7.172 Z4.089 A215.6665 B1.7770 
N1706 X-208.462 Y7.086 Z3.750 A213.7837 B1.7965 
N1707 X-208.440 Y6.995 Z3.412 A211.8269 B1.8154 
N1708 X-208.418 Y6.896 Z3.076 A209.7917 B1.8335 
N1709 X-208.395 Y6.790 Z2.741 A207.6756 B1.8507 
N1710 X-208.373 Y6.677 Z2.407 A205.4778 B1.8668 
N1711 X-208.350 Y6.556 Z2.076 A203.1989 B1.8815 
N1712 X-208.327 Y6.426 Z1.747 A200.8408 B1.8945 
N1713 X-208.303 Y6.288 Z1.421 A198.4071 B1.9058 
N1714 X-208.280 Y6.139 Z1.099 A195.9029 B1.9149 
N1715 X-208.256 Y5.980 Z0.781 A193.3351 B1.9217 
N1716 X-208.232 Y5.809 Z0.467 A190.7118 B1.9259 
N1717 X-208.207 Y5.627 Z0.160 A188.0420 B1.9273 
N1718 X-208.182 Y5.432 Z-0.140 A185.3358 B1.9260 
N1719 X-208.157 Y5.224 Z-0.431 A182.6041 B1.9216 
N1720 X-208.131 Y5.002 Z-0.714 A179.8590 B1.9143 
N1721 X-208.104 Y4.767 Z-0.985 A177.1132 B1.9040 
N1722 X-208.077 Y4.519 Z-1.244 A174.3791 B1.8908 
N1723 X-208.050 Y4.257 Z-1.489 A171.6685 B1.8749 
N1724 X-208.022 Y3.983 Z-1.720 A168.9927 B1.8564 
N1725 X-207.994 Y3.696 Z-1.935 A166.3627 B1.8356 
N1726 X-207.965 Y3.397 Z-2.134 A163.7887 B1.8127 
N1727 X-207.935 Y3.087 Z-2.314 A161.2799 B1.7881 
N1728 X-207.906 Y2.767 Z-2.476 A158.8437 B1.7622 
N1729 X-207.876 Y2.438 Z-2.619 A156.4859 B1.7350 
N1730 X-207.846 Y2.100 Z-2.743 A154.2105 B1.7070 
N1731 X-207.816 Y1.754 Z-2.848 A152.0200 B1.6784 
N1732 X-207.785 Y1.401 Z-2.933 A149.9147 B1.6495 
N1733 X-207.755 Y1.042 Z-2.999 A147.8937 B1.6204 
N1734 X-207.724 Y0.678 Z-3.046 A145.9556 B1.5913 
N1735 X-207.693 Y0.308 Z-3.075 A144.1005 B1.5623 
N1736 X-207.662 Y-0.066 Z-3.084 A142.3316 B1.5336 
N1737 X-207.632 Y-0.443 Z-3.075 A140.6535 B1.5056 
N1738 X-207.601 Y-0.823 Z-3.047 A139.0705 B1.4786 
N1739 X-207.570 Y-1.205 Z-3.001 A137.5836 B1.4526 
N1740 X-207.540 Y-1.588 Z-2.938 A136.1898 B1.4279 
N1741 X-207.509 Y-1.973 Z-2.858 A134.8832 B1.4043 
N1742 X-207.479 Y-2.358 Z-2.762 A133.6577 B1.3818 
N1743 X-207.449 Y-2.745 Z-2.650 A132.5078 B1.3603 
N1744 X-207.419 Y-3.132 Z-2.525 A131.4293 B1.3398 
N1745 X-207.389 Y-3.520 Z-2.386 A130.4187 B1.3205 
N1746 X-207.359 Y-3.907 Z-2.233 A129.4730 B1.3022 
N1747 X-207.329 Y-4.295 Z-2.068 A128.5894 B1.2849 
N1748 X-207.300 Y-4.683 Z-1.892 A127.7653 B1.2686 
N1749 X-207.270 Y-5.070 Z-1.704 A126.9986 B1.2534 
N1750 X-207.241 Y-5.456 Z-1.506 A126.2877 B1.2391 
N1751 X-207.212 Y-5.841 Z-1.298 A125.6319 B1.2259 
N1752 X-207.183 Y-6.223 Z-1.081 A125.0302 B1.2138 
N1753 X-207.154 Y-6.604 Z-0.856 A124.4812 B1.2028 
N1754 X-207.126 Y-6.982 Z-0.624 A123.9815 B1.1927 
N1755 X-207.098 Y-7.356 Z-0.387 A123.5266 B1.1836 
N1756 X-207.070 Y-7.726 Z-0.145 A123.1127 B1.1752 
N1757 X-207.043 Y-8.090 Z0.100 A122.7367 B1.1676 
N1758 X-207.016 Y-8.448 Z0.346 A122.3969 B1.1607 
N1759 X-206.990 Y-8.797 Z0.591 A122.0926 B1.1545 
N1760 X-206.965 Y-9.136 Z0.834 A121.8232 B1.1490 
N1761 X-206.941 Y-9.463 Z1.073 A121.5880 B1.1443 
N1762 X-206.917 Y-9.777 Z1.306 A121.3857 B1.1402 
N1763 X-206.895 Y-10.074 Z1.531 A121.2145 B1.1373 
N1764 X-206.874 Y-10.355 Z1.745 A121.0725 B1.1338 
N1765 X-206.855 Y-10.616 Z1.947 A120.9567 B1.1323 
N1766 X-206.837 Y-10.858 Z2.136 A120.8633 B1.1300 
N1767 X-206.821 Y-11.079 Z2.309 A120.7878 B1.1291 
N1768 X-206.806 Y-11.278 Z2.467 A120.7260 B1.1279 
N1769 X-206.793 Y-11.456 Z2.609 A120.6748 B1.1272 
N1770 X-206.781 Y-11.613 Z2.734 A120.6317 B1.1262 
N1771 X-206.771 Y-11.750 Z2.843 A120.5948 B1.1260 
N1772 X-206.762 Y-11.867 Z2.937 A120.5615 B1.1250 
N1773 X-206.755 Y-11.967 Z3.016 A120.5274 B1.1252 
N1774 X-206.749 Y-12.051 Z3.082 A120.4834 B1.1247 
N1775 X-206.743 Y-12.123 Z3.135 A120.4159 B1.1229 
N1776 X-206.738 Y-12.189 Z3.174 A120.2376 B1.1185 
N1777 X-206.732 Y-12.270 Z3.188 A119.6157 B1.1055 
N1778 X-206.721 Y-12.423 Z3.148 A117.6549 B1.0611 
N1779 X-206.694 Y-12.806 Z2.993 A111.9731 B0.9326 
N1780 X-206.634 Y-13.679 Z2.745 A99.2093 B0.6394 
N1781 X-206.556 Y-14.793 Z2.703 A83.4531 B0.2774 
N1782 X-206.494 Y-15.677 Z2.894 A70.6945 B0.0120 
N1783 X-206.454 Y-16.386 Z3.211 A59.7422 B-0.1849 
N1784 X-206.426 Y-16.935 Z3.584 A50.3943 B-0.3324 
N1785 X-206.405 Y-17.365 Z3.986 A42.1002 B-0.4434 
N1786 X-206.389 Y-17.714 Z4.418 A34.2841 B-0.5260 
N1787 X-206.377 Y-18.003 Z4.898 A26.3928 B-0.5839 
N1788 X-206.367 Y-18.238 Z5.455 A17.8751 B-0.6188 
N1789 X-206.363 Y-18.402 Z6.125 A8.1680 B-0.6295 
N1790 X-206.366 Y-18.448 Z6.932 A356.7738 B-0.6050 
N1791 X-206.388 Y-18.302 Z7.850 A343.6631 B-0.5194 
N1792 X-206.429 Y-17.934 Z8.737 A330.1136 B-0.3651 
N1793 X-206.466 Y-17.496 Z9.353 A319.5145 B-0.2240 
N1794 X-206.483 Y-17.249 Z9.583 A314.9054 B-0.1519 
N1795 X-206.489 Y-17.113 Z9.658 A312.9847 B-0.1270 
N1796 X-206.491 Y-17.015 Z9.676 A312.0514 B-0.1217 
N1797 X-206.491 Y-16.934 Z9.660 A311.6899 B-0.1226 
N1798 X-206.491 Y-16.855 Z9.621 A311.6281 B-0.1260 
N1799 X-206.491 Y-16.769 Z9.568 A311.7148 B-0.1300 
N1800 X-206.491 Y-16.669 Z9.502 A311.8746 B-0.1342 
N1801 X-206.491 Y-16.553 Z9.425 A312.0751 B-0.1387 
N1802 X-206.492 Y-16.419 Z9.336 A312.3055 B-0.1434 
N1803 X-206.492 Y-16.266 Z9.237 A312.5652 B-0.1487 
N1804 X-206.492 Y-16.094 Z9.126 A312.8596 B-0.1544 
N1805 X-206.493 Y-15.904 Z9.003 A313.1985 B-0.1610 
N1806 X-206.494 Y-15.697 Z8.869 A313.5948 B-0.1686 
N1807 X-206.494 Y-15.474 Z8.724 A314.0613 B-0.1778 
N1808 X-206.495 Y-15.237 Z8.569 A314.6083 B-0.1885 
N1809 X-206.496 Y-14.987 Z8.405 A315.2393 B-0.2011 
N1810 X-206.496 Y-14.726 Z8.233 A315.9503 B-0.2151 
N1811 X-206.497 Y-14.456 Z8.057 A316.7335 B-0.2304 
N1812 X-206.498 Y-14.177 Z7.877 A317.5825 B-0.2466 
N1813 X-206.499 Y-13.892 Z7.695 A318.4954 B-0.2638 
N1814 X-206.501 Y-13.602 Z7.513 A319.4731 B-0.2819 
N1815 X-206.502 Y-13.308 Z7.331 A320.5168 B-0.3009 
N1816 X-206.504 Y-13.013 Z7.150 A321.6271 B-0.3208 
N1817 X-206.506 Y-12.716 Z6.972 A322.8031 B-0.3416 
N1818 X-206.508 Y-12.420 Z6.796 A324.0422 B-0.3632 
N1819 X-206.511 Y-12.123 Z6.624 A325.3391 B-0.3855 
N1820 X-206.514 Y-11.828 Z6.457 A326.6845 B-0.4087 
N1821 X-206.517 Y-11.533 Z6.296 A328.0641 B-0.4330 
N1822 X-206.520 Y-11.240 Z6.143 A329.4581 B-0.4586 
N1823 X-206.524 Y-10.949 Z5.999 A330.8431 B-0.4860 
N1824 X-206.528 Y-10.660 Z5.866 A332.1954 B-0.5158 
N1825 X-206.532 Y-10.374 Z5.746 A333.4969 B-0.5484 
N1826 X-206.536 Y-10.089 Z5.637 A334.7401 B-0.5839 
N1827 X-206.541 Y-9.807 Z5.542 A335.9316 B-0.6220 
N1828 X-206.547 Y-9.525 Z5.456 A337.0902 B-0.6621 
N1829 X-206.553 Y-9.243 Z5.380 A338.2412 B-0.7030 
N1830 X-206.559 Y-8.958 Z5.311 A339.4077 B-0.7435 
N1831 X-206.566 Y-8.670 Z5.249 A340.6042 B-0.7826 
N1832 X-206.574 Y-8.376 Z5.193 A341.8368 B-0.8194 
N1833 X-206.583 Y-8.076 Z5.144 A343.1109 B-0.8530 
N1834 X-206.592 Y-7.767 Z5.102 A344.4377 B-0.8823 
N1835 X-206.602 Y-7.448 Z5.064 A345.8352 B-0.9059 
N1836 X-206.613 Y-7.116 Z5.033 A347.3200 B-0.9226 
N1837 X-206.625 Y-6.772 Z5.006 A348.8974 B-0.9314 
N1838 X-206.637 Y-6.412 Z4.986 A350.5564 B-0.9321 
N1839 X-206.651 Y-6.039 Z4.975 A352.2690 B-0.9250 
N1840 X-206.665 Y-5.653 Z4.976 A353.9916 B-0.9109 
N1841 X-206.680 Y-5.258 Z4.991 A355.6638 B-0.8913 
N1842 X-206.695 Y-4.856 Z5.025 A357.2134 B-0.8685 
N1843 X-206.710 Y-4.454 Z5.078 A358.5680 B-0.8450 
N1844 X-206.726 Y-4.056 Z5.152 A359.6709 B-0.8234 
N1845 X-206.741 Y-3.667 Z5.247 A0.4916 B-0.8054 
N1846 X-206.756 Y-3.289 Z5.359 A1.0263 B-0.7917 
N1847 X-206.771 Y-2.924 Z5.486 A1.2926 B-0.7821 
N1848 X-206.786 Y-2.573 Z5.625 A1.3197 B-0.7761 
N1849 X-206.800 Y-2.235 Z5.771 A1.1368 B-0.7718 
N1850 X-206.814 Y-1.912 Z5.924 A0.7624 B-0.7694 
N1851 X-206.827 Y-1.603 Z6.081 A0.2013 B-0.7668 
N1852 X-206.840 Y-1.308 Z6.242 A359.4485 B-0.7646 
N1853 X-206.852 Y-1.029 Z6.407 A358.4983 B-0.7606 
N1854 X-206.863 Y-0.765 Z6.575 A357.3517 B-0.7562 
N1855 X-206.874 Y-0.515 Z6.745 A356.0102 B-0.7499 
N1856 X-206.885 Y-0.280 Z6.917 A354.4685 B-0.7413 
N1857 X-206.895 Y-0.059 Z7.093 A352.7187 B-0.7306 
N1858 X-206.905 Y0.151 Z7.270 A350.7733 B-0.7171 
N1859 X-206.915 Y0.350 Z7.451 A348.6365 B-0.7007 
N1860 X-206.924 Y0.541 Z7.638 A346.2511 B-0.6805 
N1861 X-206.934 Y0.730 Z7.839 A343.5288 B-0.6548 
N1862 X-206.944 Y0.922 Z8.058 A340.3777 B-0.6218 
N1863 X-206.956 Y1.126 Z8.304 A336.6726 B-0.5788 
N1864 X-206.970 Y1.355 Z8.581 A332.2513 B-0.5208 
N1865 X-206.987 Y1.626 Z8.894 A326.9646 B-0.4425 
N1866 X-207.009 Y1.956 Z9.234 A320.7634 B-0.3383 
N1867 X-207.037 Y2.354 Z9.579 A313.7377 B-0.2066 
N1868 X-207.070 Y2.823 Z9.902 A306.0671 B-0.0503 
N1869 X-207.106 Y3.356 Z10.177 A297.9643 B0.1277 
N1870 X-207.145 Y3.934 Z10.377 A289.6727 B0.3215 
N1871 X-207.185 Y4.526 Z10.489 A281.5144 B0.5240 
N1872 X-207.220 Y5.092 Z10.508 A273.8936 B0.7143 
N1873 X-207.250 Y5.593 Z10.449 A267.1736 B0.8811 
N1874 X-207.271 Y6.010 Z10.335 A261.5404 B1.0131 
N1875 X-207.285 Y6.342 Z10.188 A256.9593 B1.1154 
N1876 X-207.293 Y6.605 Z10.022 A253.2481 B1.1933 
N1877 X-207.297 Y6.813 Z9.842 A250.1933 B1.2557 
N1878 X-207.298 Y6.982 Z9.652 A247.6076 B1.3078 
N1879 X-207.297 Y7.120 Z9.450 A245.3505 B1.3523 
N1880 X-207.293 Y7.235 Z9.236 A243.3171 B1.3909 
N1881 X-207.288 Y7.332 Z9.009 A241.4193 B1.4278 
N1882 X-207.281 Y7.413 Z8.767 A239.6143 B1.4631 
N1883 X-207.272 Y7.479 Z8.513 A237.8997 B1.4945 
N1884 X-207.262 Y7.530 Z8.246 A236.2680 B1.5246 
N1885 X-207.249 Y7.565 Z7.968 A234.6994 B1.5519 
N1886 X-207.235 Y7.588 Z7.679 A233.1799 B1.5783 
N1887 X-207.220 Y7.597 Z7.381 A231.6991 B1.6033 
N1888 X-207.203 Y7.594 Z7.075 A230.2433 B1.6267 
N1889 X-207.185 Y7.580 Z6.761 A228.7910 B1.6491 
N1890 X-207.167 Y7.557 Z6.440 A227.3169 B1.6723 
N1891 X-207.147 Y7.526 Z6.113 A225.8006 B1.6944 
N1892 X-207.127 Y7.487 Z5.781 A224.2332 B1.7178 
N1893 X-207.106 Y7.440 Z5.445 A222.6157 B1.7403 
N1894 X-207.085 Y7.384 Z5.106 A220.9527 B1.7626 
N1895 X-207.063 Y7.321 Z4.767 A219.2453 B1.7844 
N1896 X-207.040 Y7.250 Z4.428 A217.4884 B1.8056 
N1897 X-207.018 Y7.171 Z4.088 A215.6729 B1.8263 
N1898 X-206.995 Y7.086 Z3.750 A213.7902 B1.8465 
N1899 X-206.972 Y6.994 Z3.412 A211.8336 B1.8661 
N1900 X-206.949 Y6.895 Z3.076 A209.7986 B1.8849 
N1901 X-206.926 Y6.790 Z2.740 A207.6826 B1.9027 
N1902 X-206.903 Y6.676 Z2.407 A205.4850 B1.9193 
N1903 X-206.879 Y6.555 Z2.076 A203.2062 B1.9345 
N1904 X-206.856 Y6.426 Z1.747 A200.8482 B1.9480 
N1905 X-206.832 Y6.287 Z1.421 A198.4146 B1.9596 
N1906 X-206.808 Y6.138 Z1.098 A195.9104 B1.9690 
N1907 X-206.783 Y5.979 Z0.780 A193.3426 B1.9759 
N1908 X-206.758 Y5.809 Z0.467 A190.7193 B1.9802 
N1909 X-206.733 Y5.626 Z0.160 A188.0495 B1.9816 
N1910 X-206.707 Y5.431 Z-0.140 A185.3432 B1.9801 
N1911 X-206.681 Y5.223 Z-0.432 A182.6114 B1.9754 
N1912 X-206.654 Y5.002 Z-0.714 A179.8661 B1.9676 
N1913 X-206.627 Y4.767 Z-0.985 A177.1201 B1.9568 
N1914 X-206.599 Y4.518 Z-1.244 A174.3858 B1.9429 
N1915 X-206.571 Y4.257 Z-1.489 A171.6750 B1.9262 
N1916 X-206.542 Y3.982 Z-1.720 A168.9990 B1.9069 
N1917 X-206.513 Y3.695 Z-1.935 A166.3687 B1.8851 
N1918 X-206.483 Y3.396 Z-2.134 A163.7945 B1.8612 
N1919 X-206.453 Y3.087 Z-2.314 A161.2854 B1.8355 
N1920 X-206.422 Y2.767 Z-2.476 A158.8490 B1.8084 
N1921 X-206.392 Y2.437 Z-2.619 A156.4909 B1.7800 
N1922 X-206.361 Y2.099 Z-2.743 A154.2153 B1.7508 
N1923 X-206.329 Y1.754 Z-2.848 A152.0245 B1.7209 
N1924 X-206.298 Y1.401 Z-2.933 A149.9190 B1.6907 
N1925 X-206.267 Y1.042 Z-2.999 A147.8978 B1.6604 
N1926 X-206.235 Y0.677 Z-3.046 A145.9594 B1.6300 
N1927 X-206.204 Y0.308 Z-3.075 A144.1041 B1.5997 
N1928 X-206.172 Y-0.066 Z-3.084 A142.3350 B1.5698 
N1929 X-206.140 Y-0.444 Z-3.075 A140.6567 B1.5406 
N1930 X-206.109 Y-0.823 Z-3.047 A139.0735 B1.5124 
N1931 X-206.077 Y-1.205 Z-3.001 A137.5864 B1.4854 
N1932 X-206.046 Y-1.588 Z-2.938 A136.1925 B1.4596 
N1933 X-206.015 Y-1.973 Z-2.857 A134.8858 B1.4349 
N1934 X-205.984 Y-2.359 Z-2.761 A133.6601 B1.4114 
N1935 X-205.953 Y-2.745 Z-2.650 A132.5100 B1.3890 
N1936 X-205.922 Y-3.132 Z-2.525 A131.4314 B1.3677 
N1937 X-205.892 Y-3.520 Z-2.385 A130.4208 B1.3475 
N1938 X-205.861 Y-3.908 Z-2.233 A129.4749 B1.3284 
N1939 X-205.831 Y-4.295 Z-2.068 A128.5912 B1.3104 
N1940 X-205.800 Y-4.683 Z-1.892 A127.7670 B1.2935 
N1941 X-205.770 Y-5.070 Z-1.704 A127.0002 B1.2776 
N1942 X-205.740 Y-5.456 Z-1.506 A126.2893 B1.2627 
N1943 X-205.711 Y-5.841 Z-1.298 A125.6334 B1.2490 
N1944 X-205.681 Y-6.224 Z-1.081 A125.0317 B1.2363 
N1945 X-205.652 Y-6.604 Z-0.856 A124.4826 B1.2248 
N1946 X-205.623 Y-6.982 Z-0.624 A123.9828 B1.2143 
N1947 X-205.594 Y-7.356 Z-0.386 A123.5279 B1.2048 
N1948 X-205.566 Y-7.726 Z-0.145 A123.1139 B1.1960 
N1949 X-205.538 Y-8.090 Z0.100 A122.7378 B1.1881 
N1950 X-205.511 Y-8.448 Z0.346 A122.3981 B1.1809 
N1951 X-205.484 Y-8.797 Z0.591 A122.0937 B1.1744 
N1952 X-205.459 Y-9.136 Z0.835 A121.8243 B1.1687 
N1953 X-205.434 Y-9.463 Z1.074 A121.5891 B1.1638 
N1954 X-205.410 Y-9.777 Z1.306 A121.3867 B1.1595 
N1955 X-205.388 Y-10.075 Z1.531 A121.2156 B1.1564 
N1956 X-205.366 Y-10.355 Z1.745 A121.0735 B1.1528 
N1957 X-205.347 Y-10.617 Z1.947 A120.9578 B1.1512 
N1958 X-205.328 Y-10.858 Z2.136 A120.8643 B1.1488 
N1959 X-205.312 Y-11.079 Z2.310 A120.7888 B1.1479 
N1960 X-205.297 Y-11.278 Z2.467 A120.7270 B1.1466 
N1961 X-205.283 Y-11.456 Z2.609 A120.6758 B1.1459 
N1962 X-205.271 Y-11.613 Z2.734 A120.6327 B1.1449 
N1963 X-205.261 Y-11.750 Z2.843 A120.5958 B1.1446 
N1964 X-205.252 Y-11.867 Z2.937 A120.5625 B1.1436 
N1965 X-205.245 Y-11.967 Z3.016 A120.5284 B1.1438 
N1966 X-205.239 Y-12.052 Z3.082 A120.4844 B1.1432 
N1967 X-205.233 Y-12.123 Z3.135 A120.4169 B1.1414 
N1968 X-205.228 Y-12.189 Z3.174 A120.2385 B1.1369 
N1969 X-205.222 Y-12.270 Z3.188 A119.6166 B1.1233 
N1970 X-205.210 Y-12.423 Z3.148 A117.6557 B1.0771 
N1971 X-205.182 Y-12.806 Z2.993 A111.9743 B0.9433 
N1972 X-205.120 Y-13.678 Z2.745 A99.2119 B0.6382 
N1973 X-205.039 Y-14.793 Z2.703 A83.4565 B0.2607 
N1974 X-204.975 Y-15.676 Z2.894 A70.6986 B-0.0163 
N1975 X-204.933 Y-16.386 Z3.210 A59.7472 B-0.2212 
N1976 X-204.903 Y-16.934 Z3.583 A50.4003 B-0.3743 
N1977 X-204.882 Y-17.365 Z3.986 A42.1074 B-0.4895 
N1978 X-204.866 Y-17.713 Z4.418 A34.2925 B-0.5752 
N1979 X-204.853 Y-18.002 Z4.898 A26.4027 B-0.6353 
N1980 X-204.843 Y-18.237 Z5.455 A17.8870 B-0.6717 
N1981 X-204.838 Y-18.401 Z6.124 A8.1820 B-0.6828 
N1982 X-204.842 Y-18.448 Z6.931 A356.7899 B-0.6571 
N1983 X-204.864 Y-18.302 Z7.849 A343.6799 B-0.5674 
N1984 X-204.908 Y-17.934 Z8.736 A330.1279 B-0.4051 
N1985 X-204.946 Y-17.496 Z9.352 A319.5228 B-0.2570 
N1986 X-204.964 Y-17.249 Z9.582 A314.9094 B-0.1815 
N1987 X-204.970 Y-17.113 Z9.658 A312.9868 B-0.1554 
N1988 X-204.972 Y-17.015 Z9.676 A312.0524 B-0.1498 
N1989 X-204.973 Y-16.934 Z9.660 A311.6903 B-0.1507 
N1990 X-204.973 Y-16.855 Z9.621 A311.6283 B-0.1543 
N1991 X-204.973 Y-16.769 Z9.568 A311.7149 B-0.1584 
N1992 X-204.973 Y-16.669 Z9.502 A311.8747 B-0.1628 
N1993 X-204.973 Y-16.553 Z9.425 A312.0752 B-0.1674 
N1994 X-204.974 Y-16.419 Z9.337 A312.3055 B-0.1724 
N1995 X-204.974 Y-16.266 Z9.237 A312.5652 B-0.1778 
N1996 X-204.975 Y-16.094 Z9.126 A312.8596 B-0.1837 
N1997 X-204.976 Y-15.904 Z9.003 A313.1985 B-0.1906 
N1998 X-204.977 Y-15.697 Z8.869 A313.5948 B-0.1985 
N1999 X-204.978 Y-15.474 Z8.724 A314.0613 B-0.2081 
N2000 X-204.979 Y-15.237 Z8.569 A314.6083 B-0.2193 
N2001 X-204.980 Y-14.987 Z8.405 A315.2392 B-0.2323 
N2002 X-204.981 Y-14.726 Z8.233 A315.9502 B-0.2469 
N2003 X-204.982 Y-14.456 Z8.057 A316.7335 B-0.2628 
N2004 X-204.984 Y-14.177 Z7.877 A317.5825 B-0.2797 
N2005 X-204.985 Y-13.892 Z7.695 A318.4954 B-0.2976 
N2006 X-204.987 Y-13.602 Z7.513 A319.4731 B-0.3164 
N2007 X-204.989 Y-13.308 Z7.331 A320.5169 B-0.3362 
N2008 X-204.992 Y-13.013 Z7.150 A321.6273 B-0.3569 
N2009 X-204.994 Y-12.716 Z6.972 A322.8034 B-0.3786 
N2010 X-204.997 Y-12.420 Z6.796 A324.0426 B-0.4010 
N2011 X-205.000 Y-12.123 Z6.624 A325.3396 B-0.4243 
N2012 X-205.003 Y-11.828 Z6.457 A326.6851 B-0.4485 
N2013 X-205.007 Y-11.533 Z6.296 A328.0647 B-0.4738 
