; PROGRAM NAME: D99999913
; ORDER       : D999999
; OPER. NAME  : Spiral Rough Airfoil:104
; OPER. DESCR.: spiral roughing airfoil/pioro zgr
; OPER. TYPE  : rouAirfoil
; GEO. OPTION : 6
; MACHINE     : HSTM_300HD_SIM840D_Py
;             : HSTM300/500 - HAMUEL: 5-axis milling machine-SIM840D Traori PP_Script
; CONTROL     : SINUMERIK 840D
; created:   2022-11-03 09:01:41.812731
;-------DODATKOWE DANE-------------------
; PROGRAMISTA : Mariusz Malec
; PARTID      : 139T006893P1018_-
;  ap         : 2.5
;  ae         : 17.0
;  lean_angle : 1.0
;  airf_offset: 1.0
;----------------------------------------
;RAPORT("TD999999","Spiral Rough Airfoil:104")
N10 TRAFOOF
N11 D0
N12 G90 G94
N13 G0 G53 D0 Z550
N14 STOPRE
M9 ; chlodziwo wyl
; --- Spiral Rough Airfoil:104 - spiral roughing airfoil/pioro zgr ---
N16 ;ToolChange : concat=None ,current_tdmid=None, PP.tdmId=941294
N17 TRAFOOF
N18 G0 G53 D0 X-200 Y150 Z550 B0
N19 T="7741294"
;RAPORT("TD999999","ToolChangeStart 7741294")
N20 M6
;RAPORT("TD999999","ToolChangeEnd")
N21 STOPRE
N22 MSG(" TLID=941294 D=32.0 R=5.0 Ang=0.0 Len=105.0 ")
N23 ; (Preloading tool)
N24 T="7741293"
N25 S2685 M03
N26 STOPRE
N27 CYCLE832(0.1,1,1)
N28 G0 G53 A271.2689 B0.0000
N29 TRAORI
N30 G54 D1
N31 D1 
N32 ; DELTA A > 40.1
N33 TRAFOOF
N34 D1
N35 STOPRE
N36 G00 G54 Z281.000
N37 G01 A271.2689 F10000
N38 TRAORI
N39 G54 D1
N40 STOPRE
N41 TRANS 
N42 G00 X-188.833 Y81.365 Z-33.430 A271.2689 
N43 M346 ; chlodziwo mgla
N44 X-188.833 Y31.377 Z-34.538 
N45 G01 X-188.833 Y28.285 Z-34.063 F2792 
N46 X-188.833 Y25.491 Z-32.655 
N47 X-188.833 Y23.268 Z-30.453 
N48 X-188.833 Y21.835 Z-27.672 
N49 X-188.833 Y21.331 Z-24.585 
N50 X-188.833 Y21.329 Z-24.084 A271.2728 
N51 X-188.833 Y21.328 Z-23.584 A271.2773 
N52 X-188.833 Y21.326 Z-23.084 A271.2825 
N53 X-188.833 Y21.325 Z-22.584 A271.2884 
N54 X-188.833 Y21.323 Z-22.085 A271.2950 
N55 X-188.833 Y21.322 Z-21.584 A271.3024 
N56 X-188.833 Y21.321 Z-21.083 A271.3105 
N57 X-188.833 Y21.320 Z-20.583 A271.3193 
N58 X-188.833 Y21.319 Z-20.084 A271.3285 
N59 X-188.833 Y21.318 Z-19.584 A271.3380 
N60 X-188.833 Y21.317 Z-19.084 A271.3472 
N61 X-188.833 Y21.315 Z-18.585 A271.3557 
N62 X-188.833 Y21.314 Z-18.085 A271.3626 
N63 X-188.833 Y21.311 Z-17.585 A271.3677 
N64 X-188.833 Y21.309 Z-17.085 A271.3709 
N65 X-188.833 Y21.306 Z-16.586 A271.3724 
N66 X-188.833 Y21.303 Z-16.087 A271.3724 
N67 X-188.833 Y21.300 Z-15.589 A271.3716 
N68 X-188.833 Y21.296 Z-15.090 A271.3703 
N69 X-188.833 Y21.293 Z-14.592 A271.3688 
N70 X-188.833 Y21.291 Z-14.094 A271.3677 
N71 X-188.833 Y21.288 Z-13.596 
N72 X-188.833 Y21.286 Z-13.098 
N73 X-188.833 Y21.284 Z-12.599 
N74 X-188.833 Y21.282 Z-12.101 
N75 X-188.833 Y21.280 Z-11.602 
N76 X-188.833 Y21.279 Z-11.103 A271.3678 
N77 X-188.833 Y21.277 Z-10.604 A271.3689 
N78 X-188.833 Y21.276 Z-10.106 A271.3703 
N79 X-188.833 Y21.275 Z-9.607 A271.3714 
N80 X-188.833 Y21.274 Z-9.109 A271.3716 
N81 X-188.833 Y21.273 Z-8.611 A271.3706 
N82 X-188.833 Y21.271 Z-8.114 A271.3679 
N83 X-188.833 Y21.271 Z-7.616 A271.3677 
N84 X-188.833 Y21.271 Z-7.118 
N85 X-188.833 Y21.271 Z-6.620 
N86 X-188.833 Y21.271 Z-6.118 
N87 X-188.833 Y21.270 Z-5.613 
N88 X-188.833 Y21.272 Z-5.102 A271.3854 
N89 X-188.833 Y21.307 Z-4.595 A271.5825 
N90 X-188.833 Y21.375 Z-4.088 A271.9657 
N91 X-188.833 Y21.491 Z-3.581 A272.6197 
N92 X-188.833 Y21.667 Z-3.070 A273.6277 
N93 X-188.833 Y21.915 Z-2.550 A275.0599 
N94 X-188.833 Y22.253 Z-2.012 A277.0451 
N95 X-188.833 Y22.710 Z-1.439 A279.7636 
N96 X-188.833 Y23.320 Z-0.804 A283.4636 
N97 X-188.833 Y24.116 Z-0.057 A288.4316 
N98 X-188.833 Y25.077 Z0.861 A294.7514 
N99 X-188.833 Y26.143 Z2.010 A302.3818 
N100 X-188.833 Y27.194 Z3.416 A311.0421 
N101 X-188.833 Y28.071 Z5.024 A320.1117 
N102 X-188.833 Y28.647 Z6.689 A328.8085 
N103 X-188.833 Y28.891 Z8.248 A336.5088 
N104 X-188.833 Y28.858 Z9.603 A342.9821 
N105 X-188.833 Y28.628 Z10.716 A348.2218 
N106 X-188.833 Y28.267 Z11.561 A352.1680 
N107 X-188.833 Y27.834 Z12.178 A355.0450 
N108 X-188.833 Y27.363 Z12.622 A357.1256 
N109 X-188.833 Y26.875 Z12.938 A358.6209 
N110 X-188.833 Y26.378 Z13.160 A359.6836 
N111 X-188.833 Y25.878 Z13.310 A0.4214 
N112 X-188.833 Y25.377 Z13.409 A0.9171 
N113 X-188.833 Y24.876 Z13.470 A1.2380 
N114 X-188.833 Y24.375 Z13.505 A1.4348 
N115 X-188.833 Y23.875 Z13.523 A1.5456 
N116 X-188.833 Y23.375 Z13.528 A1.5996 
N117 X-188.833 Y22.875 Z13.527 A1.6199 
N118 X-188.833 Y22.376 Z13.522 A1.6227 
N119 X-188.833 Y21.878 Z13.516 A1.6189 
N120 X-188.833 Y21.380 Z13.510 A1.6147 
N121 X-188.833 Y20.882 Z13.505 A1.6134 
N122 X-188.833 Y20.384 Z13.500 
N123 X-188.833 Y19.886 Z13.496 
N124 X-188.833 Y19.388 Z13.492 
N125 X-188.833 Y18.889 Z13.488 
N126 X-188.833 Y18.390 Z13.484 
N127 X-188.833 Y17.891 Z13.480 
N128 X-188.833 Y17.392 Z13.476 
N129 X-188.833 Y16.892 Z13.472 
N130 X-188.833 Y16.392 Z13.468 
N131 X-188.833 Y15.893 Z13.465 
N132 X-188.833 Y15.393 Z13.461 
N133 X-188.833 Y14.893 Z13.457 
N134 X-188.833 Y14.393 Z13.453 
N135 X-188.833 Y13.893 Z13.450 
N136 X-188.833 Y13.393 Z13.446 
N137 X-188.833 Y12.893 Z13.442 
N138 X-188.833 Y12.393 Z13.439 
N139 X-188.833 Y11.893 Z13.435 
N140 X-188.833 Y11.393 Z13.431 
N141 X-188.833 Y10.893 Z13.427 
N142 X-188.833 Y10.393 Z13.423 
N143 X-188.833 Y9.893 Z13.420 
N144 X-188.833 Y9.394 Z13.416 A1.6134 
N145 X-188.833 Y8.894 Z13.412 A1.6135 
N146 X-188.833 Y8.394 Z13.408 A1.6136 
N147 X-188.833 Y7.894 Z13.404 A1.6137 
N148 X-188.833 Y7.394 Z13.401 A1.6138 
N149 X-188.833 Y6.894 Z13.397 A1.6140 
N150 X-188.833 Y6.394 Z13.393 A1.6142 
N151 X-188.833 Y5.894 Z13.389 A1.6145 
N152 X-188.833 Y5.395 Z13.386 A1.6148 
N153 X-188.833 Y4.895 Z13.382 A1.6151 
N154 X-188.833 Y4.396 Z13.378 A1.6155 
N155 X-188.833 Y3.897 Z13.375 A1.6157 
N156 X-188.833 Y3.398 Z13.371 A1.6159 
N157 X-188.833 Y2.899 Z13.368 A1.6159 
N158 X-188.833 Y2.400 Z13.364 A1.6157 
N159 X-188.833 Y1.902 Z13.361 A1.6152 
N160 X-188.833 Y1.404 Z13.358 A1.6143 
N161 X-188.833 Y0.906 Z13.355 A1.6134 
N162 X-188.833 Y0.407 Z13.352 
N163 X-188.833 Y-0.091 Z13.349 
N164 X-188.833 Y-0.590 Z13.347 
N165 X-188.833 Y-1.090 Z13.345 
N166 X-188.833 Y-1.592 Z13.342 
N167 X-188.833 Y-2.096 Z13.339 
N168 X-188.833 Y-2.605 Z13.336 
N169 X-188.833 Y-3.112 Z13.347 A1.6979 
N170 X-188.833 Y-3.618 Z13.381 A1.9045 
N171 X-188.833 Y-4.123 Z13.442 A2.2698 
N172 X-188.833 Y-4.628 Z13.545 A2.8727 
N173 X-188.833 Y-5.138 Z13.701 A3.7835 
N174 X-188.833 Y-5.658 Z13.938 A5.1648 
N175 X-188.833 Y-6.199 Z14.298 A7.2701 
N176 X-188.833 Y-6.789 Z14.838 A10.4450 
N177 X-188.833 Y-7.474 Z15.600 A15.0191 
N178 X-188.833 Y-8.313 Z16.565 A21.0555 
N179 X-188.833 Y-9.377 Z17.677 A28.5319 
N180 X-188.833 Y-10.738 Z18.857 A37.4351 
N181 X-188.833 Y-12.383 Z19.923 A47.1976 
N182 X-188.833 Y-14.176 Z20.688 A56.9013 
N183 X-188.833 Y-15.906 Z21.067 A65.6542 
N184 X-188.833 Y-17.406 Z21.100 A72.9297 
N185 X-188.833 Y-18.591 Z20.886 A78.5548 
N186 X-188.833 Y-19.448 Z20.522 A82.5778 
N187 X-188.833 Y-20.051 Z20.083 A85.3981 
N188 X-188.833 Y-20.470 Z19.608 A87.3636 
N189 X-188.833 Y-20.758 Z19.118 A88.7184 
N190 X-188.833 Y-20.949 Z18.621 A89.6253 
N191 X-188.833 Y-21.070 Z18.121 A90.2054 
N192 X-188.833 Y-21.143 Z17.621 A90.5562 
N193 X-188.833 Y-21.184 Z17.121 A90.7504 
N194 X-188.833 Y-21.204 Z16.621 A90.8428 
N195 X-188.833 Y-21.211 Z16.121 A90.8761 
N196 X-188.833 Y-21.213 Z15.623 A90.8802 
N197 X-188.833 Y-21.213 Z15.124 A90.8740 
N198 X-188.833 Y-21.214 Z14.627 A90.8676 
N199 X-188.833 Y-21.216 Z14.130 A90.8673 
N200 X-188.833 Y-21.218 Z13.632 
N201 X-188.833 Y-21.220 Z13.134 
N202 X-188.833 Y-21.223 Z12.636 
N203 X-188.833 Y-21.225 Z12.138 
N204 X-188.833 Y-21.228 Z11.639 A90.8674 
N205 X-188.833 Y-21.231 Z11.140 A90.8682 
N206 X-188.833 Y-21.234 Z10.642 A90.8685 
N207 X-188.833 Y-21.237 Z10.144 A90.8683 
N208 X-188.833 Y-21.241 Z9.645 A90.8675 
N209 X-188.833 Y-21.244 Z9.147 A90.8673 
N210 X-188.833 Y-21.248 Z8.649 
N211 X-188.833 Y-21.252 Z8.150 
N212 X-188.833 Y-21.256 Z7.651 
N213 X-188.833 Y-21.260 Z7.150 
N214 X-188.833 Y-21.264 Z6.648 
N215 X-188.833 Y-21.267 Z6.144 
N216 X-188.833 Y-21.270 Z5.635 
N217 X-188.833 Y-21.293 Z5.129 A90.9777 
N218 X-188.833 Y-21.338 Z4.624 A91.2101 
N219 X-188.833 Y-21.416 Z4.120 A91.6307 
N220 X-188.833 Y-21.543 Z3.616 A92.3330 
N221 X-188.833 Y-21.737 Z3.105 A93.4158 
N222 X-188.833 Y-22.025 Z2.583 A95.0523 
N223 X-188.833 Y-22.439 Z2.035 A97.4419 
N224 X-188.833 Y-23.005 Z1.438 A100.7673 
N225 X-188.833 Y-23.729 Z0.759 A105.1547 
N226 X-188.833 Y-24.610 Z-0.051 A110.7277 
N227 X-188.833 Y-25.634 Z-1.059 A117.6436 
N228 X-188.833 Y-26.707 Z-2.307 A125.7049 
N229 X-188.833 Y-27.690 Z-3.788 A134.4821 
N230 X-188.833 Y-28.438 Z-5.404 A143.2795 
N231 X-188.833 Y-28.869 Z-7.001 A151.3943 
N232 X-188.833 Y-28.995 Z-8.446 A158.3990 
N233 X-188.833 Y-28.882 Z-9.673 A164.1768 
N234 X-188.833 Y-28.611 Z-10.685 A168.9010 
N235 X-188.833 Y-28.234 Z-11.476 A172.5796 
N236 X-188.833 Y-27.793 Z-12.054 A175.2691 
N237 X-188.833 Y-27.319 Z-12.460 A177.1575 
N238 X-188.833 Y-26.829 Z-12.739 A178.4591 
N239 X-188.833 Y-26.333 Z-12.931 A179.3546 
N240 X-188.833 Y-25.834 Z-13.062 A179.9714 
N241 X-188.833 Y-25.334 Z-13.151 A180.3956 
N242 X-188.833 Y-24.834 Z-13.211 A180.6850 
N243 X-188.833 Y-24.333 Z-13.250 A180.8791 
N244 X-188.833 Y-23.833 Z-13.275 A181.0052 
N245 X-188.833 Y-23.333 Z-13.289 A181.0830 
N246 X-188.833 Y-22.833 Z-13.297 A181.1262 
N247 X-188.833 Y-22.333 Z-13.300 A181.1469 
N248 X-188.833 Y-21.833 Z-13.300 A181.1539 
N249 X-188.833 Y-21.334 Z-13.298 A181.1537 
N250 X-188.833 Y-20.835 Z-13.297 A181.1509 
N251 X-188.833 Y-20.337 Z-13.295 A181.1486 
N252 X-188.833 Y-19.838 Z-13.294 A181.1476 
N253 X-188.833 Y-19.340 Z-13.294 
N254 X-188.833 Y-18.842 Z-13.293 
N255 X-188.833 Y-18.343 Z-13.293 
N256 X-188.833 Y-17.844 Z-13.292 
N257 X-188.833 Y-17.346 Z-13.292 
N258 X-188.833 Y-16.846 Z-13.292 
N259 X-188.833 Y-16.347 Z-13.292 
N260 X-188.833 Y-15.847 Z-13.292 
N261 X-188.833 Y-15.348 Z-13.292 
N262 X-188.833 Y-14.848 Z-13.292 
N263 X-188.833 Y-14.348 Z-13.292 
N264 X-188.833 Y-13.848 Z-13.293 
N265 X-188.833 Y-13.349 Z-13.293 
N266 X-188.833 Y-12.849 Z-13.293 
N267 X-188.833 Y-12.349 Z-13.293 
N268 X-188.833 Y-11.849 Z-13.293 
N269 X-188.833 Y-11.349 Z-13.293 
N270 X-188.833 Y-10.849 Z-13.293 A181.1476 
N271 X-188.833 Y-10.349 Z-13.293 A181.1477 
N272 X-188.833 Y-9.849 Z-13.293 A181.1477 
N273 X-188.833 Y-9.349 Z-13.293 A181.1477 
N274 X-188.833 Y-8.849 Z-13.293 A181.1477 
N275 X-188.833 Y-8.349 Z-13.293 A181.1477 
N276 X-188.833 Y-7.849 Z-13.293 A181.1478 
N277 X-188.833 Y-7.349 Z-13.293 A181.1478 
N278 X-188.833 Y-6.849 Z-13.293 A181.1479 
N279 X-188.833 Y-6.349 Z-13.294 A181.1480 
N280 X-188.833 Y-5.849 Z-13.294 A181.1481 
N281 X-188.833 Y-5.350 Z-13.294 A181.1482 
N282 X-188.833 Y-4.850 Z-13.294 A181.1484 
N283 X-188.833 Y-4.350 Z-13.294 A181.1487 
N284 X-188.833 Y-3.851 Z-13.294 A181.1490 
N285 X-188.833 Y-3.351 Z-13.294 A181.1494 
N286 X-188.833 Y-2.852 Z-13.295 A181.1498 
N287 X-188.833 Y-2.353 Z-13.295 A181.1501 
N288 X-188.833 Y-1.854 Z-13.295 A181.1501 
N289 X-188.833 Y-1.356 Z-13.296 A181.1499 
N290 X-188.833 Y-0.857 Z-13.296 A181.1490 
N291 X-188.833 Y-0.359 Z-13.297 A181.1476 
N292 X-188.833 Y0.139 Z-13.298 
N293 X-188.833 Y0.638 Z-13.299 
N294 X-188.833 Y1.137 Z-13.300 
N295 X-188.833 Y1.638 Z-13.301 
N296 X-188.833 Y2.142 Z-13.302 
N297 X-188.833 Y2.651 Z-13.303 
N298 X-188.833 Y3.156 Z-13.328 A181.2827 
N299 X-188.833 Y3.662 Z-13.380 A181.5699 
N300 X-188.833 Y4.167 Z-13.473 A182.0877 
N301 X-188.833 Y4.674 Z-13.625 A182.9394 
N302 X-188.833 Y5.189 Z-13.850 A184.2185 
N303 X-188.833 Y5.719 Z-14.172 A186.0768 
N304 X-188.833 Y6.282 Z-14.624 A188.7159 
N305 X-188.833 Y6.905 Z-15.242 A192.3968 
N306 X-188.833 Y7.640 Z-16.061 A197.4155 
N307 X-188.833 Y8.534 Z-17.023 A203.6453 
N308 X-188.833 Y9.636 Z-18.068 A211.0130 
N309 X-188.833 Y11.028 Z-19.166 A219.7611 
N310 X-188.833 Y12.739 Z-20.197 A229.7381 
N311 X-188.833 Y14.440 Z-20.808 A238.6849 
N312 X-188.833 Y16.026 Z-21.067 A246.5432 
N313 X-188.833 Y17.401 Z-21.040 A253.1275 
N314 X-188.833 Y18.504 Z-20.805 A258.3124 
N315 X-188.833 Y19.360 Z-20.445 A262.3240 
N316 X-188.833 Y19.996 Z-20.011 A265.3062 
N317 X-188.833 Y20.439 Z-19.538 A267.3956 
N318 X-188.833 Y20.734 Z-19.048 A268.7926 
N319 X-188.833 Y20.926 Z-18.551 A269.7055 
N320 X-188.833 Y21.049 Z-18.051 A270.2970 
N321 X-188.833 Y21.127 Z-17.550 A270.6783 
N322 X-188.833 Y21.176 Z-17.050 A270.9227 
N323 X-188.833 Y21.206 Z-16.549 A271.0782 
N324 X-188.833 Y21.224 Z-16.049 A271.1756 
N325 X-188.833 Y21.234 Z-15.549 A271.2350 
N326 X-188.833 Y21.238 Z-15.049 A271.2704 
N327 X-188.833 Y21.240 Z-14.549 A271.2919 
N328 X-188.833 Y21.240 Z-14.049 A271.3070 
N329 X-188.833 Y21.240 Z-13.549 A271.3218 
N330 X-188.833 Y21.241 Z-13.049 A271.3403 
N331 X-188.833 Y21.243 Z-12.549 A271.3652 
N332 X-188.833 Y21.246 Z-12.049 A271.3980 
N333 X-188.833 Y21.250 Z-11.549 A271.4395 
N334 X-188.833 Y21.256 Z-11.049 A271.4899 
N335 X-188.833 Y21.263 Z-10.549 A271.5490 
N336 X-188.833 Y21.271 Z-10.048 A271.6159 
N337 X-188.833 Y21.279 Z-9.548 A271.6894 
N338 X-188.833 Y21.288 Z-9.048 A271.7693 
N339 X-188.833 Y21.298 Z-8.547 A271.8563 
N340 X-188.833 Y21.309 Z-8.047 A271.9528 
N341 X-188.833 Y21.321 Z-7.546 A272.0626 
N342 X-188.833 Y21.337 Z-7.046 A272.1924 
N343 X-188.833 Y21.356 Z-6.545 A272.3529 
N344 X-188.833 Y21.384 Z-6.043 A272.5603 
N345 X-188.833 Y21.423 Z-5.541 A272.8368 
N346 X-188.833 Y21.477 Z-5.038 A273.2112 
N347 X-188.833 Y21.555 Z-4.532 A273.7214 
N348 X-188.833 Y21.662 Z-4.023 A274.4178 
N349 X-188.833 Y21.811 Z-3.509 A275.3657 
N350 X-188.833 Y22.015 Z-2.985 A276.6487 
N351 X-188.833 Y22.291 Z-2.445 A278.3832 
N352 X-188.833 Y22.666 Z-1.875 A280.7331 
N353 X-188.833 Y23.169 Z-1.253 A283.9103 
N354 X-188.833 Y23.823 Z-0.546 A288.1201 
N355 X-188.833 Y24.614 Z0.289 A293.4256 
N356 X-188.833 Y25.507 Z1.295 A299.8363 
N357 X-188.833 Y26.444 Z2.516 A307.3155 
N358 X-188.833 Y27.307 Z3.943 A315.4999 
N359 X-188.833 Y27.970 Z5.494 A323.7847 
N360 X-188.833 Y28.351 Z7.028 A331.5018 
N361 X-188.833 Y28.457 Z8.430 A338.2541 
N362 X-188.833 Y28.345 Z9.646 A343.9735 
N363 X-188.833 Y28.072 Z10.634 A348.5605 
N364 X-188.833 Y27.694 Z11.388 A352.0330 
N365 X-188.833 Y27.256 Z11.950 A354.6093 
N366 X-188.833 Y26.787 Z12.364 A356.5117 
N367 X-188.833 Y26.302 Z12.668 A357.9156 
N368 X-188.833 Y25.808 Z12.890 A358.9495 
N369 X-188.833 Y25.310 Z13.051 A359.7083 
N370 X-188.833 Y24.810 Z13.168 A0.2650 
N371 X-188.833 Y24.310 Z13.251 A0.6744 
N372 X-188.833 Y23.809 Z13.311 A0.9757 
N373 X-188.833 Y23.308 Z13.353 A1.1979 
N374 X-188.833 Y22.807 Z13.383 A1.3619 
N375 X-188.833 Y22.307 Z13.402 A1.4833 
N376 X-188.833 Y21.807 Z13.415 A1.5731 
N377 X-188.833 Y21.306 Z13.423 A1.6394 
N378 X-188.833 Y20.806 Z13.426 A1.6879 
N379 X-188.833 Y20.306 Z13.427 A1.7229 
N380 X-188.833 Y19.806 Z13.425 A1.7477 
N381 X-188.833 Y19.306 Z13.422 A1.7649 
N382 X-188.833 Y18.806 Z13.417 A1.7764 
N383 X-188.833 Y18.306 Z13.412 A1.7839 
N384 X-188.833 Y17.807 Z13.406 A1.7884 
N385 X-188.833 Y17.307 Z13.400 A1.7911 
N386 X-188.833 Y16.807 Z13.393 A1.7925 
N387 X-188.833 Y16.307 Z13.386 A1.7932 
N388 X-188.833 Y15.807 Z13.379 A1.7936 
N389 X-188.833 Y15.307 Z13.373 A1.7939 
N390 X-188.833 Y14.808 Z13.366 A1.7943 
N391 X-188.833 Y14.308 Z13.359 A1.7949 
N392 X-188.833 Y13.808 Z13.352 A1.7957 
N393 X-188.833 Y13.308 Z13.345 A1.7966 
N394 X-188.833 Y12.808 Z13.339 A1.7977 
N395 X-188.833 Y12.308 Z13.332 A1.7988 
N396 X-188.833 Y11.808 Z13.325 A1.7998 
N397 X-188.833 Y11.309 Z13.318 A1.8005 
N398 X-188.833 Y10.809 Z13.311 A1.8011 
N399 X-188.833 Y10.309 Z13.304 A1.8014 
N400 X-188.833 Y9.809 Z13.297 A1.8015 
N401 X-188.833 Y9.309 Z13.290 A1.8016 
N402 X-188.833 Y8.809 Z13.283 A1.8015 
N403 X-188.833 Y8.310 Z13.276 A1.8015 
N404 X-188.833 Y7.810 Z13.269 A1.8014 
N405 X-188.833 Y7.310 Z13.263 A1.8012 
N406 X-188.833 Y6.811 Z13.256 A1.8012 
N407 X-188.833 Y6.311 Z13.249 
N408 X-188.833 Y5.811 Z13.242 
N409 X-188.833 Y5.311 Z13.235 
N410 X-188.833 Y4.811 Z13.228 
N411 X-188.833 Y4.311 Z13.221 
N412 X-188.833 Y3.811 Z13.215 A1.8059 
N413 X-188.833 Y3.311 Z13.210 A1.8163 
N414 X-188.833 Y2.811 Z13.206 A1.8347 
N415 X-188.833 Y2.311 Z13.205 A1.8643 
N416 X-188.833 Y1.811 Z13.205 A1.9082 
N417 X-188.833 Y1.310 Z13.210 A1.9719 
N418 X-188.833 Y0.810 Z13.218 A2.0631 
N419 X-188.833 Y0.309 Z13.233 A2.1910 
N420 X-188.833 Y-0.192 Z13.256 A2.3669 
N421 X-188.833 Y-0.694 Z13.289 A2.6049 
N422 X-188.833 Y-1.196 Z13.335 A2.9224 
N423 X-188.833 Y-1.700 Z13.397 A3.3403 
N424 X-188.833 Y-2.206 Z13.480 A3.8838 
N425 X-188.833 Y-2.715 Z13.586 A4.5811 
N426 X-188.833 Y-3.229 Z13.722 A5.4655 
N427 X-188.833 Y-3.749 Z13.893 A6.5809 
N428 X-188.833 Y-4.281 Z14.109 A7.9887 
N429 X-188.833 Y-4.829 Z14.382 A9.7750 
N430 X-188.833 Y-5.406 Z14.733 A12.0717 
N431 X-188.833 Y-6.030 Z15.188 A15.0707 
N432 X-188.833 Y-6.734 Z15.780 A19.0121 
N433 X-188.833 Y-7.567 Z16.529 A24.1466 
N434 X-188.833 Y-8.585 Z17.409 A30.5580 
N435 X-188.833 Y-9.804 Z18.313 A37.9229 
N436 X-188.833 Y-11.192 Z19.114 A45.7487 
N437 X-188.833 Y-12.686 Z19.727 A53.6486 
N438 X-188.833 Y-14.181 Z20.091 A61.1287 
N439 X-188.833 Y-15.527 Z20.183 A67.5734 
N440 X-188.833 Y-16.643 Z20.055 A72.7304 
N441 X-188.833 Y-17.510 Z19.774 A76.6310 
N442 X-188.833 Y-18.156 Z19.400 A79.4535 
N443 X-188.833 Y-18.633 Z18.973 A81.4751 
N444 X-188.833 Y-18.993 Z18.518 A82.9597 
N445 X-188.833 Y-19.276 Z18.047 A84.0959 
N446 X-188.833 Y-19.508 Z17.567 A85.0065 
N447 X-188.833 Y-19.703 Z17.082 A85.7660 
N448 X-188.833 Y-19.872 Z16.592 A86.4205 
N449 X-188.833 Y-20.021 Z16.100 A86.9994 
N450 X-188.833 Y-20.155 Z15.606 A87.5226 
N451 X-188.833 Y-20.277 Z15.111 A88.0047 
N452 X-188.833 Y-20.388 Z14.614 A88.4557 
N453 X-188.833 Y-20.491 Z14.117 A88.8837 
N454 X-188.833 Y-20.587 Z13.618 A89.2947 
N455 X-188.833 Y-20.677 Z13.119 A89.6932 
N456 X-188.833 Y-20.763 Z12.620 A90.0830 
N457 X-188.833 Y-20.843 Z12.119 A90.4673 
N458 X-188.833 Y-20.920 Z11.619 A90.8494 
N459 X-188.833 Y-20.994 Z11.117 A91.2326 
N460 X-188.833 Y-21.065 Z10.616 A91.6205 
N461 X-188.833 Y-21.135 Z10.113 A92.0169 
N462 X-188.833 Y-21.203 Z9.611 A92.4259 
N463 X-188.833 Y-21.271 Z9.107 A92.8521 
N464 X-188.833 Y-21.340 Z8.603 A93.3015 
N465 X-188.833 Y-21.411 Z8.098 A93.7817 
N466 X-188.833 Y-21.485 Z7.591 A94.3029 
N467 X-188.833 Y-21.565 Z7.084 A94.8790 
N468 X-188.833 Y-21.653 Z6.574 A95.5294 
N469 X-188.833 Y-21.755 Z6.061 A96.2802 
N470 X-188.833 Y-21.876 Z5.543 A97.1666 
N471 X-188.833 Y-22.022 Z5.019 A98.2343 
N472 X-188.833 Y-22.204 Z4.485 A99.5442 
N473 X-188.833 Y-22.434 Z3.935 A101.1759 
N474 X-188.833 Y-22.726 Z3.360 A103.2301 
N475 X-188.833 Y-23.096 Z2.748 A105.8292 
N476 X-188.833 Y-23.557 Z2.079 A109.0898 
N477 X-188.833 Y-24.103 Z1.333 A113.0636 
N478 X-188.833 Y-24.707 Z0.494 A117.6935 
N479 X-188.833 Y-25.333 Z-0.451 A122.9070 
N480 X-188.833 Y-25.942 Z-1.505 A128.6016 
N481 X-188.833 Y-26.484 Z-2.654 A134.5945 
N482 X-188.833 Y-26.910 Z-3.861 A140.6446 
N483 X-188.833 Y-27.184 Z-5.074 A146.4837 
N484 X-188.833 Y-27.295 Z-6.234 A151.8878 
N485 X-188.833 Y-27.255 Z-7.304 A156.7392 
N486 X-188.833 Y-27.087 Z-8.254 A160.9636 
N487 X-188.833 Y-26.818 Z-9.076 A164.5636 
N488 X-188.833 Y-26.476 Z-9.772 A167.5893 
N489 X-188.833 Y-26.082 Z-10.357 A170.1190 
N490 X-188.833 Y-25.652 Z-10.849 A172.2440 
N491 X-188.833 Y-25.199 Z-11.260 A174.0329 
N492 X-188.833 Y-24.728 Z-11.602 A175.5265 
N493 X-188.833 Y-24.246 Z-11.882 A176.7592 
N494 X-188.833 Y-23.756 Z-12.108 A177.7609 
N495 X-188.833 Y-23.262 Z-12.288 A178.5598 
N496 X-188.833 Y-22.765 Z-12.427 A179.1857 
N497 X-188.833 Y-22.266 Z-12.534 A179.6697 
N498 X-188.833 Y-21.767 Z-12.616 A180.0390 
N499 X-188.833 Y-21.267 Z-12.677 A180.3174 
N500 X-188.833 Y-20.766 Z-12.722 A180.5244 
N501 X-188.833 Y-20.266 Z-12.755 A180.6759 
N502 X-188.833 Y-19.766 Z-12.778 A180.7851 
N503 X-188.833 Y-19.266 Z-12.794 A180.8623 
N504 X-188.833 Y-18.766 Z-12.806 A180.9152 
N505 X-188.833 Y-18.266 Z-12.813 A180.9495 
N506 X-188.833 Y-17.766 Z-12.817 A180.9697 
N507 X-188.833 Y-17.266 Z-12.819 A180.9800 
N508 X-188.833 Y-16.766 Z-12.820 A180.9841 
N509 X-188.833 Y-16.267 Z-12.821 A180.9845 
N510 X-188.833 Y-15.768 Z-12.821 A180.9834 
N511 X-188.833 Y-15.269 Z-12.821 A180.9823 
N512 X-188.833 Y-14.770 Z-12.821 A180.9814 
N513 X-188.833 Y-14.271 Z-12.821 A180.9808 
N514 X-188.833 Y-13.773 Z-12.822 A180.9805 
N515 X-188.833 Y-13.274 Z-12.823 
N516 X-188.833 Y-12.775 Z-12.824 
N517 X-188.833 Y-12.276 Z-12.825 
N518 X-188.833 Y-11.778 Z-12.826 
N519 X-188.833 Y-11.279 Z-12.827 A180.9806 
N520 X-188.833 Y-10.780 Z-12.829 A180.9810 
N521 X-188.833 Y-10.282 Z-12.830 A180.9816 
N522 X-188.833 Y-9.783 Z-12.832 A180.9822 
N523 X-188.833 Y-9.285 Z-12.834 A180.9826 
N524 X-188.833 Y-8.786 Z-12.836 A180.9828 
N525 X-188.833 Y-8.288 Z-12.838 A180.9826 
N526 X-188.833 Y-7.790 Z-12.840 A180.9820 
N527 X-188.833 Y-7.292 Z-12.842 A180.9808 
N528 X-188.833 Y-6.795 Z-12.845 A180.9805 
N529 X-188.833 Y-6.297 Z-12.848 
N530 X-188.833 Y-5.798 Z-12.851 
N531 X-188.833 Y-5.300 Z-12.854 
N532 X-188.833 Y-4.800 Z-12.858 
N533 X-188.833 Y-4.298 Z-12.861 
N534 X-188.833 Y-3.793 Z-12.864 
N535 X-188.833 Y-3.285 Z-12.866 
N536 X-188.833 Y-2.778 Z-12.879 A181.0427 
N537 X-188.833 Y-2.272 Z-12.909 A181.2013 
N538 X-188.833 Y-1.768 Z-12.957 A181.4632 
N539 X-188.833 Y-1.265 Z-13.028 A181.8584 
N540 X-188.833 Y-0.762 Z-13.121 A182.3864 
N541 X-188.833 Y-0.256 Z-13.236 A183.0612 
N542 X-188.833 Y0.254 Z-13.378 A183.9090 
N543 X-188.833 Y0.768 Z-13.552 A184.9624 
N544 X-188.833 Y1.291 Z-13.762 A186.2599 
N545 X-188.833 Y1.826 Z-14.014 A187.8452 
N546 X-188.833 Y2.378 Z-14.312 A189.7605 
N547 X-188.833 Y2.953 Z-14.658 A192.0326 
N548 X-188.833 Y3.559 Z-15.045 A194.6538 
N549 X-188.833 Y4.199 Z-15.461 A197.5915 
N550 X-188.833 Y4.882 Z-15.903 A200.8635 
N551 X-188.833 Y5.617 Z-16.366 A204.4900 
N552 X-188.833 Y6.409 Z-16.834 A208.4329 
N553 X-188.833 Y7.256 Z-17.288 A212.6326 
N554 X-188.833 Y8.155 Z-17.705 A217.0117 
N555 X-188.833 Y9.097 Z-18.069 A221.5031 
N556 X-188.833 Y10.067 Z-18.359 A226.0106 
N557 X-188.833 Y11.045 Z-18.563 A230.4344 
N558 X-188.833 Y12.008 Z-18.671 A234.6850 
N559 X-188.833 Y12.939 Z-18.685 A238.7007 
N560 X-188.833 Y13.825 Z-18.610 A242.4532 
N561 X-188.833 Y14.653 Z-18.456 A245.9147 
N562 X-188.833 Y15.414 Z-18.231 A249.0623 
N563 X-188.833 Y16.106 Z-17.946 A251.8966 
N564 X-188.833 Y16.727 Z-17.611 A254.4214 
N565 X-188.833 Y17.280 Z-17.238 A256.6623 
N566 X-188.833 Y17.770 Z-16.834 A258.6448 
N567 X-188.833 Y18.202 Z-16.405 A260.3939 
N568 X-188.833 Y18.583 Z-15.959 A261.9408 
N569 X-188.833 Y18.920 Z-15.498 A263.3166 
N570 X-188.833 Y19.218 Z-15.027 A264.5490 
N571 X-188.833 Y19.484 Z-14.549 A265.6611 
N572 X-188.833 Y19.721 Z-14.064 A266.6732 
N573 X-188.833 Y19.935 Z-13.574 A267.6048 
N574 X-188.833 Y20.129 Z-13.080 A268.4738 
N575 X-188.833 Y20.306 Z-12.584 A269.2963 
N576 X-188.833 Y20.471 Z-12.085 A270.0864 
N577 X-188.833 Y20.624 Z-11.584 A270.8571 
N578 X-188.833 Y20.770 Z-11.081 A271.6199 
N579 X-188.833 Y20.909 Z-10.576 A272.3858 
N580 X-188.833 Y21.044 Z-10.069 A273.1654 
N581 X-188.833 Y21.177 Z-9.560 A273.9691 
N582 X-188.833 Y21.310 Z-9.048 A274.8079 
N583 X-188.833 Y21.443 Z-8.534 A275.6930 
N584 X-188.833 Y21.580 Z-8.017 A276.6366 
N585 X-188.833 Y21.721 Z-7.495 A277.6514 
N586 X-188.833 Y21.869 Z-6.969 A278.7512 
N587 X-188.833 Y22.026 Z-6.437 A279.9517 
N588 X-188.833 Y22.193 Z-5.897 A281.2712 
N589 X-188.833 Y22.374 Z-5.347 A282.7292 
N590 X-188.833 Y22.570 Z-4.786 A284.3471 
N591 X-188.833 Y22.784 Z-4.210 A286.1488 
N592 X-188.833 Y23.017 Z-3.615 A288.1605 
N593 X-188.833 Y23.271 Z-2.996 A290.4134 
N594 X-188.833 Y23.549 Z-2.348 A292.9399 
N595 X-188.833 Y23.850 Z-1.663 A295.7700 
N596 X-188.833 Y24.172 Z-0.934 A298.9316 
N597 X-188.833 Y24.509 Z-0.153 A302.4445 
N598 X-188.833 Y24.852 Z0.686 A306.3092 
N599 X-188.833 Y25.184 Z1.588 A310.5049 
N600 X-188.833 Y25.487 Z2.548 A314.9768 
N601 X-188.833 Y25.737 Z3.556 A319.6353 
N602 X-188.833 Y25.911 Z4.590 A324.3559 
N603 X-188.833 Y25.992 Z5.622 A328.9987 
N604 X-188.833 Y25.970 Z6.620 A333.4240 
N605 X-188.833 Y25.850 Z7.562 A337.5523 
N606 X-188.833 Y25.643 Z8.433 A341.3471 
N607 X-188.833 Y25.362 Z9.225 A344.7958 
N608 X-188.833 Y25.021 Z9.937 A347.9140 
N609 X-188.833 Y24.631 Z10.566 A350.6885 
N610 X-188.833 Y24.203 Z11.102 A353.0736 
N611 X-188.833 Y23.746 Z11.543 A355.0570 
N612 X-188.833 Y23.271 Z11.898 A356.6659 
N613 X-188.833 Y22.784 Z12.179 A357.9498 
N614 X-188.833 Y22.289 Z12.397 A358.9656 
N615 X-188.833 Y21.791 Z12.566 A359.7642 
N616 X-188.833 Y21.291 Z12.694 A0.3878 
N617 X-188.833 Y20.791 Z12.791 A0.8700 
N618 X-188.833 Y20.289 Z12.861 A1.2380 
N619 X-188.833 Y19.788 Z12.912 A1.5147 
N620 X-188.833 Y19.287 Z12.946 A1.7189 
N621 X-188.833 Y18.786 Z12.967 A1.8660 
N622 X-188.833 Y18.286 Z12.979 A1.9688 
N623 X-188.833 Y17.786 Z12.983 A2.0374 
N624 X-188.833 Y17.286 Z12.983 A2.0806 
N625 X-188.833 Y16.786 Z12.978 A2.1053 
N626 X-188.833 Y16.286 Z12.971 A2.1178 
N627 X-188.833 Y15.786 Z12.962 A2.1228 
N628 X-188.833 Y15.287 Z12.952 A2.1236 
N629 X-188.833 Y14.788 Z12.942 A2.1227 
N630 X-188.833 Y14.289 Z12.932 A2.1217 
N631 X-188.833 Y13.790 Z12.923 A2.1210 
N632 X-188.833 Y13.291 Z12.913 A2.1207 
N633 X-188.833 Y12.793 Z12.904 A2.1206 
N634 X-188.833 Y12.294 Z12.895 A2.1205 
N635 X-188.833 Y11.796 Z12.886 A2.1205 
N636 X-188.833 Y11.297 Z12.877 A2.1205 
N637 X-188.833 Y10.799 Z12.868 A2.1204 
N638 X-188.833 Y10.301 Z12.860 A2.1202 
N639 X-188.833 Y9.803 Z12.851 A2.1200 
N640 X-188.833 Y9.304 Z12.843 A2.1197 
N641 X-188.833 Y8.806 Z12.835 
N642 X-188.833 Y8.308 Z12.827 
N643 X-188.833 Y7.810 Z12.820 
N644 X-188.833 Y7.311 Z12.812 
N645 X-188.833 Y6.813 Z12.805 
N646 X-188.833 Y6.314 Z12.797 
N647 X-188.833 Y5.814 Z12.790 
N648 X-188.833 Y5.314 Z12.783 
N649 X-188.833 Y4.813 Z12.775 
N650 X-188.833 Y4.311 Z12.768 
N651 X-188.833 Y3.807 Z12.760 
N652 X-188.833 Y3.301 Z12.751 
N653 X-188.833 Y2.796 Z12.752 A2.1730 
N654 X-188.833 Y2.292 Z12.765 A2.2926 
N655 X-188.833 Y1.788 Z12.792 A2.4925 
N656 X-188.833 Y1.285 Z12.837 A2.7998 
N657 X-188.833 Y0.782 Z12.900 A3.2192 
N658 X-188.833 Y0.276 Z12.986 A3.7768 
N659 X-188.833 Y-0.234 Z13.100 A4.5055 
N660 X-188.833 Y-0.748 Z13.245 A5.4389 
N661 X-188.833 Y-1.270 Z13.427 A6.6099 
N662 X-188.833 Y-1.802 Z13.649 A8.0541 
N663 X-188.833 Y-2.350 Z13.916 A9.8101 
N664 X-188.833 Y-2.919 Z14.231 A11.9161 
N665 X-188.833 Y-3.518 Z14.596 A14.4107 
N666 X-188.833 Y-4.155 Z15.009 A17.3183 
N667 X-188.833 Y-4.838 Z15.460 A20.6216 
N668 X-188.833 Y-5.575 Z15.934 A24.2966 
N669 X-188.833 Y-6.375 Z16.425 A28.3576 
N670 X-188.833 Y-7.245 Z16.916 A32.7816 
N671 X-188.833 Y-8.181 Z17.377 A37.4704 
N672 X-188.833 Y-9.169 Z17.781 A42.3007 
N673 X-188.833 Y-10.188 Z18.100 A47.1336 
N674 X-188.833 Y-11.213 Z18.318 A51.8508 
N675 X-188.833 Y-12.215 Z18.427 A56.3329 
N676 X-188.833 Y-13.167 Z18.426 A60.4753 
N677 X-188.833 Y-14.048 Z18.323 A64.2187 
N678 X-188.833 Y-14.849 Z18.134 A67.5563 
N679 X-188.833 Y-15.570 Z17.875 A70.5147 
N680 X-188.833 Y-16.216 Z17.562 A73.1376 
N681 X-188.833 Y-16.795 Z17.205 A75.4739 
N682 X-188.833 Y-17.314 Z16.815 A77.5675 
N683 X-188.833 Y-17.780 Z16.400 A79.4580 
N684 X-188.833 Y-18.201 Z15.965 A81.1793 
N685 X-188.833 Y-18.582 Z15.514 A82.7598 
N686 X-188.833 Y-18.929 Z15.051 A84.2232 
N687 X-188.833 Y-19.245 Z14.577 A85.5894 
N688 X-188.833 Y-19.535 Z14.095 A86.8767 
N689 X-188.833 Y-19.802 Z13.607 A88.1019 
N690 X-188.833 Y-20.050 Z13.112 A89.2799 
N691 X-188.833 Y-20.282 Z12.613 A90.4244 
N692 X-188.833 Y-20.500 Z12.110 A91.5484 
N693 X-188.833 Y-20.706 Z11.602 A92.6643 
N694 X-188.833 Y-20.903 Z11.090 A93.7842 
N695 X-188.833 Y-21.093 Z10.575 A94.9200 
N696 X-188.833 Y-21.278 Z10.055 A96.0839 
N697 X-188.833 Y-21.460 Z9.530 A97.2885 
N698 X-188.833 Y-21.641 Z9.000 A98.5472 
N699 X-188.833 Y-21.823 Z8.464 A99.8737 
N700 X-188.833 Y-22.008 Z7.921 A101.2831 
N701 X-188.833 Y-22.198 Z7.370 A102.7921 
N702 X-188.833 Y-22.395 Z6.808 A104.4187 
N703 X-188.833 Y-22.600 Z6.234 A106.1823 
N704 X-188.833 Y-22.817 Z5.644 A108.1031 
N705 X-188.833 Y-23.045 Z5.036 A110.2022 
N706 X-188.833 Y-23.285 Z4.405 A112.5004 
N707 X-188.833 Y-23.537 Z3.748 A115.0158 
N708 X-188.833 Y-23.799 Z3.060 A117.7618 
N709 X-188.833 Y-24.067 Z2.338 A120.7456 
N710 X-188.833 Y-24.333 Z1.578 A123.9628 
N711 X-188.833 Y-24.587 Z0.780 A127.3918 
N712 X-188.833 Y-24.819 Z-0.054 A130.9967 
N713 X-188.833 Y-25.015 Z-0.918 A134.7310 
N714 X-188.833 Y-25.164 Z-1.803 A138.5426 
N715 X-188.833 Y-25.256 Z-2.699 A142.3702 
N716 X-188.833 Y-25.282 Z-3.590 A146.1423 
N717 X-188.833 Y-25.237 Z-4.461 A149.7917 
N718 X-188.833 Y-25.121 Z-5.296 A153.2557 
N719 X-188.833 Y-24.938 Z-6.082 A156.4889 
N720 X-188.833 Y-24.694 Z-6.812 A159.4679 
N721 X-188.833 Y-24.397 Z-7.479 A162.1778 
N722 X-188.833 Y-24.055 Z-8.081 A164.6100 
N723 X-188.833 Y-23.677 Z-8.619 A166.7723 
N724 X-188.833 Y-23.269 Z-9.094 A168.6827 
N725 X-188.833 Y-22.838 Z-9.512 A170.3560 
N726 X-188.833 Y-22.389 Z-9.876 A171.8095 
N727 X-188.833 Y-21.927 Z-10.191 A173.0630 
N728 X-188.833 Y-21.454 Z-10.462 A174.1375 
N729 X-188.833 Y-20.974 Z-10.694 A175.0559 
N730 X-188.833 Y-20.489 Z-10.894 A175.8404 
N731 X-188.833 Y-19.999 Z-11.065 A176.5111 
N732 X-188.833 Y-19.507 Z-11.213 A177.0852 
N733 X-188.833 Y-19.012 Z-11.340 A177.5774 
N734 X-188.833 Y-18.516 Z-11.449 A177.9994 
N735 X-188.833 Y-18.019 Z-11.544 A178.3620 
N736 X-188.833 Y-17.521 Z-11.626 A178.6736 
N737 X-188.833 Y-17.023 Z-11.697 A178.9415 
N738 X-188.833 Y-16.524 Z-11.758 A179.1717 
N739 X-188.833 Y-16.025 Z-11.812 A179.3694 
N740 X-188.833 Y-15.525 Z-11.858 A179.5388 
N741 X-188.833 Y-15.026 Z-11.898 A179.6835 
N742 X-188.833 Y-14.526 Z-11.933 A179.8071 
N743 X-188.833 Y-14.026 Z-11.963 A179.9130 
N744 X-188.833 Y-13.527 Z-11.990 A180.0045 
N745 X-188.833 Y-13.027 Z-12.014 A180.0852 
N746 X-188.833 Y-12.527 Z-12.036 A180.1585 
N747 X-188.833 Y-12.027 Z-12.056 A180.2286 
N748 X-188.833 Y-11.527 Z-12.077 A180.2998 
N749 X-188.833 Y-11.027 Z-12.097 A180.3770 
N750 X-188.833 Y-10.527 Z-12.119 A180.4653 
N751 X-188.833 Y-10.027 Z-12.144 A180.5697 
N752 X-188.833 Y-9.527 Z-12.171 A180.6949 
N753 X-188.833 Y-9.027 Z-12.203 A180.8456 
N754 X-188.833 Y-8.526 Z-12.238 A181.0263 
N755 X-188.833 Y-8.025 Z-12.279 A181.2420 
N756 X-188.833 Y-7.524 Z-12.325 A181.4973 
N757 X-188.833 Y-7.023 Z-12.377 A181.7971 
N758 X-188.833 Y-6.521 Z-12.436 A182.1463 
N759 X-188.833 Y-6.018 Z-12.503 A182.5508 
N760 X-188.833 Y-5.514 Z-12.578 A183.0176 
N761 X-188.833 Y-5.008 Z-12.661 A183.5544 
N762 X-188.833 Y-4.501 Z-12.755 A184.1701 
N763 X-188.833 Y-3.991 Z-12.860 A184.8739 
N764 X-188.833 Y-3.479 Z-12.978 A185.6751 
N765 X-188.833 Y-2.962 Z-13.108 A186.5824 
N766 X-188.833 Y-2.440 Z-13.251 A187.6066 
N767 X-188.833 Y-1.913 Z-13.410 A188.7590 
N768 X-188.833 Y-1.377 Z-13.584 A190.0529 
N769 X-188.833 Y-0.832 Z-13.775 A191.5041 
N770 X-188.833 Y-0.275 Z-13.984 A193.1307 
N771 X-188.833 Y0.297 Z-14.212 A194.9450 
N772 X-188.833 Y0.887 Z-14.457 A196.9526 
N773 X-188.833 Y1.497 Z-14.715 A199.1531 
N774 X-188.833 Y2.129 Z-14.983 A201.5390 
N775 X-188.833 Y2.784 Z-15.252 A204.0898 
N776 X-188.833 Y3.463 Z-15.516 A206.7808 
N777 X-188.833 Y4.164 Z-15.766 A209.5894 
N778 X-188.833 Y4.886 Z-15.996 A212.4858 
N779 X-188.833 Y5.624 Z-16.198 A215.4350 
N780 X-188.833 Y6.375 Z-16.365 A218.4125 
N781 X-188.833 Y7.134 Z-16.494 A221.3959 
N782 X-188.833 Y7.897 Z-16.581 A224.3602 
N783 X-188.833 Y8.657 Z-16.622 A227.2821 
N784 X-188.833 Y9.408 Z-16.618 A230.1405 
N785 X-188.833 Y10.147 Z-16.566 A232.9203 
N786 X-188.833 Y10.869 Z-16.470 A235.6108 
N787 X-188.833 Y11.570 Z-16.330 A238.2065 
N788 X-188.833 Y12.248 Z-16.150 A240.7062 
N789 X-188.833 Y12.901 Z-15.932 A243.1085 
N790 X-188.833 Y13.527 Z-15.679 A245.4141 
N791 X-188.833 Y14.127 Z-15.395 A247.6285 
N792 X-188.833 Y14.701 Z-15.082 A249.7564 
N793 X-188.833 Y15.248 Z-14.744 A251.8054 
N794 X-188.833 Y15.770 Z-14.382 A253.7859 
N795 X-188.833 Y16.268 Z-14.000 A255.7078 
N796 X-188.833 Y16.745 Z-13.600 A257.5823 
N797 X-188.833 Y17.202 Z-13.183 A259.4231 
N798 X-188.833 Y17.642 Z-12.751 A261.2440 
N799 X-188.833 Y18.067 Z-12.305 A263.0584 
N800 X-188.833 Y18.478 Z-11.846 A264.8785 
N801 X-188.833 Y18.878 Z-11.374 A266.7156 
N802 X-188.833 Y19.268 Z-10.890 A268.5773 
N803 X-188.833 Y19.647 Z-10.393 A270.4695 
N804 X-188.833 Y20.016 Z-9.884 A272.3989 
N805 X-188.833 Y20.376 Z-9.362 A274.3722 
N806 X-188.833 Y20.728 Z-8.827 A276.3958 
N807 X-188.833 Y21.071 Z-8.278 A278.4772 
N808 X-188.833 Y21.407 Z-7.715 A280.6250 
N809 X-188.833 Y21.735 Z-7.136 A282.8495 
N810 X-188.833 Y22.057 Z-6.541 A285.1603 
N811 X-188.833 Y22.371 Z-5.928 A287.5665 
N812 X-188.833 Y22.678 Z-5.295 A290.0766 
N813 X-188.833 Y22.976 Z-4.642 A292.6975 
N814 X-188.833 Y23.264 Z-3.966 A295.4346 
N815 X-188.833 Y23.539 Z-3.266 A298.2910 
N816 X-188.833 Y23.798 Z-2.542 A301.2656 
N817 X-188.833 Y24.037 Z-1.794 A304.3531 
N818 X-188.833 Y24.250 Z-1.022 A307.5433 
N819 X-188.833 Y24.433 Z-0.228 A310.8210 
N820 X-188.833 Y24.579 Z0.583 A314.1649 
N821 X-188.833 Y24.682 Z1.407 A317.5475 
N822 X-188.833 Y24.738 Z2.237 A320.9379 
N823 X-188.833 Y24.741 Z3.065 A324.3052 
N824 X-188.833 Y24.691 Z3.883 A327.6166 
N825 X-188.833 Y24.585 Z4.681 A330.8350 
N826 X-188.833 Y24.422 Z5.449 A333.9196 
N827 X-188.833 Y24.208 Z6.180 A336.8453 
N828 X-188.833 Y23.944 Z6.868 A339.5994 
N829 X-188.833 Y23.638 Z7.510 A342.1736 
N830 X-188.833 Y23.294 Z8.105 A344.5654 
N831 X-188.833 Y22.918 Z8.652 A346.7790 
N832 X-188.833 Y22.515 Z9.151 A348.8171 
N833 X-188.833 Y22.089 Z9.602 A350.6741 
N834 X-188.833 Y21.643 Z10.005 A352.3482 
N835 X-188.833 Y21.183 Z10.361 A353.8454 
N836 X-188.833 Y20.711 Z10.674 A355.1745 
N837 X-188.833 Y20.230 Z10.945 A356.3428 
N838 X-188.833 Y19.742 Z11.177 A357.3573 
N839 X-188.833 Y19.250 Z11.372 A358.2249 
N840 X-188.833 Y18.754 Z11.534 A358.9527 
N841 X-188.833 Y18.255 Z11.664 A359.5479 
N842 X-188.833 Y17.756 Z11.766 A0.0208 
N843 X-188.833 Y17.256 Z11.844 A0.3860 
N844 X-188.833 Y16.755 Z11.901 A0.6587 
N845 X-188.833 Y16.255 Z11.941 A0.8541 
N846 X-188.833 Y15.755 Z11.967 A0.9867 
N847 X-188.833 Y15.255 Z11.983 A1.0696 
N848 X-188.833 Y14.755 Z11.991 A1.1153 
N849 X-188.833 Y14.255 Z11.994 A1.1367 
N850 X-188.833 Y13.755 Z11.994 A1.1438 
N851 X-188.833 Y13.257 Z11.993 A1.1434 
N852 X-188.833 Y12.758 Z11.991 A1.1405 
N853 X-188.833 Y12.261 Z11.990 A1.1385 
N854 X-188.833 Y11.763 Z11.990 A1.1374 
N855 X-188.833 Y11.267 Z11.989 A1.1369 
N856 X-188.833 Y10.770 Z11.989 A1.1369 
N857 X-188.833 Y10.273 Z11.990 A1.1370 
N858 X-188.833 Y9.777 Z11.990 A1.1368 
N859 X-188.833 Y9.281 Z11.991 A1.1360 
N860 X-188.833 Y8.785 Z11.993 A1.1348 
N861 X-188.833 Y8.289 Z11.995 A1.1344 
N862 X-188.833 Y7.793 Z11.997 
N863 X-188.833 Y7.297 Z12.000 
N864 X-188.833 Y6.800 Z12.003 
N865 X-188.833 Y6.302 Z12.006 
N866 X-188.833 Y5.802 Z12.010 
N867 X-188.833 Y5.300 Z12.013 
N868 X-188.833 Y4.795 Z12.016 
N869 X-188.833 Y4.286 Z12.018 
N870 X-188.833 Y3.773 Z12.023 A1.1547 
N871 X-188.833 Y3.265 Z12.051 A1.3002 
N872 X-188.833 Y2.758 Z12.096 A1.5505 
N873 X-188.833 Y2.253 Z12.164 A1.9321 
N874 X-188.833 Y1.749 Z12.256 A2.4632 
N875 X-188.833 Y1.243 Z12.369 A3.1308 
N876 X-188.833 Y0.734 Z12.507 A3.9601 
N877 X-188.833 Y0.220 Z12.674 A4.9792 
N878 X-188.833 Y-0.302 Z12.873 A6.2190 
N879 X-188.833 Y-0.834 Z13.107 A7.7057 
N880 X-188.833 Y-1.380 Z13.376 A9.4586 
N881 X-188.833 Y-1.945 Z13.680 A11.4871 
N882 X-188.833 Y-2.532 Z14.015 A13.7923 
N883 X-188.833 Y-3.147 Z14.377 A16.3840 
N884 X-188.833 Y-3.798 Z14.768 A19.2865 
N885 X-188.833 Y-4.490 Z15.180 A22.5080 
N886 X-188.833 Y-5.230 Z15.605 A26.0382 
N887 X-188.833 Y-6.022 Z16.032 A29.8562 
N888 X-188.833 Y-6.866 Z16.443 A33.9193 
N889 X-188.833 Y-7.758 Z16.819 A38.1599 
N890 X-188.833 Y-8.688 Z17.143 A42.4996 
N891 X-188.833 Y-9.640 Z17.395 A46.8450 
N892 X-188.833 Y-10.597 Z17.565 A51.1083 
N893 X-188.833 Y-11.539 Z17.647 A55.2127 
N894 X-188.833 Y-12.449 Z17.640 A59.1033 
N895 X-188.833 Y-13.316 Z17.550 A62.7486 
N896 X-188.833 Y-14.131 Z17.386 A66.1394 
N897 X-188.833 Y-14.891 Z17.157 A69.2838 
N898 X-188.833 Y-15.597 Z16.875 A72.2004 
N899 X-188.833 Y-16.250 Z16.546 A74.9138 
N900 X-188.833 Y-16.854 Z16.180 A77.4492 
N901 X-188.833 Y-17.413 Z15.783 A79.8317 
N902 X-188.833 Y-17.931 Z15.359 A82.0850 
N903 X-188.833 Y-18.411 Z14.913 A84.2308 
N904 X-188.833 Y-18.858 Z14.449 A86.2884 
N905 X-188.833 Y-19.275 Z13.969 A88.2760 
N906 X-188.833 Y-19.664 Z13.474 A90.2101 
N907 X-188.833 Y-20.029 Z12.967 A92.1055 
N908 X-188.833 Y-20.373 Z12.448 A93.9759 
N909 X-188.833 Y-20.697 Z11.918 A95.8342 
N910 X-188.833 Y-21.004 Z11.379 A97.6921 
N911 X-188.833 Y-21.295 Z10.829 A99.5606 
N912 X-188.833 Y-21.572 Z10.269 A101.4505 
N913 X-188.833 Y-21.836 Z9.700 A103.3717 
N914 X-188.833 Y-22.089 Z9.119 A105.3336 
N915 X-188.833 Y-22.330 Z8.528 A107.3454 
N916 X-188.833 Y-22.561 Z7.924 A109.4156 
N917 X-188.833 Y-22.782 Z7.308 A111.5515 
N918 X-188.833 Y-22.991 Z6.679 A113.7595 
N919 X-188.833 Y-23.190 Z6.036 A116.0442 
N920 X-188.833 Y-23.376 Z5.378 A118.4080 
N921 X-188.833 Y-23.547 Z4.706 A120.8511 
N922 X-188.833 Y-23.702 Z4.019 A123.3707 
N923 X-188.833 Y-23.837 Z3.318 A125.9601 
N924 X-188.833 Y-23.949 Z2.605 A128.6078 
N925 X-188.833 Y-24.034 Z1.882 A131.2984 
N926 X-188.833 Y-24.088 Z1.152 A134.0146 
N927 X-188.833 Y-24.109 Z0.420 A136.7384 
N928 X-188.833 Y-24.093 Z-0.311 A139.4522 
N929 X-188.833 Y-24.040 Z-1.037 A142.1372 
N930 X-188.833 Y-23.948 Z-1.751 A144.7747 
N931 X-188.833 Y-23.816 Z-2.450 A147.3450 
N932 X-188.833 Y-23.644 Z-3.128 A149.8281 
N933 X-188.833 Y-23.434 Z-3.780 A152.2067 
N934 X-188.833 Y-23.187 Z-4.403 A154.4658 
N935 X-188.833 Y-22.907 Z-4.992 A156.5938 
N936 X-188.833 Y-22.595 Z-5.547 A158.5856 
N937 X-188.833 Y-22.255 Z-6.066 A160.4397 
N938 X-188.833 Y-21.891 Z-6.550 A162.1575 
N939 X-188.833 Y-21.506 Z-6.998 A163.7427 
N940 X-188.833 Y-21.102 Z-7.412 A165.2016 
N941 X-188.833 Y-20.683 Z-7.794 A166.5428 
N942 X-188.833 Y-20.251 Z-8.146 A167.7746 
N943 X-188.833 Y-19.807 Z-8.469 A168.9055 
N944 X-188.833 Y-19.354 Z-8.767 A169.9445 
N945 X-188.833 Y-18.894 Z-9.041 A170.8995 
N946 X-188.833 Y-18.427 Z-9.293 A171.7791 
N947 X-188.833 Y-17.954 Z-9.526 A172.5916 
N948 X-188.833 Y-17.477 Z-9.740 A173.3447 
N949 X-188.833 Y-16.996 Z-9.938 A174.0455 
N950 X-188.833 Y-16.512 Z-10.122 A174.7007 
N951 X-188.833 Y-16.025 Z-10.293 A175.3166 
N952 X-188.833 Y-15.536 Z-10.453 A175.8993 
N953 X-188.833 Y-15.045 Z-10.602 A176.4549 
N954 X-188.833 Y-14.552 Z-10.742 A176.9892 
N955 X-188.833 Y-14.058 Z-10.875 A177.5082 
N956 X-188.833 Y-13.563 Z-11.002 A178.0177 
N957 X-188.833 Y-13.067 Z-11.124 A178.5235 
N958 X-188.833 Y-12.569 Z-11.241 A179.0308 
N959 X-188.833 Y-12.071 Z-11.356 A179.5450 
N960 X-188.833 Y-11.572 Z-11.468 A180.0715 
N961 X-188.833 Y-11.071 Z-11.579 A180.6156 
N962 X-188.833 Y-10.569 Z-11.690 A181.1828 
N963 X-188.833 Y-10.067 Z-11.801 A181.7790 
N964 X-188.833 Y-9.562 Z-11.913 A182.4101 
N965 X-188.833 Y-9.056 Z-12.028 A183.0820 
N966 X-188.833 Y-8.549 Z-12.146 A183.8008 
N967 X-188.833 Y-8.039 Z-12.267 A184.5724 
N968 X-188.833 Y-7.526 Z-12.392 A185.4025 
N969 X-188.833 Y-7.010 Z-12.522 A186.2965 
N970 X-188.833 Y-6.491 Z-12.657 A187.2601 
N971 X-188.833 Y-5.967 Z-12.797 A188.2990 
N972 X-188.833 Y-5.439 Z-12.943 A189.4181 
N973 X-188.833 Y-4.905 Z-13.094 A190.6205 
N974 X-188.833 Y-4.364 Z-13.249 A191.9081 
N975 X-188.833 Y-3.816 Z-13.408 A193.2822 
N976 X-188.833 Y-3.261 Z-13.570 A194.7444 
N977 X-188.833 Y-2.697 Z-13.735 A196.2986 
N978 X-188.833 Y-2.122 Z-13.901 A197.9500 
N979 X-188.833 Y-1.537 Z-14.069 A199.7018 
N980 X-188.833 Y-0.940 Z-14.237 A201.5556 
N981 X-188.833 Y-0.330 Z-14.403 A203.5130 
N982 X-188.833 Y0.294 Z-14.566 A205.5735 
N983 X-188.833 Y0.932 Z-14.723 A207.7301 
N984 X-188.833 Y1.583 Z-14.870 A209.9717 
N985 X-188.833 Y2.247 Z-15.002 A212.2847 
N986 X-188.833 Y2.921 Z-15.116 A214.6532 
N987 X-188.833 Y3.604 Z-15.208 A217.0607 
N988 X-188.833 Y4.294 Z-15.275 A219.4938 
N989 X-188.833 Y4.987 Z-15.314 A221.9416 
N990 X-188.833 Y5.682 Z-15.325 A224.3921 
N991 X-188.833 Y6.376 Z-15.304 A226.8342 
N992 X-188.833 Y7.065 Z-15.252 A229.2600 
N993 X-188.833 Y7.749 Z-15.168 A231.6641 
N994 X-188.833 Y8.425 Z-15.053 A234.0436 
N995 X-188.833 Y9.091 Z-14.907 A236.3964 
N996 X-188.833 Y9.746 Z-14.732 A238.7209 
N997 X-188.833 Y10.388 Z-14.527 A241.0161 
N998 X-188.833 Y11.017 Z-14.294 A243.2820 
N999 X-188.833 Y11.631 Z-14.034 A245.5195 
N1000 X-188.833 Y12.230 Z-13.748 A247.7309 
N1001 X-188.833 Y12.814 Z-13.438 A249.9204 
N1002 X-188.833 Y13.383 Z-13.106 A252.0939 
N1003 X-188.833 Y13.937 Z-12.751 A254.2589 
N1004 X-188.833 Y14.477 Z-12.376 A256.4255 
N1005 X-188.833 Y15.006 Z-11.981 A258.6064 
N1006 X-188.833 Y15.524 Z-11.567 A260.8169 
N1007 X-188.833 Y16.035 Z-11.135 A263.0738 
N1008 X-188.833 Y16.541 Z-10.684 A265.3930 
N1009 X-188.833 Y17.042 Z-10.213 A267.7874 
N1010 X-188.833 Y17.539 Z-9.721 A270.2680 
N1011 X-188.833 Y18.033 Z-9.208 A272.8450 
N1012 X-188.833 Y18.522 Z-8.671 A275.5253 
N1013 X-188.833 Y19.007 Z-8.109 A278.3164 
N1014 X-188.833 Y19.486 Z-7.519 A281.2270 
N1015 X-188.833 Y19.957 Z-6.900 A284.2650 
N1016 X-188.833 Y20.419 Z-6.250 A287.4349 
N1017 X-188.833 Y20.868 Z-5.566 A290.7379 
N1018 X-188.833 Y21.299 Z-4.847 A294.1692 
N1019 X-188.833 Y21.706 Z-4.093 A297.7187 
N1020 X-188.833 Y22.082 Z-3.306 A301.3696 
N1021 X-188.833 Y22.419 Z-2.488 A305.0988 
N1022 X-188.833 Y22.709 Z-1.644 A308.8761 
N1023 X-188.833 Y22.944 Z-0.781 A312.6649 
N1024 X-188.833 Y23.119 Z0.092 A316.4262 
N1025 X-188.833 Y23.227 Z0.964 A320.1203 
N1026 X-188.833 Y23.268 Z1.826 A323.7117 
N1027 X-188.833 Y23.240 Z2.667 A327.1677 
N1028 X-188.833 Y23.147 Z3.479 A330.4606 
N1029 X-188.833 Y22.992 Z4.251 A333.5655 
N1030 X-188.833 Y22.780 Z4.979 A336.4659 
N1031 X-188.833 Y22.517 Z5.657 A339.1557 
N1032 X-188.833 Y22.210 Z6.285 A341.6337 
N1033 X-188.833 Y21.865 Z6.861 A343.9045 
N1034 X-188.833 Y21.489 Z7.387 A345.9798 
N1035 X-188.833 Y21.087 Z7.865 A347.8733 
N1036 X-188.833 Y20.664 Z8.297 A349.5893 
N1037 X-188.833 Y20.222 Z8.683 A351.1303 
N1038 X-188.833 Y19.767 Z9.025 A352.5033 
N1039 X-188.833 Y19.300 Z9.327 A353.7179 
N1040 X-188.833 Y18.824 Z9.591 A354.7838 
N1041 X-188.833 Y18.341 Z9.820 A355.7096 
N1042 X-188.833 Y17.854 Z10.015 A356.5035 
N1043 X-188.833 Y17.362 Z10.181 A357.1730 
N1044 X-188.833 Y16.868 Z10.318 A357.7244 
N1045 X-188.833 Y16.372 Z10.430 A358.1655 
N1046 X-188.833 Y15.875 Z10.520 A358.5074 
N1047 X-188.833 Y15.376 Z10.590 A358.7626 
N1048 X-188.833 Y14.877 Z10.643 A358.9442 
N1049 X-188.833 Y14.378 Z10.684 A359.0648 
N1050 X-188.833 Y13.879 Z10.715 A359.1365 
N1051 X-188.833 Y13.379 Z10.738 A359.1731 
N1052 X-188.833 Y12.881 Z10.756 A359.1875 
N1053 X-188.833 Y12.382 Z10.773 A359.1897 
N1054 X-188.833 Y11.884 Z10.788 A359.1866 
N1055 X-188.833 Y11.387 Z10.804 A359.1833 
N1056 X-188.833 Y10.891 Z10.820 A359.1809 
N1057 X-188.833 Y10.395 Z10.836 A359.1793 
N1058 X-188.833 Y9.899 Z10.853 A359.1784 
N1059 X-188.833 Y9.403 Z10.871 A359.1779 
N1060 X-188.833 Y8.907 Z10.889 
N1061 X-188.833 Y8.411 Z10.907 
N1062 X-188.833 Y7.915 Z10.926 
N1063 X-188.833 Y7.418 Z10.945 
N1064 X-188.833 Y6.921 Z10.965 
N1065 X-188.833 Y6.423 Z10.984 
N1066 X-188.833 Y5.923 Z11.004 
N1067 X-188.833 Y5.420 Z11.023 
N1068 X-188.833 Y4.914 Z11.043 
N1069 X-188.833 Y4.403 Z11.061 
N1070 X-188.833 Y3.896 Z11.101 A359.2975 
N1071 X-188.833 Y3.392 Z11.161 A359.5282 
N1072 X-188.833 Y2.889 Z11.243 A359.8945 
N1073 X-188.833 Y2.389 Z11.354 A0.4269 
N1074 X-188.833 Y1.887 Z11.487 A1.1066 
N1075 X-188.833 Y1.383 Z11.646 A1.9492 
N1076 X-188.833 Y0.875 Z11.831 A2.9721 
N1077 X-188.833 Y0.361 Z12.045 A4.1955 
N1078 X-188.833 Y-0.162 Z12.290 A5.6416 
N1079 X-188.833 Y-0.697 Z12.568 A7.3348 
N1080 X-188.833 Y-1.247 Z12.881 A9.3012 
N1081 X-188.833 Y-1.820 Z13.228 A11.5573 
N1082 X-188.833 Y-2.418 Z13.607 A14.1094 
N1083 X-188.833 Y-3.051 Z14.015 A16.9687 
N1084 X-188.833 Y-3.723 Z14.448 A20.1498 
N1085 X-188.833 Y-4.442 Z14.898 A23.6473 
N1086 X-188.833 Y-5.213 Z15.353 A27.4401 
N1087 X-188.833 Y-6.039 Z15.798 A31.4975 
N1088 X-188.833 Y-6.917 Z16.216 A35.7616 
N1089 X-188.833 Y-7.840 Z16.586 A40.1620 
N1090 X-188.833 Y-8.795 Z16.892 A44.6150 
N1091 X-188.833 Y-9.767 Z17.119 A49.0362 
N1092 X-188.833 Y-10.738 Z17.258 A53.3499 
N1093 X-188.833 Y-11.689 Z17.307 A57.5008 
N1094 X-188.833 Y-12.610 Z17.270 A61.4565 
N1095 X-188.833 Y-13.490 Z17.153 A65.2055 
N1096 X-188.833 Y-14.325 Z16.965 A68.7520 
N1097 X-188.833 Y-15.112 Z16.714 A72.1099 
N1098 X-188.833 Y-15.853 Z16.410 A75.2981 
N1099 X-188.833 Y-16.548 Z16.060 A78.3361 
N1100 X-188.833 Y-17.198 Z15.669 A81.2431 
N1101 X-188.833 Y-17.807 Z15.244 A84.0368 
N1102 X-188.833 Y-18.376 Z14.788 A86.7330 
N1103 X-188.833 Y-18.907 Z14.306 A89.3464 
N1104 X-188.833 Y-19.402 Z13.801 A91.8897 
N1105 X-188.833 Y-19.864 Z13.276 A94.3746 
N1106 X-188.833 Y-20.293 Z12.731 A96.8115 
N1107 X-188.833 Y-20.691 Z12.171 A99.2090 
N1108 X-188.833 Y-21.060 Z11.595 A101.5752 
N1109 X-188.833 Y-21.400 Z11.006 A103.9169 
N1110 X-188.833 Y-21.713 Z10.404 A106.2396 
N1111 X-188.833 Y-21.998 Z9.791 A108.5482 
N1112 X-188.833 Y-22.256 Z9.168 A110.8465 
N1113 X-188.833 Y-22.488 Z8.535 A113.1371 
N1114 X-188.833 Y-22.694 Z7.894 A115.4218 
N1115 X-188.833 Y-22.873 Z7.246 A117.7013 
N1116 X-188.833 Y-23.025 Z6.592 A119.9751 
N1117 X-188.833 Y-23.149 Z5.933 A122.2420 
N1118 X-188.833 Y-23.247 Z5.270 A124.4995 
N1119 X-188.833 Y-23.316 Z4.606 A126.7446 
N1120 X-188.833 Y-23.356 Z3.941 A128.9735 
N1121 X-188.833 Y-23.368 Z3.278 A131.1820 
N1122 X-188.833 Y-23.351 Z2.618 A133.3659 
N1123 X-188.833 Y-23.305 Z1.963 A135.5216 
N1124 X-188.833 Y-23.231 Z1.315 A137.6460 
N1125 X-188.833 Y-23.128 Z0.675 A139.7355 
N1126 X-188.833 Y-22.997 Z0.045 A141.7861 
N1127 X-188.833 Y-22.840 Z-0.574 A143.7940 
N1128 X-188.833 Y-22.655 Z-1.179 A145.7553 
N1129 X-188.833 Y-22.445 Z-1.770 A147.6665 
N1130 X-188.833 Y-22.211 Z-2.345 A149.5245 
N1131 X-188.833 Y-21.952 Z-2.902 A151.3273 
N1132 X-188.833 Y-21.672 Z-3.442 A153.0736 
N1133 X-188.833 Y-21.371 Z-3.963 A154.7629 
N1134 X-188.833 Y-21.050 Z-4.465 A156.3960 
N1135 X-188.833 Y-20.711 Z-4.949 A157.9740 
N1136 X-188.833 Y-20.355 Z-5.413 A159.4990 
N1137 X-188.833 Y-19.984 Z-5.859 A160.9734 
N1138 X-188.833 Y-19.599 Z-6.286 A162.4001 
N1139 X-188.833 Y-19.201 Z-6.696 A163.7825 
N1140 X-188.833 Y-18.792 Z-7.088 A165.1239 
N1141 X-188.833 Y-18.372 Z-7.464 A166.4279 
N1142 X-188.833 Y-17.941 Z-7.824 A167.6980 
N1143 X-188.833 Y-17.502 Z-8.169 A168.9379 
N1144 X-188.833 Y-17.055 Z-8.499 A170.1514 
N1145 X-188.833 Y-16.600 Z-8.815 A171.3419 
N1146 X-188.833 Y-16.138 Z-9.118 A172.5132 
N1147 X-188.833 Y-15.670 Z-9.409 A173.6686 
N1148 X-188.833 Y-15.196 Z-9.688 A174.8117 
N1149 X-188.833 Y-14.716 Z-9.956 A175.9462 
N1150 X-188.833 Y-14.231 Z-10.213 A177.0756 
N1151 X-188.833 Y-13.741 Z-10.460 A178.2032 
N1152 X-188.833 Y-13.246 Z-10.698 A179.3325 
N1153 X-188.833 Y-12.747 Z-10.927 A180.4670 
N1154 X-188.833 Y-12.243 Z-11.148 A181.6100 
N1155 X-188.833 Y-11.735 Z-11.361 A182.7649 
N1156 X-188.833 Y-11.222 Z-11.567 A183.9350 
N1157 X-188.833 Y-10.705 Z-11.765 A185.1234 
N1158 X-188.833 Y-10.183 Z-11.957 A186.3329 
N1159 X-188.833 Y-9.657 Z-12.142 A187.5664 
N1160 X-188.833 Y-9.127 Z-12.321 A188.8266 
N1161 X-188.833 Y-8.591 Z-12.493 A190.1164 
N1162 X-188.833 Y-8.051 Z-12.660 A191.4388 
N1163 X-188.833 Y-7.505 Z-12.821 A192.7973 
N1164 X-188.833 Y-6.954 Z-12.975 A194.1948 
N1165 X-188.833 Y-6.397 Z-13.124 A195.6327 
N1166 X-188.833 Y-5.835 Z-13.266 A197.1100 
N1167 X-188.833 Y-5.267 Z-13.399 A198.6206 
N1168 X-188.833 Y-4.694 Z-13.521 A200.1539 
N1169 X-188.833 Y-4.117 Z-13.630 A201.7001 
N1170 X-188.833 Y-3.537 Z-13.725 A203.2539 
N1171 X-188.833 Y-2.954 Z-13.806 A204.8175 
N1172 X-188.833 Y-2.367 Z-13.874 A206.3981 
N1173 X-188.833 Y-1.776 Z-13.930 A208.0094 
N1174 X-188.833 Y-1.178 Z-13.979 A209.6740 
N1175 X-188.833 Y-0.572 Z-14.023 A211.4179 
N1176 X-188.833 Y0.045 Z-14.064 A213.2568 
N1177 X-188.833 Y0.674 Z-14.100 A215.1936 
N1178 X-188.833 Y1.314 Z-14.129 A217.2222 
N1179 X-188.833 Y1.965 Z-14.147 A219.3331 
N1180 X-188.833 Y2.625 Z-14.151 A221.5170 
N1181 X-188.833 Y3.294 Z-14.139 A223.7663 
N1182 X-188.833 Y3.969 Z-14.108 A226.0726 
N1183 X-188.833 Y4.649 Z-14.056 A228.4232 
N1184 X-188.833 Y5.329 Z-13.979 A230.8000 
N1185 X-188.833 Y6.007 Z-13.874 A233.1819 
N1186 X-188.833 Y6.678 Z-13.741 A235.5528 
N1187 X-188.833 Y7.340 Z-13.577 A237.9049 
N1188 X-188.833 Y7.991 Z-13.385 A240.2361 
N1189 X-188.833 Y8.631 Z-13.164 A242.5470 
N1190 X-188.833 Y9.258 Z-12.917 A244.8416 
N1191 X-188.833 Y9.874 Z-12.644 A247.1281 
N1192 X-188.833 Y10.479 Z-12.347 A249.4192 
N1193 X-188.833 Y11.075 Z-12.028 A251.7328 
N1194 X-188.833 Y11.667 Z-11.687 A254.0909 
N1195 X-188.833 Y12.257 Z-11.325 A256.5198 
N1196 X-188.833 Y12.849 Z-10.942 A259.0474 
N1197 X-188.833 Y13.447 Z-10.536 A261.6992 
N1198 X-188.833 Y14.053 Z-10.106 A264.4958 
N1199 X-188.833 Y14.668 Z-9.648 A267.4555 
N1200 X-188.833 Y15.292 Z-9.159 A270.5921 
N1201 X-188.833 Y15.924 Z-8.634 A273.9170 
N1202 X-188.833 Y16.563 Z-8.069 A277.4428 
N1203 X-188.833 Y17.204 Z-7.457 A281.1787 
N1204 X-188.833 Y17.842 Z-6.795 A285.1265 
N1205 X-188.833 Y18.470 Z-6.077 A289.2767 
N1206 X-188.833 Y19.075 Z-5.303 A293.6055 
N1207 X-188.833 Y19.644 Z-4.473 A298.0744 
N1208 X-188.833 Y20.159 Z-3.592 A302.6309 
N1209 X-188.833 Y20.607 Z-2.670 A307.2109 
N1210 X-188.833 Y20.973 Z-1.721 A311.7439 
N1211 X-188.833 Y21.247 Z-0.762 A316.1607 
N1212 X-188.833 Y21.426 Z0.189 A320.4000 
N1213 X-188.833 Y21.509 Z1.115 A324.4110 
N1214 X-188.833 Y21.500 Z2.003 A328.1587 
N1215 X-188.833 Y21.408 Z2.840 A331.6199 
N1216 X-188.833 Y21.242 Z3.620 A334.7862 
N1217 X-188.833 Y21.013 Z4.338 A337.6616 
N1218 X-188.833 Y20.730 Z4.994 A340.2557 
N1219 X-188.833 Y20.402 Z5.589 A342.5866 
N1220 X-188.833 Y20.039 Z6.126 A344.6793 
N1221 X-188.833 Y19.647 Z6.610 A346.5502 
N1222 X-188.833 Y19.232 Z7.041 A348.2113 
N1223 X-188.833 Y18.797 Z7.423 A349.6759 
N1224 X-188.833 Y18.348 Z7.761 A350.9608 
N1225 X-188.833 Y17.887 Z8.057 A352.0805 
N1226 X-188.833 Y17.416 Z8.316 A353.0481 
N1227 X-188.833 Y16.939 Z8.541 A353.8750 
N1228 X-188.833 Y16.456 Z8.734 A354.5711 
N1229 X-188.833 Y15.969 Z8.898 A355.1458 
N1230 X-188.833 Y15.479 Z9.036 A355.6107 
N1231 X-188.833 Y14.986 Z9.153 A355.9796 
N1232 X-188.833 Y14.492 Z9.251 A356.2666 
N1233 X-188.833 Y13.996 Z9.333 A356.4853 
N1234 X-188.833 Y13.500 Z9.403 A356.6486 
N1235 X-188.833 Y13.003 Z9.464 A356.7684 
N1236 X-188.833 Y12.505 Z9.517 A356.8550 
N1237 X-188.833 Y12.007 Z9.565 A356.9169 
N1238 X-188.833 Y11.509 Z9.609 A356.9604 
N1239 X-188.833 Y11.011 Z9.650 A356.9909 
N1240 X-188.833 Y10.512 Z9.689 A357.0126 
N1241 X-188.833 Y10.014 Z9.726 A357.0289 
N1242 X-188.833 Y9.515 Z9.764 A357.0431 
N1243 X-188.833 Y9.016 Z9.801 A357.0579 
N1244 X-188.833 Y8.518 Z9.839 A357.0763 
N1245 X-188.833 Y8.019 Z9.878 A357.1016 
N1246 X-188.833 Y7.521 Z9.919 A357.1377 
N1247 X-188.833 Y7.023 Z9.962 A357.1894 
N1248 X-188.833 Y6.525 Z10.009 A357.2625 
N1249 X-188.833 Y6.027 Z10.061 A357.3644 
N1250 X-188.833 Y5.529 Z10.119 A357.5048 
N1251 X-188.833 Y5.031 Z10.186 A357.6951 
N1252 X-188.833 Y4.534 Z10.262 A357.9478 
N1253 X-188.833 Y4.037 Z10.351 A358.2767 
N1254 X-188.833 Y3.540 Z10.455 A358.6969 
N1255 X-188.833 Y3.042 Z10.574 A359.2238 
N1256 X-188.833 Y2.543 Z10.713 A359.8722 
N1257 X-188.833 Y2.043 Z10.871 A0.6554 
N1258 X-188.833 Y1.539 Z11.050 A1.5876 
N1259 X-188.833 Y1.032 Z11.253 A2.6858 
N1260 X-188.833 Y0.518 Z11.481 A3.9702 
N1261 X-188.833 Y-0.005 Z11.736 A5.4630 
N1262 X-188.833 Y-0.539 Z12.022 A7.1890 
N1263 X-188.833 Y-1.090 Z12.339 A9.1712 
N1264 X-188.833 Y-1.661 Z12.689 A11.4291 
N1265 X-188.833 Y-2.260 Z13.070 A13.9869 
N1266 X-188.833 Y-2.892 Z13.485 A16.8757 
N1267 X-188.833 Y-3.568 Z13.929 A20.1150 
N1268 X-188.833 Y-4.295 Z14.397 A23.7167 
N1269 X-188.833 Y-5.082 Z14.880 A27.6832 
N1270 X-188.833 Y-5.934 Z15.362 A31.9910 
N1271 X-188.833 Y-6.855 Z15.826 A36.6040 
N1272 X-188.833 Y-7.844 Z16.251 A41.4865 
N1273 X-188.833 Y-8.893 Z16.618 A46.5711 
N1274 X-188.833 Y-9.983 Z16.900 A51.7430 
N1275 X-188.833 Y-11.089 Z17.079 A56.8869 
N1276 X-188.833 Y-12.188 Z17.149 A61.9125 
N1277 X-188.833 Y-13.258 Z17.108 A66.7621 
N1278 X-188.833 Y-14.283 Z16.965 A71.4054 
N1279 X-188.833 Y-15.253 Z16.730 A75.8254 
N1280 X-188.833 Y-16.157 Z16.412 A80.0110 
N1281 X-188.833 Y-16.993 Z16.025 A83.9629 
N1282 X-188.833 Y-17.757 Z15.580 A87.6924 
N1283 X-188.833 Y-18.452 Z15.087 A91.2152 
N1284 X-188.833 Y-19.080 Z14.555 A94.5489 
N1285 X-188.833 Y-19.643 Z13.992 A97.7106 
N1286 X-188.833 Y-20.146 Z13.404 A100.7163 
N1287 X-188.833 Y-20.591 Z12.797 A103.5806 
N1288 X-188.833 Y-20.982 Z12.176 A106.3169 
N1289 X-188.833 Y-21.322 Z11.543 A108.9369 
N1290 X-188.833 Y-21.614 Z10.903 A111.4515 
N1291 X-188.833 Y-21.861 Z10.258 A113.8700 
N1292 X-188.833 Y-22.066 Z9.611 A116.2007 
N1293 X-188.833 Y-22.231 Z8.963 A118.4508 
N1294 X-188.833 Y-22.359 Z8.317 A120.6264 
N1295 X-188.833 Y-22.451 Z7.673 A122.7326 
N1296 X-188.833 Y-22.508 Z7.033 A124.7737 
N1297 X-188.833 Y-22.534 Z6.399 A126.7537 
N1298 X-188.833 Y-22.530 Z5.770 A128.6762 
N1299 X-188.833 Y-22.496 Z5.149 A130.5446 
N1300 X-188.833 Y-22.436 Z4.536 A132.3630 
N1301 X-188.833 Y-22.350 Z3.931 A134.1361 
N1302 X-188.833 Y-22.239 Z3.334 A135.8693 
N1303 X-188.833 Y-22.107 Z2.746 A137.5683 
N1304 X-188.833 Y-21.953 Z2.166 A139.2374 
N1305 X-188.833 Y-21.780 Z1.595 A140.8803 
N1306 X-188.833 Y-21.587 Z1.032 A142.4999 
N1307 X-188.833 Y-21.377 Z0.479 A144.0985 
N1308 X-188.833 Y-21.149 Z-0.066 A145.6780 
N1309 X-188.833 Y-20.904 Z-0.601 A147.2399 
N1310 X-188.833 Y-20.643 Z-1.127 A148.7854 
N1311 X-188.833 Y-20.367 Z-1.643 A150.3163 
N1312 X-188.833 Y-20.076 Z-2.150 A151.8344 
N1313 X-188.833 Y-19.770 Z-2.647 A153.3421 
N1314 X-188.833 Y-19.451 Z-3.134 A154.8420 
N1315 X-188.833 Y-19.119 Z-3.612 A156.3367 
N1316 X-188.833 Y-18.775 Z-4.080 A157.8294 
N1317 X-188.833 Y-18.418 Z-4.540 A159.3233 
N1318 X-188.833 Y-18.050 Z-4.991 A160.8217 
N1319 X-188.833 Y-17.671 Z-5.434 A162.3278 
N1320 X-188.833 Y-17.281 Z-5.869 A163.8449 
N1321 X-188.833 Y-16.880 Z-6.295 A165.3762 
N1322 X-188.833 Y-16.469 Z-6.714 A166.9245 
N1323 X-188.833 Y-16.047 Z-7.126 A168.4927 
N1324 X-188.833 Y-15.614 Z-7.530 A170.0831 
N1325 X-188.833 Y-15.172 Z-7.926 A171.6978 
N1326 X-188.833 Y-14.719 Z-8.315 A173.3385 
N1327 X-188.833 Y-14.255 Z-8.695 A175.0064 
N1328 X-188.833 Y-13.781 Z-9.067 A176.7023 
N1329 X-188.833 Y-13.296 Z-9.431 A178.4265 
N1330 X-188.833 Y-12.801 Z-9.784 A180.1788 
N1331 X-188.833 Y-12.295 Z-10.128 A181.9585 
N1332 X-188.833 Y-11.778 Z-10.461 A183.7648 
N1333 X-188.833 Y-11.250 Z-10.782 A185.5959 
N1334 X-188.833 Y-10.712 Z-11.090 A187.4497 
N1335 X-188.833 Y-10.163 Z-11.385 A189.3244 
N1336 X-188.833 Y-9.604 Z-11.665 A191.2174 
N1337 X-188.833 Y-9.036 Z-11.929 A193.1261 
N1338 X-188.833 Y-8.459 Z-12.177 A195.0473 
N1339 X-188.833 Y-7.873 Z-12.406 A196.9787 
N1340 X-188.833 Y-7.279 Z-12.618 A198.9182 
N1341 X-188.833 Y-6.678 Z-12.810 A200.8632 
N1342 X-188.833 Y-6.071 Z-12.982 A202.8108 
N1343 X-188.833 Y-5.458 Z-13.133 A204.7589 
N1344 X-188.833 Y-4.840 Z-13.263 A206.7039 
N1345 X-188.833 Y-4.220 Z-13.370 A208.6396 
N1346 X-188.833 Y-3.597 Z-13.455 A210.5626 
N1347 X-188.833 Y-2.973 Z-13.516 A212.4764 
N1348 X-188.833 Y-2.347 Z-13.557 A214.3885 
N1349 X-188.833 Y-1.720 Z-13.578 A216.3047 
N1350 X-188.833 Y-1.091 Z-13.578 A218.2302 
N1351 X-188.833 Y-0.462 Z-13.560 A220.1677 
N1352 X-188.833 Y0.168 Z-13.522 A222.1164 
N1353 X-188.833 Y0.799 Z-13.463 A224.0765 
N1354 X-188.833 Y1.427 Z-13.385 A226.0449 
N1355 X-188.833 Y2.054 Z-13.286 A228.0205 
N1356 X-188.833 Y2.680 Z-13.167 A230.0141 
N1357 X-188.833 Y3.306 Z-13.031 A232.0444 
N1358 X-188.833 Y3.934 Z-12.878 A234.1157 
N1359 X-188.833 Y4.559 Z-12.704 A236.2087 
N1360 X-188.833 Y5.179 Z-12.508 A238.3109 
N1361 X-188.833 Y5.796 Z-12.293 A240.4439 
N1362 X-188.833 Y6.416 Z-12.061 A242.6449 
N1363 X-188.833 Y7.043 Z-11.812 A244.9365 
N1364 X-188.833 Y7.677 Z-11.546 A247.3314 
N1365 X-188.833 Y8.320 Z-11.261 A249.8454 
N1366 X-188.833 Y8.976 Z-10.957 A252.5010 
N1367 X-188.833 Y9.648 Z-10.631 A255.3261 
N1368 X-188.833 Y10.341 Z-10.280 A258.3507 
N1369 X-188.833 Y11.057 Z-9.899 A261.6079 
N1370 X-188.833 Y11.800 Z-9.482 A265.1263 
N1371 X-188.833 Y12.570 Z-9.022 A268.9336 
N1372 X-188.833 Y13.367 Z-8.508 A273.0520 
N1373 X-188.833 Y14.186 Z-7.931 A277.4933 
N1374 X-188.833 Y15.016 Z-7.279 A282.2534 
N1375 X-188.833 Y15.842 Z-6.545 A287.3016 
N1376 X-188.833 Y16.639 Z-5.724 A292.5770 
N1377 X-188.833 Y17.380 Z-4.822 A297.9874 
N1378 X-188.833 Y18.035 Z-3.852 A303.4149 
N1379 X-188.833 Y18.579 Z-2.837 A308.7312 
N1380 X-188.833 Y18.995 Z-1.807 A313.8164 
N1381 X-188.833 Y19.277 Z-0.791 A318.5744 
N1382 X-188.833 Y19.430 Z0.185 A322.9386 
N1383 X-188.833 Y19.464 Z1.103 A326.8776 
N1384 X-188.833 Y19.397 Z1.954 A330.4103 
N1385 X-188.833 Y19.248 Z2.737 A333.5772 
N1386 X-188.833 Y19.031 Z3.454 A336.4166 
N1387 X-188.833 Y18.759 Z4.107 A338.9619 
N1388 X-188.833 Y18.442 Z4.700 A341.2397 
N1389 X-188.833 Y18.088 Z5.235 A343.2741 
N1390 X-188.833 Y17.706 Z5.718 A345.0903 
N1391 X-188.833 Y17.299 Z6.152 A346.7096 
N1392 X-188.833 Y16.874 Z6.541 A348.1496 
N1393 X-188.833 Y16.433 Z6.889 A349.4285 
N1394 X-188.833 Y15.981 Z7.201 A350.5628 
N1395 X-188.833 Y15.519 Z7.479 A351.5661 
N1396 X-188.833 Y15.049 Z7.726 A352.4496 
N1397 X-188.833 Y14.573 Z7.945 A353.2223 
N1398 X-188.833 Y14.091 Z8.139 A353.8914 
N1399 X-188.833 Y13.606 Z8.308 A354.4641 
N1400 X-188.833 Y13.118 Z8.456 A354.9489 
N1401 X-188.833 Y12.627 Z8.586 A355.3551 
N1402 X-188.833 Y12.135 Z8.698 A355.6922 
N1403 X-188.833 Y11.641 Z8.797 A355.9689 
N1404 X-188.833 Y11.146 Z8.883 A356.1933 
N1405 X-188.833 Y10.650 Z8.959 A356.3733 
N1406 X-188.833 Y10.153 Z9.026 A356.5160 
N1407 X-188.833 Y9.656 Z9.086 A356.6288 
N1408 X-188.833 Y9.159 Z9.141 A356.7188 
N1409 X-188.833 Y8.661 Z9.193 A356.7939 
N1410 X-188.833 Y8.163 Z9.242 A356.8621 
N1411 X-188.833 Y7.665 Z9.292 A356.9328 
N1412 X-188.833 Y7.168 Z9.343 A357.0153 
N1413 X-188.833 Y6.670 Z9.397 A357.1181 
N1414 X-188.833 Y6.172 Z9.456 A357.2497 
N1415 X-188.833 Y5.675 Z9.520 A357.4183 
N1416 X-188.833 Y5.178 Z9.592 A357.6326 
N1417 X-188.833 Y4.681 Z9.672 A357.9014 
N1418 X-188.833 Y4.184 Z9.762 A358.2345 
N1419 X-188.833 Y3.686 Z9.864 A358.6429 
N1420 X-188.833 Y3.189 Z9.978 A359.1395 
N1421 X-188.833 Y2.690 Z10.108 A359.7387 
N1422 X-188.833 Y2.190 Z10.255 A0.4562 
N1423 X-188.833 Y1.688 Z10.421 A1.3076 
N1424 X-188.833 Y1.182 Z10.608 A2.3104 
N1425 X-188.833 Y0.671 Z10.818 A3.4851 
N1426 X-188.833 Y0.152 Z11.055 A4.8570 
N1427 X-188.833 Y-0.376 Z11.323 A6.4561 
N1428 X-188.833 Y-0.920 Z11.625 A8.3183 
N1429 X-188.833 Y-1.482 Z11.965 A10.4810 
N1430 X-188.833 Y-2.072 Z12.347 A12.9857 
N1431 X-188.833 Y-2.698 Z12.774 A15.8868 
N1432 X-188.833 Y-3.373 Z13.251 A19.2388 
N1433 X-188.833 Y-4.112 Z13.774 A23.0952 
N1434 X-188.833 Y-4.932 Z14.342 A27.5109 
N1435 X-188.833 Y-5.855 Z14.940 A32.5282 
N1436 X-188.833 Y-6.899 Z15.549 A38.1715 
N1437 X-188.833 Y-8.078 Z16.134 A44.4174 
N1438 X-188.833 Y-9.384 Z16.644 A51.1467 
N1439 X-188.833 Y-10.785 Z17.026 A58.1529 
N1440 X-188.833 Y-12.230 Z17.237 A65.1994 
N1441 X-188.833 Y-13.658 Z17.259 A72.0746 
N1442 X-188.833 Y-15.017 Z17.099 A78.6215 
N1443 X-188.833 Y-16.265 Z16.776 A84.7201 
N1444 X-188.833 Y-17.371 Z16.325 A90.2889 
N1445 X-188.833 Y-18.326 Z15.778 A95.3162 
N1446 X-188.833 Y-19.136 Z15.166 A99.8392 
N1447 X-188.833 Y-19.812 Z14.513 A103.9099 
N1448 X-188.833 Y-20.369 Z13.837 A107.5837 
N1449 X-188.833 Y-20.821 Z13.150 A110.9139 
N1450 X-188.833 Y-21.180 Z12.461 A113.9485 
N1451 X-188.833 Y-21.461 Z11.775 A116.7299 
N1452 X-188.833 Y-21.672 Z11.097 A119.2944 
N1453 X-188.833 Y-21.822 Z10.428 A121.6738 
N1454 X-188.833 Y-21.920 Z9.771 A123.8940 
N1455 X-188.833 Y-21.971 Z9.125 A125.9771 
N1456 X-188.833 Y-21.982 Z8.492 A127.9414 
N1457 X-188.833 Y-21.955 Z7.872 A129.8025 
N1458 X-188.833 Y-21.896 Z7.264 A131.5736 
N1459 X-188.833 Y-21.807 Z6.668 A133.2659 
N1460 X-188.833 Y-21.691 Z6.084 A134.8893 
N1461 X-188.833 Y-21.551 Z5.513 A136.4525 
N1462 X-188.833 Y-21.389 Z4.952 A137.9630 
N1463 X-188.833 Y-21.206 Z4.403 A139.4285 
N1464 X-188.833 Y-21.005 Z3.864 A140.8575 
N1465 X-188.833 Y-20.788 Z3.333 A142.2595 
N1466 X-188.833 Y-20.556 Z2.811 A143.6446 
N1467 X-188.833 Y-20.310 Z2.296 A145.0220 
N1468 X-188.833 Y-20.052 Z1.787 A146.4004 
N1469 X-188.833 Y-19.783 Z1.283 A147.7874 
N1470 X-188.833 Y-19.504 Z0.783 A149.1897 
N1471 X-188.833 Y-19.214 Z0.286 A150.6140 
N1472 X-188.833 Y-18.914 Z-0.208 A152.0665 
N1473 X-188.833 Y-18.605 Z-0.699 A153.5527 
N1474 X-188.833 Y-18.286 Z-1.190 A155.0781 
N1475 X-188.833 Y-17.958 Z-1.679 A156.6474 
N1476 X-188.833 Y-17.620 Z-2.168 A158.2649 
N1477 X-188.833 Y-17.271 Z-2.656 A159.9341 
N1478 X-188.833 Y-16.912 Z-3.144 A161.6578 
N1479 X-188.833 Y-16.541 Z-3.631 A163.4374 
N1480 X-188.833 Y-16.158 Z-4.116 A165.2739 
N1481 X-188.833 Y-15.762 Z-4.600 A167.1666 
N1482 X-188.833 Y-15.352 Z-5.080 A169.1144 
N1483 X-188.833 Y-14.928 Z-5.556 A171.1152 
N1484 X-188.833 Y-14.488 Z-6.026 A173.1666 
N1485 X-188.833 Y-14.033 Z-6.489 A175.2652 
N1486 X-188.833 Y-13.561 Z-6.943 A177.4074 
N1487 X-188.833 Y-13.073 Z-7.387 A179.5892 
N1488 X-188.833 Y-12.568 Z-7.819 A181.8063 
N1489 X-188.833 Y-12.046 Z-8.236 A184.0539 
N1490 X-188.833 Y-11.508 Z-8.638 A186.3272 
N1491 X-188.833 Y-10.953 Z-9.021 A188.6206 
N1492 X-188.833 Y-10.383 Z-9.385 A190.9291 
N1493 X-188.833 Y-9.799 Z-9.728 A193.2474 
N1494 X-188.833 Y-9.201 Z-10.047 A195.5696 
N1495 X-188.833 Y-8.591 Z-10.342 A197.8907 
N1496 X-188.833 Y-7.969 Z-10.610 A200.2066 
N1497 X-188.833 Y-7.338 Z-10.852 A202.5126 
N1498 X-188.833 Y-6.699 Z-11.066 A204.8034 
N1499 X-188.833 Y-6.053 Z-11.250 A207.0753 
N1500 X-188.833 Y-5.403 Z-11.405 A209.3219 
N1501 X-188.833 Y-4.751 Z-11.528 A211.5355 
N1502 X-188.833 Y-4.098 Z-11.622 A213.7193 
N1503 X-188.833 Y-3.443 Z-11.688 A215.8860 
N1504 X-188.833 Y-2.787 Z-11.729 A218.0475 
N1505 X-188.833 Y-2.129 Z-11.746 A220.2146 
N1506 X-188.833 Y-1.470 Z-11.739 A222.3945 
N1507 X-188.833 Y-0.808 Z-11.711 A224.5972 
N1508 X-188.833 Y-0.142 Z-11.662 A226.8416 
N1509 X-188.833 Y0.531 Z-11.595 A229.1473 
N1510 X-188.833 Y1.202 Z-11.503 A231.4657 
N1511 X-188.833 Y1.854 Z-11.372 A233.6870 
N1512 X-188.833 Y2.497 Z-11.215 A235.8858 
N1513 X-188.833 Y3.168 Z-11.054 A238.3007 
N1514 X-188.833 Y3.876 Z-10.889 A240.9844 
N1515 X-188.833 Y4.603 Z-10.705 A243.8240 
N1516 X-188.833 Y5.340 Z-10.494 A246.7848 
N1517 X-188.833 Y6.094 Z-10.256 A249.9051 
N1518 X-188.833 Y6.868 Z-9.987 A253.2175 
N1519 X-188.833 Y7.666 Z-9.684 A256.7494 
N1520 X-188.833 Y8.490 Z-9.340 A260.5284 
N1521 X-188.833 Y9.342 Z-8.947 A264.5865 
N1522 X-188.833 Y10.222 Z-8.497 A268.9498 
N1523 X-188.833 Y11.123 Z-7.977 A273.6221 
N1524 X-188.833 Y12.032 Z-7.377 A278.5771 
N1525 X-188.833 Y12.930 Z-6.690 A283.7731 
N1526 X-188.833 Y13.795 Z-5.914 A289.1507 
N1527 X-188.833 Y14.601 Z-5.052 A294.6359 
N1528 X-188.833 Y15.325 Z-4.114 A300.1442 
N1529 X-188.833 Y15.946 Z-3.118 A305.5885 
N1530 X-188.833 Y16.449 Z-2.086 A310.8895 
N1531 X-188.833 Y16.827 Z-1.039 A315.9843 
N1532 X-188.833 Y17.082 Z0.000 A320.8326 
N1533 X-188.833 Y17.221 Z1.018 A325.4270 
N1534 X-188.833 Y17.253 Z2.002 A329.7681 
N1535 X-188.833 Y17.188 Z2.938 A333.8302 
N1536 X-188.833 Y17.035 Z3.813 A337.5848 
N1537 X-188.833 Y16.806 Z4.620 A341.0238 
N1538 X-188.833 Y16.512 Z5.354 A344.1410 
N1539 X-188.833 Y16.166 Z6.011 A346.9398 
N1540 X-188.833 Y15.777 Z6.593 A349.4293 
N1541 X-188.833 Y15.355 Z7.101 A351.6145 
N1542 X-188.833 Y14.908 Z7.538 A353.5107 
N1543 X-188.833 Y14.443 Z7.909 A355.1383 
N1544 X-188.833 Y13.964 Z8.220 A356.5149 
N1545 X-188.833 Y13.477 Z8.474 A357.6567 
N1546 X-188.833 Y12.983 Z8.678 A358.5788 
N1547 X-188.833 Y12.486 Z8.835 A359.2987 
N1548 X-188.833 Y11.987 Z8.951 A359.8363 
N1549 X-188.833 Y11.488 Z9.032 A0.2107 
N1550 X-188.833 Y10.988 Z9.083 A0.4432 
N1551 X-188.833 Y10.491 Z9.111 A0.5679 
N1552 X-188.833 Y9.997 Z9.125 A0.6163 
N1553 X-188.833 Y9.509 Z9.130 A0.6180 
N1554 X-188.833 Y9.026 Z9.132 A0.5999 
N1555 X-188.833 Y8.550 Z9.137 A0.5808 
N1556 X-188.833 Y8.078 Z9.144 A0.5616 
N1557 X-188.833 Y7.609 Z9.154 A0.5440 
N1558 X-188.833 Y7.141 Z9.168 A0.5312 
N1559 X-188.833 Y6.674 Z9.187 
N1560 X-188.833 Y6.206 Z9.210 
N1561 X-188.833 Y5.735 Z9.236 
N1562 X-188.833 Y5.260 Z9.264 
N1563 X-188.833 Y4.779 Z9.295 
N1564 X-188.833 Y4.290 Z9.327 
N1565 X-188.833 Y3.792 Z9.361 
N1566 X-188.833 Y3.282 Z9.395 
N1567 X-188.833 Y2.760 Z9.428 
N1568 X-188.833 Y2.223 Z9.459 
N1569 X-188.833 Y1.670 Z9.485 
N1570 X-188.833 Y1.100 Z9.508 A0.5425 
N1571 X-188.833 Y0.554 Z9.624 A1.0879 
N1572 X-188.833 Y0.015 Z9.806 A2.0305 
N1573 X-188.833 Y-0.518 Z10.067 A3.4523 
N1574 X-188.833 Y-1.048 Z10.423 A5.4508 
N1575 X-188.833 Y-1.600 Z10.844 A7.8961 
N1576 X-188.833 Y-2.188 Z11.338 A10.8630 
N1577 X-188.833 Y-2.830 Z11.914 A14.4483 
N1578 X-188.833 Y-3.551 Z12.582 A18.7738 
N1579 X-188.833 Y-4.385 Z13.344 A23.9675 
N1580 X-188.833 Y-5.377 Z14.188 A30.1363 
N1581 X-188.833 Y-6.582 Z15.091 A37.4336 
N1582 X-188.833 Y-8.054 Z15.993 A45.9313 
N1583 X-188.833 Y-9.788 Z16.770 A55.3676 
N1584 X-188.833 Y-11.702 Z17.287 A65.2513 
N1585 X-188.833 Y-13.641 Z17.458 A74.9437 
N1586 X-188.833 Y-15.450 Z17.287 A83.9383 
N1587 X-188.833 Y-17.028 Z16.844 A91.9701 
N1588 X-188.833 Y-18.325 Z16.219 A98.9113 
N1589 X-188.833 Y-19.349 Z15.493 A104.8226 
N1590 X-188.833 Y-20.136 Z14.724 A109.8505 
N1591 X-188.833 Y-20.728 Z13.946 A114.1489 
N1592 X-188.833 Y-21.161 Z13.179 A117.8559 
N1593 X-188.833 Y-21.466 Z12.433 A121.0842 
N1594 X-188.833 Y-21.668 Z11.711 A123.9253 
N1595 X-188.833 Y-21.787 Z11.016 A126.4513 
N1596 X-188.833 Y-21.836 Z10.347 A128.7196 
N1597 X-188.833 Y-21.829 Z9.703 A130.7749 
N1598 X-188.833 Y-21.774 Z9.082 A132.6534 
N1599 X-188.833 Y-21.679 Z8.484 A134.3840 
N1600 X-188.833 Y-21.550 Z7.905 A135.9902 
N1601 X-188.833 Y-21.391 Z7.344 A137.4913 
N1602 X-188.833 Y-21.206 Z6.801 A138.9036 
N1603 X-188.833 Y-20.999 Z6.273 A140.2416 
N1604 X-188.833 Y-20.773 Z5.759 A141.5182 
N1605 X-188.833 Y-20.530 Z5.258 A142.7446 
N1606 X-188.833 Y-20.271 Z4.769 A143.9326 
N1607 X-188.833 Y-20.000 Z4.288 A145.0943 
N1608 X-188.833 Y-19.717 Z3.816 A146.2425 
N1609 X-188.833 Y-19.425 Z3.349 A147.3902 
N1610 X-188.833 Y-19.125 Z2.886 A148.5504 
N1611 X-188.833 Y-18.818 Z2.425 A149.7361 
N1612 X-188.833 Y-18.506 Z1.965 A150.9607 
N1613 X-188.833 Y-18.188 Z1.502 A152.2369 
N1614 X-188.833 Y-17.865 Z1.036 A153.5772 
N1615 X-188.833 Y-17.537 Z0.564 A154.9927 
N1616 X-188.833 Y-17.204 Z0.086 A156.4928 
N1617 X-188.833 Y-16.866 Z-0.399 A158.0849 
N1618 X-188.833 Y-16.520 Z-0.892 A159.7744 
N1619 X-188.833 Y-16.166 Z-1.392 A161.5637 
N1620 X-188.833 Y-15.802 Z-1.900 A163.4521 
N1621 X-188.833 Y-15.426 Z-2.412 A165.4367 
N1622 X-188.833 Y-15.036 Z-2.928 A167.5143 
N1623 X-188.833 Y-14.630 Z-3.447 A169.6810 
N1624 X-188.833 Y-14.208 Z-3.965 A171.9321 
N1625 X-188.833 Y-13.767 Z-4.482 A174.2632 
N1626 X-188.833 Y-13.307 Z-4.994 A176.6707 
N1627 X-188.833 Y-12.825 Z-5.501 A179.1501 
N1628 X-188.833 Y-12.322 Z-5.999 A181.6969 
N1629 X-188.833 Y-11.796 Z-6.485 A184.3054 
N1630 X-188.833 Y-11.247 Z-6.958 A186.9686 
N1631 X-188.833 Y-10.675 Z-7.413 A189.6784 
N1632 X-188.833 Y-10.081 Z-7.847 A192.4244 
N1633 X-188.833 Y-9.466 Z-8.257 A195.1952 
N1634 X-188.833 Y-8.831 Z-8.639 A197.9793 
N1635 X-188.833 Y-8.178 Z-8.990 A200.7647 
N1636 X-188.833 Y-7.509 Z-9.307 A203.5411 
N1637 X-188.833 Y-6.827 Z-9.589 A206.3036 
N1638 X-188.833 Y-6.134 Z-9.835 A209.0470 
N1639 X-188.833 Y-5.432 Z-10.043 A211.7651 
N1640 X-188.833 Y-4.725 Z-10.212 A214.4462 
N1641 X-188.833 Y-4.017 Z-10.340 A217.0803 
N1642 X-188.833 Y-3.308 Z-10.430 A219.6714 
N1643 X-188.833 Y-2.601 Z-10.483 A222.2308 
N1644 X-188.833 Y-1.893 Z-10.503 A224.7795 
N1645 X-188.833 Y-1.183 Z-10.493 A227.3401 
N1646 X-188.833 Y-0.469 Z-10.456 A229.9398 
N1647 X-188.833 Y0.255 Z-10.396 A232.6171 
N1648 X-188.833 Y0.992 Z-10.313 A235.4009 
N1649 X-188.833 Y1.740 Z-10.205 A238.2874 
N1650 X-188.833 Y2.498 Z-10.068 A241.2704 
N1651 X-188.833 Y3.267 Z-9.902 A244.3702 
N1652 X-188.833 Y4.051 Z-9.704 A247.6080 
N1653 X-188.833 Y4.849 Z-9.471 A250.9944 
N1654 X-188.833 Y5.661 Z-9.200 A254.5444 
N1655 X-188.833 Y6.491 Z-8.886 A258.2832 
N1656 X-188.833 Y7.338 Z-8.525 A262.2404 
N1657 X-188.833 Y8.206 Z-8.109 A266.4431 
N1658 X-188.833 Y9.089 Z-7.629 A270.9070 
N1659 X-188.833 Y9.985 Z-7.078 A275.6458 
N1660 X-188.833 Y10.888 Z-6.443 A280.6852 
N1661 X-188.833 Y11.790 Z-5.716 A286.0429 
N1662 X-188.833 Y12.675 Z-4.885 A291.7201 
N1663 X-188.833 Y13.525 Z-3.944 A297.6993 
N1664 X-188.833 Y14.314 Z-2.892 A303.9409 
N1665 X-188.833 Y15.012 Z-1.736 A310.3821 
N1666 X-188.833 Y15.590 Z-0.494 A316.9318 
N1667 X-188.833 Y16.018 Z0.800 A323.4463 
N1668 X-188.833 Y16.274 Z2.095 A329.7155 
N1669 X-188.833 Y16.354 Z3.336 A335.5649 
N1670 X-188.833 Y16.275 Z4.486 A340.8913 
N1671 X-188.833 Y16.064 Z5.520 A345.6493 
N1672 X-188.833 Y15.750 Z6.428 A349.8531 
N1673 X-188.833 Y15.360 Z7.215 A353.5395 
N1674 X-188.833 Y14.916 Z7.885 A356.7556 
N1675 X-188.833 Y14.434 Z8.450 A359.5479 
N1676 X-188.833 Y13.928 Z8.916 A1.9480 
N1677 X-188.833 Y13.408 Z9.293 A3.9885 
N1678 X-188.833 Y12.881 Z9.588 A5.6945 
N1679 X-188.833 Y12.354 Z9.808 A7.0808 
N1680 X-188.833 Y11.830 Z9.956 A8.1537 
N1681 X-188.833 Y11.312 Z10.037 A8.9221 
N1682 X-188.833 Y10.804 Z10.060 A9.4152 
N1683 X-188.833 Y10.308 Z10.041 A9.6960 
N1684 X-188.833 Y9.827 Z9.993 A9.8203 
N1685 X-188.833 Y9.365 Z9.929 A9.8434 
N1686 X-188.833 Y8.920 Z9.863 A9.8210 
N1687 X-188.833 Y8.495 Z9.804 A9.7922 
N1688 X-188.833 Y8.087 Z9.753 A9.7595 
N1689 X-188.833 Y7.691 Z9.711 A9.7246 
N1690 X-188.833 Y7.307 Z9.678 A9.6864 
N1691 X-188.833 Y6.930 Z9.654 A9.6446 
N1692 X-188.833 Y6.558 Z9.639 A9.6012 
N1693 X-188.833 Y6.188 Z9.640 A9.5919 
N1694 X-188.833 Y5.816 Z9.653 
N1695 X-188.833 Y5.438 Z9.676 
N1696 X-188.833 Y5.053 Z9.708 
N1697 X-188.833 Y4.656 Z9.750 
N1698 X-188.833 Y4.247 Z9.801 
N1699 X-188.833 Y3.823 Z9.861 
N1700 X-188.833 Y3.381 Z9.929 
N1701 X-188.833 Y2.918 Z10.004 
N1702 X-188.833 Y2.429 Z10.085 
N1703 X-188.833 Y1.910 Z10.170 
N1704 X-188.833 Y1.356 Z10.256 
N1705 X-188.833 Y0.759 Z10.338 
N1706 X-188.833 Y0.111 Z10.411 
N1707 X-188.833 Y-0.601 Z10.465 
N1708 X-188.833 Y-1.390 Z10.485 
N1709 X-188.833 Y-2.228 Z10.623 A10.4524 
N1710 X-188.833 Y-3.070 Z11.206 A13.9190 
N1711 X-188.833 Y-4.020 Z12.128 A19.6694 
N1712 X-188.833 Y-5.208 Z13.413 A28.1330 
N1713 X-188.833 Y-6.636 Z14.799 A38.1309 
N1714 X-188.833 Y-8.242 Z15.952 A48.1287 
N1715 X-188.833 Y-10.006 Z16.831 A58.1266 
N1716 X-188.833 Y-11.892 Z17.399 A68.1244 
N1717 X-188.833 Y-13.850 Z17.618 A78.1223 
N1718 X-188.833 Y-15.822 Z17.456 A88.1201 
N1719 X-188.833 Y-17.730 Z16.888 A98.1022 
N1720 X-188.833 Y-19.274 Z16.036 A106.8100 
N1721 X-188.833 Y-20.359 Z15.103 A113.7041 
N1722 X-188.833 Y-21.097 Z14.178 A119.2117 
N1723 X-188.833 Y-21.582 Z13.296 A123.6861 
N1724 X-188.833 Y-21.880 Z12.469 A127.3833 
N1725 X-188.833 Y-22.040 Z11.697 A130.4887 
N1726 X-188.833 Y-22.094 Z10.978 A133.1327 
N1727 X-188.833 Y-22.067 Z10.306 A135.4116 
N1728 X-188.833 Y-21.976 Z9.678 A137.3944 
N1729 X-188.833 Y-21.832 Z9.088 A139.1297 
N1730 X-188.833 Y-21.645 Z8.534 A140.6540 
N1731 X-188.833 Y-21.423 Z8.012 A141.9979 
N1732 X-188.833 Y-21.171 Z7.519 A143.1864 
N1733 X-188.833 Y-20.894 Z7.052 A144.2391 
N1734 X-188.833 Y-20.595 Z6.608 A145.1749 
N1735 X-188.833 Y-20.280 Z6.184 A146.0169 
N1736 X-188.833 Y-19.951 Z5.776 A146.7912 
N1737 X-188.833 Y-19.613 Z5.378 A147.5269 
N1738 X-188.833 Y-19.269 Z4.986 A148.2528 
N1739 X-188.833 Y-18.922 Z4.595 A148.9953 
N1740 X-188.833 Y-18.573 Z4.203 A149.7794 
N1741 X-188.833 Y-18.226 Z3.804 A150.6305 
N1742 X-188.833 Y-17.881 Z3.395 A151.5734 
N1743 X-188.833 Y-17.539 Z2.972 A152.6301 
N1744 X-188.833 Y-17.200 Z2.534 A153.8180 
N1745 X-188.833 Y-16.864 Z2.079 A155.1471 
N1746 X-188.833 Y-16.528 Z1.606 A156.6215 
N1747 X-188.833 Y-16.190 Z1.116 A158.2442 
N1748 X-188.833 Y-15.849 Z0.609 A160.0171 
N1749 X-188.833 Y-15.500 Z0.086 A161.9395 
N1750 X-188.833 Y-15.142 Z-0.451 A164.0079 
N1751 X-188.833 Y-14.771 Z-1.001 A166.2180 
N1752 X-188.833 Y-14.385 Z-1.563 A168.5685 
N1753 X-188.833 Y-13.980 Z-2.134 A171.0581 
N1754 X-188.833 Y-13.553 Z-2.713 A173.6841 
N1755 X-188.833 Y-13.102 Z-3.297 A176.4452 
N1756 X-188.833 Y-12.623 Z-3.883 A179.3383 
N1757 X-188.833 Y-12.115 Z-4.469 A182.3571 
N1758 X-188.833 Y-11.574 Z-5.049 A185.4922 
N1759 X-188.833 Y-11.000 Z-5.617 A188.7291 
N1760 X-188.833 Y-10.391 Z-6.167 A192.0493 
N1761 X-188.833 Y-9.748 Z-6.693 A195.4301 
N1762 X-188.833 Y-9.073 Z-7.185 A198.8463 
N1763 X-188.833 Y-8.369 Z-7.639 A202.2750 
N1764 X-188.833 Y-7.640 Z-8.048 A205.6942 
N1765 X-188.833 Y-6.891 Z-8.409 A209.0851 
N1766 X-188.833 Y-6.126 Z-8.717 A212.4300 
N1767 X-188.833 Y-5.351 Z-8.970 A215.7117 
N1768 X-188.833 Y-4.572 Z-9.168 A218.9199 
N1769 X-188.833 Y-3.792 Z-9.312 A222.0603 
N1770 X-188.833 Y-3.012 Z-9.407 A225.1525 
N1771 X-188.833 Y-2.232 Z-9.455 A228.2116 
N1772 X-188.833 Y-1.454 Z-9.459 A231.2487 
N1773 X-188.833 Y-0.679 Z-9.421 A234.2726 
N1774 X-188.833 Y0.089 Z-9.339 A237.2690 
N1775 X-188.833 Y0.839 Z-9.210 A240.1944 
N1776 X-188.833 Y1.568 Z-9.036 A243.0342 
N1777 X-188.833 Y2.281 Z-8.823 A245.8370 
N1778 X-188.833 Y2.990 Z-8.578 A248.6832 
N1779 X-188.833 Y3.712 Z-8.307 A251.6732 
N1780 X-188.833 Y4.465 Z-8.011 A254.9138 
N1781 X-188.833 Y5.264 Z-7.687 A258.5037 
N1782 X-188.833 Y6.117 Z-7.323 A262.4907 
N1783 X-188.833 Y7.025 Z-6.905 A266.9207 
N1784 X-188.833 Y8.009 Z-6.415 A271.9351 
N1785 X-188.833 Y9.086 Z-5.823 A277.6912 
N1786 X-188.833 Y10.247 Z-5.089 A284.2601 
N1787 X-188.833 Y11.467 Z-4.169 A291.6774 
N1788 X-188.833 Y12.726 Z-3.002 A300.1246 
N1789 X-188.833 Y13.977 Z-1.521 A309.7699 
N1790 X-188.833 Y15.008 Z0.195 A319.7678 
N1791 X-188.833 Y15.696 Z2.026 A329.5113 
N1792 X-188.833 Y16.024 Z3.843 A338.6616 
N1793 X-188.833 Y16.016 Z5.499 A346.7876 
N1794 X-188.833 Y15.746 Z6.860 A353.4417 
N1795 X-188.833 Y15.318 Z7.926 A358.7473 
N1796 X-188.833 Y14.805 Z8.767 A3.0961 
N1797 X-188.833 Y14.246 Z9.431 A6.7201 
N1798 X-188.833 Y13.666 Z9.950 A9.7597 
N1799 X-188.833 Y13.080 Z10.344 A12.2955 
N1800 X-188.833 Y12.499 Z10.630 A14.3820 
N1801 X-188.833 Y11.929 Z10.820 A16.0622 
N1802 X-188.833 Y11.375 Z10.926 A17.3618 
N1803 X-188.833 Y10.842 Z10.951 A18.2871 
N1804 X-188.833 Y10.332 Z10.909 A18.8751 
N1805 X-188.833 Y9.847 Z10.819 A19.2058 
N1806 X-188.833 Y9.388 Z10.700 A19.3553 
N1807 X-188.833 Y8.955 Z10.570 A19.3938 
N1808 X-188.833 Y8.550 Z10.445 A19.3862 
N1809 X-188.833 Y8.173 Z10.334 A19.3658 
N1810 X-188.833 Y7.820 Z10.236 A19.3367 
N1811 X-188.833 Y7.490 Z10.155 A19.3027 
N1812 X-188.833 Y7.181 Z10.087 A19.2593 
N1813 X-188.833 Y6.889 Z10.031 A19.2026 
N1814 X-188.833 Y6.609 Z9.988 A19.1383 
N1815 X-188.833 Y6.337 Z9.958 A19.0777 
N1816 X-188.833 Y6.069 Z9.946 A19.0369 
N1817 X-188.833 Y5.800 Z9.954 
N1818 X-188.833 Y5.526 Z9.975 
N1819 X-188.833 Y5.240 Z10.010 
N1820 X-188.833 Y4.939 Z10.059 
N1821 X-188.833 Y4.620 Z10.123 
N1822 X-188.833 Y4.278 Z10.204 
N1823 X-188.833 Y3.911 Z10.301 
N1824 X-188.833 Y3.516 Z10.414 
N1825 X-188.833 Y3.092 Z10.542 
N1826 X-188.833 Y2.640 Z10.682 
N1827 X-188.833 Y2.159 Z10.833 
N1828 X-188.833 Y1.652 Z10.990 
N1829 X-188.833 Y1.127 Z11.148 
N1830 X-188.833 Y0.599 Z11.301 
N1831 X-188.833 Y0.086 Z11.445 
N1832 X-188.833 Y-0.415 Z11.577 
N1833 X-188.833 Y-1.016 Z11.712 
N1834 X-188.833 Y-1.813 Z11.823 
N1835 X-188.833 Y-2.867 Z11.915 A19.4702 
N1836 X-188.833 Y-3.871 Z12.619 A23.6816 
N1837 X-188.833 Y-4.952 Z13.389 A29.1243 
N1838 X-188.833 Y-6.149 Z14.367 A36.4860 
N1839 X-188.833 Y-7.570 Z15.543 A45.8475 
N1840 X-188.833 Y-9.218 Z16.586 A55.8453 
N1841 X-188.833 Y-11.019 Z17.332 A65.8432 
N1842 X-188.833 Y-12.920 Z17.760 A75.8410 
N1843 X-188.833 Y-14.866 Z17.854 A85.8388 
N1844 X-188.833 Y-16.798 Z17.612 A95.8364 
N1845 X-188.833 Y-18.662 Z17.049 A105.8345 
N1846 X-188.833 Y-20.340 Z16.161 A115.5669 
N1847 X-188.833 Y-21.422 Z15.217 A122.8161 
N1848 X-188.833 Y-21.935 Z14.421 A127.3252 
N1849 X-188.833 Y-22.188 Z13.635 A130.8678 
N1850 X-188.833 Y-22.313 Z12.843 A134.0608 
N1851 X-188.833 Y-22.319 Z12.126 A136.6804 
N1852 X-188.833 Y-22.225 Z11.487 A138.7520 
N1853 X-188.833 Y-22.055 Z10.915 A140.3912 
N1854 X-188.833 Y-21.832 Z10.395 A141.7087 
N1855 X-188.833 Y-21.570 Z9.918 A142.7883 
N1856 X-188.833 Y-21.280 Z9.472 A143.6913 
N1857 X-188.833 Y-20.968 Z9.050 A144.4628 
N1858 X-188.833 Y-20.639 Z8.649 A145.1371 
N1859 X-188.833 Y-20.299 Z8.261 A145.7433 
N1860 X-188.833 Y-19.951 Z7.884 A146.3073 
N1861 X-188.833 Y-19.596 Z7.513 A146.8540 
N1862 X-188.833 Y-19.239 Z7.145 A147.4070 
N1863 X-188.833 Y-18.882 Z6.776 A147.9872 
N1864 X-188.833 Y-18.525 Z6.402 A148.6126 
N1865 X-188.833 Y-18.170 Z6.023 A149.3001 
N1866 X-188.833 Y-17.817 Z5.635 A150.0657 
N1867 X-188.833 Y-17.469 Z5.237 A150.9255 
N1868 X-188.833 Y-17.124 Z4.825 A151.8951 
N1869 X-188.833 Y-16.783 Z4.398 A152.9894 
N1870 X-188.833 Y-16.445 Z3.955 A154.2208 
N1871 X-188.833 Y-16.109 Z3.493 A155.6010 
N1872 X-188.833 Y-15.775 Z3.011 A157.1431 
N1873 X-188.833 Y-15.439 Z2.507 A158.8619 
N1874 X-188.833 Y-15.101 Z1.980 A160.7723 
N1875 X-188.833 Y-14.756 Z1.427 A162.8876 
N1876 X-188.833 Y-14.402 Z0.847 A165.2182 
N1877 X-188.833 Y-14.034 Z0.241 A167.7727 
N1878 X-188.833 Y-13.646 Z-0.391 A170.5574 
N1879 X-188.833 Y-13.233 Z-1.048 A173.5794 
N1880 X-188.833 Y-12.788 Z-1.729 A176.8503 
N1881 X-188.833 Y-12.305 Z-2.432 A180.3773 
N1882 X-188.833 Y-11.777 Z-3.152 A184.1597 
N1883 X-188.833 Y-11.195 Z-3.881 A188.1836 
N1884 X-188.833 Y-10.556 Z-4.607 A192.4171 
N1885 X-188.833 Y-9.856 Z-5.312 A196.8117 
N1886 X-188.833 Y-9.096 Z-5.979 A201.3086 
N1887 X-188.833 Y-8.284 Z-6.591 A205.8406 
N1888 X-188.833 Y-7.430 Z-7.131 A210.3397 
N1889 X-188.833 Y-6.546 Z-7.588 A214.7428 
N1890 X-188.833 Y-5.647 Z-7.953 A218.9932 
N1891 X-188.833 Y-4.750 Z-8.223 A223.0455 
N1892 X-188.833 Y-3.865 Z-8.402 A226.8925 
N1893 X-188.833 Y-2.995 Z-8.500 A230.5590 
N1894 X-188.833 Y-2.180 Z-8.501 A233.8491 
N1895 X-188.833 Y-1.484 Z-8.376 A236.3878 
N1896 X-188.833 Y-0.874 Z-8.173 A238.4314 
N1897 X-188.833 Y-0.229 Z-7.972 A240.7351 
N1898 X-188.833 Y0.467 Z-7.776 A243.3941 
N1899 X-188.833 Y1.148 Z-7.545 A246.0200 
N1900 X-188.833 Y1.793 Z-7.273 A248.5096 
N1901 X-188.833 Y2.422 Z-6.973 A250.9741 
N1902 X-188.833 Y3.057 Z-6.651 A253.5460 
N1903 X-188.833 Y3.727 Z-6.314 A256.3923 
N1904 X-188.833 Y4.475 Z-5.961 A259.7499 
N1905 X-188.833 Y5.359 Z-5.583 A263.9483 
N1906 X-188.833 Y6.527 Z-5.146 A269.7988 
N1907 X-188.833 Y7.997 Z-4.637 A277.5068 
N1908 X-188.833 Y9.775 Z-3.888 A287.2850 
N1909 X-188.833 Y11.461 Z-2.891 A297.2830 
N1910 X-188.833 Y12.959 Z-1.635 A307.2808 
N1911 X-188.833 Y14.218 Z-0.142 A317.2786 
N1912 X-188.833 Y15.198 Z1.549 A327.2764 
N1913 X-188.833 Y15.861 Z3.389 A337.2742 
N1914 X-188.833 Y16.172 Z5.323 A347.2721 
N1915 X-188.833 Y16.080 Z7.235 A356.9862 
N1916 X-188.833 Y15.628 Z8.778 A4.9773 
N1917 X-188.833 Y14.974 Z9.872 A11.0113 
N1918 X-188.833 Y14.307 Z10.534 A15.0860 
N1919 X-188.833 Y13.672 Z10.919 A17.8806 
N1920 X-188.833 Y13.075 Z11.121 A19.8233 
N1921 X-188.833 Y12.513 Z11.198 A21.1689 
N1922 X-188.833 Y11.981 Z11.183 A22.0670 
N1923 X-188.833 Y11.476 Z11.099 A22.6164 
N1924 X-188.833 Y10.993 Z10.971 A22.9248 
N1925 X-188.833 Y10.532 Z10.817 A23.0722 
N1926 X-188.833 Y10.091 Z10.652 A23.1240 
N1927 X-188.833 Y9.670 Z10.490 A23.1366 
N1928 X-188.833 Y9.269 Z10.343 A23.1550 
N1929 X-188.833 Y8.891 Z10.211 A23.1716 
N1930 X-188.833 Y8.535 Z10.094 A23.1761 
N1931 X-188.833 Y8.203 Z9.991 A23.1598 
N1932 X-188.833 Y7.894 Z9.902 A23.1264 
N1933 X-188.833 Y7.605 Z9.827 A23.0830 
N1934 X-188.833 Y7.332 Z9.767 A23.0309 
N1935 X-188.833 Y7.072 Z9.719 A22.9670 
N1936 X-188.833 Y6.821 Z9.683 A22.8946 
N1937 X-188.833 Y6.572 Z9.661 A22.8272 
N1938 X-188.833 Y6.320 Z9.653 A22.7714 
N1939 X-188.833 Y6.061 Z9.661 A22.7266 
N1940 X-188.833 Y5.791 Z9.685 A22.6975 
N1941 X-188.833 Y5.509 Z9.727 A22.6842 
N1942 X-188.833 Y5.214 Z9.786 A22.6817 
N1943 X-188.833 Y4.906 Z9.861 A22.6864 
N1944 X-188.833 Y4.586 Z9.952 A22.6967 
N1945 X-188.833 Y4.254 Z10.007 A22.4654 
N1946 X-188.833 Y3.911 Z10.019 A21.9627 
N1947 X-188.833 Y3.556 Z9.991 A21.2121 
N1948 X-188.833 Y3.188 Z9.930 A20.2377 
N1949 X-188.833 Y2.807 Z9.837 A19.0569 
N1950 X-188.833 Y2.417 Z9.767 A17.9285 
N1951 X-188.833 Y2.021 Z9.728 A16.8953 
N1952 X-188.833 Y1.620 Z9.719 A15.9567 
N1953 X-188.833 Y1.219 Z9.746 A15.1524 
N1954 X-188.833 Y0.870 Z9.861 A14.8387 
N1955 X-188.833 Y0.513 Z10.033 A14.7666 
N1956 X-188.833 Y-0.012 Z10.494 A15.7141 
N1957 X-188.833 Y-0.818 Z11.481 A18.9523 
N1958 X-188.833 Y-1.807 Z12.284 A21.9062 
N1959 X-188.833 Y-2.841 Z12.619 A23.5039 
N1960 X-188.833 Y-3.884 Z12.991 A26.1477 
N1961 X-188.833 Y-4.948 Z13.604 A30.7917 
N1962 X-188.833 Y-6.101 Z14.453 A37.4353 
N1963 X-188.833 Y-7.455 Z15.508 A46.0784 
N1964 X-188.833 Y-9.081 Z16.575 A56.0763 
N1965 X-188.833 Y-10.868 Z17.344 A66.0741 
N1966 X-188.833 Y-12.760 Z17.792 A76.0719 
N1967 X-188.833 Y-14.702 Z17.905 A86.0698 
N1968 X-188.833 Y-16.633 Z17.680 A96.0676 
N1969 X-188.833 Y-18.498 Z17.128 A106.0650 
N1970 X-188.833 Y-20.246 Z16.283 A116.0632 
N1971 X-188.833 Y-21.813 Z15.135 A126.0621 
N1972 X-188.833 Y-22.832 Z14.005 A133.8456 
N1973 X-188.833 Y-23.278 Z13.169 A138.5426 
N1974 X-188.833 Y-23.338 Z12.588 A141.0087 
N1975 X-188.833 Y-23.131 Z12.194 A141.9036 
N1976 X-188.833 Y-22.761 Z11.866 A142.0200 
N1977 X-188.833 Y-22.374 Z11.553 A142.0141 
N1978 X-188.833 Y-21.987 Z11.232 A142.0453 
N1979 X-188.833 Y-21.616 Z10.895 A142.1969 
N1980 X-188.833 Y-21.251 Z10.549 A142.4141 
N1981 X-188.833 Y-20.892 Z10.196 A142.6888 
N1982 X-188.833 Y-20.536 Z9.838 A143.0063 
N1983 X-188.833 Y-20.183 Z9.476 A143.3642 
N1984 X-188.833 Y-19.832 Z9.110 A143.7640 
N1985 X-188.833 Y-19.483 Z8.740 A144.2087 
N1986 X-188.833 Y-19.137 Z8.364 A144.7029 
N1987 X-188.833 Y-18.794 Z7.983 A145.2517 
N1988 X-188.833 Y-18.454 Z7.596 A145.8609 
N1989 X-188.833 Y-18.116 Z7.202 A146.5369 
N1990 X-188.833 Y-17.781 Z6.800 A147.2867 
N1991 X-188.833 Y-17.449 Z6.390 A148.1184 
N1992 X-188.833 Y-17.120 Z5.969 A149.0407 
N1993 X-188.833 Y-16.794 Z5.538 A150.0622 
N1994 X-188.833 Y-16.470 Z5.095 A151.1919 
N1995 X-188.833 Y-16.148 Z4.638 A152.4410 
N1996 X-188.833 Y-15.827 Z4.165 A153.8239 
N1997 X-188.833 Y-15.507 Z3.675 A155.3591 
N1998 X-188.833 Y-15.187 Z3.162 A157.0685 
N1999 X-188.833 Y-14.864 Z2.625 A158.9739 
N2000 X-188.833 Y-14.538 Z2.060 A161.0952 
N2001 X-188.833 Y-14.203 Z1.466 A163.4501 
N2002 X-188.833 Y-13.856 Z0.840 A166.0526 
N2003 X-188.833 Y-13.490 Z0.182 A168.9144 
N2004 X-188.833 Y-13.099 Z-0.506 A172.0443 
N2005 X-188.833 Y-12.675 Z-1.224 A175.4478 
N2006 X-188.833 Y-12.210 Z-1.968 A179.1296 
N2007 X-188.833 Y-11.695 Z-2.733 A183.0864 
N2008 X-188.833 Y-11.123 Z-3.508 A187.2959 
N2009 X-188.833 Y-10.488 Z-4.277 A191.7143 
N2010 X-188.833 Y-9.787 Z-5.022 A196.2817 
N2011 X-188.833 Y-9.024 Z-5.723 A200.9267 
N2012 X-188.833 Y-8.207 Z-6.359 A205.5720 
N2013 X-188.833 Y-7.348 Z-6.915 A210.1443 
N2014 X-188.833 Y-6.462 Z-7.380 A214.5778 
N2015 X-188.833 Y-5.566 Z-7.746 A218.8199 
N2016 X-188.833 Y-4.675 Z-8.013 A222.8310 
N2017 X-188.833 Y-3.802 Z-8.184 A226.5878 
N2018 X-188.833 Y-2.959 Z-8.266 A230.0841 
N2019 X-188.833 Y-2.149 Z-8.269 A233.3347 
N2020 X-188.833 Y-1.374 Z-8.203 A236.3700 
N2021 X-188.833 Y6.953 Z-13.742 
N2022 G00 X-188.833 Y48.584 Z-41.433 
N2023 X-197.570 Y81.365 Z-33.430 A271.2689 
N2024 X-197.570 Y31.377 Z-34.538 
N2025 G01 X-197.570 Y28.285 Z-34.063 F2792 
N2026 X-197.570 Y25.491 Z-32.655 
N2027 X-197.570 Y23.268 Z-30.453 
N2028 X-197.570 Y21.835 Z-27.672 
N2029 X-197.570 Y21.331 Z-24.585 
N2030 X-197.570 Y21.329 Z-24.084 A271.2728 
N2031 X-197.570 Y21.328 Z-23.584 A271.2773 
N2032 X-197.570 Y21.326 Z-23.084 A271.2825 
N2033 X-197.570 Y21.325 Z-22.584 A271.2884 
N2034 X-197.570 Y21.323 Z-22.085 A271.2950 
N2035 X-197.570 Y21.322 Z-21.584 A271.3024 
N2036 X-197.570 Y21.321 Z-21.083 A271.3105 
N2037 X-197.570 Y21.320 Z-20.583 A271.3193 
N2038 X-197.570 Y21.319 Z-20.084 A271.3285 
N2039 X-197.570 Y21.318 Z-19.584 A271.3380 
N2040 X-197.570 Y21.317 Z-19.084 A271.3472 
N2041 X-197.570 Y21.315 Z-18.585 A271.3557 
N2042 X-197.570 Y21.314 Z-18.085 A271.3626 
N2043 X-197.570 Y21.311 Z-17.585 A271.3677 
N2044 X-197.570 Y21.309 Z-17.085 A271.3709 
N2045 X-197.570 Y21.306 Z-16.586 A271.3724 
N2046 X-197.570 Y21.303 Z-16.087 A271.3724 
N2047 X-197.570 Y21.300 Z-15.589 A271.3716 
N2048 X-197.570 Y21.296 Z-15.090 A271.3703 
N2049 X-197.570 Y21.293 Z-14.592 A271.3688 
N2050 X-197.570 Y21.291 Z-14.094 A271.3677 
N2051 X-197.570 Y21.288 Z-13.596 
N2052 X-197.570 Y21.286 Z-13.098 
N2053 X-197.570 Y21.284 Z-12.599 
N2054 X-197.570 Y21.282 Z-12.101 
N2055 X-197.570 Y21.280 Z-11.602 
N2056 X-197.570 Y21.279 Z-11.103 A271.3678 
N2057 X-197.570 Y21.277 Z-10.604 A271.3689 
N2058 X-197.570 Y21.276 Z-10.106 A271.3703 
N2059 X-197.570 Y21.275 Z-9.607 A271.3714 
N2060 X-197.570 Y21.274 Z-9.109 A271.3716 
N2061 X-197.570 Y21.273 Z-8.611 A271.3706 
N2062 X-197.570 Y21.271 Z-8.114 A271.3679 
N2063 X-197.570 Y21.271 Z-7.616 A271.3677 
N2064 X-197.570 Y21.271 Z-7.118 
N2065 X-197.570 Y21.271 Z-6.620 
N2066 X-197.570 Y21.271 Z-6.118 
N2067 X-197.570 Y21.270 Z-5.613 
N2068 X-197.570 Y21.272 Z-5.102 A271.3854 
N2069 X-197.570 Y21.307 Z-4.595 A271.5825 
N2070 X-197.570 Y21.375 Z-4.088 A271.9657 
N2071 X-197.570 Y21.491 Z-3.581 A272.6197 
N2072 X-197.570 Y21.667 Z-3.070 A273.6277 
N2073 X-197.570 Y21.915 Z-2.550 A275.0599 
N2074 X-197.570 Y22.253 Z-2.012 A277.0451 
N2075 X-197.570 Y22.710 Z-1.439 A279.7636 
N2076 X-197.570 Y23.320 Z-0.804 A283.4636 
N2077 X-197.570 Y24.116 Z-0.057 A288.4316 
N2078 X-197.570 Y25.077 Z0.861 A294.7514 
N2079 X-197.570 Y26.143 Z2.010 A302.3818 
N2080 X-197.570 Y27.194 Z3.416 A311.0421 
N2081 X-197.570 Y28.071 Z5.024 A320.1117 
N2082 X-197.570 Y28.647 Z6.689 A328.8085 
N2083 X-197.570 Y28.891 Z8.248 A336.5089 
N2084 X-197.570 Y28.858 Z9.603 A342.9821 
N2085 X-197.570 Y28.628 Z10.716 A348.2218 
N2086 X-197.570 Y28.267 Z11.561 A352.1680 
N2087 X-197.570 Y27.834 Z12.178 A355.0450 
N2088 X-197.570 Y27.363 Z12.622 A357.1256 
N2089 X-197.570 Y26.875 Z12.938 A358.6209 
N2090 X-197.570 Y26.378 Z13.160 A359.6836 
N2091 X-197.570 Y25.878 Z13.310 A0.4214 
N2092 X-197.570 Y25.377 Z13.409 A0.9171 
N2093 X-197.570 Y24.876 Z13.470 A1.2380 
N2094 X-197.570 Y24.375 Z13.505 A1.4348 
N2095 X-197.570 Y23.875 Z13.523 A1.5456 
N2096 X-197.570 Y23.375 Z13.528 A1.5996 
N2097 X-197.570 Y22.875 Z13.527 A1.6199 
N2098 X-197.570 Y22.376 Z13.522 A1.6227 
N2099 X-197.570 Y21.878 Z13.516 A1.6189 
N2100 X-197.570 Y21.380 Z13.510 A1.6147 
N2101 X-197.570 Y20.882 Z13.505 A1.6134 
N2102 X-197.570 Y20.384 Z13.500 
N2103 X-197.570 Y19.886 Z13.496 
N2104 X-197.570 Y19.388 Z13.492 
N2105 X-197.570 Y18.889 Z13.488 
N2106 X-197.570 Y18.390 Z13.484 
N2107 X-197.570 Y17.891 Z13.480 
N2108 X-197.570 Y17.392 Z13.476 
N2109 X-197.570 Y16.892 Z13.472 
N2110 X-197.570 Y16.392 Z13.468 
N2111 X-197.570 Y15.893 Z13.465 
N2112 X-197.570 Y15.393 Z13.461 
N2113 X-197.570 Y14.893 Z13.457 
N2114 X-197.570 Y14.393 Z13.453 
N2115 X-197.570 Y13.893 Z13.450 
N2116 X-197.570 Y13.393 Z13.446 
N2117 X-197.570 Y12.893 Z13.442 
N2118 X-197.570 Y12.393 Z13.439 
N2119 X-197.570 Y11.893 Z13.435 
N2120 X-197.570 Y11.393 Z13.431 
N2121 X-197.570 Y10.893 Z13.427 
N2122 X-197.570 Y10.393 Z13.423 
N2123 X-197.570 Y9.893 Z13.420 
N2124 X-197.570 Y9.394 Z13.416 A1.6134 
N2125 X-197.570 Y8.894 Z13.412 A1.6135 
N2126 X-197.570 Y8.394 Z13.408 A1.6136 
N2127 X-197.570 Y7.894 Z13.404 A1.6137 
N2128 X-197.570 Y7.394 Z13.401 A1.6138 
N2129 X-197.570 Y6.894 Z13.397 A1.6140 
N2130 X-197.570 Y6.394 Z13.393 A1.6142 
N2131 X-197.570 Y5.894 Z13.389 A1.6145 
N2132 X-197.570 Y5.395 Z13.386 A1.6148 
N2133 X-197.570 Y4.895 Z13.382 A1.6151 
N2134 X-197.570 Y4.396 Z13.378 A1.6155 
N2135 X-197.570 Y3.897 Z13.375 A1.6157 
N2136 X-197.570 Y3.398 Z13.371 A1.6159 
N2137 X-197.570 Y2.899 Z13.368 A1.6159 
N2138 X-197.570 Y2.400 Z13.364 A1.6157 
N2139 X-197.570 Y1.902 Z13.361 A1.6152 
N2140 X-197.570 Y1.404 Z13.358 A1.6143 
N2141 X-197.570 Y0.906 Z13.355 A1.6134 
N2142 X-197.570 Y0.407 Z13.352 
N2143 X-197.570 Y-0.091 Z13.349 
N2144 X-197.570 Y-0.590 Z13.347 
N2145 X-197.570 Y-1.090 Z13.345 
N2146 X-197.570 Y-1.592 Z13.342 
N2147 X-197.570 Y-2.096 Z13.339 
N2148 X-197.570 Y-2.605 Z13.336 
N2149 X-197.570 Y-3.112 Z13.347 A1.6979 
N2150 X-197.570 Y-3.618 Z13.381 A1.9045 
N2151 X-197.570 Y-4.123 Z13.442 A2.2698 
N2152 X-197.570 Y-4.628 Z13.545 A2.8727 
N2153 X-197.570 Y-5.138 Z13.701 A3.7835 
N2154 X-197.570 Y-5.658 Z13.938 A5.1648 
N2155 X-197.570 Y-6.199 Z14.298 A7.2701 
N2156 X-197.570 Y-6.789 Z14.838 A10.4450 
N2157 X-197.570 Y-7.474 Z15.600 A15.0190 
N2158 X-197.570 Y-8.313 Z16.565 A21.0555 
N2159 X-197.570 Y-9.377 Z17.677 A28.5319 
N2160 X-197.570 Y-10.738 Z18.857 A37.4351 
N2161 X-197.570 Y-12.383 Z19.923 A47.1976 
N2162 X-197.570 Y-14.176 Z20.688 A56.9013 
N2163 X-197.570 Y-15.906 Z21.067 A65.6542 
N2164 X-197.570 Y-17.406 Z21.100 A72.9297 
N2165 X-197.570 Y-18.591 Z20.886 A78.5548 
N2166 X-197.570 Y-19.448 Z20.522 A82.5778 
N2167 X-197.570 Y-20.051 Z20.083 A85.3981 
N2168 X-197.570 Y-20.470 Z19.608 A87.3636 
N2169 X-197.570 Y-20.758 Z19.118 A88.7185 
N2170 X-197.570 Y-20.949 Z18.621 A89.6253 
N2171 X-197.570 Y-21.070 Z18.121 A90.2054 
N2172 X-197.570 Y-21.143 Z17.621 A90.5562 
N2173 X-197.570 Y-21.184 Z17.121 A90.7504 
N2174 X-197.570 Y-21.204 Z16.621 A90.8428 
N2175 X-197.570 Y-21.211 Z16.121 A90.8761 
N2176 X-197.570 Y-21.213 Z15.623 A90.8802 
N2177 X-197.570 Y-21.213 Z15.124 A90.8740 
N2178 X-197.570 Y-21.214 Z14.627 A90.8676 
N2179 X-197.570 Y-21.216 Z14.130 A90.8673 
N2180 X-197.570 Y-21.218 Z13.632 
N2181 X-197.570 Y-21.220 Z13.134 
N2182 X-197.570 Y-21.223 Z12.636 
N2183 X-197.570 Y-21.225 Z12.138 
N2184 X-197.570 Y-21.228 Z11.639 A90.8674 
N2185 X-197.570 Y-21.231 Z11.140 A90.8682 
N2186 X-197.570 Y-21.234 Z10.642 A90.8685 
N2187 X-197.570 Y-21.237 Z10.144 A90.8683 
N2188 X-197.570 Y-21.241 Z9.645 A90.8675 
N2189 X-197.570 Y-21.244 Z9.147 A90.8673 
N2190 X-197.570 Y-21.248 Z8.649 
N2191 X-197.570 Y-21.252 Z8.150 
N2192 X-197.570 Y-21.256 Z7.651 
N2193 X-197.570 Y-21.260 Z7.150 
N2194 X-197.570 Y-21.264 Z6.648 
N2195 X-197.570 Y-21.267 Z6.144 
N2196 X-197.570 Y-21.270 Z5.635 
N2197 X-197.570 Y-21.293 Z5.129 A90.9777 
N2198 X-197.570 Y-21.338 Z4.624 A91.2101 
N2199 X-197.570 Y-21.416 Z4.120 A91.6307 
N2200 X-197.570 Y-21.543 Z3.616 A92.3330 
N2201 X-197.570 Y-21.737 Z3.105 A93.4158 
N2202 X-197.570 Y-22.025 Z2.583 A95.0523 
N2203 X-197.570 Y-22.439 Z2.035 A97.4419 
N2204 X-197.570 Y-23.005 Z1.438 A100.7673 
N2205 X-197.570 Y-23.729 Z0.759 A105.1547 
N2206 X-197.570 Y-24.610 Z-0.051 A110.7277 
N2207 X-197.570 Y-25.634 Z-1.059 A117.6436 
N2208 X-197.570 Y-26.707 Z-2.307 A125.7048 
N2209 X-197.570 Y-27.690 Z-3.788 A134.4821 
N2210 X-197.570 Y-28.438 Z-5.404 A143.2795 
N2211 X-197.570 Y-28.869 Z-7.001 A151.3943 
N2212 X-197.570 Y-28.995 Z-8.446 A158.3990 
N2213 X-197.570 Y-28.882 Z-9.672 A164.1767 
N2214 X-197.570 Y-28.611 Z-10.685 A168.9010 
N2215 X-197.570 Y-28.234 Z-11.476 A172.5796 
N2216 X-197.570 Y-27.793 Z-12.054 A175.2691 
N2217 X-197.570 Y-27.319 Z-12.460 A177.1575 
N2218 X-197.570 Y-26.829 Z-12.739 A178.4591 
N2219 X-197.570 Y-26.333 Z-12.931 A179.3546 
N2220 X-197.570 Y-25.834 Z-13.062 A179.9714 
N2221 X-197.570 Y-25.334 Z-13.151 A180.3956 
N2222 X-197.570 Y-24.834 Z-13.211 A180.6850 
N2223 X-197.570 Y-24.333 Z-13.250 A180.8791 
N2224 X-197.570 Y-23.833 Z-13.275 A181.0052 
N2225 X-197.570 Y-23.333 Z-13.289 A181.0830 
N2226 X-197.570 Y-22.833 Z-13.297 A181.1262 
N2227 X-197.570 Y-22.333 Z-13.300 A181.1469 
N2228 X-197.570 Y-21.833 Z-13.300 A181.1539 
N2229 X-197.570 Y-21.334 Z-13.298 A181.1537 
N2230 X-197.570 Y-20.835 Z-13.297 A181.1509 
N2231 X-197.570 Y-20.337 Z-13.295 A181.1486 
N2232 X-197.570 Y-19.838 Z-13.294 A181.1476 
N2233 X-197.570 Y-19.340 Z-13.294 
N2234 X-197.570 Y-18.842 Z-13.293 
N2235 X-197.570 Y-18.343 Z-13.293 
N2236 X-197.570 Y-17.844 Z-13.292 
N2237 X-197.570 Y-17.346 Z-13.292 
N2238 X-197.570 Y-16.846 Z-13.292 
N2239 X-197.570 Y-16.347 Z-13.292 
N2240 X-197.570 Y-15.847 Z-13.292 
N2241 X-197.570 Y-15.348 Z-13.292 
N2242 X-197.570 Y-14.848 Z-13.292 
N2243 X-197.570 Y-14.348 Z-13.292 
N2244 X-197.570 Y-13.848 Z-13.293 
N2245 X-197.570 Y-13.349 Z-13.293 
N2246 X-197.570 Y-12.849 Z-13.293 
N2247 X-197.570 Y-12.349 Z-13.293 
N2248 X-197.570 Y-11.849 Z-13.293 
N2249 X-197.570 Y-11.349 Z-13.293 
N2250 X-197.570 Y-10.849 Z-13.293 A181.1476 
N2251 X-197.570 Y-10.349 Z-13.293 A181.1477 
N2252 X-197.570 Y-9.849 Z-13.293 A181.1477 
N2253 X-197.570 Y-9.349 Z-13.293 A181.1477 
N2254 X-197.570 Y-8.849 Z-13.293 A181.1477 
N2255 X-197.570 Y-8.349 Z-13.293 A181.1477 
N2256 X-197.570 Y-7.849 Z-13.293 A181.1478 
N2257 X-197.570 Y-7.349 Z-13.293 A181.1478 
N2258 X-197.570 Y-6.849 Z-13.293 A181.1479 
N2259 X-197.570 Y-6.349 Z-13.294 A181.1480 
N2260 X-197.570 Y-5.849 Z-13.294 A181.1481 
N2261 X-197.570 Y-5.350 Z-13.294 A181.1482 
N2262 X-197.570 Y-4.850 Z-13.294 A181.1484 
N2263 X-197.570 Y-4.350 Z-13.294 A181.1487 
N2264 X-197.570 Y-3.851 Z-13.294 A181.1490 
N2265 X-197.570 Y-3.351 Z-13.294 A181.1494 
N2266 X-197.570 Y-2.852 Z-13.295 A181.1498 
N2267 X-197.570 Y-2.353 Z-13.295 A181.1501 
N2268 X-197.570 Y-1.854 Z-13.295 A181.1501 
N2269 X-197.570 Y-1.356 Z-13.296 A181.1499 
N2270 X-197.570 Y-0.857 Z-13.296 A181.1490 
N2271 X-197.570 Y-0.359 Z-13.297 A181.1476 
N2272 X-197.570 Y0.139 Z-13.298 
N2273 X-197.570 Y0.638 Z-13.299 
N2274 X-197.570 Y1.137 Z-13.300 
N2275 X-197.570 Y1.638 Z-13.301 
N2276 X-197.570 Y2.142 Z-13.302 
N2277 X-197.570 Y2.651 Z-13.303 
N2278 X-197.570 Y3.156 Z-13.328 A181.2827 
N2279 X-197.570 Y3.662 Z-13.380 A181.5699 
N2280 X-197.570 Y4.167 Z-13.473 A182.0877 
N2281 X-197.570 Y4.674 Z-13.625 A182.9394 
N2282 X-197.570 Y5.189 Z-13.850 A184.2185 
N2283 X-197.570 Y5.719 Z-14.172 A186.0768 
N2284 X-197.570 Y6.282 Z-14.624 A188.7159 
N2285 X-197.570 Y6.905 Z-15.242 A192.3968 
N2286 X-197.570 Y7.640 Z-16.061 A197.4155 
N2287 X-197.570 Y8.534 Z-17.023 A203.6453 
N2288 X-197.570 Y9.636 Z-18.068 A211.0130 
N2289 X-197.570 Y11.028 Z-19.166 A219.7611 
N2290 X-197.570 Y12.739 Z-20.197 A229.7381 
N2291 X-197.570 Y14.440 Z-20.808 A238.6849 
N2292 X-197.570 Y16.026 Z-21.067 A246.5432 
N2293 X-197.570 Y17.401 Z-21.040 A253.1275 
N2294 X-197.570 Y18.504 Z-20.805 A258.3124 
N2295 X-197.570 Y19.360 Z-20.445 A262.3240 
N2296 X-197.570 Y19.996 Z-20.011 A265.3062 
N2297 X-197.570 Y20.439 Z-19.538 A267.3956 
N2298 X-197.570 Y20.734 Z-19.048 A268.7926 
N2299 X-197.570 Y20.926 Z-18.551 A269.7055 
N2300 X-197.570 Y21.049 Z-18.051 A270.2970 
N2301 X-197.570 Y21.127 Z-17.550 A270.6783 
N2302 X-197.570 Y21.176 Z-17.050 A270.9227 
N2303 X-197.570 Y21.206 Z-16.549 A271.0782 
N2304 X-197.570 Y21.224 Z-16.049 A271.1756 
N2305 X-197.570 Y21.234 Z-15.549 A271.2350 
N2306 X-197.570 Y21.238 Z-15.049 A271.2704 
N2307 X-197.570 Y21.240 Z-14.549 A271.2919 
N2308 X-197.570 Y21.240 Z-14.049 A271.3070 
N2309 X-197.570 Y21.240 Z-13.549 A271.3218 
N2310 X-197.570 Y21.241 Z-13.049 A271.3403 
N2311 X-197.570 Y21.243 Z-12.549 A271.3652 
N2312 X-197.570 Y21.246 Z-12.049 A271.3980 
N2313 X-197.570 Y21.250 Z-11.549 A271.4395 
N2314 X-197.570 Y21.256 Z-11.049 A271.4899 
N2315 X-197.570 Y21.263 Z-10.549 A271.5490 
N2316 X-197.570 Y21.271 Z-10.048 A271.6159 
N2317 X-197.570 Y21.279 Z-9.548 A271.6894 
N2318 X-197.570 Y21.288 Z-9.048 A271.7693 
N2319 X-197.570 Y21.298 Z-8.547 A271.8563 
N2320 X-197.570 Y21.309 Z-8.047 A271.9528 
N2321 X-197.570 Y21.321 Z-7.546 A272.0626 
N2322 X-197.570 Y21.337 Z-7.046 A272.1924 
N2323 X-197.570 Y21.356 Z-6.545 A272.3529 
N2324 X-197.570 Y21.384 Z-6.043 A272.5603 
N2325 X-197.570 Y21.423 Z-5.541 A272.8368 
N2326 X-197.570 Y21.477 Z-5.038 A273.2112 
N2327 X-197.570 Y21.555 Z-4.532 A273.7214 
N2328 X-197.570 Y21.662 Z-4.023 A274.4178 
N2329 X-197.570 Y21.811 Z-3.509 A275.3657 
N2330 X-197.570 Y22.015 Z-2.985 A276.6487 
N2331 X-197.570 Y22.291 Z-2.445 A278.3832 
N2332 X-197.570 Y22.666 Z-1.875 A280.7331 
N2333 X-197.570 Y23.169 Z-1.253 A283.9103 
N2334 X-197.570 Y23.823 Z-0.546 A288.1201 
N2335 X-197.570 Y24.614 Z0.289 A293.4256 
N2336 X-197.570 Y25.507 Z1.295 A299.8363 
N2337 X-197.570 Y26.444 Z2.516 A307.3155 
N2338 X-197.570 Y27.307 Z3.943 A315.4999 
N2339 X-197.570 Y27.970 Z5.494 A323.7847 
N2340 X-197.570 Y28.351 Z7.028 A331.5018 
N2341 X-197.570 Y28.457 Z8.430 A338.2541 
N2342 X-197.570 Y28.345 Z9.646 A343.9735 
N2343 X-197.570 Y28.072 Z10.634 A348.5605 
N2344 X-197.570 Y27.694 Z11.388 A352.0330 
N2345 X-197.570 Y27.256 Z11.950 A354.6093 
N2346 X-197.570 Y26.787 Z12.364 A356.5117 
N2347 X-197.570 Y26.302 Z12.668 A357.9156 
N2348 X-197.570 Y25.808 Z12.890 A358.9495 
N2349 X-197.570 Y25.310 Z13.051 A359.7083 
N2350 X-197.570 Y24.810 Z13.168 A0.2650 
N2351 X-197.570 Y24.310 Z13.251 A0.6744 
N2352 X-197.570 Y23.809 Z13.311 A0.9757 
N2353 X-197.570 Y23.308 Z13.353 A1.1979 
N2354 X-197.570 Y22.807 Z13.383 A1.3619 
N2355 X-197.570 Y22.307 Z13.402 A1.4833 
N2356 X-197.570 Y21.807 Z13.415 A1.5731 
N2357 X-197.570 Y21.306 Z13.423 A1.6394 
N2358 X-197.570 Y20.806 Z13.426 A1.6879 
N2359 X-197.570 Y20.306 Z13.427 A1.7229 
N2360 X-197.570 Y19.806 Z13.425 A1.7477 
N2361 X-197.570 Y19.306 Z13.422 A1.7649 
N2362 X-197.570 Y18.806 Z13.417 A1.7764 
N2363 X-197.570 Y18.306 Z13.412 A1.7839 
N2364 X-197.570 Y17.807 Z13.406 A1.7884 
N2365 X-197.570 Y17.307 Z13.400 A1.7911 
N2366 X-197.570 Y16.807 Z13.393 A1.7925 
N2367 X-197.570 Y16.307 Z13.386 A1.7932 
N2368 X-197.570 Y15.807 Z13.379 A1.7936 
N2369 X-197.570 Y15.307 Z13.373 A1.7939 
N2370 X-197.570 Y14.808 Z13.366 A1.7943 
N2371 X-197.570 Y14.308 Z13.359 A1.7949 
N2372 X-197.570 Y13.808 Z13.352 A1.7957 
N2373 X-197.570 Y13.308 Z13.345 A1.7966 
N2374 X-197.570 Y12.808 Z13.339 A1.7977 
N2375 X-197.570 Y12.308 Z13.332 A1.7988 
N2376 X-197.570 Y11.808 Z13.325 A1.7998 
N2377 X-197.570 Y11.309 Z13.318 A1.8005 
N2378 X-197.570 Y10.809 Z13.311 A1.8011 
N2379 X-197.570 Y10.309 Z13.304 A1.8014 
N2380 X-197.570 Y9.809 Z13.297 A1.8015 
N2381 X-197.570 Y9.309 Z13.290 A1.8016 
N2382 X-197.570 Y8.809 Z13.283 A1.8015 
N2383 X-197.570 Y8.310 Z13.276 A1.8015 
N2384 X-197.570 Y7.810 Z13.269 A1.8014 
N2385 X-197.570 Y7.310 Z13.263 A1.8012 
N2386 X-197.570 Y6.811 Z13.256 A1.8012 
N2387 X-197.570 Y6.311 Z13.249 
N2388 X-197.570 Y5.811 Z13.242 
N2389 X-197.570 Y5.311 Z13.235 
N2390 X-197.570 Y4.811 Z13.228 
N2391 X-197.570 Y4.311 Z13.221 
N2392 X-197.570 Y3.811 Z13.215 A1.8059 
N2393 X-197.570 Y3.311 Z13.210 A1.8163 
N2394 X-197.570 Y2.811 Z13.206 A1.8347 
N2395 X-197.570 Y2.311 Z13.205 A1.8643 
N2396 X-197.570 Y1.811 Z13.205 A1.9082 
N2397 X-197.570 Y1.310 Z13.210 A1.9719 
N2398 X-197.570 Y0.810 Z13.218 A2.0631 
N2399 X-197.570 Y0.309 Z13.233 A2.1910 
N2400 X-197.570 Y-0.192 Z13.256 A2.3669 
N2401 X-197.570 Y-0.694 Z13.289 A2.6049 
N2402 X-197.570 Y-1.196 Z13.335 A2.9224 
N2403 X-197.570 Y-1.700 Z13.397 A3.3403 
N2404 X-197.570 Y-2.206 Z13.480 A3.8838 
N2405 X-197.570 Y-2.715 Z13.586 A4.5811 
N2406 X-197.570 Y-3.229 Z13.722 A5.4655 
N2407 X-197.570 Y-3.749 Z13.893 A6.5809 
N2408 X-197.570 Y-4.281 Z14.109 A7.9887 
N2409 X-197.570 Y-4.829 Z14.382 A9.7750 
N2410 X-197.570 Y-5.406 Z14.733 A12.0716 
N2411 X-197.570 Y-6.030 Z15.188 A15.0707 
N2412 X-197.570 Y-6.734 Z15.780 A19.0121 
N2413 X-197.570 Y-7.567 Z16.529 A24.1466 
N2414 X-197.570 Y-8.585 Z17.409 A30.5580 
N2415 X-197.570 Y-9.804 Z18.313 A37.9229 
N2416 X-197.570 Y-11.192 Z19.114 A45.7487 
N2417 X-197.570 Y-12.686 Z19.727 A53.6486 
N2418 X-197.570 Y-14.181 Z20.091 A61.1287 
N2419 X-197.570 Y-15.527 Z20.183 A67.5734 
N2420 X-197.570 Y-16.643 Z20.055 A72.7304 
N2421 X-197.570 Y-17.510 Z19.774 A76.6310 
N2422 X-197.570 Y-18.156 Z19.400 A79.4535 
N2423 X-197.570 Y-18.633 Z18.973 A81.4751 
N2424 X-197.570 Y-18.993 Z18.518 A82.9597 
N2425 X-197.570 Y-19.276 Z18.047 A84.0959 
N2426 X-197.570 Y-19.508 Z17.567 A85.0065 
N2427 X-197.570 Y-19.703 Z17.082 A85.7660 
