; PROGRAM NAME: D99999932
; ORDER       : D999999
; OPER. NAME  : Spiral Finish Transition:110
; OPER. DESCR.: Spiral transition - Semi finish transition root/promienie przejsc pwk
; OPER. TYPE  : finTransRoot
; GEO. OPTION : 7
; MACHINE     : HSTM_300HD_SIM840D_Py
;             : HSTM300/500 - HAMUEL: 5-axis milling machine-SIM840D Traori PP_Script
; CONTROL     : SINUMERIK 840D
; created:   2022-11-03 09:02:18.594913
;-------DODATKOWE DANE-------------------
; PROGRAMISTA : Mariusz Malec
; PARTID      : 139T006893P1018_-
;  ae         : 1.5
;  lean_angle : 5.0
;  tilt_angle : -18.7
;  airf_offset: 0.05
;  plat_offset: 0.6
;----------------------------------------
;RAPORT("TD999999","Spiral Finish Transition:110")
N10 TRAFOOF
N11 D0
N12 G90 G94
N13 G0 G53 D0 Z550
N14 STOPRE
M9 ; chlodziwo wyl
; --- Spiral Finish Transition:110 - Spiral transition - Semi finish transition root/promienie przejsc pwk ---
N16 ;ToolChange : concat=None ,current_tdmid=None, PP.tdmId=940626
N17 TRAFOOF
N18 G0 G53 D0 X-200 Y150 Z550 B0
N19 T="7740626"
;RAPORT("TD999999","ToolChangeStart 7740626")
N20 M6
;RAPORT("TD999999","ToolChangeEnd")
N21 STOPRE
N22 MSG(" TLID=940626 D=8.391 R=5.0 Ang=10.0 Len=155.0 ")
N23 ; (Preloading tool)
N24 T="7740661"
N25 S6987 M03
N26 STOPRE
N27 CYCLE832(0.001,1,1)
N28 G0 G53 A132.6261 B-18.7000
N29 TRAORI
N30 G54 D1
N31 D1 
N32 TRANS  X=R3 A=R25
STOPRE
E_ZDARZ=400004
;ACS_PREFINISH_UBG_B_CONST_BBK_ROOT=7740626
STOPRE
N33 ; DELTA A > 40.1
N34 TRAFOOF
N35 D1
N36 STOPRE
N37 G00 G54 Z231.000
N38 G01 A132.6261 F10000
N39 TRAORI
N40 G54 D1
N41 STOPRE
N42 TRANS  X=R3 A=R25
N43 G00 X-197.354 Y-49.925 Z-41.343 A132.6261 B-18.7000 
N44 M342 ; chlodziwo woda
N45 X-181.323 Y-15.077 Z-9.270 
N46 G01 X-181.323 Y-13.356 Z-6.657 F1456 
N47 X-181.323 Y-12.527 Z-3.640 
N48 X-181.323 Y-12.670 Z-0.515 
N49 X-181.323 Y-13.772 Z2.413 
N50 X-181.323 Y-15.725 Z4.858 
N51 X-181.320 Y-15.886 Z4.995 A127.9915 
N52 X-181.318 Y-16.127 Z5.244 A119.6497 
N53 X-181.316 Y-16.354 Z5.565 A109.9194 
N54 X-181.315 Y-16.504 Z5.873 A101.3503 
N55 X-181.314 Y-16.592 Z6.142 A94.2408 
N56 X-181.312 Y-16.636 Z6.360 A88.6066 
N57 X-181.311 Y-16.654 Z6.532 A84.2348 
N58 X-181.310 Y-16.659 Z6.669 A80.7582 
N59 X-181.308 Y-16.655 Z6.789 A77.7165 
N60 X-181.307 Y-16.646 Z6.900 A74.8820 
N61 X-181.306 Y-16.632 Z7.004 A72.2151 
N62 X-181.304 Y-16.613 Z7.102 A69.6703 
N63 X-181.303 Y-16.592 Z7.196 A67.2072 
N64 X-181.302 Y-16.567 Z7.286 A64.7979 
N65 X-181.300 Y-16.538 Z7.374 A62.4230 
N66 X-181.299 Y-16.506 Z7.460 A60.0689 
N67 X-181.298 Y-16.471 Z7.544 A57.7267 
N68 X-181.296 Y-16.433 Z7.626 A55.3911 
N69 X-181.295 Y-16.392 Z7.707 A53.0584 
N70 X-181.294 Y-16.347 Z7.785 A50.7260 
N71 X-181.293 Y-16.300 Z7.861 A48.3922 
N72 X-181.292 Y-16.249 Z7.935 A46.0556 
N73 X-181.290 Y-16.196 Z8.007 A43.7145 
N74 X-181.289 Y-16.140 Z8.077 A41.3665 
N75 X-181.288 Y-16.080 Z8.145 A39.0082 
N76 X-181.287 Y-16.018 Z8.211 A36.6348 
N77 X-181.285 Y-15.953 Z8.274 A34.2381 
N78 X-181.284 Y-15.885 Z8.335 A31.8053 
N79 X-181.283 Y-15.812 Z8.395 A29.3188 
N80 X-181.282 Y-15.735 Z8.453 A26.7531 
N81 X-181.281 Y-15.652 Z8.510 A24.0724 
N82 X-181.279 Y-15.562 Z8.566 A21.2361 
N83 X-181.278 Y-15.464 Z8.622 A18.2056 
N84 X-181.277 Y-15.348 Z8.679 A14.7483 
N85 X-181.276 Y-15.213 Z8.736 A10.7926 
N86 X-181.275 Y-15.039 Z8.796 A5.8415 
N87 X-181.275 Y-14.815 Z8.850 A359.6181 
N88 X-181.274 Y-14.540 Z8.884 A352.1185 
N89 X-181.274 Y-14.250 Z8.881 A344.3505 
N90 X-181.274 Y-13.966 Z8.838 A336.7806 
N91 X-181.274 Y-13.758 Z8.780 A331.3592 
N92 X-181.274 Y-13.629 Z8.728 A328.3420 
N93 X-181.276 Y-13.552 Z8.689 A327.1303 
N94 X-181.278 Y-13.490 Z8.652 A326.7167 
N95 X-181.281 Y-13.424 Z8.611 A326.6406 
N96 X-181.286 Y-13.345 Z8.562 A326.6966 
N97 X-181.292 Y-13.246 Z8.502 A326.8437 
N98 X-181.300 Y-13.124 Z8.430 A327.0556 
N99 X-181.310 Y-12.975 Z8.344 A327.3224 
N100 X-181.323 Y-12.796 Z8.242 A327.6458 
N101 X-181.339 Y-12.585 Z8.125 A328.0368 
N102 X-181.357 Y-12.339 Z7.992 A328.5142 
N103 X-181.379 Y-12.060 Z7.844 A329.1028 
N104 X-181.403 Y-11.748 Z7.683 A329.8276 
N105 X-181.431 Y-11.403 Z7.511 A330.7072 
N106 X-181.463 Y-11.027 Z7.331 A331.7496 
N107 X-181.497 Y-10.622 Z7.146 A332.9579 
N108 X-181.535 Y-10.192 Z6.961 A334.3401 
N109 X-181.577 Y-9.741 Z6.780 A335.9089 
N110 X-181.621 Y-9.271 Z6.606 A337.6776 
N111 X-181.668 Y-8.788 Z6.443 A339.6568 
N112 X-181.718 Y-8.294 Z6.296 A341.8524 
N113 X-181.771 Y-7.791 Z6.167 A344.2640 
N114 X-181.827 Y-7.283 Z6.059 A346.8822 
N115 X-181.886 Y-6.769 Z5.975 A349.6861 
N116 X-181.948 Y-6.250 Z5.917 A352.6410 
N117 X-182.013 Y-5.725 Z5.888 A355.6977 
N118 X-182.080 Y-5.195 Z5.889 A358.7924 
N119 X-182.150 Y-4.659 Z5.921 A1.8508 
N120 X-182.223 Y-4.115 Z5.986 A4.7937 
N121 X-182.297 Y-3.566 Z6.083 A7.5469 
N122 X-182.373 Y-3.012 Z6.209 A10.0517 
N123 X-182.449 Y-2.457 Z6.363 A12.2782 
N124 X-182.525 Y-1.897 Z6.541 A13.9801 
N125 X-182.600 Y-1.336 Z6.737 A15.1464 
N126 X-182.673 Y-0.778 Z6.946 A15.7584 
N127 X-182.744 Y-0.234 Z7.157 A16.0613 
N128 X-182.811 Y0.293 Z7.363 A16.0586 
N129 X-182.874 Y0.797 Z7.559 A15.7617 
N130 X-182.933 Y1.276 Z7.743 A15.1756 
N131 X-182.986 Y1.727 Z7.911 A14.2936 
N132 X-183.034 Y2.149 Z8.061 A13.1097 
N133 X-183.077 Y2.541 Z8.191 A11.6344 
N134 X-183.114 Y2.902 Z8.301 A9.8892 
N135 X-183.146 Y3.234 Z8.392 A7.8962 
N136 X-183.172 Y3.537 Z8.463 A5.6915 
N137 X-183.195 Y3.812 Z8.518 A3.3167 
N138 X-183.213 Y4.062 Z8.558 A0.7699 
N139 X-183.228 Y4.291 Z8.586 A358.0397 
N140 X-183.239 Y4.502 Z8.603 A355.1285 
N141 X-183.248 Y4.699 Z8.609 A352.0400 
N142 X-183.255 Y4.883 Z8.607 A348.7831 
N143 X-183.260 Y5.058 Z8.595 A345.3842 
N144 X-183.264 Y5.223 Z8.575 A341.8923 
N145 X-183.267 Y5.379 Z8.547 A338.3721 
N146 X-183.269 Y5.525 Z8.512 A334.8836 
N147 X-183.270 Y5.661 Z8.470 A331.4699 
N148 X-183.271 Y5.787 Z8.424 A328.1533 
N149 X-183.271 Y5.905 Z8.373 A324.9381 
N150 X-183.271 Y6.015 Z8.318 A321.8146 
N151 X-183.271 Y6.118 Z8.259 A318.7647 
N152 X-183.271 Y6.215 Z8.197 A315.7653 
N153 X-183.270 Y6.308 Z8.131 A312.7917 
N154 X-183.269 Y6.396 Z8.060 A309.8194 
N155 X-183.268 Y6.482 Z7.985 A306.8249 
N156 X-183.267 Y6.564 Z7.905 A303.7876 
N157 X-183.266 Y6.643 Z7.818 A300.6909 
N158 X-183.265 Y6.720 Z7.725 A297.5247 
N159 X-183.263 Y6.794 Z7.625 A294.2881 
N160 X-183.261 Y6.864 Z7.518 A290.9915 
N161 X-183.259 Y6.929 Z7.403 A287.6582 
N162 X-183.257 Y6.989 Z7.281 A284.3250 
N163 X-183.254 Y7.042 Z7.154 A281.0404 
N164 X-183.251 Y7.088 Z7.020 A277.8592 
N165 X-183.247 Y7.126 Z6.882 A274.8316 
N166 X-183.242 Y7.156 Z6.740 A271.9908 
N167 X-183.237 Y7.179 Z6.592 A269.3498 
N168 X-183.231 Y7.195 Z6.438 A266.9042 
N169 X-183.223 Y7.203 Z6.277 A264.6353 
N170 X-183.214 Y7.204 Z6.105 A262.5167 
N171 X-183.204 Y7.198 Z5.922 A260.5208 
N172 X-183.192 Y7.184 Z5.725 A258.6189 
N173 X-183.179 Y7.161 Z5.513 A256.7773 
N174 X-183.163 Y7.128 Z5.285 A254.9752 
N175 X-183.146 Y7.085 Z5.040 A253.2151 
N176 X-183.126 Y7.031 Z4.780 A251.4995 
N177 X-183.104 Y6.964 Z4.505 A249.8193 
N178 X-183.080 Y6.884 Z4.215 A248.1644 
N179 X-183.054 Y6.792 Z3.912 A246.5253 
N180 X-183.026 Y6.686 Z3.597 A244.8880 
N181 X-182.996 Y6.566 Z3.273 A243.2306 
N182 X-182.964 Y6.433 Z2.941 A241.5288 
N183 X-182.931 Y6.287 Z2.604 A239.7654 
N184 X-182.896 Y6.127 Z2.265 A237.9351 
N185 X-182.860 Y5.953 Z1.926 A236.0404 
N186 X-182.824 Y5.768 Z1.591 A234.0837 
N187 X-182.787 Y5.571 Z1.262 A232.0626 
N188 X-182.749 Y5.364 Z0.941 A229.9716 
N189 X-182.712 Y5.147 Z0.631 A227.8059 
N190 X-182.674 Y4.921 Z0.331 A225.5635 
N191 X-182.637 Y4.687 Z0.045 A223.2453 
N192 X-182.600 Y4.445 Z-0.227 A220.8546 
N193 X-182.564 Y4.197 Z-0.485 A218.3966 
N194 X-182.528 Y3.944 Z-0.728 A215.8772 
N195 X-182.493 Y3.684 Z-0.955 A213.3034 
N196 X-182.458 Y3.419 Z-1.166 A210.6822 
N197 X-182.424 Y3.150 Z-1.363 A208.0207 
N198 X-182.391 Y2.875 Z-1.544 A205.3252 
N199 X-182.358 Y2.596 Z-1.711 A202.6007 
N200 X-182.325 Y2.310 Z-1.863 A199.8513 
N201 X-182.293 Y2.019 Z-2.000 A197.0800 
N202 X-182.261 Y1.721 Z-2.124 A194.2889 
N203 X-182.228 Y1.415 Z-2.234 A191.4793 
N204 X-182.196 Y1.100 Z-2.330 A188.6514 
N205 X-182.164 Y0.775 Z-2.412 A185.8048 
N206 X-182.131 Y0.437 Z-2.479 A182.9394 
N207 X-182.097 Y0.085 Z-2.530 A180.0558 
N208 X-182.062 Y-0.283 Z-2.564 A177.1562 
N209 X-182.027 Y-0.671 Z-2.580 A174.2446 
N210 X-181.990 Y-1.080 Z-2.575 A171.3274 
N211 X-181.951 Y-1.513 Z-2.548 A168.4137 
N212 X-181.912 Y-1.973 Z-2.493 A165.5156 
N213 X-181.870 Y-2.462 Z-2.409 A162.6483 
N214 X-181.827 Y-2.980 Z-2.292 A159.8319 
N215 X-181.783 Y-3.528 Z-2.137 A157.0953 
N216 X-181.737 Y-4.107 Z-1.942 A154.4755 
N217 X-181.690 Y-4.713 Z-1.704 A152.0072 
N218 X-181.643 Y-5.345 Z-1.424 A149.7125 
N219 X-181.595 Y-6.000 Z-1.101 A147.6032 
N220 X-181.547 Y-6.671 Z-0.737 A145.6875 
N221 X-181.499 Y-7.355 Z-0.337 A143.9704 
N222 X-181.452 Y-8.044 Z0.094 A142.4536 
N223 X-181.406 Y-8.729 Z0.549 A141.1352 
N224 X-181.362 Y-9.404 Z1.018 A140.0096 
N225 X-181.320 Y-10.061 Z1.493 A139.0638 
N226 X-181.280 Y-10.690 Z1.963 A138.2778 
N227 X-181.243 Y-11.286 Z2.420 A137.6316 
N228 X-181.208 Y-11.841 Z2.855 A137.1086 
N229 X-181.177 Y-12.350 Z3.261 A136.6938 
N230 X-181.148 Y-12.809 Z3.633 A136.3722 
N231 X-181.123 Y-13.217 Z3.966 A136.1286 
N232 X-181.101 Y-13.572 Z4.260 A135.9474 
N233 X-181.082 Y-13.877 Z4.514 A135.8132 
N234 X-181.065 Y-14.133 Z4.729 A135.7123 
N235 X-181.051 Y-14.344 Z4.908 A135.6342 
N236 X-181.040 Y-14.515 Z5.055 A135.5704 
N237 X-181.030 Y-14.651 Z5.173 A135.5130 
N238 X-181.022 Y-14.757 Z5.266 A135.4521 
N239 X-181.016 Y-14.839 Z5.339 A135.3748 
N240 X-181.010 Y-14.902 Z5.397 A135.2008 
N241 X-181.006 Y-14.959 Z5.446 A134.5565 
N242 X-181.002 Y-15.028 Z5.499 A132.6261 
N243 X-181.000 Y-15.140 Z5.579 A127.9915 
N244 X-180.998 Y-15.304 Z5.713 A119.6497 
N245 X-180.996 Y-15.463 Z5.888 A109.9194 
N246 X-180.994 Y-15.575 Z6.059 A101.3503 
N247 X-180.993 Y-15.647 Z6.212 A94.2408 
N248 X-180.992 Y-15.689 Z6.337 A88.6066 
N249 X-180.990 Y-15.712 Z6.437 A84.2348 
N250 X-180.989 Y-15.724 Z6.517 A80.7582 
N251 X-180.988 Y-15.729 Z6.588 A77.7165 
N252 X-180.986 Y-15.731 Z6.653 A74.8820 
N253 X-180.985 Y-15.730 Z6.715 A72.2151 
N254 X-180.984 Y-15.725 Z6.773 A69.6703 
N255 X-180.982 Y-15.719 Z6.829 A67.2072 
N256 X-180.981 Y-15.710 Z6.883 A64.7979 
N257 X-180.980 Y-15.699 Z6.936 A62.4230 
N258 X-180.978 Y-15.686 Z6.988 A60.0689 
N259 X-180.977 Y-15.671 Z7.039 A57.7267 
N260 X-180.976 Y-15.654 Z7.088 A55.3911 
N261 X-180.975 Y-15.635 Z7.137 A53.0584 
N262 X-180.973 Y-15.614 Z7.185 A50.7260 
N263 X-180.972 Y-15.592 Z7.232 A48.3922 
N264 X-180.971 Y-15.567 Z7.278 A46.0556 
N265 X-180.970 Y-15.541 Z7.323 A43.7145 
N266 X-180.968 Y-15.514 Z7.366 A41.3665 
N267 X-180.967 Y-15.484 Z7.409 A39.0082 
N268 X-180.966 Y-15.453 Z7.450 A36.6348 
N269 X-180.965 Y-15.420 Z7.491 A34.2381 
N270 X-180.964 Y-15.385 Z7.530 A31.8053 
N271 X-180.962 Y-15.348 Z7.569 A29.3188 
N272 X-180.961 Y-15.309 Z7.607 A26.7531 
N273 X-180.960 Y-15.266 Z7.645 A24.0724 
N274 X-180.959 Y-15.219 Z7.683 A21.2361 
N275 X-180.958 Y-15.168 Z7.722 A18.2056 
N276 X-180.957 Y-15.107 Z7.763 A14.7483 
N277 X-180.956 Y-15.035 Z7.806 A10.7926 
N278 X-180.955 Y-14.943 Z7.853 A5.8415 
N279 X-180.954 Y-14.822 Z7.903 A359.6181 
N280 X-180.953 Y-14.670 Z7.946 A352.1185 
N281 X-180.953 Y-14.505 Z7.969 A344.3505 
N282 X-180.953 Y-14.339 Z7.968 A336.7806 
N283 X-180.953 Y-14.212 Z7.948 A331.3592 
N284 X-180.954 Y-14.126 Z7.922 A328.3420 
N285 X-180.955 Y-14.066 Z7.894 A327.1303 
N286 X-180.957 Y-14.010 Z7.860 A326.7167 
N287 X-180.960 Y-13.945 Z7.820 A326.6406 
N288 X-180.965 Y-13.865 Z7.770 A326.6966 
N289 X-180.971 Y-13.764 Z7.709 A326.8437 
N290 X-180.979 Y-13.639 Z7.635 A327.0556 
N291 X-180.990 Y-13.487 Z7.546 A327.3224 
N292 X-181.003 Y-13.303 Z7.442 A327.6458 
N293 X-181.018 Y-13.086 Z7.322 A328.0368 
N294 X-181.037 Y-12.834 Z7.185 A328.5142 
N295 X-181.058 Y-12.547 Z7.032 A329.1028 
N296 X-181.083 Y-12.224 Z6.864 A329.8276 
N297 X-181.111 Y-11.866 Z6.685 A330.7072 
N298 X-181.142 Y-11.475 Z6.496 A331.7496 
N299 X-181.177 Y-11.053 Z6.303 A332.9579 
N300 X-181.215 Y-10.602 Z6.107 A334.3401 
N301 X-181.256 Y-10.127 Z5.915 A335.9089 
N302 X-181.300 Y-9.631 Z5.729 A337.6776 
N303 X-181.347 Y-9.117 Z5.555 A339.6568 
N304 X-181.398 Y-8.589 Z5.396 A341.8524 
N305 X-181.451 Y-8.048 Z5.255 A344.2640 
N306 X-181.507 Y-7.498 Z5.136 A346.8822 
N307 X-181.566 Y-6.938 Z5.043 A349.6861 
N308 X-181.628 Y-6.371 Z4.978 A352.6410 
N309 X-181.692 Y-5.797 Z4.943 A355.6977 
N310 X-181.760 Y-5.215 Z4.942 A358.7924 
N311 X-181.830 Y-4.628 Z4.975 A1.8508 
N312 X-181.902 Y-4.036 Z5.042 A4.7937 
N313 X-181.976 Y-3.442 Z5.144 A7.5469 
N314 X-182.052 Y-2.847 Z5.277 A10.0517 
N315 X-182.128 Y-2.256 Z5.437 A12.2782 
N316 X-182.204 Y-1.668 Z5.622 A13.9801 
N317 X-182.279 Y-1.089 Z5.823 A15.1464 
N318 X-182.353 Y-0.521 Z6.035 A15.7584 
N319 X-182.423 Y0.028 Z6.246 A16.0613 
N320 X-182.491 Y0.555 Z6.452 A16.0586 
N321 X-182.554 Y1.055 Z6.648 A15.7617 
N322 X-182.612 Y1.524 Z6.829 A15.1756 
N323 X-182.666 Y1.961 Z6.993 A14.2936 
N324 X-182.714 Y2.364 Z7.139 A13.1097 
N325 X-182.756 Y2.732 Z7.264 A11.6344 
N326 X-182.793 Y3.065 Z7.368 A9.8892 
N327 X-182.825 Y3.364 Z7.453 A7.8962 
N328 X-182.852 Y3.631 Z7.521 A5.6915 
N329 X-182.874 Y3.866 Z7.572 A3.3167 
N330 X-182.892 Y4.074 Z7.611 A0.7699 
N331 X-182.907 Y4.258 Z7.639 A358.0397 
N332 X-182.919 Y4.422 Z7.659 A355.1285 
N333 X-182.928 Y4.567 Z7.671 A352.0400 
N334 X-182.935 Y4.699 Z7.677 A348.7831 
N335 X-182.940 Y4.819 Z7.678 A345.3842 
N336 X-182.944 Y4.929 Z7.675 A341.8923 
N337 X-182.946 Y5.030 Z7.666 A338.3721 
N338 X-182.948 Y5.123 Z7.654 A334.8836 
N339 X-182.950 Y5.208 Z7.638 A331.4699 
N340 X-182.950 Y5.287 Z7.619 A328.1533 
N341 X-182.951 Y5.361 Z7.598 A324.9381 
N342 X-182.951 Y5.429 Z7.573 A321.8146 
N343 X-182.950 Y5.493 Z7.547 A318.7647 
N344 X-182.950 Y5.554 Z7.518 A315.7653 
N345 X-182.949 Y5.613 Z7.487 A312.7917 
N346 X-182.949 Y5.669 Z7.454 A309.8194 
N347 X-182.948 Y5.723 Z7.417 A306.8249 
N348 X-182.947 Y5.777 Z7.378 A303.7876 
N349 X-182.945 Y5.829 Z7.335 A300.6909 
N350 X-182.944 Y5.880 Z7.287 A297.5247 
N351 X-182.942 Y5.930 Z7.235 A294.2881 
N352 X-182.941 Y5.979 Z7.178 A290.9915 
N353 X-182.939 Y6.026 Z7.116 A287.6582 
N354 X-182.936 Y6.071 Z7.047 A284.3250 
N355 X-182.933 Y6.112 Z6.972 A281.0404 
N356 X-182.930 Y6.150 Z6.891 A277.8592 
N357 X-182.926 Y6.182 Z6.803 A274.8316 
N358 X-182.922 Y6.210 Z6.707 A271.9908 
N359 X-182.916 Y6.232 Z6.603 A269.3498 
N360 X-182.910 Y6.249 Z6.490 A266.9042 
N361 X-182.903 Y6.260 Z6.365 A264.6353 
N362 X-182.894 Y6.265 Z6.229 A262.5167 
N363 X-182.884 Y6.264 Z6.078 A260.5208 
N364 X-182.872 Y6.255 Z5.912 A258.6189 
N365 X-182.858 Y6.239 Z5.730 A256.7773 
N366 X-182.843 Y6.214 Z5.531 A254.9752 
N367 X-182.825 Y6.178 Z5.314 A253.2151 
N368 X-182.805 Y6.132 Z5.081 A251.4995 
N369 X-182.784 Y6.075 Z4.831 A249.8193 
N370 X-182.759 Y6.005 Z4.567 A248.1644 
N371 X-182.733 Y5.923 Z4.289 A246.5253 
N372 X-182.705 Y5.828 Z3.999 A244.8880 
N373 X-182.675 Y5.720 Z3.700 A243.2306 
N374 X-182.643 Y5.601 Z3.393 A241.5288 
N375 X-182.610 Y5.468 Z3.081 A239.7654 
N376 X-182.576 Y5.324 Z2.768 A237.9351 
N377 X-182.540 Y5.168 Z2.456 A236.0404 
N378 X-182.503 Y5.001 Z2.147 A234.0837 
N379 X-182.466 Y4.824 Z1.845 A232.0626 
N380 X-182.429 Y4.638 Z1.551 A229.9716 
N381 X-182.391 Y4.445 Z1.267 A227.8059 
N382 X-182.354 Y4.244 Z0.995 A225.5635 
N383 X-182.316 Y4.038 Z0.735 A223.2453 
N384 X-182.280 Y3.826 Z0.489 A220.8546 
N385 X-182.243 Y3.609 Z0.257 A218.3966 
N386 X-182.207 Y3.388 Z0.040 A215.8772 
N387 X-182.172 Y3.164 Z-0.163 A213.3034 
N388 X-182.138 Y2.936 Z-0.352 A210.6822 
N389 X-182.104 Y2.705 Z-0.527 A208.0207 
N390 X-182.070 Y2.470 Z-0.688 A205.3252 
N391 X-182.037 Y2.232 Z-0.836 A202.6007 
N392 X-182.005 Y1.989 Z-0.972 A199.8513 
N393 X-181.972 Y1.741 Z-1.095 A197.0800 
N394 X-181.940 Y1.487 Z-1.206 A194.2889 
N395 X-181.908 Y1.227 Z-1.306 A191.4793 
N396 X-181.876 Y0.958 Z-1.394 A188.6514 
N397 X-181.843 Y0.679 Z-1.469 A185.8048 
N398 X-181.810 Y0.389 Z-1.533 A182.9394 
N399 X-181.776 Y0.084 Z-1.583 A180.0558 
N400 X-181.742 Y-0.236 Z-1.618 A177.1562 
N401 X-181.706 Y-0.576 Z-1.638 A174.2446 
N402 X-181.669 Y-0.937 Z-1.639 A171.3274 
N403 X-181.631 Y-1.323 Z-1.620 A168.4137 
N404 X-181.591 Y-1.736 Z-1.576 A165.5156 
N405 X-181.550 Y-2.179 Z-1.505 A162.6483 
N406 X-181.507 Y-2.653 Z-1.403 A159.8319 
N407 X-181.462 Y-3.160 Z-1.265 A157.0953 
N408 X-181.416 Y-3.699 Z-1.087 A154.4755 
N409 X-181.370 Y-4.268 Z-0.868 A152.0072 
N410 X-181.322 Y-4.867 Z-0.606 A149.7125 
N411 X-181.274 Y-5.492 Z-0.301 A147.6032 
N412 X-181.226 Y-6.138 Z0.045 A145.6875 
N413 X-181.178 Y-6.798 Z0.429 A143.9704 
N414 X-181.131 Y-7.466 Z0.845 A142.4536 
N415 X-181.086 Y-8.135 Z1.286 A141.1352 
N416 X-181.042 Y-8.796 Z1.744 A140.0096 
N417 X-181.000 Y-9.440 Z2.208 A139.0638 
N418 X-180.960 Y-10.060 Z2.670 A138.2778 
N419 X-180.922 Y-10.648 Z3.119 A137.6316 
N420 X-180.888 Y-11.196 Z3.549 A137.1086 
N421 X-180.856 Y-11.700 Z3.950 A136.6938 
N422 X-180.828 Y-12.156 Z4.318 A136.3722 
N423 X-180.803 Y-12.560 Z4.649 A136.1286 
N424 X-180.780 Y-12.914 Z4.941 A135.9474 
N425 X-180.761 Y-13.216 Z5.193 A135.8132 
N426 X-180.744 Y-13.471 Z5.407 A135.7123 
N427 X-180.731 Y-13.682 Z5.586 A135.6342 
N428 X-180.719 Y-13.852 Z5.731 A135.5704 
N429 X-180.709 Y-13.987 Z5.849 A135.5130 
N430 X-180.701 Y-14.093 Z5.941 A135.4521 
N431 X-180.695 Y-14.173 Z6.014 A135.3748 
N432 X-180.690 Y-14.234 Z6.069 A135.2008 
N433 X-180.685 Y-14.284 Z6.111 A134.5565 
N434 X-180.682 Y-14.331 Z6.141 A132.6261 
N435 X-180.681 Y-14.397 Z6.159 A127.9915 
N436 X-180.680 Y-14.489 Z6.177 A119.6497 
N437 X-180.680 Y-14.587 Z6.206 A109.9194 
N438 X-180.680 Y-14.666 Z6.242 A101.3503 
N439 X-180.681 Y-14.727 Z6.280 A94.2408 
N440 X-180.681 Y-14.772 Z6.315 A88.6066 
N441 X-180.682 Y-14.804 Z6.345 A84.2348 
N442 X-180.682 Y-14.828 Z6.372 A80.7582 
N443 X-180.682 Y-14.847 Z6.396 A77.7165 
N444 X-180.682 Y-14.864 Z6.419 A74.8820 
N445 X-180.683 Y-14.879 Z6.442 A72.2151 
N446 X-180.683 Y-14.893 Z6.464 A69.6703 
N447 X-180.683 Y-14.904 Z6.487 A67.2072 
N448 X-180.684 Y-14.915 Z6.509 A64.7979 
N449 X-180.684 Y-14.925 Z6.532 A62.4230 
N450 X-180.685 Y-14.933 Z6.555 A60.0689 
N451 X-180.685 Y-14.941 Z6.578 A57.7267 
N452 X-180.685 Y-14.947 Z6.601 A55.3911 
N453 X-180.686 Y-14.953 Z6.624 A53.0584 
N454 X-180.686 Y-14.957 Z6.648 A50.7260 
N455 X-180.687 Y-14.961 Z6.672 A48.3922 
N456 X-180.687 Y-14.964 Z6.696 A46.0556 
N457 X-180.687 Y-14.965 Z6.720 A43.7145 
N458 X-180.688 Y-14.966 Z6.744 A41.3665 
N459 X-180.688 Y-14.966 Z6.769 A39.0082 
N460 X-180.689 Y-14.964 Z6.793 A36.6348 
N461 X-180.689 Y-14.962 Z6.818 A34.2381 
N462 X-180.690 Y-14.959 Z6.843 A31.8053 
N463 X-180.690 Y-14.955 Z6.868 A29.3188 
N464 X-180.691 Y-14.949 Z6.894 A26.7531 
N465 X-180.691 Y-14.942 Z6.920 A24.0724 
N466 X-180.692 Y-14.933 Z6.948 A21.2361 
N467 X-180.692 Y-14.923 Z6.977 A18.2056 
N468 X-180.693 Y-14.909 Z7.009 A14.7483 
N469 X-180.693 Y-14.890 Z7.045 A10.7926 
N470 X-180.694 Y-14.865 Z7.088 A5.8415 
N471 X-180.695 Y-14.827 Z7.138 A359.6181 
N472 X-180.696 Y-14.774 Z7.193 A352.1185 
N473 X-180.698 Y-14.709 Z7.242 A344.3505 
N474 X-180.699 Y-14.635 Z7.279 A336.7806 
N475 X-180.701 Y-14.569 Z7.295 A331.3592 
N476 X-180.703 Y-14.514 Z7.292 A328.3420 
N477 X-180.706 Y-14.465 Z7.276 A327.1303 
N478 X-180.710 Y-14.411 Z7.250 A326.7167 
N479 X-180.715 Y-14.344 Z7.214 A326.6406 
N480 X-180.721 Y-14.260 Z7.168 A326.6966 
N481 X-180.729 Y-14.155 Z7.110 A326.8437 
N482 X-180.739 Y-14.026 Z7.039 A327.0556 
N483 X-180.751 Y-13.867 Z6.953 A327.3224 
N484 X-180.766 Y-13.678 Z6.850 A327.6458 
N485 X-180.783 Y-13.454 Z6.732 A328.0368 
N486 X-180.803 Y-13.195 Z6.596 A328.5142 
N487 X-180.826 Y-12.899 Z6.443 A329.1028 
N488 X-180.852 Y-12.566 Z6.276 A329.8276 
N489 X-180.882 Y-12.197 Z6.095 A330.7072 
N490 X-180.915 Y-11.793 Z5.905 A331.7496 
N491 X-180.951 Y-11.355 Z5.709 A332.9579 
N492 X-180.991 Y-10.889 Z5.512 A334.3401 
N493 X-181.034 Y-10.395 Z5.316 A335.9089 
N494 X-181.080 Y-9.878 Z5.127 A337.6776 
N495 X-181.129 Y-9.342 Z4.949 A339.6568 
N496 X-181.181 Y-8.789 Z4.786 A341.8524 
N497 X-181.235 Y-8.221 Z4.642 A344.2640 
N498 X-181.293 Y-7.641 Z4.521 A346.8822 
N499 X-181.354 Y-7.051 Z4.427 A349.6861 
N500 X-181.417 Y-6.451 Z4.361 A352.6410 
N501 X-181.484 Y-5.843 Z4.328 A355.6977 
N502 X-181.553 Y-5.228 Z4.330 A358.7924 
N503 X-181.624 Y-4.608 Z4.368 A1.8508 
N504 X-181.699 Y-3.986 Z4.442 A4.7937 
N505 X-181.774 Y-3.363 Z4.552 A7.5469 
N506 X-181.852 Y-2.744 Z4.694 A10.0517 
N507 X-181.929 Y-2.131 Z4.863 A12.2782 
N508 X-182.007 Y-1.528 Z5.057 A13.9801 
N509 X-182.084 Y-0.938 Z5.266 A15.1464 
N510 X-182.159 Y-0.366 Z5.484 A15.7584 
N511 X-182.231 Y0.185 Z5.701 A16.0613 
N512 X-182.300 Y0.710 Z5.912 A16.0586 
N513 X-182.365 Y1.206 Z6.111 A15.7617 
N514 X-182.425 Y1.669 Z6.296 A15.1756 
N515 X-182.480 Y2.097 Z6.463 A14.2936 
N516 X-182.530 Y2.487 Z6.610 A13.1097 
N517 X-182.574 Y2.841 Z6.737 A11.6344 
N518 X-182.613 Y3.157 Z6.843 A9.8892 
N519 X-182.646 Y3.437 Z6.931 A7.8962 
N520 X-182.675 Y3.683 Z7.000 A5.6915 
N521 X-182.699 Y3.896 Z7.055 A3.3167 
N522 X-182.719 Y4.081 Z7.098 A0.7699 
N523 X-182.735 Y4.241 Z7.132 A358.0397 
N524 X-182.748 Y4.379 Z7.158 A355.1285 
N525 X-182.759 Y4.498 Z7.178 A352.0400 
N526 X-182.768 Y4.603 Z7.194 A348.7831 
N527 X-182.775 Y4.696 Z7.206 A345.3842 
N528 X-182.780 Y4.779 Z7.215 A341.8923 
N529 X-182.785 Y4.854 Z7.221 A338.3721 
N530 X-182.788 Y4.922 Z7.225 A334.8836 
N531 X-182.791 Y4.985 Z7.226 A331.4699 
N532 X-182.793 Y5.043 Z7.225 A328.1533 
N533 X-182.795 Y5.097 Z7.222 A324.9381 
N534 X-182.797 Y5.148 Z7.217 A321.8146 
N535 X-182.798 Y5.197 Z7.209 A318.7647 
N536 X-182.800 Y5.245 Z7.200 A315.7653 
N537 X-182.801 Y5.290 Z7.189 A312.7917 
N538 X-182.802 Y5.335 Z7.176 A309.8194 
N539 X-182.802 Y5.380 Z7.160 A306.8249 
N540 X-182.803 Y5.424 Z7.142 A303.7876 
N541 X-182.803 Y5.468 Z7.121 A300.6909 
N542 X-182.804 Y5.513 Z7.096 A297.5247 
N543 X-182.804 Y5.557 Z7.067 A294.2881 
N544 X-182.804 Y5.602 Z7.033 A290.9915 
N545 X-182.803 Y5.646 Z6.994 A287.6582 
N546 X-182.803 Y5.689 Z6.949 A284.3250 
N547 X-182.802 Y5.730 Z6.898 A281.0404 
N548 X-182.800 Y5.768 Z6.838 A277.8592 
N549 X-182.798 Y5.804 Z6.771 A274.8316 
N550 X-182.795 Y5.835 Z6.694 A271.9908 
N551 X-182.791 Y5.862 Z6.607 A269.3498 
N552 X-182.786 Y5.884 Z6.509 A266.9042 
N553 X-182.781 Y5.901 Z6.399 A264.6353 
N554 X-182.774 Y5.913 Z6.275 A262.5167 
N555 X-182.765 Y5.918 Z6.136 A260.5208 
N556 X-182.755 Y5.916 Z5.980 A258.6189 
N557 X-182.743 Y5.907 Z5.808 A256.7773 
N558 X-182.729 Y5.890 Z5.617 A254.9752 
N559 X-182.713 Y5.862 Z5.409 A253.2151 
N560 X-182.695 Y5.824 Z5.184 A251.4995 
N561 X-182.675 Y5.774 Z4.942 A249.8193 
N562 X-182.653 Y5.712 Z4.684 A248.1644 
N563 X-182.628 Y5.638 Z4.413 A246.5253 
N564 X-182.602 Y5.551 Z4.129 A244.8880 
N565 X-182.573 Y5.452 Z3.835 A243.2306 
N566 X-182.543 Y5.340 Z3.534 A241.5288 
N567 X-182.512 Y5.217 Z3.228 A239.7654 
N568 X-182.479 Y5.081 Z2.920 A237.9351 
N569 X-182.445 Y4.934 Z2.613 A236.0404 
N570 X-182.410 Y4.777 Z2.309 A234.0837 
N571 X-182.374 Y4.610 Z2.012 A232.0626 
N572 X-182.339 Y4.434 Z1.722 A229.9716 
N573 X-182.303 Y4.251 Z1.442 A227.8059 
N574 X-182.267 Y4.061 Z1.174 A225.5635 
N575 X-182.231 Y3.865 Z0.918 A223.2453 
N576 X-182.196 Y3.664 Z0.676 A220.8546 
N577 X-182.161 Y3.459 Z0.447 A218.3966 
N578 X-182.127 Y3.250 Z0.232 A215.8772 
N579 X-182.094 Y3.037 Z0.031 A213.3034 
N580 X-182.061 Y2.820 Z-0.157 A210.6822 
N581 X-182.029 Y2.601 Z-0.331 A208.0207 
N582 X-181.997 Y2.377 Z-0.492 A205.3252 
N583 X-181.965 Y2.150 Z-0.640 A202.6007 
N584 X-181.934 Y1.918 Z-0.777 A199.8513 
N585 X-181.904 Y1.682 Z-0.902 A197.0800 
N586 X-181.873 Y1.439 Z-1.015 A194.2889 
N587 X-181.843 Y1.189 Z-1.117 A191.4793 
N588 X-181.812 Y0.930 Z-1.208 A188.6514 
N589 X-181.781 Y0.661 Z-1.288 A185.8048 
N590 X-181.750 Y0.380 Z-1.355 A182.9394 
N591 X-181.718 Y0.084 Z-1.410 A180.0558 
N592 X-181.685 Y-0.228 Z-1.451 A177.1562 
N593 X-181.651 Y-0.560 Z-1.476 A174.2446 
N594 X-181.616 Y-0.914 Z-1.483 A171.3274 
N595 X-181.579 Y-1.293 Z-1.470 A168.4137 
N596 X-181.541 Y-1.699 Z-1.433 A165.5156 
N597 X-181.501 Y-2.136 Z-1.369 A162.6483 
N598 X-181.460 Y-2.606 Z-1.273 A159.8319 
N599 X-181.417 Y-3.108 Z-1.142 A157.0953 
N600 X-181.373 Y-3.643 Z-0.971 A154.4755 
N601 X-181.328 Y-4.211 Z-0.759 A152.0072 
N602 X-181.282 Y-4.808 Z-0.504 A149.7125 
N603 X-181.236 Y-5.431 Z-0.205 A147.6032 
N604 X-181.189 Y-6.076 Z0.135 A145.6875 
N605 X-181.143 Y-6.737 Z0.513 A143.9704 
N606 X-181.098 Y-7.406 Z0.923 A142.4536 
N607 X-181.054 Y-8.076 Z1.359 A141.1352 
N608 X-181.012 Y-8.739 Z1.812 A140.0096 
N609 X-180.971 Y-9.385 Z2.272 A139.0638 
N610 X-180.933 Y-10.007 Z2.729 A138.2778 
N611 X-180.897 Y-10.598 Z3.174 A137.6316 
N612 X-180.864 Y-11.149 Z3.599 A137.1086 
N613 X-180.835 Y-11.656 Z3.997 A136.6938 
N614 X-180.808 Y-12.115 Z4.361 A136.3722 
N615 X-180.784 Y-12.523 Z4.688 A136.1286 
N616 X-180.764 Y-12.879 Z4.977 A135.9474 
N617 X-180.746 Y-13.185 Z5.225 A135.8132 
N618 X-180.731 Y-13.444 Z5.436 A135.7123 
N619 X-180.719 Y-13.657 Z5.610 A135.6342 
N620 X-180.709 Y-13.831 Z5.753 A135.5704 
N621 X-180.701 Y-13.970 Z5.866 A135.5130 
N622 X-180.695 Y-14.079 Z5.955 A135.4521 
N623 X-180.690 Y-14.163 Z6.024 A135.3748 
N624 X-180.686 Y-14.227 Z6.076 A135.2008 
N625 X-180.684 Y-14.280 Z6.114 A134.5565 
N626 X-180.682 Y-14.331 Z6.141 A132.6261 
N627 X-180.681 Y-14.398 Z6.159 A127.9752 
N628 X-180.680 Y-14.490 Z6.177 A119.5899 
N629 X-180.680 Y-14.588 Z6.206 A109.8079 
N630 X-180.680 Y-14.667 Z6.243 A101.2029 
N631 X-180.681 Y-14.728 Z6.281 A94.0726 
N632 X-180.681 Y-14.773 Z6.316 A88.4305 
N633 X-180.682 Y-14.805 Z6.347 A84.0522 
N634 X-180.682 Y-14.829 Z6.373 A80.5646 
N635 X-180.682 Y-14.849 Z6.397 A77.5128 
N636 X-180.683 Y-14.866 Z6.421 A74.6682 
N637 X-180.683 Y-14.880 Z6.444 A71.9904 
N638 X-180.683 Y-14.894 Z6.466 A69.4356 
N639 X-180.683 Y-14.906 Z6.489 A66.9632 
N640 X-180.684 Y-14.916 Z6.512 A64.5447 
N641 X-180.684 Y-14.926 Z6.534 A62.1606 
N642 X-180.685 Y-14.934 Z6.557 A59.7974 
N643 X-180.685 Y-14.941 Z6.580 A57.4459 
N644 X-180.685 Y-14.948 Z6.604 A55.1007 
N645 X-180.686 Y-14.953 Z6.627 A52.7583 
N646 X-180.686 Y-14.958 Z6.651 A50.4162 
N647 X-180.687 Y-14.961 Z6.675 A48.0724 
N648 X-180.687 Y-14.964 Z6.699 A45.7256 
N649 X-180.688 Y-14.965 Z6.724 A43.3738 
N650 X-180.688 Y-14.966 Z6.748 A41.0142 
N651 X-180.688 Y-14.966 Z6.773 A38.6431 
N652 X-180.689 Y-14.964 Z6.797 A36.2546 
N653 X-180.689 Y-14.962 Z6.822 A33.8398 
N654 X-180.690 Y-14.958 Z6.847 A31.3842 
N655 X-180.690 Y-14.954 Z6.872 A28.8676 
N656 X-180.691 Y-14.948 Z6.898 A26.2618 
N657 X-180.691 Y-14.941 Z6.925 A23.5279 
N658 X-180.692 Y-14.931 Z6.954 A20.6166 
N659 X-180.692 Y-14.920 Z6.983 A17.4851 
N660 X-180.693 Y-14.905 Z7.017 A13.8772 
N661 X-180.694 Y-14.885 Z7.054 A9.7177 
N662 X-180.694 Y-14.856 Z7.100 A4.4070 
N663 X-180.695 Y-14.815 Z7.152 A357.8721 
N664 X-180.697 Y-14.758 Z7.207 A350.1079 
N665 X-180.698 Y-14.689 Z7.253 A342.1920 
N666 X-180.700 Y-14.615 Z7.285 A335.0247 
N667 X-180.702 Y-14.553 Z7.295 A330.3198 
N668 X-180.704 Y-14.501 Z7.288 A328.0548 
N669 X-180.707 Y-14.450 Z7.270 A326.9605 
N670 X-180.711 Y-14.392 Z7.241 A326.6446 
N671 X-180.717 Y-14.321 Z7.202 A326.6266 
N672 X-180.723 Y-14.232 Z7.152 A326.7213 
N673 X-180.732 Y-14.120 Z7.090 A326.8940 
N674 X-180.742 Y-13.982 Z7.015 A327.1252 
N675 X-180.755 Y-13.815 Z6.924 A327.4096 
N676 X-180.770 Y-13.615 Z6.817 A327.7524 
N677 X-180.788 Y-13.381 Z6.693 A328.1674 
N678 X-180.809 Y-13.110 Z6.552 A328.6759 
N679 X-180.833 Y-12.803 Z6.394 A329.3035 
N680 X-180.859 Y-12.459 Z6.223 A330.0743 
N681 X-180.889 Y-12.078 Z6.039 A331.0039 
N682 X-180.922 Y-11.663 Z5.846 A332.0980 
N683 X-180.957 Y-11.216 Z5.649 A333.3605 
N684 X-180.995 Y-10.740 Z5.451 A334.8017 
N685 X-181.034 Y-10.238 Z5.257 A336.4353 
N686 X-181.074 Y-9.713 Z5.070 A338.2742 
N687 X-181.114 Y-9.169 Z4.896 A340.3285 
N688 X-181.153 Y-8.609 Z4.738 A342.6026 
N689 X-181.192 Y-8.034 Z4.600 A345.0936 
N690 X-181.230 Y-7.448 Z4.487 A347.7887 
N691 X-181.268 Y-6.851 Z4.401 A350.6622 
N692 X-181.308 Y-6.244 Z4.346 A353.6735 
N693 X-181.349 Y-5.630 Z4.325 A356.7667 
N694 X-181.394 Y-5.010 Z4.340 A359.8719 
N695 X-181.443 Y-4.386 Z4.391 A2.9098 
N696 X-181.495 Y-3.760 Z4.478 A5.7991 
N697 X-181.550 Y-3.135 Z4.601 A8.4662 
N698 X-181.608 Y-2.516 Z4.754 A10.8566 
N699 X-181.667 Y-1.905 Z4.933 A12.9466 
N700 X-181.728 Y-1.306 Z5.133 A14.4865 
N701 X-181.787 Y-0.723 Z5.346 A15.4877 
N702 X-181.844 Y-0.158 Z5.565 A15.9536 
N703 X-181.899 Y0.383 Z5.780 A16.1254 
N704 X-181.951 Y0.897 Z5.987 A16.0054 
N705 X-181.998 Y1.379 Z6.180 A15.6011 
N706 X-182.040 Y1.827 Z6.358 A14.9118 
N707 X-182.077 Y2.239 Z6.517 A13.9289 
N708 X-182.110 Y2.614 Z6.656 A12.6516 
N709 X-182.137 Y2.952 Z6.775 A11.0968 
N710 X-182.159 Y3.253 Z6.874 A9.2876 
N711 X-182.177 Y3.518 Z6.954 A7.2488 
N712 X-182.191 Y3.750 Z7.018 A5.0247 
N713 X-182.201 Y3.952 Z7.068 A2.6467 
N714 X-182.209 Y4.126 Z7.108 A0.1058 
N715 X-182.213 Y4.276 Z7.138 A357.3966 
N716 X-182.215 Y4.406 Z7.162 A354.5244 
N717 X-182.216 Y4.519 Z7.181 A351.4933 
N718 X-182.215 Y4.618 Z7.195 A348.3141 
N719 X-182.212 Y4.706 Z7.207 A345.0139 
N720 X-182.209 Y4.785 Z7.216 A341.6390 
N721 X-182.205 Y4.856 Z7.222 A338.2459 
N722 X-182.201 Y4.922 Z7.225 A334.8850 
N723 X-182.198 Y4.982 Z7.227 A331.5905 
N724 X-182.194 Y5.038 Z7.226 A328.3792 
N725 X-182.191 Y5.092 Z7.223 A325.2527 
N726 X-182.189 Y5.142 Z7.218 A322.2018 
N727 X-182.186 Y5.190 Z7.211 A319.2099 
N728 X-182.184 Y5.237 Z7.202 A316.2567 
N729 X-182.182 Y5.282 Z7.191 A313.3203 
N730 X-182.180 Y5.327 Z7.179 A310.3786 
N731 X-182.178 Y5.371 Z7.163 A307.4104 
N732 X-182.177 Y5.415 Z7.146 A304.3967 
N733 X-182.176 Y5.459 Z7.125 A301.3216 
N734 X-182.175 Y5.504 Z7.101 A298.1749 
N735 X-182.174 Y5.548 Z7.073 A294.9548 
N736 X-182.174 Y5.593 Z7.041 A291.6702 
N737 X-182.174 Y5.637 Z7.003 A288.3422 
N738 X-182.174 Y5.680 Z6.959 A285.0053 
N739 X-182.174 Y5.722 Z6.909 A281.7064 
N740 X-182.174 Y5.761 Z6.851 A278.4997 
N741 X-182.174 Y5.797 Z6.785 A275.4375 
N742 X-182.173 Y5.829 Z6.710 A272.5571 
N743 X-182.171 Y5.857 Z6.626 A269.8758 
N744 X-182.169 Y5.880 Z6.531 A267.3921 
N745 X-182.165 Y5.898 Z6.423 A265.0900 
N746 X-182.160 Y5.911 Z6.302 A262.9439 
N747 X-182.154 Y5.918 Z6.166 A260.9261 
N748 X-182.146 Y5.917 Z6.014 A259.0085 
N749 X-182.137 Y5.910 Z5.845 A257.1578 
N750 X-182.125 Y5.894 Z5.659 A255.3485 
N751 X-182.112 Y5.869 Z5.455 A253.5794 
N752 X-182.096 Y5.833 Z5.233 A251.8553 
N753 X-182.079 Y5.785 Z4.994 A250.1687 
N754 X-182.059 Y5.726 Z4.740 A248.5091 
N755 X-182.036 Y5.654 Z4.471 A246.8674 
N756 X-182.012 Y5.570 Z4.189 A245.2309 
N757 X-181.986 Y5.474 Z3.897 A243.5791 
N758 X-181.957 Y5.365 Z3.597 A241.8874 
N759 X-181.927 Y5.243 Z3.291 A240.1363 
N760 X-181.896 Y5.110 Z2.983 A238.3179 
N761 X-181.863 Y4.966 Z2.675 A236.4339 
N762 X-181.828 Y4.810 Z2.371 A234.4872 
N763 X-181.792 Y4.645 Z2.071 A232.4764 
N764 X-181.756 Y4.470 Z1.779 A230.3961 
N765 X-181.718 Y4.288 Z1.497 A228.2411 
N766 X-181.680 Y4.099 Z1.226 A226.0087 
N767 X-181.641 Y3.904 Z0.967 A223.6992 
N768 X-181.602 Y3.703 Z0.721 A221.3153 
N769 X-181.562 Y3.498 Z0.489 A218.8620 
N770 X-181.522 Y3.289 Z0.270 A216.3450 
N771 X-181.481 Y3.076 Z0.066 A213.7711 
N772 X-181.439 Y2.859 Z-0.124 A211.1470 
N773 X-181.398 Y2.639 Z-0.302 A208.4796 
N774 X-181.358 Y2.415 Z-0.466 A205.7750 
N775 X-181.318 Y2.187 Z-0.617 A203.0385 
N776 X-181.278 Y1.955 Z-0.756 A200.2743 
N777 X-181.239 Y1.717 Z-0.884 A197.4858 
N778 X-181.200 Y1.473 Z-1.000 A194.6753 
N779 X-181.161 Y1.222 Z-1.105 A191.8446 
N780 X-181.121 Y0.962 Z-1.198 A188.9943 
N781 X-181.081 Y0.692 Z-1.279 A186.1244 
N782 X-181.040 Y0.409 Z-1.349 A183.2349 
N783 X-180.998 Y0.112 Z-1.405 A180.3269 
N784 X-180.955 Y-0.201 Z-1.448 A177.4028 
N785 X-180.911 Y-0.534 Z-1.474 A174.4669 
N786 X-180.865 Y-0.889 Z-1.483 A171.5259 
N787 X-180.816 Y-1.269 Z-1.471 A168.5892 
N788 X-180.766 Y-1.678 Z-1.435 A165.6691 
N789 X-180.713 Y-2.116 Z-1.372 A162.7812 
N790 X-180.658 Y-2.587 Z-1.277 A159.9455 
N791 X-180.601 Y-3.090 Z-1.147 A157.1908 
N792 X-180.542 Y-3.627 Z-0.977 A154.5542 
N793 X-180.480 Y-4.196 Z-0.765 A152.0709 
N794 X-180.417 Y-4.794 Z-0.510 A149.7633 
N795 X-180.353 Y-5.419 Z-0.211 A147.6432 
N796 X-180.289 Y-6.066 Z0.129 A145.7184 
N797 X-180.224 Y-6.727 Z0.507 A143.9939 
N798 X-180.160 Y-7.398 Z0.918 A142.4711 
N799 X-180.097 Y-8.069 Z1.354 A141.1479 
N800 X-180.036 Y-8.732 Z1.807 A140.0186 
N801 X-179.977 Y-9.380 Z2.268 A139.0700 
N802 X-179.921 Y-10.003 Z2.725 A138.2818 
N803 X-179.869 Y-10.594 Z3.171 A137.6342 
N804 X-179.821 Y-11.146 Z3.597 A137.1101 
N805 X-179.777 Y-11.654 Z3.995 A136.6946 
N806 X-179.738 Y-12.113 Z4.359 A136.3725 
N807 X-179.703 Y-12.521 Z4.687 A136.1286 
N808 X-179.673 Y-12.878 Z4.975 A135.9473 
N809 X-179.647 Y-13.184 Z5.224 A135.8131 
N810 X-179.625 Y-13.443 Z5.435 A135.7122 
N811 X-179.607 Y-13.657 Z5.610 A135.6342 
N812 X-179.593 Y-13.831 Z5.752 A135.5705 
N813 X-179.581 Y-13.970 Z5.866 A135.5132 
N814 X-179.572 Y-14.079 Z5.955 A135.4525 
N815 X-179.565 Y-14.163 Z6.024 A135.3753 
N816 X-179.560 Y-14.227 Z6.076 A135.2013 
N817 X-179.556 Y-14.280 Z6.114 A134.5569 
N818 X-179.553 Y-14.331 Z6.141 A132.6256 
N819 X-179.551 Y-14.389 Z6.157 A128.6582 
N820 X-179.550 Y-14.465 Z6.172 A121.9470 
N821 X-179.552 Y-14.546 Z6.192 A114.1374 
N822 X-179.555 Y-14.614 Z6.217 A107.0366 
N823 X-179.559 Y-14.669 Z6.244 A100.9841 
N824 X-179.563 Y-14.712 Z6.269 A96.0425 
N825 X-179.567 Y-14.745 Z6.293 A92.0344 
N826 X-179.571 Y-14.773 Z6.316 A88.4448 
N827 X-179.574 Y-14.797 Z6.338 A85.1729 
N828 X-179.578 Y-14.819 Z6.361 A82.0235 
N829 X-179.581 Y-14.840 Z6.385 A78.9536 
N830 X-179.585 Y-14.858 Z6.410 A75.9267 
N831 X-179.589 Y-14.876 Z6.435 A72.9144 
N832 X-179.594 Y-14.892 Z6.462 A69.8968 
N833 X-179.598 Y-14.906 Z6.490 A66.8593 
N834 X-179.603 Y-14.919 Z6.518 A63.7944 
N835 X-179.608 Y-14.931 Z6.548 A60.6987 
N836 X-179.613 Y-14.941 Z6.579 A57.5711 
N837 X-179.618 Y-14.950 Z6.611 A54.4134 
N838 X-179.624 Y-14.956 Z6.643 A51.2281 
N839 X-179.629 Y-14.961 Z6.676 A48.0188 
N840 X-179.635 Y-14.965 Z6.709 A44.7894 
N841 X-179.640 Y-14.966 Z6.743 A41.5436 
N842 X-179.646 Y-14.965 Z6.776 A38.2847 
N843 X-179.652 Y-14.963 Z6.810 A35.0149 
N844 X-179.657 Y-14.959 Z6.843 A31.7349 
N845 X-179.663 Y-14.953 Z6.877 A28.4427 
N846 X-179.668 Y-14.945 Z6.910 A25.1325 
N847 X-179.674 Y-14.935 Z6.942 A21.7933 
N848 X-179.679 Y-14.923 Z6.975 A18.4079 
N849 X-179.684 Y-14.909 Z7.007 A14.9505 
N850 X-179.690 Y-14.893 Z7.040 A11.3861 
N851 X-179.695 Y-14.874 Z7.072 A7.6699 
N852 X-179.700 Y-14.852 Z7.105 A3.7564 
N853 X-179.706 Y-14.825 Z7.140 A359.3960 
N854 X-179.712 Y-14.792 Z7.176 A354.5344 
N855 X-179.719 Y-14.748 Z7.215 A348.7726 
N856 X-179.726 Y-14.696 Z7.250 A342.8171 
N857 X-179.732 Y-14.636 Z7.278 A336.9096 
N858 X-179.736 Y-14.577 Z7.294 A331.9127 
N859 X-179.739 Y-14.525 Z7.294 A328.8710 
N860 X-179.741 Y-14.480 Z7.281 A327.4964 
N861 X-179.744 Y-14.431 Z7.259 A326.9199 
N862 X-179.746 Y-14.371 Z7.229 A326.6882 
N863 X-179.750 Y-14.298 Z7.188 A326.7057 
N864 X-179.754 Y-14.205 Z7.137 A326.8182 
N865 X-179.760 Y-14.089 Z7.073 A327.0019 
N866 X-179.766 Y-13.946 Z6.995 A327.2448 
N867 X-179.775 Y-13.774 Z6.901 A327.5456 
N868 X-179.785 Y-13.568 Z6.791 A327.9121 
N869 X-179.797 Y-13.327 Z6.664 A328.3592 
N870 X-179.811 Y-13.049 Z6.519 A328.9085 
N871 X-179.827 Y-12.732 Z6.358 A329.5849 
N872 X-179.845 Y-12.378 Z6.182 A330.4109 
N873 X-179.866 Y-11.986 Z5.994 A331.4013 
N874 X-179.889 Y-11.558 Z5.797 A332.5637 
N875 X-179.915 Y-11.095 Z5.596 A333.9061 
N876 X-179.944 Y-10.602 Z5.395 A335.4418 
N877 X-179.975 Y-10.081 Z5.198 A337.1858 
N878 X-180.009 Y-9.536 Z5.010 A339.1513 
N879 X-180.045 Y-8.969 Z4.835 A341.3466 
N880 X-180.084 Y-8.384 Z4.679 A343.7733 
N881 X-180.126 Y-7.782 Z4.547 A346.4229 
N882 X-180.170 Y-7.167 Z4.442 A349.2743 
N883 X-180.217 Y-6.541 Z4.368 A352.2911 
N884 X-180.267 Y-5.906 Z4.330 A355.4213 
N885 X-180.318 Y-5.265 Z4.329 A358.5991 
N886 X-180.373 Y-4.621 Z4.367 A1.7507 
N887 X-180.429 Y-3.976 Z4.444 A4.8036 
N888 X-180.487 Y-3.335 Z4.558 A7.7005 
N889 X-180.546 Y-2.701 Z4.705 A10.2342 
N890 X-180.607 Y-2.077 Z4.881 A12.3517 
N891 X-180.668 Y-1.467 Z5.078 A14.0097 
N892 X-180.726 Y-0.875 Z5.290 A15.1895 
N893 X-180.780 Y-0.303 Z5.508 A15.9126 
N894 X-180.829 Y0.244 Z5.724 A16.2237 
N895 X-180.872 Y0.764 Z5.933 A16.1565 
N896 X-180.909 Y1.252 Z6.130 A15.7094 
N897 X-180.939 Y1.706 Z6.311 A15.0383 
N898 X-180.963 Y2.124 Z6.474 A14.1182 
N899 X-180.981 Y2.505 Z6.617 A12.9361 
N900 X-180.993 Y2.848 Z6.740 A11.4983 
N901 X-181.000 Y3.154 Z6.843 A9.8239 
N902 X-181.002 Y3.425 Z6.927 A7.9347 
N903 X-181.000 Y3.662 Z6.995 A5.8641 
N904 X-180.994 Y3.868 Z7.048 A3.6520 
N905 X-180.986 Y4.047 Z7.090 A1.3080 
N906 X-180.976 Y4.200 Z7.123 A358.8297 
N907 X-180.963 Y4.333 Z7.149 A356.2251 
N908 X-180.949 Y4.448 Z7.169 A353.5051 
N909 X-180.933 Y4.548 Z7.185 A350.6812 
N910 X-180.916 Y4.635 Z7.197 A347.7716 
N911 X-180.899 Y4.713 Z7.207 A344.8041 
N912 X-180.881 Y4.782 Z7.215 A341.8128 
N913 X-180.864 Y4.845 Z7.221 A338.8322 
N914 X-180.848 Y4.903 Z7.224 A335.8892 
N915 X-180.834 Y4.957 Z7.226 A332.9997 
N916 X-180.820 Y5.007 Z7.226 A330.1706 
N917 X-180.808 Y5.055 Z7.225 A327.4024 
N918 X-180.797 Y5.101 Z7.222 A324.6913 
N919 X-180.788 Y5.145 Z7.217 A322.0302 
N920 X-180.779 Y5.187 Z7.211 A319.4100 
N921 X-180.771 Y5.228 Z7.204 A316.8199 
N922 X-180.764 Y5.268 Z7.195 A314.2477 
N923 X-180.758 Y5.307 Z7.184 A311.6799 
N924 X-180.753 Y5.346 Z7.172 A309.1019 
N925 X-180.749 Y5.384 Z7.158 A306.4982 
N926 X-180.746 Y5.423 Z7.143 A303.8526 
N927 X-180.743 Y5.461 Z7.124 A301.1494 
N928 X-180.741 Y5.500 Z7.103 A298.3755 
N929 X-180.741 Y5.540 Z7.079 A295.5220 
N930 X-180.741 Y5.580 Z7.051 A292.5875 
N931 X-180.743 Y5.620 Z7.019 A289.5797 
N932 X-180.746 Y5.660 Z6.981 A286.5173 
N933 X-180.750 Y5.700 Z6.937 A283.4309 
N934 X-180.756 Y5.738 Z6.887 A280.3620 
N935 X-180.762 Y5.774 Z6.828 A277.3587 
N936 X-180.769 Y5.808 Z6.761 A274.4668 
N937 X-180.777 Y5.838 Z6.685 A271.7199 
N938 X-180.784 Y5.864 Z6.597 A269.1364 
N939 X-180.791 Y5.886 Z6.498 A266.7190 
N940 X-180.797 Y5.902 Z6.386 A264.4566 
N941 X-180.803 Y5.913 Z6.258 A262.3298 
N942 X-180.809 Y5.918 Z6.115 A260.3160 
N943 X-180.813 Y5.915 Z5.956 A258.3897 
N944 X-180.818 Y5.905 Z5.778 A256.5216 
N945 X-180.821 Y5.885 Z5.582 A254.6959 
N946 X-180.822 Y5.855 Z5.368 A252.9141 
N947 X-180.823 Y5.814 Z5.136 A251.1747 
N948 X-180.821 Y5.761 Z4.887 A249.4673 
N949 X-180.818 Y5.696 Z4.622 A247.7816 
N950 X-180.812 Y5.617 Z4.343 A246.1065 
N951 X-180.805 Y5.526 Z4.052 A244.4256 
N952 X-180.795 Y5.422 Z3.751 A242.7164 
N953 X-180.783 Y5.305 Z3.443 A240.9565 
N954 X-180.770 Y5.175 Z3.130 A239.1316 
N955 X-180.753 Y5.033 Z2.816 A237.2375 
N956 X-180.735 Y4.880 Z2.503 A235.2751 
N957 X-180.713 Y4.715 Z2.194 A233.2438 
N958 X-180.689 Y4.540 Z1.892 A231.1386 
N959 X-180.662 Y4.356 Z1.599 A228.9534 
N960 X-180.633 Y4.164 Z1.316 A226.6837 
N961 X-180.601 Y3.965 Z1.045 A224.3280 
N962 X-180.565 Y3.759 Z0.787 A221.8874 
N963 X-180.527 Y3.548 Z0.542 A219.3654 
N964 X-180.486 Y3.331 Z0.312 A216.7669 
N965 X-180.441 Y3.110 Z0.097 A214.0978 
N966 X-180.395 Y2.884 Z-0.104 A211.3642 
N967 X-180.347 Y2.653 Z-0.291 A208.5723 
N968 X-180.300 Y2.417 Z-0.465 A205.7280 
N969 X-180.254 Y2.176 Z-0.625 A202.8367 
N970 X-180.207 Y1.929 Z-0.772 A199.9031 
N971 X-180.160 Y1.674 Z-0.906 A196.9314 
N972 X-180.113 Y1.412 Z-1.027 A193.9252 
N973 X-180.066 Y1.139 Z-1.136 A190.8877 
N974 X-180.018 Y0.856 Z-1.232 A187.8214 
N975 X-179.970 Y0.559 Z-1.314 A184.7291 
N976 X-179.920 Y0.247 Z-1.382 A181.6145 
N977 X-179.870 Y-0.084 Z-1.434 A178.4834 
N978 X-179.817 Y-0.435 Z-1.468 A175.3438 
N979 X-179.763 Y-0.811 Z-1.483 A172.2066 
N980 X-179.708 Y-1.212 Z-1.474 A169.0856 
N981 X-179.650 Y-1.644 Z-1.439 A165.9975 
N982 X-179.590 Y-2.106 Z-1.373 A162.9620 
N983 X-179.528 Y-2.602 Z-1.273 A160.0025 
N984 X-179.464 Y-3.130 Z-1.134 A157.1496 
N985 X-179.399 Y-3.692 Z-0.953 A154.4400 
N986 X-179.333 Y-4.284 Z-0.728 A151.9062 
N987 X-179.266 Y-4.905 Z-0.457 A149.5674 
N988 X-179.198 Y-5.550 Z-0.143 A147.4332 
N989 X-179.131 Y-6.213 Z0.212 A145.5091 
N990 X-179.064 Y-6.888 Z0.605 A143.7967 
N991 X-178.999 Y-7.569 Z1.028 A142.2942 
N992 X-178.936 Y-8.246 Z1.474 A140.9962 
N993 X-178.876 Y-8.911 Z1.934 A139.8935 
N994 X-178.818 Y-9.556 Z2.397 A138.9695 
N995 X-178.764 Y-10.174 Z2.854 A138.2032 
N996 X-178.714 Y-10.756 Z3.296 A137.5753 
N997 X-178.669 Y-11.297 Z3.715 A137.0688 
N998 X-178.627 Y-11.791 Z4.104 A136.6680 
N999 X-178.591 Y-12.235 Z4.458 A136.3572 
N1000 X-178.559 Y-12.628 Z4.774 A136.1210 
N1001 X-178.531 Y-12.969 Z5.050 A135.9436 
N1002 X-178.508 Y-13.261 Z5.287 A135.8102 
N1003 X-178.488 Y-13.505 Z5.486 A135.7080 
N1004 X-178.472 Y-13.706 Z5.650 A135.6268 
N1005 X-178.459 Y-13.868 Z5.783 A135.5581 
N1006 X-178.449 Y-13.998 Z5.889 A135.4931 
N1007 X-178.441 Y-14.098 Z5.971 A135.4215 
N1008 X-178.435 Y-14.176 Z6.034 A135.3304 
N1009 X-178.430 Y-14.235 Z6.082 A135.1365 
N1010 X-178.427 Y-14.284 Z6.117 A134.4628 
N1011 X-178.424 Y-14.331 Z6.141 A132.6252 
N1012 X-178.421 Y-14.383 Z6.156 A129.1089 
N1013 X-178.421 Y-14.449 Z6.168 A123.4237 
N1014 X-178.423 Y-14.518 Z6.184 A116.8758 
N1015 X-178.428 Y-14.578 Z6.203 A110.8633 
N1016 X-178.433 Y-14.627 Z6.223 A105.6169 
N1017 X-178.439 Y-14.668 Z6.242 A101.1769 
N1018 X-178.445 Y-14.701 Z6.262 A97.3622 
N1019 X-178.451 Y-14.731 Z6.282 A93.7842 
N1020 X-178.458 Y-14.759 Z6.303 A90.2763 
N1021 X-178.464 Y-14.785 Z6.326 A86.7880 
N1022 X-178.472 Y-14.811 Z6.351 A83.2755 
N1023 X-178.480 Y-14.835 Z6.379 A79.7059 
N1024 X-178.490 Y-14.858 Z6.408 A76.0607 
N1025 X-178.500 Y-14.879 Z6.440 A72.3311 
N1026 X-178.510 Y-14.898 Z6.474 A68.5111 
N1027 X-178.522 Y-14.916 Z6.510 A64.6019 
N1028 X-178.534 Y-14.931 Z6.549 A60.6088 
N1029 X-178.547 Y-14.944 Z6.589 A56.5416 
N1030 X-178.561 Y-14.954 Z6.631 A52.4128 
N1031 X-178.574 Y-14.961 Z6.673 A48.2370 
N1032 X-178.589 Y-14.965 Z6.717 A44.0294 
N1033 X-178.603 Y-14.966 Z6.761 A39.8055 
N1034 X-178.617 Y-14.963 Z6.804 A35.5801 
N1035 X-178.631 Y-14.958 Z6.847 A31.3670 
N1036 X-178.644 Y-14.949 Z6.890 A27.1777 
N1037 X-178.658 Y-14.938 Z6.931 A23.0208 
N1038 X-178.670 Y-14.924 Z6.970 A18.9007 
N1039 X-178.682 Y-14.908 Z7.009 A14.8157 
N1040 X-178.694 Y-14.889 Z7.045 A10.7545 
N1041 X-178.705 Y-14.868 Z7.081 A6.6899 
N1042 X-178.715 Y-14.845 Z7.115 A2.5821 
N1043 X-178.725 Y-14.818 Z7.148 A358.3792 
N1044 X-178.734 Y-14.788 Z7.180 A354.0241 
N1045 X-178.744 Y-14.753 Z7.211 A349.4699 
N1046 X-178.754 Y-14.713 Z7.240 A344.7129 
N1047 X-178.764 Y-14.667 Z7.266 A339.8288 
N1048 X-178.773 Y-14.615 Z7.285 A335.0159 
N1049 X-178.779 Y-14.563 Z7.295 A330.9482 
N1050 X-178.782 Y-14.516 Z7.292 A328.4696 
N1051 X-178.785 Y-14.472 Z7.279 A327.3163 
N1052 X-178.787 Y-14.424 Z7.257 A326.7603 
N1053 X-178.789 Y-14.366 Z7.226 A326.6405 
N1054 X-178.792 Y-14.293 Z7.186 A326.7012 
N1055 X-178.796 Y-14.202 Z7.135 A326.8373 
N1056 X-178.801 Y-14.087 Z7.072 A327.0353 
N1057 X-178.807 Y-13.945 Z6.994 A327.2892 
N1058 X-178.814 Y-13.774 Z6.901 A327.6014 
N1059 X-178.823 Y-13.568 Z6.791 A327.9813 
N1060 X-178.834 Y-13.327 Z6.663 A328.4448 
N1061 X-178.847 Y-13.048 Z6.518 A329.0135 
N1062 X-178.861 Y-12.730 Z6.355 A329.7123 
N1063 X-178.878 Y-12.372 Z6.178 A330.5643 
N1064 X-178.897 Y-11.974 Z5.987 A331.5856 
N1065 X-178.918 Y-11.539 Z5.788 A332.7862 
N1066 X-178.942 Y-11.067 Z5.583 A334.1769 
N1067 X-178.969 Y-10.562 Z5.377 A335.7726 
N1068 X-178.998 Y-10.026 Z5.176 A337.5894 
N1069 X-179.030 Y-9.463 Z4.984 A339.6405 
N1070 X-179.065 Y-8.876 Z4.807 A341.9336 
N1071 X-179.102 Y-8.268 Z4.650 A344.4678 
N1072 X-179.141 Y-7.641 Z4.519 A347.2301 
N1073 X-179.183 Y-7.001 Z4.418 A350.1928 
N1074 X-179.228 Y-6.348 Z4.352 A353.3115 
N1075 X-179.274 Y-5.688 Z4.325 A356.5256 
N1076 X-179.323 Y-5.023 Z4.339 A359.7628 
N1077 X-179.375 Y-4.358 Z4.395 A2.9479 
N1078 X-179.428 Y-3.697 Z4.490 A6.0150 
N1079 X-179.484 Y-3.044 Z4.622 A8.7650 
N1080 X-179.541 Y-2.404 Z4.786 A11.1267 
N1081 X-179.599 Y-1.779 Z4.976 A13.0459 
N1082 X-179.657 Y-1.173 Z5.183 A14.4915 
N1083 X-179.708 Y-0.588 Z5.399 A15.4690 
N1084 X-179.753 Y-0.029 Z5.616 A16.0216 
N1085 X-179.791 Y0.503 Z5.828 A16.2040 
N1086 X-179.820 Y1.003 Z6.029 A16.0616 
N1087 X-179.841 Y1.470 Z6.216 A15.6219 
N1088 X-179.855 Y1.901 Z6.386 A14.8878 
N1089 X-179.861 Y2.295 Z6.537 A13.8446 
N1090 X-179.861 Y2.651 Z6.670 A12.4720 
N1091 X-179.854 Y2.971 Z6.782 A10.9194 
N1092 X-179.843 Y3.255 Z6.875 A9.1894 
N1093 X-179.827 Y3.505 Z6.951 A7.2950 
N1094 X-179.807 Y3.724 Z7.011 A5.2662 
N1095 X-179.786 Y3.913 Z7.059 A3.1302 
N1096 X-179.762 Y4.077 Z7.097 A0.8908 
N1097 X-179.737 Y4.219 Z7.127 A358.5506 
N1098 X-179.710 Y4.341 Z7.150 A356.1200 
N1099 X-179.682 Y4.446 Z7.168 A353.6108 
N1100 X-179.654 Y4.538 Z7.183 A351.0352 
N1101 X-179.625 Y4.619 Z7.195 A348.4094 
N1102 X-179.595 Y4.690 Z7.204 A345.7535 
N1103 X-179.566 Y4.754 Z7.212 A343.0882 
N1104 X-179.539 Y4.812 Z7.218 A340.4328 
N1105 X-179.513 Y4.866 Z7.222 A337.8026 
N1106 X-179.488 Y4.915 Z7.225 A335.2072 
N1107 X-179.465 Y4.963 Z7.227 A332.6511 
N1108 X-179.444 Y5.008 Z7.227 A330.1367 
N1109 X-179.425 Y5.050 Z7.225 A327.6655 
N1110 X-179.407 Y5.092 Z7.223 A325.2388 
N1111 X-179.392 Y5.131 Z7.219 A322.8575 
N1112 X-179.377 Y5.169 Z7.214 A320.5218 
N1113 X-179.365 Y5.206 Z7.208 A318.2309 
N1114 X-179.353 Y5.242 Z7.201 A315.9827 
N1115 X-179.344 Y5.276 Z7.192 A313.7731 
N1116 X-179.335 Y5.309 Z7.183 A311.5961 
N1117 X-179.328 Y5.342 Z7.173 A309.4435 
N1118 X-179.322 Y5.373 Z7.162 A307.3042 
N1119 X-179.317 Y5.404 Z7.150 A305.1645 
N1120 X-179.313 Y5.435 Z7.137 A303.0082 
N1121 X-179.310 Y5.466 Z7.122 A300.8174 
N1122 X-179.308 Y5.498 Z7.105 A298.5739 
N1123 X-179.307 Y5.529 Z7.086 A296.2609 
N1124 X-179.307 Y5.562 Z7.065 A293.8650 
N1125 X-179.309 Y5.595 Z7.040 A291.3781 
N1126 X-179.313 Y5.629 Z7.011 A288.7992 
N1127 X-179.318 Y5.664 Z6.978 A286.1361 
N1128 X-179.326 Y5.699 Z6.939 A283.4073 
N1129 X-179.335 Y5.734 Z6.894 A280.6417 
N1130 X-179.347 Y5.767 Z6.842 A277.8772 
N1131 X-179.361 Y5.800 Z6.781 A275.1551 
N1132 X-179.376 Y5.829 Z6.711 A272.5124 
N1133 X-179.392 Y5.856 Z6.629 A269.9775 
N1134 X-179.408 Y5.879 Z6.536 A267.5671 
N1135 X-179.425 Y5.897 Z6.429 A265.2846 
N1136 X-179.442 Y5.910 Z6.307 A263.1223 
N1137 X-179.460 Y5.917 Z6.169 A261.0661 
N1138 X-179.478 Y5.917 Z6.015 A259.0978 
N1139 X-179.496 Y5.909 Z5.842 A257.1936 
N1140 X-179.515 Y5.893 Z5.650 A255.3340 
N1141 X-179.533 Y5.866 Z5.440 A253.5164 
N1142 X-179.551 Y5.828 Z5.211 A251.7411 
N1143 X-179.567 Y5.779 Z4.965 A249.9998 
N1144 X-179.582 Y5.716 Z4.702 A248.2819 
N1145 X-179.596 Y5.641 Z4.424 A246.5765 
N1146 X-179.607 Y5.552 Z4.133 A244.8689 
N1147 X-179.616 Y5.451 Z3.831 A243.1385 
N1148 X-179.623 Y5.336 Z3.520 A241.3626 
N1149 X-179.628 Y5.208 Z3.205 A239.5244 
N1150 X-179.629 Y5.067 Z2.887 A237.6164 
N1151 X-179.627 Y4.914 Z2.569 A235.6372 
N1152 X-179.621 Y4.749 Z2.255 A233.5853 
N1153 X-179.610 Y4.573 Z1.947 A231.4555 
N1154 X-179.596 Y4.388 Z1.647 A229.2411 
N1155 X-179.576 Y4.193 Z1.356 A226.9365 
N1156 X-179.551 Y3.991 Z1.078 A224.5385 
N1157 X-179.521 Y3.781 Z0.812 A222.0469 
N1158 X-179.486 Y3.564 Z0.560 A219.4637 
N1159 X-179.444 Y3.342 Z0.322 A216.7924 
N1160 X-179.397 Y3.113 Z0.099 A214.0379 
N1161 X-179.345 Y2.879 Z-0.109 A211.2049 
N1162 X-179.291 Y2.639 Z-0.303 A208.2985 
N1163 X-179.237 Y2.392 Z-0.483 A205.3234 
N1164 X-179.183 Y2.138 Z-0.649 A202.2845 
N1165 X-179.129 Y1.876 Z-0.802 A199.1870 
N1166 X-179.074 Y1.604 Z-0.941 A196.0357 
N1167 X-179.019 Y1.321 Z-1.066 A192.8359 
N1168 X-178.963 Y1.026 Z-1.177 A189.5930 
N1169 X-178.906 Y0.716 Z-1.273 A186.3131 
N1170 X-178.849 Y0.389 Z-1.353 A183.0033 
N1171 X-178.789 Y0.043 Z-1.416 A179.6734 
N1172 X-178.729 Y-0.326 Z-1.460 A176.3361 
N1173 X-178.666 Y-0.720 Z-1.481 A173.0070 
N1174 X-178.602 Y-1.142 Z-1.476 A169.7047 
N1175 X-178.536 Y-1.595 Z-1.443 A166.4508 
N1176 X-178.469 Y-2.080 Z-1.376 A163.2688 
N1177 X-178.400 Y-2.599 Z-1.272 A160.1852 
N1178 X-178.330 Y-3.150 Z-1.127 A157.2317 
N1179 X-178.258 Y-3.734 Z-0.937 A154.4447 
N1180 X-178.187 Y-4.348 Z-0.700 A151.8544 
N1181 X-178.116 Y-4.988 Z-0.417 A149.4775 
N1182 X-178.045 Y-5.650 Z-0.090 A147.3214 
N1183 X-177.976 Y-6.328 Z0.279 A145.3888 
N1184 X-177.908 Y-7.015 Z0.684 A143.6785 
N1185 X-177.842 Y-7.704 Z1.117 A142.1857 
N1186 X-177.779 Y-8.386 Z1.571 A140.9022 
N1187 X-177.719 Y-9.053 Z2.036 A139.8155 
N1188 X-177.663 Y-9.697 Z2.501 A138.9069 
N1189 X-177.611 Y-10.310 Z2.957 A138.1548 
N1190 X-177.563 Y-10.885 Z3.396 A137.5400 
N1191 X-177.520 Y-11.416 Z3.809 A137.0451 
N1192 X-177.481 Y-11.899 Z4.190 A136.6538 
N1193 X-177.447 Y-12.331 Z4.535 A136.3500 
N1194 X-177.417 Y-12.712 Z4.842 A136.1181 
N1195 X-177.392 Y-13.040 Z5.108 A135.9425 
N1196 X-177.370 Y-13.319 Z5.335 A135.8086 
N1197 X-177.353 Y-13.552 Z5.525 A135.7042 
N1198 X-177.338 Y-13.743 Z5.681 A135.6195 
N1199 X-177.327 Y-13.897 Z5.807 A135.5455 
N1200 X-177.318 Y-14.019 Z5.906 A135.4733 
N1201 X-177.311 Y-14.113 Z5.983 A135.3918 
N1202 X-177.305 Y-14.186 Z6.042 A135.2887 
N1203 X-177.301 Y-14.241 Z6.086 A135.0789 
N1204 X-177.298 Y-14.287 Z6.118 A134.3860 
N1205 X-177.295 Y-14.331 Z6.141 A132.6252 
N1206 X-177.292 Y-14.381 Z6.155 A129.3157 
N1207 X-177.291 Y-14.443 Z6.167 A124.0164 
N1208 X-177.294 Y-14.508 Z6.182 A117.9035 
N1209 X-177.301 Y-14.564 Z6.198 A112.2835 
N1210 X-177.308 Y-14.611 Z6.216 A107.3776 
N1211 X-177.315 Y-14.649 Z6.233 A103.2001 
N1212 X-177.323 Y-14.684 Z6.251 A99.3228 
N1213 X-177.332 Y-14.716 Z6.271 A95.5361 
N1214 X-177.342 Y-14.747 Z6.293 A91.7703 
N1215 X-177.353 Y-14.776 Z6.318 A87.9646 
N1216 X-177.365 Y-14.805 Z6.345 A84.0766 
N1217 X-177.379 Y-14.832 Z6.375 A80.0777 
N1218 X-177.394 Y-14.858 Z6.409 A75.9556 
N1219 X-177.411 Y-14.882 Z6.445 A71.7058 
N1220 X-177.430 Y-14.904 Z6.485 A67.3314 
N1221 X-177.450 Y-14.923 Z6.527 A62.8403 
N1222 X-177.472 Y-14.939 Z6.572 A58.2464 
N1223 X-177.494 Y-14.952 Z6.619 A53.5684 
N1224 X-177.517 Y-14.960 Z6.667 A48.8276 
N1225 X-177.541 Y-14.965 Z6.717 A44.0469 
N1226 X-177.565 Y-14.966 Z6.766 A39.2497 
N1227 X-177.589 Y-14.962 Z6.816 A34.4584 
N1228 X-177.612 Y-14.955 Z6.864 A29.6945 
N1229 X-177.634 Y-14.944 Z6.912 A24.9771 
N1230 X-177.656 Y-14.929 Z6.957 A20.3217 
N1231 X-177.676 Y-14.912 Z7.000 A15.7390 
N1232 X-177.695 Y-14.891 Z7.041 A11.2309 
N1233 X-177.713 Y-14.869 Z7.080 A6.7844 
N1234 X-177.730 Y-14.843 Z7.116 A2.3719 
N1235 X-177.745 Y-14.815 Z7.151 A357.9556 
N1236 X-177.759 Y-14.784 Z7.184 A353.4895 
N1237 X-177.773 Y-14.749 Z7.214 A348.9314 
N1238 X-177.787 Y-14.709 Z7.242 A344.2648 
N1239 X-177.800 Y-14.664 Z7.267 A339.5245 
N1240 X-177.813 Y-14.614 Z7.286 A334.8533 
N1241 X-177.821 Y-14.561 Z7.295 A330.8563 
N1242 X-177.825 Y-14.514 Z7.292 A328.4235 
N1243 X-177.828 Y-14.470 Z7.278 A327.3036 
N1244 X-177.830 Y-14.422 Z7.256 A326.7655 
N1245 X-177.832 Y-14.365 Z7.225 A326.6516 
N1246 X-177.835 Y-14.293 Z7.185 A326.7136 
N1247 X-177.838 Y-14.202 Z7.135 A326.8498 
N1248 X-177.842 Y-14.088 Z7.072 A327.0476 
N1249 X-177.848 Y-13.947 Z6.995 A327.3019 
N1250 X-177.854 Y-13.777 Z6.902 A327.6152 
N1251 X-177.862 Y-13.572 Z6.793 A327.9969 
N1252 X-177.872 Y-13.331 Z6.665 A328.4629 
N1253 X-177.883 Y-13.052 Z6.520 A329.0344 
N1254 X-177.896 Y-12.732 Z6.356 A329.7357 
N1255 X-177.911 Y-12.372 Z6.178 A330.5889 
N1256 X-177.928 Y-11.971 Z5.985 A331.6086 
N1257 X-177.947 Y-11.530 Z5.784 A332.8019 
N1258 X-177.969 Y-11.051 Z5.577 A334.1736 
N1259 X-177.993 Y-10.537 Z5.369 A335.7288 
N1260 X-178.020 Y-9.989 Z5.165 A337.4660 
N1261 X-178.049 Y-9.414 Z4.971 A339.5351 
N1262 X-178.081 Y-8.812 Z4.791 A341.9319 
N1263 X-178.115 Y-8.189 Z4.633 A344.6682 
N1264 X-178.152 Y-7.547 Z4.502 A347.5877 
N1265 X-178.190 Y-6.889 Z4.404 A350.6759 
N1266 X-178.231 Y-6.220 Z4.344 A353.8931 
N1267 X-178.274 Y-5.544 Z4.325 A357.1793 
N1268 X-178.319 Y-4.866 Z4.349 A0.4612 
N1269 X-178.366 Y-4.191 Z4.415 A3.6637 
N1270 X-178.416 Y-3.523 Z4.522 A6.7254 
N1271 X-178.468 Y-2.867 Z4.664 A9.4425 
N1272 X-178.522 Y-2.227 Z4.836 A11.7696 
N1273 X-178.578 Y-1.606 Z5.031 A13.6933 
N1274 X-178.630 Y-1.007 Z5.242 A14.8903 
N1275 X-178.675 Y-0.432 Z5.458 A15.6882 
N1276 X-178.710 Y0.116 Z5.673 A16.1098 
N1277 X-178.736 Y0.634 Z5.880 A16.1952 
N1278 X-178.752 Y1.120 Z6.075 A15.9801 
N1279 X-178.759 Y1.571 Z6.256 A15.4846 
N1280 X-178.757 Y1.985 Z6.419 A14.7088 
N1281 X-178.748 Y2.363 Z6.563 A13.6408 
N1282 X-178.732 Y2.705 Z6.689 A12.2681 
N1283 X-178.709 Y3.011 Z6.795 A10.7319 
N1284 X-178.682 Y3.282 Z6.884 A9.0362 
N1285 X-178.650 Y3.521 Z6.955 A7.1946 
N1286 X-178.615 Y3.730 Z7.013 A5.2362 
N1287 X-178.579 Y3.912 Z7.059 A3.1851 
N1288 X-178.542 Y4.069 Z7.095 A1.0451 
N1289 X-178.503 Y4.206 Z7.124 A358.8186 
N1290 X-178.464 Y4.324 Z7.146 A356.5149 
N1291 X-178.424 Y4.427 Z7.165 A354.1448 
N1292 X-178.383 Y4.516 Z7.179 A351.7187 
N1293 X-178.343 Y4.595 Z7.191 A349.2495 
N1294 X-178.302 Y4.665 Z7.201 A346.7530 
N1295 X-178.262 Y4.727 Z7.209 A344.2436 
N1296 X-178.224 Y4.784 Z7.215 A341.7343 
N1297 X-178.188 Y4.836 Z7.220 A339.2361 
N1298 X-178.153 Y4.885 Z7.224 A336.7573 
N1299 X-178.120 Y4.932 Z7.226 A334.3026 
N1300 X-178.089 Y4.976 Z7.227 A331.8756 
N1301 X-178.061 Y5.019 Z7.226 A329.4802 
N1302 X-178.035 Y5.060 Z7.225 A327.1211 
N1303 X-178.011 Y5.099 Z7.222 A324.8037 
N1304 X-177.990 Y5.137 Z7.218 A322.5333 
N1305 X-177.970 Y5.173 Z7.213 A320.3152 
N1306 X-177.953 Y5.208 Z7.207 A318.1536 
N1307 X-177.938 Y5.241 Z7.200 A316.0515 
N1308 X-177.925 Y5.273 Z7.193 A314.0104 
N1309 X-177.914 Y5.304 Z7.184 A312.0295 
N1310 X-177.905 Y5.333 Z7.176 A310.1058 
N1311 X-177.897 Y5.360 Z7.166 A308.2336 
N1312 X-177.890 Y5.387 Z7.156 A306.4037 
N1313 X-177.885 Y5.413 Z7.146 A304.6035 
N1314 X-177.880 Y5.439 Z7.135 A302.8171 
N1315 X-177.877 Y5.464 Z7.123 A301.0262 
N1316 X-177.875 Y5.489 Z7.109 A299.2106 
N1317 X-177.873 Y5.515 Z7.095 A297.3499 
N1318 X-177.873 Y5.541 Z7.079 A295.4250 
N1319 X-177.874 Y5.568 Z7.061 A293.4183 
N1320 X-177.877 Y5.596 Z7.040 A291.3164 
N1321 X-177.881 Y5.625 Z7.016 A289.1111 
N1322 X-177.888 Y5.655 Z6.988 A286.8009 
N1323 X-177.897 Y5.686 Z6.956 A284.3932 
N1324 X-177.908 Y5.717 Z6.918 A281.9043 
N1325 X-177.923 Y5.749 Z6.874 A279.3607 
N1326 X-177.941 Y5.780 Z6.822 A276.7960 
N1327 X-177.961 Y5.809 Z6.762 A274.2465 
N1328 X-177.984 Y5.837 Z6.691 A271.7468 
N1329 X-178.008 Y5.862 Z6.609 A269.3255 
N1330 X-178.034 Y5.884 Z6.514 A267.0017 
N1331 X-178.061 Y5.900 Z6.405 A264.7826 
N1332 X-178.089 Y5.912 Z6.280 A262.6649 
N1333 X-178.119 Y5.917 Z6.139 A260.6388 
N1334 X-178.150 Y5.916 Z5.980 A258.6890 
N1335 X-178.183 Y5.906 Z5.803 A256.7941 
N1336 X-178.217 Y5.888 Z5.606 A254.9399 
N1337 X-178.252 Y5.859 Z5.391 A253.1266 
N1338 X-178.286 Y5.818 Z5.158 A251.3535 
N1339 X-178.320 Y5.766 Z4.907 A249.6114 
N1340 X-178.353 Y5.700 Z4.639 A247.8900 
N1341 X-178.384 Y5.622 Z4.357 A246.1780 
N1342 X-178.414 Y5.530 Z4.062 A244.4594 
N1343 X-178.441 Y5.425 Z3.758 A242.7127 
N1344 X-178.465 Y5.307 Z3.445 A240.9163 
N1345 X-178.487 Y5.175 Z3.128 A239.0553 
N1346 X-178.505 Y5.031 Z2.810 A237.1236 
N1347 X-178.518 Y4.875 Z2.492 A235.1196 
N1348 X-178.525 Y4.707 Z2.178 A233.0402 
N1349 X-178.527 Y4.528 Z1.871 A230.8790 
N1350 X-178.522 Y4.339 Z1.572 A228.6285 
N1351 X-178.511 Y4.142 Z1.283 A226.2827 
N1352 X-178.492 Y3.936 Z1.005 A223.8383 
N1353 X-178.465 Y3.722 Z0.741 A221.2944 
N1354 X-178.430 Y3.501 Z0.490 A218.6523 
N1355 X-178.386 Y3.274 Z0.253 A215.9147 
N1356 X-178.334 Y3.040 Z0.031 A213.0850 
N1357 X-178.276 Y2.800 Z-0.176 A210.1665 
N1358 X-178.216 Y2.552 Z-0.370 A207.1621 
N1359 X-178.156 Y2.295 Z-0.549 A204.0753 
N1360 X-178.095 Y2.029 Z-0.715 A200.9104 
N1361 X-178.033 Y1.752 Z-0.868 A197.6725 
N1362 X-177.971 Y1.463 Z-1.006 A194.3674 
N1363 X-177.907 Y1.161 Z-1.129 A191.0024 
N1364 X-177.842 Y0.842 Z-1.237 A187.5858 
N1365 X-177.776 Y0.504 Z-1.328 A184.1280 
N1366 X-177.709 Y0.146 Z-1.400 A180.6423 
N1367 X-177.640 Y-0.236 Z-1.451 A177.1454 
N1368 X-177.569 Y-0.646 Z-1.478 A173.6574 
N1369 X-177.497 Y-1.084 Z-1.478 A170.2012 
N1370 X-177.423 Y-1.554 Z-1.447 A166.8019 
N1371 X-177.348 Y-2.057 Z-1.380 A163.4854 
N1372 X-177.272 Y-2.594 Z-1.273 A160.2787 
N1373 X-177.196 Y-3.164 Z-1.122 A157.2116 
N1374 X-177.119 Y-3.765 Z-0.925 A154.3149 
N1375 X-177.043 Y-4.396 Z-0.680 A151.6086 
N1376 X-176.969 Y-5.052 Z-0.389 A149.0920 
N1377 X-176.895 Y-5.726 Z-0.051 A146.9160 
N1378 X-176.824 Y-6.414 Z0.327 A145.0812 
N1379 X-176.755 Y-7.109 Z0.740 A143.4377 
N1380 X-176.688 Y-7.802 Z1.181 A141.9936 
N1381 X-176.626 Y-8.487 Z1.640 A140.7479 
N1382 X-176.567 Y-9.154 Z2.108 A139.6915 
N1383 X-176.512 Y-9.795 Z2.574 A138.8075 
N1384 X-176.461 Y-10.404 Z3.029 A138.0758 
N1385 X-176.415 Y-10.973 Z3.465 A137.4781 
N1386 X-176.374 Y-11.497 Z3.873 A136.9977 
N1387 X-176.338 Y-11.972 Z4.248 A136.6184 
N1388 X-176.306 Y-12.395 Z4.587 A136.3242 
N1389 X-176.278 Y-12.766 Z4.886 A136.0995 
N1390 X-176.255 Y-13.086 Z5.145 A135.9288 
N1391 X-176.235 Y-13.357 Z5.365 A135.7979 
N1392 X-176.219 Y-13.583 Z5.549 A135.6950 
N1393 X-176.206 Y-13.767 Z5.700 A135.6105 
N1394 X-176.195 Y-13.915 Z5.821 A135.5354 
N1395 X-176.187 Y-14.031 Z5.916 A135.4606 
N1396 X-176.181 Y-14.122 Z5.990 A135.3747 
N1397 X-176.176 Y-14.192 Z6.047 A135.2655 
N1398 X-176.172 Y-14.245 Z6.089 A135.0458 
N1399 X-176.169 Y-14.289 Z6.119 A134.3424 
N1400 X-176.165 Y-14.331 Z6.141 A132.6255 
N1401 X-176.162 Y-14.379 Z6.155 A129.4555 
N1402 X-176.162 Y-14.439 Z6.166 A124.3703 
N1403 X-176.166 Y-14.502 Z6.180 A118.4680 
N1404 X-176.173 Y-14.556 Z6.196 A113.0976 
N1405 X-176.182 Y-14.601 Z6.212 A108.4591 
N1406 X-176.191 Y-14.640 Z6.228 A104.2238 
N1407 X-176.202 Y-14.675 Z6.246 A100.2631 
N1408 X-176.213 Y-14.709 Z6.266 A96.3630 
N1409 X-176.226 Y-14.741 Z6.289 A92.4478 
N1410 X-176.241 Y-14.773 Z6.314 A88.4574 
N1411 X-176.259 Y-14.803 Z6.343 A84.3499 
N1412 X-176.278 Y-14.832 Z6.375 A80.1017 
N1413 X-176.300 Y-14.860 Z6.411 A75.7052 
N1414 X-176.325 Y-14.885 Z6.450 A71.1620 
N1415 X-176.351 Y-14.908 Z6.492 A66.4794 
N1416 X-176.380 Y-14.928 Z6.538 A61.6700 
N1417 X-176.411 Y-14.944 Z6.587 A56.7525 
N1418 X-176.443 Y-14.956 Z6.637 A51.7504 
N1419 X-176.476 Y-14.963 Z6.689 A46.6895 
N1420 X-176.509 Y-14.966 Z6.742 A41.5965 
N1421 X-176.543 Y-14.964 Z6.795 A36.4983 
N1422 X-176.576 Y-14.958 Z6.847 A31.4207 
N1423 X-176.608 Y-14.947 Z6.898 A26.3876 
N1424 X-176.639 Y-14.933 Z6.946 A21.4199 
N1425 X-176.668 Y-14.915 Z6.993 A16.5339 
N1426 X-176.695 Y-14.894 Z7.037 A11.7375 
N1427 X-176.721 Y-14.870 Z7.078 A7.0228 
N1428 X-176.744 Y-14.843 Z7.117 A2.3669 
N1429 X-176.765 Y-14.813 Z7.153 A357.7357 
N1430 X-176.785 Y-14.780 Z7.186 A353.0872 
N1431 X-176.803 Y-14.744 Z7.218 A348.3806 
N1432 X-176.821 Y-14.703 Z7.246 A343.5951 
N1433 X-176.839 Y-14.657 Z7.271 A338.7496 
N1434 X-176.854 Y-14.604 Z7.289 A333.9481 
N1435 X-176.864 Y-14.550 Z7.295 A330.2160 
N1436 X-176.869 Y-14.503 Z7.289 A328.0414 
N1437 X-176.872 Y-14.458 Z7.273 A327.1341 
N1438 X-176.874 Y-14.408 Z7.248 A326.7888 
N1439 X-176.876 Y-14.347 Z7.216 A326.6816 
N1440 X-176.878 Y-14.271 Z7.174 A326.7540 
N1441 X-176.881 Y-14.176 Z7.121 A326.8994 
N1442 X-176.885 Y-14.057 Z7.055 A327.1058 
N1443 X-176.890 Y-13.911 Z6.975 A327.3693 
N1444 X-176.895 Y-13.735 Z6.880 A327.6937 
N1445 X-176.902 Y-13.524 Z6.767 A328.0896 
N1446 X-176.911 Y-13.277 Z6.637 A328.5739 
N1447 X-176.921 Y-12.990 Z6.488 A329.1692 
N1448 X-176.933 Y-12.663 Z6.322 A329.8997 
N1449 X-176.946 Y-12.296 Z6.140 A330.7871 
N1450 X-176.961 Y-11.887 Z5.946 A331.8448 
N1451 X-176.979 Y-11.438 Z5.743 A333.0801 
N1452 X-176.999 Y-10.950 Z5.534 A334.4993 
N1453 X-177.021 Y-10.427 Z5.326 A336.1084 
N1454 X-177.045 Y-9.870 Z5.123 A337.9057 
N1455 X-177.072 Y-9.284 Z4.930 A340.0452 
N1456 X-177.101 Y-8.672 Z4.753 A342.5199 
N1457 X-177.132 Y-8.039 Z4.599 A345.3365 
N1458 X-177.164 Y-7.386 Z4.475 A348.3338 
N1459 X-177.199 Y-6.719 Z4.385 A351.4925 
N1460 X-177.235 Y-6.042 Z4.335 A354.7680 
N1461 X-177.274 Y-5.360 Z4.327 A358.0969 
N1462 X-177.314 Y-4.679 Z4.363 A1.4068 
N1463 X-177.357 Y-4.004 Z4.440 A4.6303 
N1464 X-177.403 Y-3.339 Z4.557 A7.5922 
N1465 X-177.451 Y-2.689 Z4.708 A10.2282 
N1466 X-177.501 Y-2.058 Z4.885 A12.5150 
N1467 X-177.553 Y-1.448 Z5.084 A14.1774 
N1468 X-177.599 Y-0.861 Z5.295 A15.2037 
N1469 X-177.636 Y-0.301 Z5.509 A15.8692 
N1470 X-177.661 Y0.232 Z5.719 A16.1908 
N1471 X-177.675 Y0.733 Z5.920 A16.2016 
N1472 X-177.678 Y1.202 Z6.108 A15.9297 
N1473 X-177.671 Y1.637 Z6.282 A15.3874 
N1474 X-177.656 Y2.036 Z6.438 A14.5651 
N1475 X-177.632 Y2.399 Z6.577 A13.4382 
N1476 X-177.601 Y2.728 Z6.697 A12.1400 
N1477 X-177.563 Y3.022 Z6.799 A10.6723 
N1478 X-177.521 Y3.283 Z6.884 A9.0457 
N1479 X-177.475 Y3.514 Z6.953 A7.2772 
N1480 X-177.427 Y3.716 Z7.009 A5.3959 
N1481 X-177.378 Y3.894 Z7.054 A3.4260 
N1482 X-177.328 Y4.048 Z7.090 A1.3719 
N1483 X-177.277 Y4.183 Z7.119 A359.2343 
N1484 X-177.225 Y4.300 Z7.142 A357.0206 
N1485 X-177.173 Y4.403 Z7.160 A354.7398 
N1486 X-177.121 Y4.493 Z7.175 A352.4011 
N1487 X-177.069 Y4.572 Z7.188 A350.0152 
N1488 X-177.017 Y4.642 Z7.198 A347.5960 
N1489 X-176.966 Y4.705 Z7.206 A345.1564 
N1490 X-176.916 Y4.762 Z7.213 A342.7069 
N1491 X-176.868 Y4.815 Z7.218 A340.2570 
N1492 X-176.822 Y4.864 Z7.222 A337.8152 
N1493 X-176.779 Y4.911 Z7.225 A335.3877 
N1494 X-176.738 Y4.956 Z7.227 A332.9791 
N1495 X-176.700 Y4.999 Z7.227 A330.5949 
N1496 X-176.665 Y5.040 Z7.226 A328.2414 
N1497 X-176.633 Y5.080 Z7.224 A325.9259 
N1498 X-176.603 Y5.118 Z7.220 A323.6559 
N1499 X-176.577 Y5.155 Z7.216 A321.4390 
N1500 X-176.553 Y5.190 Z7.210 A319.2822 
N1501 X-176.533 Y5.224 Z7.204 A317.1919 
N1502 X-176.515 Y5.256 Z7.197 A315.1734 
N1503 X-176.500 Y5.286 Z7.189 A313.2306 
N1504 X-176.487 Y5.314 Z7.181 A311.3654 
N1505 X-176.476 Y5.341 Z7.172 A309.5778 
N1506 X-176.467 Y5.367 Z7.163 A307.8644 
N1507 X-176.460 Y5.391 Z7.154 A306.2183 
N1508 X-176.454 Y5.414 Z7.145 A304.6288 
N1509 X-176.449 Y5.436 Z7.135 A303.0822 
N1510 X-176.445 Y5.457 Z7.125 A301.5618 
N1511 X-176.442 Y5.478 Z7.115 A300.0484 
N1512 X-176.440 Y5.499 Z7.104 A298.5216 
N1513 X-176.439 Y5.520 Z7.091 A296.9607 
N1514 X-176.439 Y5.542 Z7.078 A295.3450 
N1515 X-176.440 Y5.565 Z7.063 A293.6554 
N1516 X-176.443 Y5.588 Z7.046 A291.8755 
N1517 X-176.448 Y5.613 Z7.026 A289.9924 
N1518 X-176.454 Y5.639 Z7.003 A287.9981 
N1519 X-176.463 Y5.666 Z6.977 A285.8911 
N1520 X-176.475 Y5.695 Z6.946 A283.6768 
N1521 X-176.490 Y5.724 Z6.910 A281.3692 
N1522 X-176.508 Y5.753 Z6.868 A278.9910 
N1523 X-176.531 Y5.782 Z6.819 A276.5715 
N1524 X-176.557 Y5.810 Z6.761 A274.1430 
N1525 X-176.586 Y5.837 Z6.693 A271.7380 
N1526 X-176.618 Y5.861 Z6.614 A269.3866 
N1527 X-176.653 Y5.882 Z6.522 A267.1116 
N1528 X-176.689 Y5.899 Z6.415 A264.9249 
N1529 X-176.728 Y5.911 Z6.292 A262.8284 
N1530 X-176.770 Y5.917 Z6.154 A260.8163 
N1531 X-176.814 Y5.917 Z5.997 A258.8771 
N1532 X-176.861 Y5.908 Z5.823 A256.9917 
N1533 X-176.910 Y5.890 Z5.630 A255.1458 
N1534 X-176.961 Y5.863 Z5.418 A253.3396 
N1535 X-177.012 Y5.824 Z5.188 A251.5738 
N1536 X-177.063 Y5.773 Z4.940 A249.8404 
N1537 X-177.114 Y5.710 Z4.677 A248.1297 
N1538 X-177.163 Y5.634 Z4.399 A246.4312 
N1539 X-177.211 Y5.545 Z4.108 A244.7302 
N1540 X-177.256 Y5.443 Z3.808 A243.0061 
N1541 X-177.299 Y5.328 Z3.499 A241.2375 
N1542 X-177.339 Y5.200 Z3.186 A239.4082 
N1543 X-177.375 Y5.060 Z2.871 A237.5108 
N1544 X-177.405 Y4.908 Z2.557 A235.5433 
N1545 X-177.428 Y4.744 Z2.246 A233.5029 
N1546 X-177.444 Y4.570 Z1.941 A231.3834 
N1547 X-177.453 Y4.386 Z1.643 A229.1769 
N1548 X-177.453 Y4.192 Z1.354 A226.8763 
N1549 X-177.444 Y3.990 Z1.076 A224.4766 
N1550 X-177.426 Y3.780 Z0.811 A221.9754 
N1551 X-177.396 Y3.563 Z0.558 A219.3722 
N1552 X-177.356 Y3.339 Z0.318 A216.6683 
N1553 X-177.304 Y3.107 Z0.093 A213.8651 
N1554 X-177.244 Y2.869 Z-0.119 A210.9642 
N1555 X-177.179 Y2.623 Z-0.317 A207.9665 
N1556 X-177.113 Y2.366 Z-0.502 A204.8727 
N1557 X-177.047 Y2.100 Z-0.674 A201.6855 
N1558 X-176.980 Y1.821 Z-0.832 A198.4088 
N1559 X-176.910 Y1.529 Z-0.977 A195.0484 
N1560 X-176.840 Y1.221 Z-1.107 A191.6120 
N1561 X-176.767 Y0.895 Z-1.220 A188.1097 
N1562 X-176.693 Y0.550 Z-1.317 A184.5542 
N1563 X-176.618 Y0.181 Z-1.394 A180.9622 
N1564 X-176.540 Y-0.213 Z-1.449 A177.3542 
N1565 X-176.462 Y-0.636 Z-1.478 A173.7548 
N1566 X-176.381 Y-1.089 Z-1.478 A170.1911 
N1567 X-176.300 Y-1.575 Z-1.444 A166.6917 
N1568 X-176.218 Y-2.095 Z-1.373 A163.2848 
N1569 X-176.136 Y-2.648 Z-1.260 A159.9981 
N1570 X-176.054 Y-3.234 Z-1.101 A156.8603 
N1571 X-175.973 Y-3.851 Z-0.894 A153.8972 
N1572 X-175.893 Y-4.496 Z-0.639 A151.1180 
N1573 X-175.815 Y-5.163 Z-0.336 A148.6712 
N1574 X-175.740 Y-5.846 Z0.012 A146.5446 
N1575 X-175.667 Y-6.540 Z0.400 A144.7511 
N1576 X-175.598 Y-7.239 Z0.821 A143.1471 
N1577 X-175.532 Y-7.933 Z1.267 A141.7414 
N1578 X-175.470 Y-8.616 Z1.730 A140.5328 
N1579 X-175.413 Y-9.279 Z2.198 A139.5109 
N1580 X-175.360 Y-9.915 Z2.662 A138.6578 
N1581 X-175.311 Y-10.515 Z3.113 A137.9535 
N1582 X-175.268 Y-11.074 Z3.543 A137.3800 
N1583 X-175.229 Y-11.588 Z3.944 A136.9206 
N1584 X-175.195 Y-12.051 Z4.312 A136.5591 
N1585 X-175.165 Y-12.463 Z4.641 A136.2795 
N1586 X-175.140 Y-12.823 Z4.932 A136.0662 
N1587 X-175.118 Y-13.133 Z5.183 A135.9040 
N1588 X-175.100 Y-13.394 Z5.396 A135.7793 
N1589 X-175.085 Y-13.612 Z5.573 A135.6807 
N1590 X-175.074 Y-13.789 Z5.718 A135.5988 
N1591 X-175.064 Y-13.931 Z5.834 A135.5248 
N1592 X-175.057 Y-14.043 Z5.926 A135.4495 
N1593 X-175.051 Y-14.130 Z5.997 A135.3613 
N1594 X-175.047 Y-14.196 Z6.050 A135.2478 
N1595 X-175.043 Y-14.247 Z6.091 A135.0193 
N1596 X-175.040 Y-14.290 Z6.120 A134.3074 
N1597 X-175.036 Y-14.331 Z6.141 A132.6257 
N1598 X-175.033 Y-14.378 Z6.154 A129.5164 
N1599 X-175.032 Y-14.438 Z6.166 A124.4598 
N1600 X-175.037 Y-14.500 Z6.180 A118.6279 
N1601 X-175.046 Y-14.552 Z6.195 A113.5212 
N1602 X-175.057 Y-14.597 Z6.210 A108.8779 
N1603 X-175.068 Y-14.636 Z6.226 A104.6683 
N1604 X-175.081 Y-14.672 Z6.245 A100.6042 
N1605 X-175.096 Y-14.707 Z6.265 A96.5909 
N1606 X-175.112 Y-14.741 Z6.288 A92.5455 
N1607 X-175.132 Y-14.773 Z6.315 A88.4056 
N1608 X-175.154 Y-14.805 Z6.344 A84.1300 
N1609 X-175.180 Y-14.835 Z6.378 A79.6973 
N1610 X-175.209 Y-14.863 Z6.416 A75.1034 
N1611 X-175.241 Y-14.889 Z6.457 A70.3532 
N1612 X-175.276 Y-14.913 Z6.502 A65.4568 
N1613 X-175.314 Y-14.932 Z6.550 A60.4303 
N1614 X-175.355 Y-14.948 Z6.601 A55.2959 
N1615 X-175.396 Y-14.959 Z6.654 A50.0799 
N1616 X-175.439 Y-14.965 Z6.709 A44.8110 
N1617 X-175.483 Y-14.966 Z6.764 A39.5181 
N1618 X-175.526 Y-14.962 Z6.818 A34.2300 
N1619 X-175.568 Y-14.953 Z6.872 A28.9740 
N1620 X-175.609 Y-14.940 Z6.923 A23.7752 
N1621 X-175.648 Y-14.923 Z6.973 A18.6548 
N1622 X-175.684 Y-14.902 Z7.020 A13.6276 
N1623 X-175.718 Y-14.879 Z7.064 A8.6943 
N1624 X-175.749 Y-14.852 Z7.105 A3.8375 
N1625 X-175.777 Y-14.822 Z7.143 A359.0277 
N1626 X-175.803 Y-14.789 Z7.178 A354.2274 
N1627 X-175.827 Y-14.752 Z7.211 A349.3971 
N1628 X-175.849 Y-14.711 Z7.241 A344.5125 
N1629 X-175.872 Y-14.665 Z7.267 A339.5821 
N1630 X-175.892 Y-14.612 Z7.286 A334.6963 
N1631 X-175.906 Y-14.554 Z7.295 A330.4750 
N1632 X-175.912 Y-14.502 Z7.288 A328.0833 
N1633 X-175.915 Y-14.456 Z7.271 A327.1315 
N1634 X-175.917 Y-14.404 Z7.246 A326.7831 
N1635 X-175.919 Y-14.341 Z7.212 A326.6801 
N1636 X-175.921 Y-14.264 Z7.169 A326.7572 
N1637 X-175.923 Y-14.167 Z7.116 A326.9066 
N1638 X-175.926 Y-14.046 Z7.049 A327.1163 
N1639 X-175.930 Y-13.899 Z6.969 A327.3828 
N1640 X-175.935 Y-13.720 Z6.872 A327.7104 
N1641 X-175.942 Y-13.507 Z6.758 A328.1104 
N1642 X-175.949 Y-13.257 Z6.627 A328.6004 
N1643 X-175.958 Y-12.968 Z6.477 A329.2037 
N1644 X-175.968 Y-12.639 Z6.310 A329.9452 
N1645 X-175.979 Y-12.267 Z6.127 A330.8467 
N1646 X-175.993 Y-11.854 Z5.931 A331.9218 
N1647 X-176.008 Y-11.401 Z5.726 A333.1781 
N1648 X-176.026 Y-10.908 Z5.517 A334.6227 
N1649 X-176.045 Y-10.378 Z5.307 A336.2622 
N1650 X-176.067 Y-9.815 Z5.103 A338.0949 
N1651 X-176.090 Y-9.221 Z4.911 A340.2772 
N1652 X-176.116 Y-8.602 Z4.735 A342.7998 
N1653 X-176.143 Y-7.960 Z4.583 A345.6664 
N1654 X-176.172 Y-7.300 Z4.461 A348.7124 
N1655 X-176.202 Y-6.626 Z4.376 A351.9140 
N1656 X-176.233 Y-5.942 Z4.331 A355.2213 
N1657 X-176.267 Y-5.256 Z4.330 A358.5653 
N1658 X-176.302 Y-4.572 Z4.373 A1.8688 
N1659 X-176.340 Y-3.897 Z4.457 A5.0618 
N1660 X-176.381 Y-3.234 Z4.580 A7.9438 
N1661 X-176.426 Y-2.588 Z4.736 A10.4391 
N1662 X-176.473 Y-1.963 Z4.917 A12.4940 
N1663 X-176.521 Y-1.361 Z5.116 A14.0785 
N1664 X-176.562 Y-0.784 Z5.325 A15.1946 
N1665 X-176.590 Y-0.234 Z5.535 A15.8817 
N1666 X-176.607 Y0.288 Z5.741 A16.1969 
N1667 X-176.610 Y0.778 Z5.938 A16.1908 
N1668 X-176.602 Y1.236 Z6.122 A15.8968 
N1669 X-176.582 Y1.660 Z6.291 A15.3233 
N1670 X-176.554 Y2.049 Z6.444 A14.4479 
N1671 X-176.516 Y2.403 Z6.579 A13.3948 
N1672 X-176.472 Y2.724 Z6.696 A12.1580 
N1673 X-176.421 Y3.011 Z6.795 A10.7464 
N1674 X-176.365 Y3.267 Z6.879 A9.1745 
N1675 X-176.306 Y3.494 Z6.947 A7.4598 
N1676 X-176.244 Y3.694 Z7.003 A5.6304 
N1677 X-176.182 Y3.870 Z7.048 A3.7108 
N1678 X-176.119 Y4.025 Z7.085 A1.7057 
N1679 X-176.055 Y4.160 Z7.114 A359.6139 
N1680 X-175.991 Y4.279 Z7.138 A357.4405 
N1681 X-175.926 Y4.383 Z7.157 A355.1934 
N1682 X-175.861 Y4.475 Z7.173 A352.8810 
N1683 X-175.796 Y4.556 Z7.185 A350.5137 
N1684 X-175.731 Y4.628 Z7.196 A348.1052 
N1685 X-175.668 Y4.692 Z7.204 A345.6692 
N1686 X-175.606 Y4.750 Z7.212 A343.2159 
N1687 X-175.546 Y4.804 Z7.217 A340.7550 
N1688 X-175.488 Y4.855 Z7.222 A338.2955 
N1689 X-175.434 Y4.902 Z7.225 A335.8450 
N1690 X-175.382 Y4.948 Z7.227 A333.4099 
N1691 X-175.334 Y4.992 Z7.227 A330.9967 
N1692 X-175.289 Y5.034 Z7.226 A328.6133 
N1693 X-175.248 Y5.074 Z7.224 A326.2682 
N1694 X-175.211 Y5.113 Z7.221 A323.9698 
N1695 X-175.178 Y5.150 Z7.216 A321.7265 
N1696 X-175.148 Y5.186 Z7.211 A319.5463 
N1697 X-175.123 Y5.220 Z7.204 A317.4371 
N1698 X-175.100 Y5.252 Z7.197 A315.4061 
N1699 X-175.081 Y5.282 Z7.190 A313.4596 
N1700 X-175.065 Y5.311 Z7.182 A311.6026 
N1701 X-175.052 Y5.338 Z7.173 A309.8379 
N1702 X-175.041 Y5.363 Z7.165 A308.1657 
N1703 X-175.032 Y5.386 Z7.156 A306.5822 
N1704 X-175.025 Y5.408 Z7.147 A305.0797 
N1705 X-175.019 Y5.428 Z7.138 A303.6472 
N1706 X-175.014 Y5.448 Z7.130 A302.2701 
N1707 X-175.011 Y5.466 Z7.121 A300.9313 
N1708 X-175.008 Y5.484 Z7.111 A299.6115 
N1709 X-175.006 Y5.502 Z7.101 A298.2904 
N1710 X-175.005 Y5.521 Z7.091 A296.9468 
N1711 X-175.005 Y5.539 Z7.079 A295.5597 
N1712 X-175.007 Y5.559 Z7.067 A294.1091 
N1713 X-175.009 Y5.579 Z7.052 A292.5768 
N1714 X-175.013 Y5.601 Z7.036 A290.9469 
N1715 X-175.019 Y5.624 Z7.017 A289.2074 
N1716 X-175.027 Y5.648 Z6.996 A287.3508 
N1717 X-175.038 Y5.673 Z6.970 A285.3755 
N1718 X-175.053 Y5.699 Z6.941 A283.2859 
N1719 X-175.071 Y5.727 Z6.906 A281.0945 
N1720 X-175.093 Y5.755 Z6.866 A278.8214 
N1721 X-175.120 Y5.783 Z6.819 A276.4930 
N1722 X-175.152 Y5.810 Z6.763 A274.1387 
N1723 X-175.188 Y5.836 Z6.697 A271.7895 
N1724 X-175.227 Y5.860 Z6.619 A269.4766 
N1725 X-175.270 Y5.881 Z6.529 A267.2253 
N1726 X-175.317 Y5.899 Z6.423 A265.0516 
N1727 X-175.367 Y5.911 Z6.302 A262.9610 
N1728 X-175.420 Y5.917 Z6.165 A260.9510 
N1729 X-175.477 Y5.917 Z6.010 A259.0126 
N1730 X-175.538 Y5.909 Z5.837 A257.1284 
N1731 X-175.602 Y5.892 Z5.645 A255.2839 
N1732 X-175.669 Y5.865 Z5.435 A253.4791 
N1733 X-175.736 Y5.827 Z5.207 A251.7160 
N1734 X-175.805 Y5.778 Z4.962 A249.9875 
N1735 X-175.873 Y5.716 Z4.700 A248.2842 
N1736 X-175.940 Y5.641 Z4.425 A246.5962 
N1737 X-176.006 Y5.554 Z4.137 A244.9094 
N1738 X-176.070 Y5.454 Z3.840 A243.2043 
N1739 X-176.131 Y5.341 Z3.535 A241.4591 
N1740 X-176.188 Y5.216 Z3.225 A239.6572 
N1741 X-176.241 Y5.080 Z2.914 A237.7906 
N1742 X-176.287 Y4.931 Z2.603 A235.8566 
N1743 X-176.326 Y4.771 Z2.295 A233.8532 
N1744 X-176.357 Y4.601 Z1.993 A231.7744 
N1745 X-176.378 Y4.421 Z1.698 A229.6120 
N1746 X-176.390 Y4.231 Z1.411 A227.3580 
N1747 X-176.392 Y4.034 Z1.135 A225.0064 
N1748 X-176.382 Y3.828 Z0.869 A222.5533 
N1749 X-176.359 Y3.615 Z0.616 A219.9969 
N1750 X-176.323 Y3.394 Z0.376 A217.3367 
N1751 X-176.273 Y3.167 Z0.148 A214.5731 
N1752 X-176.212 Y2.932 Z-0.065 A211.7057 
N1753 X-176.143 Y2.688 Z-0.266 A208.7331 
N1754 X-176.073 Y2.435 Z-0.455 A205.6537 
N1755 X-176.002 Y2.169 Z-0.631 A202.4674 
N1756 X-175.929 Y1.891 Z-0.795 A199.1767 
N1757 X-175.853 Y1.598 Z-0.945 A195.7863 
N1758 X-175.776 Y1.288 Z-1.081 A192.3038 
N1759 X-175.697 Y0.958 Z-1.200 A188.7402 
N1760 X-175.615 Y0.608 Z-1.303 A185.1102 
N1761 X-175.531 Y0.232 Z-1.385 A181.4328 
N1762 X-175.446 Y-0.170 Z-1.444 A177.7319 
N1763 X-175.359 Y-0.602 Z-1.477 A174.0357 
N1764 X-175.271 Y-1.066 Z-1.478 A170.3749 
N1765 X-175.183 Y-1.563 Z-1.445 A166.7809 
N1766 X-175.094 Y-2.095 Z-1.373 A163.2833 
N1767 X-175.005 Y-2.660 Z-1.257 A159.9090 
N1768 X-174.918 Y-3.258 Z-1.095 A156.6831 
N1769 X-174.832 Y-3.886 Z-0.882 A153.6239 
N1770 X-174.749 Y-4.540 Z-0.621 A150.8861 
N1771 X-174.668 Y-5.215 Z-0.311 A148.4612 
N1772 X-174.591 Y-5.905 Z0.044 A146.3496 
N1773 X-174.517 Y-6.605 Z0.437 A144.5702 
N1774 X-174.447 Y-7.307 Z0.863 A142.9815 
N1775 X-174.381 Y-8.003 Z1.313 A141.5925 
N1776 X-174.320 Y-8.686 Z1.778 A140.4016 
N1777 X-174.264 Y-9.347 Z2.247 A139.3975 
N1778 X-174.212 Y-9.980 Z2.711 A138.5612 
N1779 X-174.165 Y-10.577 Z3.160 A137.8725 
N1780 X-174.123 Y-11.131 Z3.587 A137.3133 
N1781 X-174.087 Y-11.638 Z3.984 A136.8668 
N1782 X-174.054 Y-12.096 Z4.347 A136.5164 
N1783 X-174.027 Y-12.502 Z4.672 A136.2464 
N1784 X-174.003 Y-12.856 Z4.958 A136.0410 
N1785 X-173.983 Y-13.160 Z5.205 A135.8851 
N1786 X-173.966 Y-13.416 Z5.413 A135.7652 
N1787 X-173.953 Y-13.628 Z5.587 A135.6701 
N1788 X-173.942 Y-13.802 Z5.728 A135.5908 
N1789 X-173.933 Y-13.940 Z5.842 A135.5186 
N1790 X-173.927 Y-14.049 Z5.931 A135.4440 
N1791 X-173.921 Y-14.134 Z6.000 A135.3552 
N1792 X-173.917 Y-14.199 Z6.053 A135.2396 
N1793 X-173.914 Y-14.249 Z6.092 A135.0052 
N1794 X-173.911 Y-14.291 Z6.121 A134.2879 
N1795 X-173.907 Y-14.331 Z6.141 A132.6260 
N1796 X-173.903 Y-14.376 Z6.154 A129.6466 
N1797 X-173.903 Y-14.434 Z6.165 A124.8134 
N1798 X-173.908 Y-14.494 Z6.179 A119.2185 
N1799 X-173.918 Y-14.544 Z6.192 A114.3033 
N1800 X-173.929 Y-14.588 Z6.207 A109.8023 
N1801 X-173.942 Y-14.627 Z6.222 A105.6729 
N1802 X-173.956 Y-14.663 Z6.239 A101.6582 
N1803 X-173.973 Y-14.698 Z6.259 A97.6660 
N1804 X-173.993 Y-14.732 Z6.282 A93.6163 
N1805 X-174.016 Y-14.765 Z6.308 A89.4503 
N1806 X-174.042 Y-14.797 Z6.337 A85.1286 
N1807 X-174.073 Y-14.829 Z6.371 A80.6313 
N1808 X-174.108 Y-14.858 Z6.408 A75.9562 
N1809 X-174.147 Y-14.886 Z6.450 A71.1113 
N1810 X-174.190 Y-14.910 Z6.496 A66.1091 
N1811 X-174.236 Y-14.930 Z6.545 A60.9674 
N1812 X-174.285 Y-14.947 Z6.597 A55.7101 
N1813 X-174.336 Y-14.958 Z6.651 A50.3652 
N1814 X-174.389 Y-14.965 Z6.707 A44.9633 
N1815 X-174.443 Y-14.966 Z6.763 A39.5351 
N1816 X-174.496 Y-14.962 Z6.819 A34.1112 
N1817 X-174.547 Y-14.953 Z6.874 A28.7209 
N1818 X-174.597 Y-14.939 Z6.927 A23.3918 
N1819 X-174.645 Y-14.921 Z6.978 A18.1473 
N1820 X-174.689 Y-14.900 Z7.025 A13.0035 
N1821 X-174.730 Y-14.875 Z7.070 A7.9609 
N1822 X-174.767 Y-14.847 Z7.111 A3.0013 
N1823 X-174.801 Y-14.815 Z7.150 A358.0956 
N1824 X-174.832 Y-14.781 Z7.186 A353.2073 
N1825 X-174.860 Y-14.743 Z7.218 A348.2990 
N1826 X-174.887 Y-14.701 Z7.247 A343.3468 
N1827 X-174.913 Y-14.653 Z7.272 A338.3531 
N1828 X-174.937 Y-14.597 Z7.291 A333.3927 
N1829 X-174.951 Y-14.538 Z7.294 A329.6055 
N1830 X-174.957 Y-14.486 Z7.284 A327.6092 
N1831 X-174.960 Y-14.437 Z7.263 A326.8906 
N1832 X-174.961 Y-14.381 Z7.234 A326.6735 
N1833 X-174.963 Y-14.313 Z7.197 A326.6541 
N1834 X-174.964 Y-14.228 Z7.150 A326.7789 
N1835 X-174.966 Y-14.122 Z7.091 A326.9636 
N1836 X-174.969 Y-13.992 Z7.019 A327.2019 
N1837 X-174.973 Y-13.833 Z6.933 A327.4953 
N1838 X-174.977 Y-13.641 Z6.830 A327.8517 
N1839 X-174.982 Y-13.414 Z6.709 A328.2857 
N1840 X-174.989 Y-13.149 Z6.570 A328.8177 
N1841 X-174.997 Y-12.844 Z6.413 A329.4724 
N1842 X-175.006 Y-12.497 Z6.239 A330.2742 
N1843 X-175.016 Y-12.109 Z6.051 A331.2416 
N1844 X-175.028 Y-11.678 Z5.850 A332.3844 
N1845 X-175.041 Y-11.207 Z5.643 A333.7077 
N1846 X-175.057 Y-10.697 Z5.432 A335.2167 
N1847 X-175.075 Y-10.151 Z5.223 A336.9108 
N1848 X-175.094 Y-9.572 Z5.022 A338.9451 
N1849 X-175.115 Y-8.965 Z4.834 A341.3190 
N1850 X-175.137 Y-8.334 Z4.667 A344.0491 
N1851 X-175.160 Y-7.681 Z4.527 A346.9740 
N1852 X-175.185 Y-7.012 Z4.420 A350.0800 
N1853 X-175.211 Y-6.331 Z4.352 A353.3264 
N1854 X-175.237 Y-5.645 Z4.326 A356.6494 
N1855 X-175.266 Y-4.959 Z4.343 A359.9713 
N1856 X-175.297 Y-4.280 Z4.404 A3.2123 
N1857 X-175.331 Y-3.611 Z4.505 A6.3065 
N1858 X-175.369 Y-2.959 Z4.642 A9.0381 
N1859 X-175.411 Y-2.326 Z4.809 A11.3502 
N1860 X-175.456 Y-1.715 Z4.996 A13.2045 
N1861 X-175.498 Y-1.129 Z5.198 A14.5863 
N1862 X-175.529 Y-0.569 Z5.406 A15.5145 
N1863 X-175.546 Y-0.037 Z5.612 A16.0374 
N1864 X-175.550 Y0.465 Z5.812 A16.2063 
N1865 X-175.539 Y0.937 Z6.002 A16.0556 
N1866 X-175.516 Y1.375 Z6.179 A15.5897 
N1867 X-175.483 Y1.780 Z6.340 A14.9442 
N1868 X-175.439 Y2.151 Z6.484 A14.1047 
N1869 X-175.387 Y2.489 Z6.611 A13.0665 
N1870 X-175.327 Y2.793 Z6.721 A11.8382 
N1871 X-175.262 Y3.067 Z6.814 A10.4357 
N1872 X-175.193 Y3.311 Z6.892 A8.8763 
N1873 X-175.120 Y3.528 Z6.957 A7.1793 
N1874 X-175.045 Y3.719 Z7.010 A5.3724 
N1875 X-174.970 Y3.889 Z7.053 A3.4758 
N1876 X-174.895 Y4.039 Z7.088 A1.4905 
N1877 X-174.818 Y4.171 Z7.117 A359.4146 
N1878 X-174.740 Y4.287 Z7.140 A357.2525 
N1879 X-174.662 Y4.390 Z7.158 A355.0110 
N1880 X-174.584 Y4.481 Z7.174 A352.6983 
N1881 X-174.507 Y4.561 Z7.186 A350.3252 
N1882 X-174.429 Y4.633 Z7.197 A347.9057 
N1883 X-174.353 Y4.697 Z7.205 A345.4538 
N1884 X-174.278 Y4.755 Z7.212 A342.9800 
N1885 X-174.206 Y4.809 Z7.218 A340.4939 
N1886 X-174.137 Y4.860 Z7.222 A338.0058 
N1887 X-174.072 Y4.908 Z7.225 A335.5242 
N1888 X-174.010 Y4.955 Z7.227 A333.0573 
N1889 X-173.953 Y4.999 Z7.227 A330.6134 
N1890 X-173.899 Y5.041 Z7.226 A328.2020 
N1891 X-173.851 Y5.082 Z7.223 A325.8328 
N1892 X-173.807 Y5.121 Z7.220 A323.5145 
N1893 X-173.768 Y5.158 Z7.215 A321.2556 
N1894 X-173.733 Y5.194 Z7.209 A319.0645 
N1895 X-173.703 Y5.228 Z7.203 A316.9499 
N1896 X-173.678 Y5.260 Z7.195 A314.9204 
N1897 X-173.656 Y5.290 Z7.188 A312.9839 
N1898 X-173.638 Y5.318 Z7.179 A311.1471 
N1899 X-173.623 Y5.344 Z7.171 A309.4148 
N1900 X-173.611 Y5.369 Z7.162 A307.7882 
N1901 X-173.601 Y5.391 Z7.154 A306.2648 
N1902 X-173.593 Y5.411 Z7.145 A304.8379 
N1903 X-173.587 Y5.431 Z7.137 A303.4971 
N1904 X-173.582 Y5.448 Z7.129 A302.2289 
N1905 X-173.578 Y5.465 Z7.121 A301.0170 
N1906 X-173.575 Y5.482 Z7.112 A299.8432 
N1907 X-173.573 Y5.497 Z7.104 A298.6876 
N1908 X-173.572 Y5.513 Z7.095 A297.5297 
N1909 X-173.572 Y5.529 Z7.086 A296.3486 
N1910 X-173.572 Y5.545 Z7.076 A295.1238 
N1911 X-173.574 Y5.563 Z7.064 A293.8355 
N1912 X-173.576 Y5.581 Z7.051 A292.4656 
N1913 X-173.581 Y5.600 Z7.037 A290.9981 
N1914 X-173.587 Y5.621 Z7.020 A289.4204 
N1915 X-173.596 Y5.643 Z7.000 A287.7238 
N1916 X-173.608 Y5.666 Z6.977 A285.9040 
N1917 X-173.623 Y5.691 Z6.951 A283.9624 
N1918 X-173.642 Y5.717 Z6.920 A281.9068 
N1919 X-173.665 Y5.743 Z6.884 A279.7524 
N1920 X-173.694 Y5.770 Z6.841 A277.5211 
N1921 X-173.729 Y5.797 Z6.791 A275.2384 
N1922 X-173.768 Y5.823 Z6.732 A272.9326 
N1923 X-173.813 Y5.848 Z6.661 A270.6346 
N1924 X-173.863 Y5.871 Z6.578 A268.3742 
N1925 X-173.917 Y5.890 Z6.481 A266.1745 
N1926 X-173.975 Y5.905 Z6.369 A264.0490 
N1927 X-174.038 Y5.915 Z6.240 A262.0016 
N1928 X-174.106 Y5.918 Z6.094 A260.0291 
N1929 X-174.178 Y5.914 Z5.931 A258.1199 
N1930 X-174.255 Y5.902 Z5.749 A256.2567 
N1931 X-174.337 Y5.881 Z5.549 A254.4325 
N1932 X-174.420 Y5.849 Z5.330 A252.6510 
N1933 X-174.505 Y5.806 Z5.094 A250.9103 
N1934 X-174.590 Y5.751 Z4.842 A249.2017 
N1935 X-174.676 Y5.683 Z4.575 A247.5163 
N1936 X-174.761 Y5.603 Z4.295 A245.8430 
N1937 X-174.843 Y5.511 Z4.005 A244.1660 
N1938 X-174.923 Y5.406 Z3.707 A242.4643 
N1939 X-174.999 Y5.289 Z3.403 A240.7184 
N1940 X-175.071 Y5.161 Z3.097 A238.9159 
N1941 X-175.137 Y5.022 Z2.790 A237.0520 
N1942 X-175.195 Y4.871 Z2.486 A235.1252 
N1943 X-175.245 Y4.710 Z2.185 A233.1323 
N1944 X-175.284 Y4.540 Z1.891 A231.0662 
N1945 X-175.314 Y4.361 Z1.605 A228.9186 
N1946 X-175.331 Y4.173 Z1.327 A226.6820 
N1947 X-175.337 Y3.977 Z1.060 A224.3503 
N1948 X-175.330 Y3.774 Z0.803 A221.9198 
N1949 X-175.308 Y3.564 Z0.558 A219.3881 
N1950 X-175.270 Y3.346 Z0.326 A216.7540 
N1951 X-175.217 Y3.121 Z0.106 A214.0163 
N1952 X-175.151 Y2.889 Z-0.102 A211.1726 
N1953 X-175.078 Y2.648 Z-0.298 A208.2191 
N1954 X-175.004 Y2.396 Z-0.482 A205.1518 
N1955 X-174.928 Y2.131 Z-0.656 A201.9691 
N1956 X-174.850 Y1.851 Z-0.817 A198.6728 
N1957 X-174.769 Y1.556 Z-0.965 A195.2675 
N1958 X-174.685 Y1.241 Z-1.099 A191.7617 
N1959 X-174.598 Y0.907 Z-1.217 A188.1681 
N1960 X-174.509 Y0.549 Z-1.317 A184.5040 
N1961 X-174.418 Y0.165 Z-1.397 A180.7916 
N1962 X-174.324 Y-0.247 Z-1.452 A177.0585 
N1963 X-174.229 Y-0.689 Z-1.479 A173.3365 
N1964 X-174.133 Y-1.164 Z-1.475 A169.6591 
N1965 X-174.036 Y-1.672 Z-1.433 A166.0598 
N1966 X-173.938 Y-2.214 Z-1.352 A162.5696 
N1967 X-173.841 Y-2.789 Z-1.225 A159.2159 
N1968 X-173.744 Y-3.395 Z-1.051 A156.0245 
N1969 X-173.647 Y-4.030 Z-0.828 A153.0111 
N1970 X-173.552 Y-4.688 Z-0.556 A150.3305 
N1971 X-173.457 Y-5.364 Z-0.237 A147.9668 
N1972 X-173.363 Y-6.054 Z0.124 A145.9166 
N1973 X-173.273 Y-6.751 Z0.523 A144.1956 
N1974 X-173.188 Y-7.448 Z0.953 A142.6626 
N1975 X-173.114 Y-8.139 Z1.404 A141.3253 
N1976 X-173.050 Y-8.814 Z1.867 A140.1812 
N1977 X-172.998 Y-9.467 Z2.333 A139.2180 
N1978 X-172.955 Y-10.090 Z2.793 A138.4166 
N1979 X-172.921 Y-10.676 Z3.236 A137.7574 
N1980 X-172.894 Y-11.220 Z3.656 A137.2231 
N1981 X-172.871 Y-11.716 Z4.045 A136.7973 
N1982 X-172.853 Y-12.162 Z4.400 A136.4639 
N1983 X-172.838 Y-12.558 Z4.718 A136.2073 
N1984 X-172.826 Y-12.902 Z4.996 A136.0123 
N1985 X-172.816 Y-13.197 Z5.235 A135.8640 
N1986 X-172.808 Y-13.446 Z5.438 A135.7494 
N1987 X-172.801 Y-13.651 Z5.606 A135.6581 
N1988 X-172.796 Y-13.819 Z5.743 A135.5810 
N1989 X-172.792 Y-13.953 Z5.852 A135.5098 
N1990 X-172.789 Y-14.058 Z5.938 A135.4347 
N1991 X-172.787 Y-14.140 Z6.005 A135.3437 
N1992 X-172.785 Y-14.203 Z6.056 A135.2242 
N1993 X-172.783 Y-14.251 Z6.094 A134.9820 
N1994 X-172.781 Y-14.292 Z6.121 A134.2581 
N1995 X-172.778 Y-14.331 Z6.141 A132.6259 
N1996 X-172.774 Y-14.377 Z6.154 A129.6449 
N1997 X-172.774 Y-14.435 Z6.166 A124.7536 
N1998 X-172.781 Y-14.494 Z6.179 A119.2313 
N1999 X-172.793 Y-14.542 Z6.192 A114.4920 
N2000 X-172.806 Y-14.585 Z6.205 A110.1672 
N2001 X-172.820 Y-14.623 Z6.221 A106.0343 
N2002 X-172.837 Y-14.660 Z6.238 A102.0076 
N2003 X-172.857 Y-14.695 Z6.257 A97.9901 
N2004 X-172.880 Y-14.730 Z6.280 A93.9017 
N2005 X-172.908 Y-14.763 Z6.306 A89.6841 
N2006 X-172.940 Y-14.796 Z6.336 A85.2993 
N2007 X-172.977 Y-14.828 Z6.370 A80.7280 
N2008 X-173.020 Y-14.858 Z6.408 A75.9698 
N2009 X-173.067 Y-14.886 Z6.451 A71.0345 
N2010 X-173.119 Y-14.910 Z6.497 A65.9368 
N2011 X-173.175 Y-14.931 Z6.548 A60.6962 
N2012 X-173.235 Y-14.948 Z6.601 A55.3383 
N2013 X-173.298 Y-14.959 Z6.656 A49.8927 
N2014 X-173.362 Y-14.965 Z6.713 A44.3910 
N2015 X-173.426 Y-14.966 Z6.770 A38.8657 
N2016 X-173.491 Y-14.961 Z6.827 A33.3488 
N2017 X-173.553 Y-14.951 Z6.883 A27.8714 
N2018 X-173.613 Y-14.936 Z6.936 A22.4632 
N2019 X-173.670 Y-14.917 Z6.987 A17.1498 
N2020 X-173.722 Y-14.895 Z7.035 A11.9483 
N2021 X-173.771 Y-14.869 Z7.079 A6.8579 
N2022 X-173.815 Y-14.840 Z7.121 A1.8611 
N2023 X-173.854 Y-14.807 Z7.159 A356.9319 
N2024 X-173.890 Y-14.772 Z7.194 A352.0387 
N2025 X-173.923 Y-14.733 Z7.225 A347.1512 
N2026 X-173.954 Y-14.691 Z7.253 A342.2489 
N2027 X-173.983 Y-14.642 Z7.277 A337.3318 
N2028 X-174.010 Y-14.585 Z7.293 A332.4929 
N2029 X-174.024 Y-14.525 Z7.293 A329.0196 
N2030 X-174.031 Y-14.472 Z7.279 A327.3131 
N2031 X-174.034 Y-14.420 Z7.255 A326.7552 
N2032 X-174.036 Y-14.361 Z7.223 A326.6253 
N2033 X-174.039 Y-14.287 Z7.183 A326.6606 
N2034 X-174.042 Y-14.196 Z7.132 A326.8173 
N2035 X-174.046 Y-14.083 Z7.070 A327.0266 
N2036 X-174.052 Y-13.944 Z6.993 A327.2866 
N2037 X-174.058 Y-13.775 Z6.902 A327.6020 
N2038 X-174.066 Y-13.573 Z6.793 A327.9836 
N2039 X-174.076 Y-13.334 Z6.667 A328.4482 
N2040 X-174.088 Y-13.057 Z6.522 A329.0182 
N2041 X-174.101 Y-12.739 Z6.360 A329.7189 
N2042 X-174.116 Y-12.379 Z6.181 A330.5737 
N2043 X-174.134 Y-11.977 Z5.988 A331.5985 
N2044 X-174.153 Y-11.534 Z5.785 A332.8018 
N2045 X-174.175 Y-11.051 Z5.576 A334.1897 
N2046 X-174.200 Y-10.530 Z5.366 A335.7680 
N2047 X-174.227 Y-9.973 Z5.159 A337.5356 
N2048 X-174.256 Y-9.386 Z4.962 A339.6480 
N2049 X-174.287 Y-8.773 Z4.780 A342.0997 
N2050 X-174.319 Y-8.136 Z4.621 A344.8994 
N2051 X-174.352 Y-7.480 Z4.491 A347.8842 
N2052 X-174.386 Y-6.809 Z4.395 A351.0348 
N2053 X-174.422 Y-6.130 Z4.339 A354.3062 
N2054 X-174.459 Y-5.447 Z4.326 A357.6333 
N2055 X-174.497 Y-4.767 Z4.356 A0.9413 
N2056 X-174.539 Y-4.096 Z4.428 A4.1600 
N2057 X-174.584 Y-3.437 Z4.538 A7.1028 
N2058 X-174.633 Y-2.796 Z4.682 A9.6885 
N2059 X-174.685 Y-2.175 Z4.852 A11.8585 
N2060 X-174.741 Y-1.578 Z5.042 A13.5778 
N2061 X-174.791 Y-1.006 Z5.243 A14.8382 
N2062 X-174.827 Y-0.459 Z5.448 A15.6661 
N2063 X-174.849 Y0.059 Z5.650 A16.1117 
N2064 X-174.855 Y0.549 Z5.846 A16.2242 
N2065 X-174.847 Y1.007 Z6.030 A16.0348 
N2066 X-174.826 Y1.433 Z6.202 A15.5459 
N2067 X-174.792 Y1.827 Z6.358 A14.8855 
N2068 X-174.749 Y2.187 Z6.497 A14.0400 
N2069 X-174.697 Y2.514 Z6.620 A13.0058 
N2070 X-174.637 Y2.810 Z6.726 A11.7922 
N2071 X-174.571 Y3.075 Z6.816 A10.4147 
N2072 X-174.500 Y3.313 Z6.892 A8.8894 
N2073 X-174.426 Y3.524 Z6.956 A7.2345 
N2074 X-174.349 Y3.711 Z7.008 A5.4760 
N2075 X-174.273 Y3.877 Z7.050 A3.6323 
N2076 X-174.196 Y4.025 Z7.085 A1.7045 
N2077 X-174.117 Y4.155 Z7.113 A359.6892 
N2078 X-174.037 Y4.270 Z7.136 A357.5887 
N2079 X-173.957 Y4.372 Z7.155 A355.4080 
N2080 X-173.876 Y4.463 Z7.171 A353.1536 
N2081 X-173.795 Y4.544 Z7.184 A350.8340 
N2082 X-173.714 Y4.617 Z7.194 A348.4615 
N2083 X-173.634 Y4.681 Z7.203 A346.0496 
N2084 X-173.556 Y4.740 Z7.211 A343.6086 
N2085 X-173.479 Y4.795 Z7.217 A341.1480 
N2086 X-173.406 Y4.847 Z7.221 A338.6780 
N2087 X-173.336 Y4.895 Z7.225 A336.2084 
N2088 X-173.270 Y4.942 Z7.226 A333.7482 
N2089 X-173.208 Y4.986 Z7.227 A331.3065 
N2090 X-173.151 Y5.029 Z7.226 A328.8937 
N2091 X-173.098 Y5.070 Z7.224 A326.5202 
N2092 X-173.050 Y5.110 Z7.221 A324.1956 
N2093 X-173.008 Y5.147 Z7.217 A321.9286 
N2094 X-172.970 Y5.183 Z7.211 A319.7280 
N2095 X-172.937 Y5.218 Z7.205 A317.6029 
N2096 X-172.909 Y5.250 Z7.198 A315.5626 
N2097 X-172.886 Y5.280 Z7.190 A313.6159 
N2098 X-172.866 Y5.309 Z7.182 A311.7707 
N2099 X-172.849 Y5.335 Z7.174 A310.0330 
N2100 X-172.836 Y5.360 Z7.165 A308.4059 
N2101 X-172.825 Y5.382 Z7.157 A306.8885 
N2102 X-172.817 Y5.402 Z7.149 A305.4763 
N2103 X-172.810 Y5.421 Z7.141 A304.1607 
N2104 X-172.804 Y5.439 Z7.133 A302.9302 
N2105 X-172.800 Y5.455 Z7.126 A301.7704 
N2106 X-172.797 Y5.470 Z7.118 A300.6650 
N2107 X-172.795 Y5.485 Z7.111 A299.5960 
N2108 X-172.793 Y5.499 Z7.103 A298.5441 
N2109 X-172.792 Y5.514 Z7.095 A297.4897 
N2110 X-172.792 Y5.528 Z7.086 A296.4129 
N2111 X-172.793 Y5.543 Z7.077 A295.2944 
N2112 X-172.794 Y5.559 Z7.067 A294.1149 
N2113 X-172.797 Y5.575 Z7.055 A292.8567 
N2114 X-172.802 Y5.593 Z7.042 A291.5036 
N2115 X-172.808 Y5.613 Z7.027 A290.0426 
N2116 X-172.816 Y5.633 Z7.009 A288.4638 
N2117 X-172.828 Y5.655 Z6.989 A286.7614 
N2118 X-172.843 Y5.678 Z6.965 A284.9342 
N2119 X-172.861 Y5.703 Z6.937 A282.9862 
N2120 X-172.885 Y5.729 Z6.904 A280.9283 
N2121 X-172.914 Y5.755 Z6.866 A278.7779 
N2122 X-172.949 Y5.782 Z6.821 A276.5576 
N2123 X-172.990 Y5.808 Z6.768 A274.2924 
N2124 X-173.037 Y5.834 Z6.706 A272.0102 
N2125 X-173.089 Y5.858 Z6.631 A269.7420 
N2126 X-173.148 Y5.879 Z6.543 A267.5157 
N2127 X-173.212 Y5.896 Z6.441 A265.3519 
N2128 X-173.281 Y5.909 Z6.322 A263.2615 
N2129 X-173.356 Y5.917 Z6.187 A261.2469 
N2130 X-173.437 Y5.917 Z6.035 A259.3031 
N2131 X-173.523 Y5.911 Z5.864 A257.4160 
N2132 X-173.614 Y5.895 Z5.676 A255.5709 
N2133 X-173.710 Y5.870 Z5.469 A253.7668 
N2134 X-173.808 Y5.834 Z5.245 A252.0067 
N2135 X-173.908 Y5.787 Z5.003 A250.2856 
N2136 X-174.009 Y5.727 Z4.747 A248.5947 
N2137 X-174.110 Y5.656 Z4.476 A246.9250 
N2138 X-174.209 Y5.572 Z4.195 A245.2644 
N2139 X-174.306 Y5.476 Z3.904 A243.5955 
N2140 X-174.400 Y5.368 Z3.606 A241.8977 
N2141 X-174.490 Y5.249 Z3.304 A240.1541 
N2142 X-174.574 Y5.119 Z3.001 A238.3555 
N2143 X-174.652 Y4.978 Z2.699 A236.4991 
N2144 X-174.720 Y4.826 Z2.400 A234.5836 
N2145 X-174.779 Y4.666 Z2.106 A232.6049 
N2146 X-174.828 Y4.496 Z1.819 A230.5557 
N2147 X-174.865 Y4.318 Z1.540 A228.4280 
N2148 X-174.890 Y4.133 Z1.270 A226.2147 
N2149 X-174.902 Y3.939 Z1.010 A223.9104 
N2150 X-174.901 Y3.739 Z0.761 A221.5112 
N2151 X-174.885 Y3.532 Z0.523 A219.0148 
N2152 X-174.852 Y3.318 Z0.297 A216.4196 
N2153 X-174.803 Y3.097 Z0.083 A213.7237 
N2154 X-174.743 Y2.869 Z-0.119 A210.9241 
N2155 X-174.675 Y2.632 Z-0.310 A208.0164 
N2156 X-174.607 Y2.383 Z-0.491 A204.9959 
N2157 X-174.537 Y2.122 Z-0.661 A201.8607 
N2158 X-174.464 Y1.847 Z-0.819 A198.6115 
N2159 X-174.389 Y1.555 Z-0.965 A195.2523 
N2160 X-174.311 Y1.246 Z-1.098 A191.7905 
N2161 X-174.231 Y0.915 Z-1.215 A188.2379 
N2162 X-174.149 Y0.561 Z-1.315 A184.6104 
N2163 X-174.065 Y0.182 Z-1.394 A180.9295 
N2164 X-173.980 Y-0.226 Z-1.450 A177.2217 
N2165 X-173.894 Y-0.664 Z-1.479 A173.5180 
N2166 X-173.808 Y-1.136 Z-1.476 A169.8517 
N2167 X-173.723 Y-1.641 Z-1.437 A166.2562 
N2168 X-173.639 Y-2.181 Z-1.358 A162.7626 
N2169 X-173.557 Y-2.754 Z-1.234 A159.3989 
N2170 X-173.478 Y-3.360 Z-1.063 A156.1912 
N2171 X-173.403 Y-3.995 Z-0.842 A153.1559 
N2172 X-173.333 Y-4.654 Z-0.571 A150.4456 
N2173 X-173.266 Y-5.334 Z-0.253 A148.0429 
N2174 X-173.205 Y-6.027 Z0.109 A145.9379 
N2175 X-173.149 Y-6.728 Z0.509 A144.1310 
N2176 X-173.097 Y-7.429 Z0.940 A142.6368 
N2177 X-173.051 Y-8.123 Z1.393 A141.3197 
N2178 X-173.009 Y-8.802 Z1.858 A140.1853 
N2179 X-172.973 Y-9.458 Z2.327 A139.2259 
N2180 X-172.940 Y-10.084 Z2.788 A138.4252 
N2181 X-172.913 Y-10.672 Z3.233 A137.7654 
N2182 X-172.889 Y-11.218 Z3.654 A137.2298 
N2183 X-172.868 Y-11.716 Z4.046 A136.8026 
N2184 X-172.851 Y-12.164 Z4.402 A136.4679 
N2185 X-172.837 Y-12.561 Z4.720 A136.2103 
N2186 X-172.825 Y-12.906 Z4.999 A136.0143 
N2187 X-172.815 Y-13.201 Z5.238 A135.8651 
N2188 X-172.807 Y-13.450 Z5.441 A135.7499 
N2189 X-172.801 Y-13.655 Z5.609 A135.6579 
N2190 X-172.796 Y-13.822 Z5.745 A135.5802 
N2191 X-172.792 Y-13.955 Z5.854 A135.5083 
N2192 X-172.789 Y-14.060 Z5.940 A135.4323 
N2193 X-172.787 Y-14.142 Z6.006 A135.3401 
N2194 X-172.785 Y-14.204 Z6.056 A135.2193 
N2195 X-172.783 Y-14.252 Z6.094 A134.9756 
N2196 X-172.781 Y-14.292 Z6.121 A134.2517 
N2197 X-172.778 Y-14.331 Z6.141 A132.6336 
N2198 X-175.984 Y-21.300 Z-0.275 
N2199 G00 X-188.809 Y-49.174 Z-25.937 
;RAPORT("TD999999","Spiral Finish Transition:110 End")
;trailer : concat=None
; points cnt = 2153
N2201 MSG (" --- GROUPED OF SUBPROGRAM --- ")
N2202 FGROUP()
N2203 TRAFOOF
; PROGRAM NAME: D99999932
; ORDER       : D999999
; OPER. NAME  : Flank Milling Transition:111
; OPER. DESCR.: Semi finish flank root
; OPER. TYPE  : preFinFlank
; GEO. OPTION : 2
; MACHINE     : HSTM_300HD_SIM840D_Py
;             : HSTM300/500 - HAMUEL: 5-axis milling machine-SIM840D Traori PP_Script
; CONTROL     : SINUMERIK 840D
; created:   2022-11-03 09:02:26.539167
;-------DODATKOWE DANE-------------------
; PROGRAMISTA : Mariusz Malec
; PARTID      : 139T006893P1018_-
;  dec_value  : 0.8
;  lean_angle : 5.0
;  tilt_angle : 0.0
;  airf_offset: 0.05
;  firstoffset: 1.6
;----------------------------------------
;RAPORT("TD999999","Flank Milling Transition:111")
N10 TRAFOOF
N11 D0
N12 G90 G94
N13 G0 G53 D0 Z550
N14 STOPRE
M9 ; chlodziwo wyl
; --- Flank Milling Transition:111 - Semi finish flank root ---
N16 ;ToolChange : concat=None ,current_tdmid=None, PP.tdmId=940626
N17 TRAFOOF
N18 G0 G53 D0 Z550 B0
N19 STOPRE
N20 MSG(" TLID=940626 D=8.391 R=5.0 Ang=10.0 Len=155.0 ")
N21 S6987 M03
N22 STOPRE
N23 CYCLE832(0.001,1,1)
N24 G0 G53 A132.4086 B-3.1747
N25 TRAORI
N26 G54 D1
N27 D1 
N28 TRANS  X=R3 A=R25
STOPRE
E_ZDARZ=400017
;ACS_PREFINISH_UBG_PLATFORM_XLB_ROOT=7740626
STOPRE
N29 ; DELTA A > 40.1
N30 TRAFOOF
N31 D1
N32 STOPRE
N33 G00 G54 Z231.000
N34 G01 A132.4086 F10000
N35 TRAORI
N36 G54 D1
N37 STOPRE
N38 TRANS  X=R3 A=R25
N39 G00 X-179.408 Y-50.718 Z-41.153 A132.4086 B-3.1747 
N40 M342 ; chlodziwo woda
N41 X-176.639 Y-13.857 Z-7.484 
N42 G01 X-176.488 Y-12.119 Z-4.887 F1456 
N43 X-176.050 Y-11.239 Z-1.917 
N44 X-175.369 Y-11.303 Z1.136 
N45 X-174.509 Y-12.305 Z3.973 
N46 M342 ; chlodziwo woda
N47 X-173.557 Y-14.147 Z6.316 
N48 X-173.496 Y-14.169 Z6.315 A130.3193 B-3.1211 
N49 X-173.445 Y-14.185 Z6.309 A128.2420 B-3.0770 
N50 X-173.403 Y-14.199 Z6.301 A126.2159 B-3.0429 
N51 X-173.370 Y-14.213 Z6.293 A124.2486 B-3.0181 
N52 X-173.345 Y-14.225 Z6.284 A122.3383 B-3.0021 
N53 X-173.329 Y-14.238 Z6.276 A120.4795 B-2.9940 
N54 X-173.320 Y-14.250 Z6.267 A118.6646 B-2.9933 
N55 X-173.319 Y-14.263 Z6.259 A116.8848 B-2.9996 
N56 X-173.325 Y-14.275 Z6.251 A115.1315 B-3.0124 
N57 X-173.337 Y-14.288 Z6.244 A113.3966 B-3.0316 
N58 X-173.356 Y-14.301 Z6.236 A111.6728 B-3.0571 
N59 X-173.381 Y-14.315 Z6.229 A109.9543 B-3.0888 
N60 X-173.413 Y-14.329 Z6.222 A108.2373 B-3.1268 
N61 X-173.452 Y-14.344 Z6.216 A106.5184 B-3.1711 
N62 X-173.496 Y-14.358 Z6.210 A104.7930 B-3.2218 
N63 X-173.545 Y-14.373 Z6.205 A103.0563 B-3.2791 
N64 X-173.597 Y-14.388 Z6.201 A101.3035 B-3.3433 
N65 X-173.651 Y-14.405 Z6.196 A99.5298 B-3.4147 
N66 X-173.705 Y-14.421 Z6.193 A97.7307 B-3.4937 
N67 X-173.759 Y-14.439 Z6.190 A95.9040 B-3.5805 
N68 X-173.812 Y-14.457 Z6.188 A94.0501 B-3.6754 
N69 X-173.862 Y-14.475 Z6.186 A92.1694 B-3.7785 
N70 X-173.910 Y-14.494 Z6.186 A90.2631 B-3.8900 
N71 X-173.953 Y-14.514 Z6.187 A88.3325 B-4.0098 
N72 X-173.992 Y-14.533 Z6.188 A86.3802 B-4.1381 
N73 X-174.027 Y-14.554 Z6.191 A84.4106 B-4.2745 
N74 X-174.058 Y-14.574 Z6.195 A82.4280 B-4.4187 
N75 X-174.084 Y-14.594 Z6.200 A80.4360 B-4.5705 
N76 X-174.107 Y-14.615 Z6.206 A78.4377 B-4.7295 
N77 X-174.127 Y-14.635 Z6.213 A76.4350 B-4.8953 
N78 X-174.142 Y-14.655 Z6.222 A74.4293 B-5.0678 
N79 X-174.154 Y-14.675 Z6.231 A72.4217 B-5.2466 
N80 X-174.162 Y-14.694 Z6.242 A70.4129 B-5.4314 
N81 X-174.166 Y-14.713 Z6.254 A68.4032 B-5.6221 
N82 X-174.167 Y-14.732 Z6.267 A66.3932 B-5.8182 
N83 X-174.164 Y-14.750 Z6.282 A64.3830 B-6.0196 
N84 X-174.158 Y-14.768 Z6.297 A62.3727 B-6.2260 
N85 X-174.147 Y-14.785 Z6.313 A60.3625 B-6.4372 
N86 X-174.134 Y-14.801 Z6.330 A58.3523 B-6.6527 
N87 X-174.116 Y-14.817 Z6.348 A56.3421 B-6.8725 
N88 X-174.095 Y-14.831 Z6.367 A54.3320 B-7.0961 
N89 X-174.071 Y-14.845 Z6.387 A52.3219 B-7.3234 
N90 X-174.044 Y-14.858 Z6.408 A50.3119 B-7.5540 
N91 X-174.013 Y-14.870 Z6.429 A48.3020 B-7.7875 
N92 X-173.979 Y-14.881 Z6.451 A46.2926 B-8.0238 
N93 X-173.941 Y-14.891 Z6.474 A44.2840 B-8.2624 
N94 X-173.900 Y-14.901 Z6.497 A42.2767 B-8.5029 
N95 X-173.856 Y-14.909 Z6.520 A40.2717 B-8.7450 
N96 X-173.808 Y-14.916 Z6.544 A38.2698 B-8.9882 
N97 X-173.758 Y-14.922 Z6.569 A36.2726 B-9.2320 
N98 X-173.704 Y-14.927 Z6.593 A34.2819 B-9.4759 
N99 X-173.647 Y-14.931 Z6.618 A32.2997 B-9.7193 
N100 X-173.588 Y-14.934 Z6.643 A30.3287 B-9.9616 
N101 X-173.525 Y-14.936 Z6.667 A28.3718 B-10.2021 
N102 X-173.460 Y-14.936 Z6.692 A26.4320 B-10.4402 
N103 X-173.392 Y-14.936 Z6.716 A24.5125 B-10.6752 
N104 X-173.322 Y-14.935 Z6.740 A22.6168 B-10.9064 
N105 X-173.251 Y-14.933 Z6.763 A20.7480 B-11.1333 
N106 X-173.178 Y-14.931 Z6.786 A18.9073 B-11.3555 
N107 X-173.105 Y-14.927 Z6.809 A17.0915 B-11.5732 
N108 X-173.034 Y-14.923 Z6.831 A15.2965 B-11.7868 
N109 X-172.967 Y-14.918 Z6.852 A13.5184 B-11.9965 
N110 X-172.905 Y-14.912 Z6.874 A11.7536 B-12.2026 
N111 X-172.849 Y-14.906 Z6.895 A10.0001 B-12.4052 
N112 X-172.799 Y-14.899 Z6.915 A8.2578 B-12.6042 
N113 X-172.756 Y-14.891 Z6.935 A6.5265 B-12.7995 
N114 X-172.719 Y-14.883 Z6.955 A4.8053 B-12.9910 
N115 X-172.689 Y-14.874 Z6.974 A3.0925 B-13.1788 
N116 X-172.665 Y-14.865 Z6.992 A1.3861 B-13.3629 
N117 X-172.649 Y-14.855 Z7.010 A359.6832 B-13.5437 
N118 X-172.639 Y-14.844 Z7.028 A357.9809 B-13.7211 
N119 X-172.635 Y-14.833 Z7.046 A356.2757 B-13.8955 
N120 X-172.639 Y-14.821 Z7.063 A354.5638 B-14.0671 
N121 X-172.649 Y-14.809 Z7.079 A352.8416 B-14.2359 
N122 X-172.666 Y-14.796 Z7.095 A351.1059 B-14.4022 
N123 X-172.691 Y-14.782 Z7.111 A349.3536 B-14.5659 
N124 X-172.723 Y-14.768 Z7.126 A347.5812 B-14.7271 
N125 X-172.762 Y-14.752 Z7.141 A345.7849 B-14.8858 
N126 X-172.808 Y-14.736 Z7.156 A343.9613 B-15.0420 
N127 X-172.861 Y-14.719 Z7.170 A342.1071 B-15.1956 
N128 X-172.920 Y-14.701 Z7.184 A340.2195 B-15.3463 
N129 X-172.987 Y-14.681 Z7.197 A338.2967 B-15.4939 
N130 X-173.059 Y-14.660 Z7.208 A336.3382 B-15.6380 
N131 X-173.139 Y-14.637 Z7.219 A334.3457 B-15.7778 
N132 X-173.224 Y-14.611 Z7.227 A332.3266 B-15.9125 
N133 X-173.315 Y-14.581 Z7.233 A330.3052 B-16.0400 
N134 X-173.412 Y-14.540 Z7.231 A328.3743 B-16.1549 
N135 X-173.516 Y-14.453 Z7.197 A327.0554 B-16.2295 
N136 X-173.626 Y-14.257 Z7.088 A327.2930 B-16.2163 
N137 X-173.736 Y-14.041 Z6.968 A327.7166 B-16.1925 
N138 X-173.844 Y-13.821 Z6.848 A328.0884 B-16.1714 
N139 X-173.951 Y-13.593 Z6.726 A328.4513 B-16.1505 
N140 X-174.054 Y-13.356 Z6.600 A328.8323 B-16.1283 
N141 X-174.156 Y-13.110 Z6.472 A329.2574 B-16.1032 
N142 X-174.256 Y-12.853 Z6.340 A329.7498 B-16.0738 
N143 X-174.351 Y-12.583 Z6.204 A330.3303 B-16.0385 
N144 X-174.444 Y-12.301 Z6.064 A331.0042 B-15.9967 
N145 X-174.532 Y-12.008 Z5.923 A331.7603 B-15.9489 
N146 X-174.617 Y-11.706 Z5.783 A332.5815 B-15.8959 
N147 X-174.698 Y-11.397 Z5.643 A333.4557 B-15.8381 
N148 X-174.776 Y-11.081 Z5.506 A334.3868 B-15.7750 
N149 X-174.849 Y-10.757 Z5.372 A335.3840 B-15.7058 
N150 X-174.918 Y-10.427 Z5.240 A336.4556 B-15.6295 
N151 X-174.984 Y-10.090 Z5.113 A337.6084 B-15.5453 
N152 X-175.047 Y-9.746 Z4.990 A338.8490 B-15.4522 
N153 X-175.106 Y-9.395 Z4.872 A340.1842 B-15.3491 
N154 X-175.163 Y-9.036 Z4.761 A341.6203 B-15.2350 
N155 X-175.218 Y-8.669 Z4.655 A343.1660 B-15.1085 
N156 X-175.269 Y-8.293 Z4.558 A344.8280 B-14.9684 
N157 X-175.319 Y-7.907 Z4.470 A346.6124 B-14.8133 
N158 X-175.367 Y-7.512 Z4.391 A348.5231 B-14.6420 
N159 X-175.414 Y-7.105 Z4.322 A350.5595 B-14.4537 
N160 X-175.460 Y-6.689 Z4.267 A352.7139 B-14.2483 
N161 X-175.504 Y-6.263 Z4.226 A354.9688 B-14.0268 
N162 X-175.547 Y-5.830 Z4.201 A357.2933 B-13.7919 
N163 X-175.587 Y-5.392 Z4.193 A359.6448 B-13.5477 
N164 X-175.626 Y-4.955 Z4.203 A1.9728 B-13.2999 
N165 X-175.661 Y-4.521 Z4.230 A4.2242 B-13.0550 
N166 X-175.693 Y-4.096 Z4.274 A6.3530 B-12.8189 
N167 X-175.721 Y-3.681 Z4.333 A8.3254 B-12.5965 
N168 X-175.744 Y-3.278 Z4.405 A10.1196 B-12.3915 
N169 X-175.762 Y-2.888 Z4.488 A11.7263 B-12.2058 
N170 X-175.775 Y-2.511 Z4.581 A13.1445 B-12.0403 
N171 X-175.782 Y-2.146 Z4.681 A14.3747 B-11.8957 
N172 X-175.785 Y-1.794 Z4.787 A15.4161 B-11.7726 
N173 X-175.781 Y-1.448 Z4.899 A16.2589 B-11.6725 
N174 X-175.773 Y-1.098 Z5.021 A16.8999 B-11.5961 
N175 X-175.758 Y-0.757 Z5.145 A17.3843 B-11.5382 
N176 X-175.738 Y-0.423 Z5.272 A17.7343 B-11.4963 
N177 X-175.712 Y-0.097 Z5.399 A17.9706 B-11.4680 
N178 X-175.679 Y0.225 Z5.526 A18.1110 B-11.4512 
N179 X-175.638 Y0.540 Z5.652 A18.1648 B-11.4447 
N180 X-175.588 Y0.851 Z5.776 A18.1399 B-11.4477 
N181 X-175.529 Y1.155 Z5.899 A18.0429 B-11.4593 
N182 X-175.460 Y1.454 Z6.018 A17.8782 B-11.4791 
N183 X-175.384 Y1.746 Z6.134 A17.6452 B-11.5070 
N184 X-175.300 Y2.031 Z6.245 A17.3375 B-11.5438 
N185 X-175.208 Y2.306 Z6.350 A16.9465 B-11.5905 
N186 X-175.109 Y2.572 Z6.449 A16.4658 B-11.6478 
N187 X-175.005 Y2.828 Z6.539 A15.8933 B-11.7159 
N188 X-174.896 Y3.073 Z6.623 A15.2373 B-11.7938 
N189 X-174.783 Y3.308 Z6.698 A14.5094 B-11.8798 
N190 X-174.669 Y3.534 Z6.766 A13.7178 B-11.9730 
N191 X-174.553 Y3.750 Z6.825 A12.8660 B-12.0729 
N192 X-174.438 Y3.955 Z6.876 A11.9508 B-12.1797 
N193 X-174.325 Y4.149 Z6.918 A10.9783 B-12.2925 
N194 X-174.215 Y4.335 Z6.953 A9.9689 B-12.4088 
N195 X-174.109 Y4.512 Z6.981 A8.9437 B-12.5262 
N196 X-174.009 Y4.682 Z7.001 A7.9016 B-12.6446 
N197 X-173.914 Y4.842 Z7.014 A6.8247 B-12.7660 
N198 X-173.827 Y4.991 Z7.020 A5.7044 B-12.8913 
