; PROGRAM NAME: D99999914
; ORDER       : D999999
; OPER. NAME  : Spiral Rough Rhombic:105
; OPER. DESCR.: spiral roughing rhombic/bandaz zgr
; OPER. TYPE  : rouRoot
; GEO. OPTION : 4
; MACHINE     : HSTM_300HD_SIM840D_Py
;             : HSTM300/500 - HAMUEL: 5-axis milling machine-SIM840D Traori PP_Script
; CONTROL     : SINUMERIK 840D
; created:   2022-11-03 09:01:51.520153
;-------DODATKOWE DANE-------------------
; PROGRAMISTA : Mariusz Malec
; PARTID      : 139T006893P1018_-
;  ap         : 2.5
;  ae         : 24.0
;  lean_angle : 1.0
;  fin_offset : 0.6
;----------------------------------------
;RAPORT("TD999999","Spiral Rough Rhombic:105")
N10 TRAFOOF
N11 D0
N12 G90 G94
N13 G0 G53 D0 Z550
N14 STOPRE
M9 ; chlodziwo wyl
; --- Spiral Rough Rhombic:105 - spiral roughing rhombic/bandaz zgr ---
N16 ;ToolChange : concat=None ,current_tdmid=None, PP.tdmId=941293
N17 TRAFOOF
N18 G0 G53 D0 X-200 Y150 Z550 B0
N19 T="7741293"
;RAPORT("TD999999","ToolChangeStart 7741293")
N20 M6
;RAPORT("TD999999","ToolChangeEnd")
N21 STOPRE
N22 MSG(" TLID=941293 D=40.0 R=6.0 Ang=0.0 Len=90.0 ")
N23 ; (Preloading tool)
N24 T="7740679"
N25 S2148 M03
N26 STOPRE
N27 CYCLE832(0.1,1,1)
N28 G0 G53 A271.1481 B-0.0702
N29 TRAORI
N30 G54 D1
N31 D1 
N32 ; DELTA A > 40.1
N33 TRAFOOF
N34 D1
N35 STOPRE
N36 G00 G54 Z296.000
N37 G01 A271.1481 F10000
N38 TRAORI
N39 G54 D1
N40 STOPRE
N41 TRANS 
N42 G00 X-224.295 Y81.358 Z-36.574 A271.1481 B-0.0702 
N43 M346 ; chlodziwo mgla
N44 X-224.234 Y31.368 Z-37.576 
N45 G01 X-224.230 Y28.276 Z-37.095 F2835 
N46 X-224.226 Y25.485 Z-35.681 
N47 X-224.224 Y23.267 Z-33.475 
N48 X-224.222 Y21.839 Z-30.691 
N49 X-224.221 Y21.342 Z-27.602 
N50 X-224.221 Y21.335 Z-24.931 B-0.0698 
N51 X-224.221 Y21.328 Z-22.306 B-0.0721 
N52 X-224.221 Y21.322 Z-19.769 B-0.0699 
N53 X-224.221 Y21.315 Z-17.356 B-0.0635 
N54 X-224.221 Y21.310 Z-15.100 B-0.0558 
N55 X-224.221 Y21.304 Z-13.022 B-0.0431 
N56 X-224.221 Y21.299 Z-11.133 B-0.0297 
N57 X-224.221 Y21.295 Z-9.439 A271.1483 B-0.0192 
N58 X-224.221 Y21.332 Z-7.932 A271.3208 B-0.0115 
N59 X-224.221 Y21.665 Z-6.588 A272.7553 B-0.0068 
N60 X-224.221 Y22.559 Z-5.334 A276.6879 B-0.0062 
N61 X-224.221 Y24.054 Z-4.004 A283.5205 B-0.0083 
N62 X-224.221 Y26.063 Z-2.335 A293.3279 B-0.0079 
N63 X-224.221 Y28.399 Z0.017 A306.2573 B0.0043 
N64 X-224.221 Y30.375 Z3.051 A320.5344 B0.0219 
N65 X-224.221 Y31.462 Z6.312 A334.0527 B0.0081 
N66 X-224.221 Y31.537 Z8.989 A344.2931 B0.0003 
N67 X-224.221 Y30.996 Z10.993 A351.7579 B0.0000 
N68 X-224.221 Y30.095 Z12.405 A357.0505 
N69 X-224.221 Y28.967 Z13.195 A0.0841 
N70 X-224.221 Y27.687 Z13.459 A1.1338 
N71 X-224.221 Y26.269 Z13.500 A1.3233 
N72 X-224.221 Y24.709 Z13.492 A1.3287 
N73 X-224.221 Y23.009 Z13.482 
N74 X-224.221 Y21.181 Z13.472 
N75 X-224.221 Y19.244 Z13.461 
N76 X-224.221 Y17.223 Z13.449 
N77 X-224.221 Y15.149 Z13.437 
N78 X-224.221 Y13.056 Z13.425 
N79 X-224.221 Y10.978 Z13.413 
N80 X-224.221 Y8.949 Z13.401 
N81 X-224.221 Y7.002 Z13.390 
N82 X-224.221 Y5.162 Z13.380 
N83 X-224.221 Y3.451 Z13.370 
N84 X-224.221 Y1.882 Z13.361 A1.3287 
N85 X-224.221 Y0.461 Z13.359 A1.3559 
N86 X-224.221 Y-0.812 Z13.430 A1.6870 
N87 X-224.221 Y-1.960 Z13.802 A3.3010 
N88 X-224.221 Y-3.048 Z14.696 A7.2368 
N89 X-224.221 Y-4.194 Z16.025 A13.3071 
N90 X-224.221 Y-5.578 Z17.758 A21.6416 
N91 X-224.221 Y-7.469 Z19.843 A32.6329 
N92 X-224.221 Y-10.013 Z21.882 A45.5531 
N93 X-224.221 Y-13.056 Z23.387 A59.0580 
N94 X-224.221 Y-15.760 Z23.932 A69.9067 
N95 X-224.221 Y-17.873 Z23.814 A77.9905 
N96 X-224.221 Y-19.425 Z23.313 A83.8576 
N97 X-224.221 Y-20.487 Z22.591 A87.9034 
N98 X-224.221 Y-21.064 Z21.738 A90.1381 
N99 X-224.221 Y-21.264 Z20.801 A90.9230 
N100 X-224.221 Y-21.306 Z19.792 A91.0969 
N101 X-224.221 Y-21.309 Z18.714 A91.1169 
N102 X-224.221 Y-21.306 Z17.574 A91.1170 
N103 X-224.221 Y-21.304 Z16.385 
N104 X-224.221 Y-21.301 Z15.163 
N105 X-224.221 Y-21.299 Z13.924 B0.0000 
N106 X-224.221 Y-21.296 Z12.688 B0.0001 
N107 X-224.221 Y-21.294 Z11.472 B0.0008 
N108 X-224.221 Y-21.292 Z10.294 B0.0023 
N109 X-224.221 Y-21.290 Z9.168 A91.1193 B0.0044 
N110 X-224.221 Y-21.316 Z8.104 A91.2385 B0.0067 
N111 X-224.221 Y-21.484 Z7.106 A91.9586 B0.0098 
N112 X-224.221 Y-21.922 Z6.161 A93.8534 B0.0153 
N113 X-224.221 Y-22.697 Z5.228 A97.2861 B0.0243 
N114 X-224.221 Y-23.812 Z4.232 A102.3747 B0.0329 
N115 X-224.221 Y-25.246 Z3.056 A109.2238 B0.0318 
N116 X-224.221 Y-26.993 Z1.517 A118.1828 B0.0150 
N117 X-224.221 Y-28.870 Z-0.565 A129.1781 B-0.0253 
N118 X-224.221 Y-30.465 Z-3.157 A141.1864 B-0.0864 
N119 X-224.222 Y-31.446 Z-6.011 A153.0668 B-0.1223 
N120 X-224.222 Y-31.622 Z-8.513 A162.7218 B-0.1245 
N121 X-224.222 Y-31.225 Z-10.512 A170.1966 B-0.1134 
N122 X-224.222 Y-30.449 Z-12.010 A175.8008 B-0.1001 
N123 X-224.221 Y-29.418 Z-12.969 A179.4630 B-0.0909 
N124 X-224.221 Y-28.214 Z-13.345 A180.9341 B-0.0881 
N125 X-224.221 Y-26.866 Z-13.420 A181.2529 B-0.0899 
N126 X-224.221 Y-25.372 Z-13.418 A181.2751 B-0.0919 
N127 X-224.222 Y-23.732 Z-13.410 B-0.0938 
N128 X-224.222 Y-21.956 Z-13.402 B-0.0957 
N129 X-224.222 Y-20.061 Z-13.393 B-0.0977 
N130 X-224.222 Y-18.071 Z-13.383 B-0.0999 
N131 X-224.222 Y-16.013 Z-13.373 B-0.1022 
N132 X-224.222 Y-13.921 Z-13.363 B-0.1044 
N133 X-224.222 Y-11.830 Z-13.353 B-0.1067 
N134 X-224.222 Y-9.775 Z-13.343 B-0.1089 
N135 X-224.222 Y-7.788 Z-13.334 B-0.1111 
N136 X-224.222 Y-5.900 Z-13.325 B-0.1132 
N137 X-224.222 Y-4.132 Z-13.316 B-0.1151 
N138 X-224.222 Y-2.503 Z-13.309 B-0.1168 
N139 X-224.222 Y-1.022 Z-13.302 A181.2782 B-0.1185 
N140 X-224.222 Y0.310 Z-13.319 A181.3740 B-0.1204 
N141 X-224.222 Y1.500 Z-13.493 A182.1381 B-0.1255 
N142 X-224.222 Y2.590 Z-14.127 A184.8883 B-0.1407 
N143 X-224.222 Y3.675 Z-15.267 A189.9698 B-0.1727 
N144 X-224.222 Y4.905 Z-16.831 A197.2497 B-0.2267 
N145 X-224.222 Y6.513 Z-18.794 A207.0406 B-0.3048 
N146 X-224.223 Y8.750 Z-20.948 A219.3025 B-0.4002 
N147 X-224.223 Y11.622 Z-22.794 A232.8835 B-0.4254 
N148 X-224.222 Y14.601 Z-23.811 A245.3849 B-0.3007 
N149 X-224.222 Y16.993 Z-23.967 A254.7093 B-0.2020 
N150 X-224.222 Y18.802 Z-23.628 A261.5832 B-0.1424 
N151 X-224.222 Y20.090 Z-23.007 A266.4828 B-0.1081 
N152 X-224.221 Y20.907 Z-22.220 A269.6406 B-0.0900 
N153 X-224.221 Y21.285 Z-21.334 A271.1479 B-0.0819 
N154 X-224.221 Y21.387 Z-20.374 A271.5897 B-0.0786 
N155 X-224.221 Y21.396 Z-19.345 A271.6749 B-0.0767 
N156 X-224.221 Y21.387 Z-18.250 A271.6923 B-0.0747 
N157 X-224.221 Y21.381 Z-17.100 A271.7250 B-0.0723 
N158 X-224.221 Y21.379 Z-15.906 A271.7800 B-0.0695 
N159 X-224.221 Y21.376 Z-14.686 A271.8389 B-0.0665 
N160 X-224.221 Y21.371 Z-13.458 A271.8944 B-0.0634 
N161 X-224.221 Y21.364 Z-12.241 A271.9455 B-0.0602 
N162 X-224.221 Y21.354 Z-11.050 A271.9850 B-0.0565 
N163 X-224.221 Y21.338 Z-9.904 A272.0027 B-0.0514 
N164 X-224.221 Y21.325 Z-8.813 A272.0268 B-0.0447 
N165 X-224.221 Y21.384 Z-7.783 A272.3481 B-0.0374 
N166 X-224.221 Y21.660 Z-6.810 A273.5984 B-0.0313 
N167 X-224.221 Y22.259 Z-5.866 A276.2799 B-0.0274 
N168 X-224.221 Y23.216 Z-4.890 A280.6427 B-0.0252 
N169 X-224.221 Y24.499 Z-3.786 A286.7056 B-0.0225 
N170 X-224.221 Y26.080 Z-2.410 A294.6295 B-0.0142 
N171 X-224.221 Y27.857 Z-0.593 A304.5067 B0.0029 
N172 X-224.221 Y29.514 Z1.716 A315.6588 B0.0248 
N173 X-224.221 Y30.729 Z4.389 A327.1937 B0.0294 
N174 X-224.221 Y31.252 Z7.026 A337.6451 B0.0096 
N175 X-224.221 Y31.125 Z9.278 A346.1452 B0.0011 
N176 X-224.221 Y30.532 Z11.050 A352.7336 B0.0000 
N177 X-224.221 Y29.624 Z12.325 A357.5242 B0.0000 
N178 X-224.221 Y28.501 Z13.027 A0.2219 
N179 X-224.221 Y27.225 Z13.266 A1.1737 
N180 X-224.221 Y25.808 Z13.297 A1.3283 
N181 X-224.221 Y24.248 Z13.288 A1.3305 
N182 X-224.221 Y22.551 Z13.280 A1.3381 
N183 X-224.221 Y20.729 Z13.282 A1.3919 
N184 X-224.221 Y18.803 Z13.296 A1.5100 
N185 X-224.221 Y16.799 Z13.294 A1.5818 
N186 X-224.221 Y14.749 Z13.275 A1.5902 
N187 X-224.221 Y12.686 Z13.254 
N188 X-224.221 Y10.643 Z13.233 
N189 X-224.221 Y8.655 Z13.213 
N190 X-224.221 Y6.752 Z13.193 
N191 X-224.221 Y4.960 Z13.175 
N192 X-224.221 Y3.298 Z13.157 
N193 X-224.221 Y1.779 Z13.142 A1.5903 
N194 X-224.221 Y0.409 Z13.137 A1.6287 
N195 X-224.221 Y-0.817 Z13.216 A2.0143 
N196 X-224.221 Y-1.919 Z13.596 A3.6892 
N197 X-224.221 Y-2.966 Z14.481 A7.6029 
N198 X-224.221 Y-4.083 Z15.840 A13.7971 
N199 X-224.221 Y-5.452 Z17.605 A22.2769 
N200 X-224.221 Y-7.302 Z19.652 A33.0875 
N201 X-224.221 Y-9.742 Z21.619 A45.5208 
N202 X-224.221 Y-12.660 Z23.108 A58.5740 
N203 X-224.221 Y-15.340 Z23.723 A69.4371 
N204 X-224.221 Y-17.520 Z23.693 A77.8722 
N205 X-224.221 Y-19.170 Z23.265 A84.1881 
N206 X-224.221 Y-20.315 Z22.604 A88.6184 
N207 X-224.221 Y-20.999 Z21.810 A91.3480 
N208 X-224.221 Y-21.305 Z20.935 A92.6612 B0.0001 
N209 X-224.221 Y-21.393 Z19.996 A93.1469 B0.0005 
N210 X-224.221 Y-21.389 Z18.992 A93.2900 B0.0024 
N211 X-224.221 Y-21.362 Z17.928 A93.3570 B0.0078 
N212 X-224.221 Y-21.330 Z16.812 A93.4172 B0.0179 
N213 X-224.221 Y-21.296 Z15.659 A93.4779 B0.0314 
N214 X-224.221 Y-21.260 Z14.484 A93.5411 B0.0453 
N215 X-224.221 Y-21.223 Z13.305 A93.6052 B0.0567 
N216 X-224.221 Y-21.185 Z12.139 A93.6674 B0.0651 
N217 X-224.221 Y-21.143 Z11.002 A93.7175 B0.0722 
N218 X-224.221 Y-21.099 Z9.909 A93.7504 B0.0789 
N219 X-224.221 Y-21.073 Z8.868 A93.8492 B0.0853 
N220 X-224.221 Y-21.169 Z7.880 A94.4533 B0.0904 
N221 X-224.221 Y-21.531 Z6.928 A96.2063 B0.0924 
N222 X-224.221 Y-22.239 Z5.969 A99.5154 B0.0898 
N223 X-224.221 Y-23.300 Z4.928 A104.5474 B0.0800 
N224 X-224.221 Y-24.681 Z3.689 A111.3786 B0.0586 
N225 X-224.221 Y-26.337 Z2.088 A120.2103 B0.0166 
N226 X-224.221 Y-28.069 Z-0.021 A130.8761 B-0.0558 
N227 X-224.222 Y-29.503 Z-2.583 A142.4091 B-0.1503 
N228 X-224.222 Y-30.360 Z-5.374 A153.8529 B-0.2204 
N229 X-224.222 Y-30.490 Z-7.911 A163.6169 B-0.2586 
N230 X-224.222 Y-30.050 Z-9.958 A171.3048 B-0.2769 
N231 X-224.222 Y-29.228 Z-11.419 A176.8109 B-0.2829 
N232 X-224.222 Y-28.168 Z-12.226 A179.9043 B-0.2841 
N233 X-224.222 Y-26.956 Z-12.502 A180.9917 B-0.2848 
N234 X-224.222 Y-25.609 Z-12.545 A181.1759 B-0.2856 
N235 X-224.222 Y-24.125 Z-12.553 A181.2295 B-0.2865 
N236 X-224.222 Y-22.506 Z-12.598 A181.4493 B-0.2890 
N237 X-224.222 Y-20.764 Z-12.638 A181.6858 B-0.2937 
N238 X-224.222 Y-18.918 Z-12.632 A181.7551 B-0.2995 
N239 X-224.222 Y-16.991 Z-12.607 A181.7563 B-0.3055 
N240 X-224.222 Y-15.013 Z-12.581 B-0.3116 
N241 X-224.222 Y-13.014 Z-12.554 B-0.3178 
N242 X-224.222 Y-11.028 Z-12.528 B-0.3239 
N243 X-224.223 Y-9.089 Z-12.502 B-0.3299 
N244 X-224.223 Y-7.227 Z-12.478 B-0.3357 
N245 X-224.223 Y-5.467 Z-12.455 B-0.3411 
N246 X-224.223 Y-3.830 Z-12.433 B-0.3462 
N247 X-224.223 Y-2.330 Z-12.413 B-0.3508 
N248 X-224.223 Y-0.974 Z-12.399 A181.7706 B-0.3551 
N249 X-224.223 Y0.239 Z-12.438 A182.0009 B-0.3604 
N250 X-224.223 Y1.324 Z-12.690 A183.1378 B-0.3721 
N251 X-224.223 Y2.331 Z-13.402 A186.2706 B-0.3985 
N252 X-224.223 Y3.378 Z-14.667 A191.9464 B-0.4460 
N253 X-224.223 Y4.644 Z-16.396 A200.0559 B-0.5150 
N254 X-224.224 Y6.328 Z-18.405 A210.3065 B-0.5997 
N255 X-224.224 Y8.605 Z-20.452 A222.4586 B-0.6826 
N256 X-224.224 Y11.475 Z-22.154 A235.7824 B-0.6603 
N257 X-224.223 Y14.287 Z-23.007 A247.4690 B-0.5127 
N258 X-224.223 Y16.570 Z-23.122 A256.4060 B-0.3960 
N259 X-224.222 Y18.313 Z-22.796 A263.1073 B-0.3174 
N260 X-224.222 Y19.498 Z-22.215 A267.6794 B-0.2681 
N261 X-224.222 Y20.203 Z-21.496 A270.4493 B-0.2395 
N262 X-224.222 Y20.555 Z-20.694 A271.8949 B-0.2238 
N263 X-224.222 Y20.714 Z-19.827 A272.6223 B-0.2142 
N264 X-224.222 Y20.806 Z-18.896 A273.1184 B-0.2061 
N265 X-224.222 Y20.889 Z-17.904 A273.6229 B-0.1978 
N266 X-224.222 Y20.954 Z-16.860 A274.0996 B-0.1896 
N267 X-224.222 Y20.979 Z-15.777 A274.4501 B-0.1821 
N268 X-224.222 Y20.962 Z-14.670 A274.6615 B-0.1750 
N269 X-224.222 Y20.920 Z-13.555 A274.7889 B-0.1678 
N270 X-224.222 Y20.868 Z-12.444 A274.8768 B-0.1602 
N271 X-224.222 Y20.807 Z-11.354 A274.9331 B-0.1523 
N272 X-224.222 Y20.745 Z-10.297 A274.9777 B-0.1444 
N273 X-224.222 Y20.718 Z-9.280 A275.1606 B-0.1359 
N274 X-224.222 Y20.833 Z-8.299 A275.9366 B-0.1253 
N275 X-224.222 Y21.231 Z-7.332 A277.9436 B-0.1106 
N276 X-224.221 Y22.005 Z-6.326 A281.6637 B-0.0907 
N277 X-224.221 Y23.146 Z-5.192 A287.2370 B-0.0651 
N278 X-224.221 Y24.542 Z-3.830 A294.4480 B-0.0345 
N279 X-224.221 Y26.014 Z-2.169 A302.8821 B-0.0005 
N280 X-224.221 Y27.359 Z-0.201 A312.0337 B0.0327 
N281 X-224.221 Y28.443 Z2.061 A321.7051 B0.0556 
N282 X-224.221 Y29.142 Z4.557 A331.6992 B0.0578 
N283 X-224.221 Y29.299 Z7.008 A341.0382 B0.0361 
N284 X-224.221 Y28.921 Z9.118 A348.8703 B0.0115 
N285 X-224.221 Y28.131 Z10.654 A354.5286 B0.0017 
N286 X-224.221 Y27.076 Z11.545 A357.7926 B0.0001 
N287 X-224.221 Y25.853 Z11.928 A359.1417 B0.0000 
N288 X-224.221 Y24.495 Z12.062 A359.5264 
N289 X-224.221 Y23.008 Z12.150 A359.7411 
N290 X-224.221 Y21.397 Z12.271 A0.1082 
N291 X-224.221 Y19.674 Z12.440 A0.7230 
N292 X-224.221 Y17.856 Z12.588 A1.3293 
N293 X-224.221 Y15.969 Z12.629 A1.5587 
N294 X-224.221 Y14.043 Z12.612 A1.5697 
N295 X-224.221 Y12.105 Z12.593 
N296 X-224.221 Y10.189 Z12.574 
N297 X-224.221 Y8.325 Z12.556 
N298 X-224.221 Y6.541 Z12.538 
N299 X-224.221 Y4.862 Z12.521 
N300 X-224.221 Y3.305 Z12.506 
N301 X-224.221 Y1.883 Z12.491 A1.5698 
N302 X-224.221 Y0.601 Z12.486 A1.6019 
N303 X-224.221 Y-0.542 Z12.548 A1.9073 
N304 X-224.221 Y-1.562 Z12.847 A3.2272 
N305 X-224.221 Y-2.513 Z13.599 A6.5217 
N306 X-224.221 Y-3.509 Z14.876 A12.2345 
N307 X-224.221 Y-4.723 Z16.593 A20.2527 
N308 X-224.221 Y-6.326 Z18.554 A30.1949 
N309 X-224.221 Y-8.429 Z20.498 A41.5739 
N310 X-224.221 Y-10.971 Z22.096 A53.5532 
N311 X-224.221 Y-13.684 Z23.092 A65.0841 
N312 X-224.221 Y-16.089 Z23.400 A74.6679 
N313 X-224.221 Y-18.073 Z23.226 A82.3989 
N314 X-224.221 Y-19.546 Z22.738 A88.1676 B0.0000 
N315 X-224.221 Y-20.528 Z22.074 A92.1273 B0.0003 
N316 X-224.221 Y-21.100 Z21.316 A94.5817 B0.0023 
N317 X-224.221 Y-21.370 Z20.497 A95.9278 B0.0084 
N318 X-224.221 Y-21.458 Z19.624 A96.6107 B0.0208 
N319 X-224.221 Y-21.444 Z18.696 A96.9339 B0.0379 
N320 X-224.221 Y-21.377 Z17.715 A97.0836 B0.0538 
N321 X-224.221 Y-21.287 Z16.687 A97.1631 B0.0667 
N322 X-224.221 Y-21.188 Z15.623 A97.2298 B0.0791 
N323 X-224.221 Y-21.086 Z14.538 A97.3022 B0.0919 
N324 X-224.221 Y-20.984 Z13.447 A97.3769 B0.1048 
N325 X-224.221 Y-20.880 Z12.365 A97.4479 B0.1177 
N326 X-224.221 Y-20.773 Z11.307 A97.5034 B0.1305 
N327 X-224.220 Y-20.671 Z10.284 A97.5650 B0.1430 
N328 X-224.220 Y-20.621 Z9.300 A97.8241 B0.1540 
N329 X-224.220 Y-20.752 Z8.338 A98.8443 B0.1601 
N330 X-224.220 Y-21.199 Z7.364 A101.2505 B0.1568 
N331 X-224.221 Y-22.027 Z6.311 A105.4451 B0.1390 
N332 X-224.221 Y-23.212 Z5.078 A111.5352 B0.1009 
N333 X-224.221 Y-24.677 Z3.530 A119.5586 B0.0340 
N334 X-224.221 Y-26.256 Z1.534 A129.3862 B-0.0714 
N335 X-224.222 Y-27.640 Z-0.909 A140.3324 B-0.2100 
N336 X-224.223 Y-28.576 Z-3.703 A151.8409 B-0.3414 
N337 X-224.223 Y-28.825 Z-6.418 A162.3610 B-0.4421 
N338 X-224.223 Y-28.440 Z-8.659 A170.8145 B-0.5068 
N339 X-224.223 Y-27.622 Z-10.190 A176.5838 B-0.5360 
N340 X-224.223 Y-26.564 Z-10.915 A179.3157 B-0.5431 
N341 X-224.223 Y-25.367 Z-11.120 A180.0474 B-0.5415 
N342 X-224.223 Y-24.047 Z-11.164 A180.1394 B-0.5371 
N343 X-224.223 Y-22.603 Z-11.293 A180.5933 B-0.5357 
N344 X-224.223 Y-21.037 Z-11.483 A181.3644 B-0.5399 
N345 X-224.223 Y-19.366 Z-11.561 A181.7538 B-0.5458 
N346 X-224.223 Y-17.607 Z-11.545 A181.7892 B-0.5515 
N347 X-224.223 Y-15.784 Z-11.520 A181.7894 B-0.5574 
N348 X-224.224 Y-13.921 Z-11.495 B-0.5635 
N349 X-224.224 Y-12.051 Z-11.469 B-0.5696 
N350 X-224.224 Y-10.203 Z-11.443 B-0.5756 
N351 X-224.224 Y-8.409 Z-11.419 B-0.5814 
N352 X-224.224 Y-6.694 Z-11.395 A181.7894 B-0.5870 
N353 X-224.224 Y-5.082 Z-11.373 B-0.5922 
N354 X-224.224 Y-3.591 Z-11.352 B-0.5971 
N355 X-224.224 Y-2.232 Z-11.334 A181.7894 B-0.6015 
N356 X-224.224 Y-1.010 Z-11.326 A181.8256 B-0.6058 
N357 X-224.224 Y0.080 Z-11.399 A182.1994 B-0.6128 
N358 X-224.224 Y1.055 Z-11.729 A183.6622 B-0.6300 
N359 X-224.224 Y1.972 Z-12.527 A187.1656 B-0.6667 
N360 X-224.224 Y2.958 Z-13.860 A193.1377 B-0.7261 
N361 X-224.225 Y4.181 Z-15.609 A201.3475 B-0.8029 
N362 X-224.225 Y5.821 Z-17.599 A211.5148 B-0.8852 
N363 X-224.225 Y8.038 Z-19.610 A223.4520 B-0.9507 
N364 X-224.225 Y10.769 Z-21.249 A236.2125 B-0.9104 
N365 X-224.224 Y13.529 Z-22.146 A247.8133 B-0.7439 
N366 X-224.224 Y15.774 Z-22.327 A256.7041 B-0.6020 
N367 X-224.223 Y17.496 Z-22.083 A263.3960 B-0.4994 
N368 X-224.223 Y18.677 Z-21.593 A268.0015 B-0.4305 
N369 X-224.223 Y19.411 Z-20.974 A270.9201 B-0.3867 
N370 X-224.223 Y19.834 Z-20.279 A272.6813 B-0.3591 
N371 X-224.223 Y20.101 Z-19.520 A273.8908 B-0.3385 
N372 X-224.222 Y20.318 Z-18.698 A274.9700 B-0.3194 
N373 X-224.222 Y20.518 Z-17.813 A276.0633 B-0.3003 
N374 X-224.222 Y20.667 Z-16.877 A277.0360 B-0.2829 
N375 X-224.222 Y20.730 Z-15.904 A277.7308 B-0.2685 
N376 X-224.222 Y20.708 Z-14.909 A278.1312 B-0.2565 
N377 X-224.222 Y20.631 Z-13.900 A278.3390 B-0.2454 
N378 X-224.222 Y20.529 Z-12.889 A278.4581 B-0.2343 
N379 X-224.222 Y20.415 Z-11.884 A278.5309 B-0.2228 
N380 X-224.222 Y20.305 Z-10.896 A278.6153 B-0.2105 
N381 X-224.222 Y20.259 Z-9.925 A278.9640 B-0.1960 
N382 X-224.222 Y20.398 Z-8.955 A280.0987 B-0.1762 
N383 X-224.222 Y20.857 Z-7.947 A282.6631 B-0.1477 
N384 X-224.222 Y21.709 Z-6.828 A287.1064 B-0.1092 
N385 X-224.221 Y22.861 Z-5.519 A293.2677 B-0.0631 
N386 X-224.221 Y24.067 Z-4.005 A300.3579 B-0.0160 
N387 X-224.221 Y25.113 Z-2.338 A307.6159 B0.0253 
N388 X-224.221 Y25.987 Z-0.502 A315.1561 B0.0566 
N389 X-224.221 Y26.767 Z1.672 A323.8781 B0.0725 
N390 X-224.221 Y27.253 Z4.111 A333.3120 B0.0726 
N391 X-224.221 Y27.262 Z6.557 A342.4864 B0.0520 
N392 X-224.221 Y26.741 Z8.564 A349.8494 B0.0179 
N393 X-224.221 Y25.832 Z9.834 A354.4003 B0.0025 
N394 X-224.221 Y24.702 Z10.459 A356.4968 B0.0001 
N395 X-224.221 Y23.432 Z10.757 A357.3446 B0.0000 
N396 X-224.221 Y22.045 Z10.996 A357.9828 
N397 X-224.221 Y20.548 Z11.303 A358.9569 
N398 X-224.221 Y18.945 Z11.664 A0.2659 
N399 X-224.221 Y17.251 Z11.915 A1.2634 
N400 X-224.221 Y15.493 Z11.970 A1.5448 
N401 X-224.221 Y13.696 Z11.954 A1.5524 
N402 X-224.221 Y11.885 Z11.937 
N403 X-224.221 Y10.090 Z11.920 
N404 X-224.221 Y8.338 Z11.903 
N405 X-224.221 Y6.657 Z11.887 
N406 X-224.221 Y5.068 Z11.871 A1.5524 
N407 X-224.221 Y3.592 Z11.858 A1.5551 
N408 X-224.221 Y2.239 Z11.847 A1.5671 
N409 X-224.221 Y1.019 Z11.840 A1.5870 
N410 X-224.221 Y-0.070 Z11.860 A1.7176 
N411 X-224.221 Y-1.035 Z12.029 A2.4722 
N412 X-224.221 Y-1.909 Z12.571 A4.8236 
N413 X-224.221 Y-2.777 Z13.625 A9.4474 
N414 X-224.221 Y-3.787 Z15.175 A16.4467 
N415 X-224.221 Y-5.095 Z17.030 A25.3432 
N416 X-224.221 Y-6.815 Z18.958 A35.6098 
N417 X-224.221 Y-8.930 Z20.678 A46.5047 
N418 X-224.221 Y-11.417 Z22.045 A57.8705 
N419 X-224.221 Y-13.970 Z22.839 A68.5727 
N420 X-224.221 Y-16.276 Z23.060 A77.7818 
N421 X-224.221 Y-18.199 Z22.855 A85.3665 B0.0001 
N422 X-224.221 Y-19.633 Z22.374 A91.0996 B0.0009 
N423 X-224.221 Y-20.614 Z21.742 A95.1871 B0.0038 
N424 X-224.221 Y-21.213 Z21.033 A97.8906 B0.0115 
N425 X-224.221 Y-21.525 Z20.276 A99.5638 B0.0251 
N426 X-224.221 Y-21.649 Z19.476 A100.5792 B0.0409 
N427 X-224.221 Y-21.646 Z18.630 A101.1573 B0.0548 
N428 X-224.221 Y-21.556 Z17.741 A101.4435 B0.0680 
N429 X-224.221 Y-21.414 Z16.810 A101.5667 B0.0824 
N430 X-224.221 Y-21.251 Z15.841 A101.6413 B0.0978 
N431 X-224.221 Y-21.084 Z14.846 A101.7232 B0.1140 
N432 X-224.221 Y-20.914 Z13.837 A101.8105 B0.1305 
N433 X-224.220 Y-20.742 Z12.828 A101.8958 B0.1471 
N434 X-224.220 Y-20.568 Z11.832 A101.9675 B0.1637 
N435 X-224.220 Y-20.400 Z10.860 A102.0531 B0.1798 
N436 X-224.220 Y-20.293 Z9.908 A102.3751 B0.1935 
N437 X-224.220 Y-20.386 Z8.946 A103.5491 B0.1985 
N438 X-224.220 Y-20.814 Z7.923 A106.2247 B0.1864 
N439 X-224.220 Y-21.626 Z6.761 A110.7811 B0.1485 
N440 X-224.221 Y-22.769 Z5.357 A117.2796 B0.0766 
N441 X-224.221 Y-24.119 Z3.592 A125.6417 B-0.0392 
N442 X-224.222 Y-25.453 Z1.397 A135.5058 B-0.2031 
N443 X-224.223 Y-26.559 Z-1.274 A146.7275 B-0.3950 
N444 X-224.224 Y-27.108 Z-4.162 A158.1244 B-0.5746 
N445 X-224.224 Y-26.955 Z-6.763 A168.0167 B-0.7093 
N446 X-224.224 Y-26.246 Z-8.615 A174.9909 B-0.7754 
N447 X-224.224 Y-25.231 Z-9.432 A178.0001 B-0.7899 
N448 X-224.224 Y-24.075 Z-9.640 A178.6326 B-0.7837 
N449 X-224.224 Y-22.810 Z-9.796 A179.0688 B-0.7769 
N450 X-224.224 Y-21.436 Z-10.132 A180.3016 B-0.7808 
N451 X-224.224 Y-19.952 Z-10.418 A181.4563 B-0.7901 
N452 X-224.225 Y-18.375 Z-10.485 A181.8063 B-0.7969 
N453 X-224.225 Y-16.723 Z-10.465 A181.8205 B-0.8024 
N454 X-224.225 Y-15.015 Z-10.440 A181.8207 B-0.8080 
N455 X-224.225 Y-13.276 Z-10.415 B-0.8138 
N456 X-224.225 Y-11.533 Z-10.390 B-0.8196 
N457 X-224.225 Y-9.815 Z-10.366 B-0.8253 
N458 X-224.225 Y-8.150 Z-10.342 A181.8207 B-0.8308 
N459 X-224.225 Y-6.562 Z-10.319 B-0.8360 
N460 X-224.225 Y-5.073 Z-10.298 A181.8208 B-0.8410 
N461 X-224.225 Y-3.697 Z-10.280 A181.8284 B-0.8457 
N462 X-224.225 Y-2.446 Z-10.269 A181.8593 B-0.8504 
N463 X-224.225 Y-1.324 Z-10.267 A181.9199 B-0.8554 
N464 X-224.225 Y-0.328 Z-10.343 A182.3046 B-0.8638 
N465 X-224.225 Y0.561 Z-10.663 A183.7206 B-0.8840 
N466 X-224.225 Y1.395 Z-11.422 A187.0416 B-0.9258 
N467 X-224.225 Y2.287 Z-12.697 A192.7107 B-0.9915 
N468 X-224.226 Y3.393 Z-14.383 A200.5114 B-1.0721 
N469 X-224.226 Y4.872 Z-16.311 A210.1274 B-1.1519 
N470 X-224.226 Y6.877 Z-18.301 A221.4267 B-1.2092 
N471 X-224.226 Y9.385 Z-20.008 A233.6113 B-1.1893 
N472 X-224.225 Y12.129 Z-21.132 A245.5315 B-1.0220 
N473 X-224.225 Y14.468 Z-21.520 A254.9944 B-0.8434 
N474 X-224.224 Y16.312 Z-21.441 A262.2528 B-0.7055 
N475 X-224.224 Y17.632 Z-21.086 A267.4401 B-0.6066 
N476 X-224.223 Y18.516 Z-20.587 A270.9688 B-0.5385 
N477 X-224.223 Y19.096 Z-20.004 A273.3804 B-0.4907 
N478 X-224.223 Y19.524 Z-19.356 A275.2693 B-0.4521 
N479 X-224.223 Y19.898 Z-18.641 A277.0419 B-0.4157 
N480 X-224.223 Y20.244 Z-17.859 A278.8235 B-0.3797 
N481 X-224.223 Y20.518 Z-17.019 A280.4376 B-0.3471 
N482 X-224.222 Y20.663 Z-16.145 A281.6418 B-0.3211 
N483 X-224.222 Y20.670 Z-15.252 A282.3622 B-0.3019 
N484 X-224.222 Y20.572 Z-14.347 A282.7092 B-0.2870 
N485 X-224.222 Y20.419 Z-13.431 A282.8598 B-0.2735 
N486 X-224.222 Y20.246 Z-12.508 A282.9493 B-0.2597 
N487 X-224.222 Y20.085 Z-11.580 A283.0914 B-0.2442 
N488 X-224.222 Y19.995 Z-10.642 A283.5453 B-0.2247 
N489 X-224.222 Y20.091 Z-9.669 A284.8199 B-0.1969 
N490 X-224.222 Y20.501 Z-8.611 A287.5445 B-0.1564 
N491 X-224.222 Y21.261 Z-7.400 A292.0467 B-0.1030 
N492 X-224.221 Y22.195 Z-6.012 A297.7962 B-0.0450 
N493 X-224.221 Y23.001 Z-4.542 A303.6047 B0.0047 
N494 X-224.221 Y23.582 Z-3.059 A309.0177 B0.0406 
N495 X-224.221 Y24.136 Z-1.404 A315.1271 B0.0652 
N496 X-224.221 Y24.752 Z0.648 A323.0001 B0.0781 
N497 X-224.221 Y25.242 Z3.143 A332.5775 B0.0767 
N498 X-224.221 Y25.253 Z5.675 A342.0387 B0.0491 
N499 X-224.221 Y24.679 Z7.575 A348.8774 B0.0121 
N500 X-224.221 Y23.731 Z8.669 A352.5847 B0.0004 
N501 X-224.221 Y22.593 Z9.279 A354.4506 B0.0000 
N502 X-224.221 Y21.336 Z9.752 A355.8411 
N503 X-224.221 Y19.978 Z10.302 A357.6563 
N504 X-224.221 Y18.515 Z10.877 A359.7565 
N505 X-224.221 Y16.957 Z11.234 A1.1555 
N506 X-224.221 Y15.336 Z11.312 A1.5183 
N507 X-224.221 Y13.672 Z11.299 A1.5282 
N508 X-224.221 Y11.988 Z11.284 
N509 X-224.221 Y10.309 Z11.268 
N510 X-224.221 Y8.660 Z11.253 
N511 X-224.221 Y7.066 Z11.238 
N512 X-224.221 Y5.551 Z11.224 
N513 X-224.221 Y4.133 Z11.212 A1.5317 
N514 X-224.221 Y2.826 Z11.207 A1.5626 
N515 X-224.221 Y1.639 Z11.206 A1.6073 
N516 X-224.221 Y0.578 Z11.202 A1.6390 
N517 X-224.221 Y-0.362 Z11.246 A1.8650 
N518 X-224.221 Y-1.194 Z11.525 A3.0778 
N519 X-224.221 Y-1.964 Z12.240 A6.1631 
N520 X-224.221 Y-2.777 Z13.471 A11.5599 
N521 X-224.221 Y-3.778 Z15.116 A19.0363 
N522 X-224.221 Y-5.090 Z16.965 A28.0182 
N523 X-224.221 Y-6.779 Z18.805 A38.0056 
N524 X-224.221 Y-8.790 Z20.395 A48.2874 
N525 X-224.221 Y-11.133 Z21.670 A59.0123 
N526 X-224.221 Y-13.624 Z22.471 A69.5300 
N527 X-224.221 Y-15.926 Z22.739 A78.8105 
N528 X-224.221 Y-17.912 Z22.592 A86.7228 B0.0002 
N529 X-224.221 Y-19.447 Z22.164 A92.9322 B0.0021 
N530 X-224.221 Y-20.559 Z21.580 A97.6216 B0.0075 
N531 X-224.221 Y-21.300 Z20.918 A100.9955 B0.0167 
N532 X-224.221 Y-21.740 Z20.215 A103.3018 B0.0284 
N533 X-224.221 Y-21.963 Z19.481 A104.8643 B0.0407 
N534 X-224.221 Y-22.024 Z18.715 A105.8796 B0.0524 
N535 X-224.221 Y-21.955 Z17.919 A106.4572 B0.0642 
N536 X-224.221 Y-21.790 Z17.091 A106.7180 B0.0776 
N537 X-224.221 Y-21.573 Z16.228 A106.8219 B0.0928 
N538 X-224.221 Y-21.340 Z15.329 A106.9093 B0.1090 
N539 X-224.221 Y-21.101 Z14.404 A107.0097 B0.1258 
N540 X-224.220 Y-20.858 Z13.465 A107.1140 B0.1428 
N541 X-224.220 Y-20.610 Z12.525 A107.2115 B0.1601 
N542 X-224.220 Y-20.363 Z11.592 A107.3081 B0.1772 
N543 X-224.220 Y-20.151 Z10.666 A107.5458 B0.1923 
N544 X-224.220 Y-20.096 Z9.710 A108.4592 B0.1980 
N545 X-224.220 Y-20.337 Z8.667 A110.7317 B0.1824 
N546 X-224.221 Y-20.935 Z7.463 A114.7927 B0.1333 
N547 X-224.221 Y-21.849 Z6.007 A120.7662 B0.0398 
N548 X-224.222 Y-22.966 Z4.193 A128.6255 B-0.1099 
N549 X-224.222 Y-24.106 Z1.930 A138.2520 B-0.3205 
N550 X-224.224 Y-25.051 Z-0.864 A149.6395 B-0.5728 
N551 X-224.225 Y-25.418 Z-3.878 A161.3621 B-0.8179 
N552 X-224.225 Y-25.048 Z-6.432 A171.0461 B-0.9737 
N553 X-224.225 Y-24.149 Z-7.669 A175.5740 B-1.0149 
N554 X-224.225 Y-23.057 Z-8.047 A176.7380 B-1.0100 
N555 X-224.225 Y-21.870 Z-8.429 A177.9740 B-1.0091 
N556 X-224.225 Y-20.585 Z-8.989 A180.0657 B-1.0244 
N557 X-224.226 Y-19.197 Z-9.350 A181.5232 B-1.0397 
N558 X-224.226 Y-17.729 Z-9.409 A181.8444 B-1.0471 
N559 X-224.226 Y-16.195 Z-9.389 A181.8549 B-1.0525 
N560 X-224.226 Y-14.610 Z-9.366 A181.8550 B-1.0580 
N561 X-224.226 Y-12.997 Z-9.342 B-1.0635 
N562 X-224.226 Y-11.379 Z-9.317 B-1.0691 
N563 X-224.226 Y-9.783 Z-9.294 A181.8550 B-1.0747 
N564 X-224.226 Y-8.234 Z-9.270 B-1.0800 
N565 X-224.226 Y-6.754 Z-9.248 B-1.0851 
N566 X-224.226 Y-5.364 Z-9.228 A181.8550 B-1.0900 
N567 X-224.226 Y-4.080 Z-9.210 A181.8611 B-1.0945 
N568 X-224.226 Y-2.911 Z-9.201 A181.8993 B-1.0991 
N569 X-224.226 Y-1.862 Z-9.205 A181.9813 B-1.1043 
N570 X-224.226 Y-0.932 Z-9.264 A182.2932 B-1.1126 
N571 X-224.226 Y-0.108 Z-9.507 A183.3827 B-1.1317 
N572 X-224.226 Y0.647 Z-10.115 A186.0354 B-1.1718 
N573 X-224.226 Y1.422 Z-11.203 A190.8187 B-1.2371 
N574 X-224.227 Y2.347 Z-12.722 A197.6818 B-1.3191 
N575 X-224.227 Y3.561 Z-14.514 A206.2448 B-1.4006 
N576 X-224.227 Y5.207 Z-16.443 A216.3918 B-1.4613 
N577 X-224.227 Y7.363 Z-18.283 A227.8012 B-1.4727 
N578 X-224.227 Y9.852 Z-19.691 A239.3268 B-1.3771 
N579 X-224.226 Y12.455 Z-20.540 A250.3644 B-1.1601 
N580 X-224.225 Y14.540 Z-20.759 A258.7527 B-0.9726 
N581 X-224.225 Y16.157 Z-20.621 A265.1571 B-0.8262 
N582 X-224.224 Y17.340 Z-20.280 A269.8783 B-0.7164 
N583 X-224.224 Y18.208 Z-19.824 A273.4291 B-0.6327 
N584 X-224.224 Y18.890 Z-19.289 A276.3444 B-0.5633 
N585 X-224.223 Y19.481 Z-18.677 A279.0183 B-0.4995 
N586 X-224.223 Y20.014 Z-17.989 A281.6084 B-0.4381 
N587 X-224.223 Y20.463 Z-17.233 A284.0256 B-0.3815 
N588 X-224.223 Y20.763 Z-16.435 A285.9976 B-0.3349 
N589 X-224.222 Y20.879 Z-15.623 A287.3438 B-0.3009 
N590 X-224.222 Y20.821 Z-14.810 A288.0713 B-0.2784 
N591 X-224.222 Y20.644 Z-13.992 A288.3699 B-0.2627 
N592 X-224.222 Y20.411 Z-13.157 A288.4843 B-0.2489 
N593 X-224.222 Y20.176 Z-12.297 A288.6234 B-0.2335 
N594 X-224.222 Y19.992 Z-11.403 A289.0239 B-0.2133 
N595 X-224.222 Y19.948 Z-10.448 A290.0818 B-0.1837 
N596 X-224.222 Y20.146 Z-9.388 A292.3190 B-0.1405 
N597 X-224.221 Y20.609 Z-8.178 A295.9723 B-0.0845 
N598 X-224.221 Y21.158 Z-6.850 A300.4221 B-0.0279 
N599 X-224.221 Y21.527 Z-5.538 A304.4899 B0.0142 
N600 X-224.221 Y21.698 Z-4.283 A307.9988 B0.0400 
N601 X-224.221 Y21.939 Z-2.876 A312.3607 B0.0583 
N602 X-224.221 Y22.465 Z-0.989 A319.2671 B0.0723 
N603 X-224.221 Y23.103 Z1.543 A329.0577 B0.0738 
N604 X-224.221 Y23.260 Z4.155 A338.8222 B0.0400 
N605 X-224.221 Y22.768 Z6.093 A345.6660 B0.0043 
N606 X-224.221 Y21.894 Z7.358 A349.8717 B0.0001 
N607 X-224.221 Y20.826 Z8.259 A352.7558 B0.0000 
N608 X-224.221 Y19.642 Z9.145 A355.7623 
N609 X-224.221 Y18.339 Z9.997 A358.8812 
N610 X-224.221 Y16.928 Z10.515 A0.8879 
N611 X-224.221 Y15.451 Z10.653 A1.4773 
N612 X-224.221 Y13.929 Z10.647 A1.5069 
N613 X-224.221 Y12.379 Z10.633 
N614 X-224.221 Y10.819 Z10.619 
N615 X-224.221 Y9.273 Z10.606 
N616 X-224.221 Y7.763 Z10.592 
N617 X-224.221 Y6.312 Z10.579 
N618 X-224.221 Y4.938 Z10.567 A1.5073 
N619 X-224.221 Y3.659 Z10.559 A1.5207 
N620 X-224.221 Y2.486 Z10.560 A1.5676 
N621 X-224.221 Y1.427 Z10.558 A1.6061 
N622 X-224.221 Y0.483 Z10.553 A1.6274 
N623 X-224.221 Y-0.348 Z10.618 A1.9325 
N624 X-224.221 Y-1.083 Z10.944 A3.3331 
N625 X-224.221 Y-1.770 Z11.696 A6.5647 
N626 X-224.221 Y-2.508 Z12.928 A11.9432 
N627 X-224.221 Y-3.423 Z14.523 A19.1476 
N628 X-224.221 Y-4.618 Z16.299 A27.6685 
N629 X-224.221 Y-6.157 Z18.084 A37.1234 
N630 X-224.221 Y-8.028 Z19.693 A47.0591 
N631 X-224.221 Y-10.138 Z20.973 A57.0026 
N632 X-224.221 Y-12.611 Z21.949 A67.7388 
N633 X-224.221 Y-14.980 Z22.389 A77.4507 
N634 X-224.221 Y-17.130 Z22.391 A86.0863 B0.0001 
N635 X-224.221 Y-18.890 Z22.068 A93.2137 B0.0016 
N636 X-224.221 Y-20.237 Z21.550 A98.8563 B0.0071 
N637 X-224.221 Y-21.227 Z20.928 A103.2605 B0.0166 
N638 X-224.221 Y-21.894 Z20.259 A106.5496 B0.0264 
N639 X-224.221 Y-22.304 Z19.566 A108.9620 B0.0339 
N640 X-224.221 Y-22.518 Z18.852 A110.7207 B0.0396 
N641 X-224.221 Y-22.559 Z18.125 A111.9080 B0.0456 
N642 X-224.221 Y-22.449 Z17.386 A112.5781 B0.0533 
N643 X-224.221 Y-22.222 Z16.631 A112.8611 B0.0634 
N644 X-224.221 Y-21.935 Z15.845 A112.9701 B0.0752 
N645 X-224.221 Y-21.629 Z15.019 A113.0753 B0.0879 
N646 X-224.221 Y-21.312 Z14.162 A113.1966 B0.1009 
N647 X-224.221 Y-20.986 Z13.283 A113.3230 B0.1140 
N648 X-224.221 Y-20.653 Z12.394 A113.4459 B0.1273 
N649 X-224.220 Y-20.321 Z11.499 A113.5930 B0.1401 
N650 X-224.220 Y-20.046 Z10.583 A114.0032 B0.1483 
N651 X-224.220 Y-19.948 Z9.593 A115.2443 B0.1406 
N652 X-224.221 Y-20.116 Z8.468 A117.8211 B0.1029 
N653 X-224.221 Y-20.594 Z7.125 A122.1530 B0.0184 
N654 X-224.222 Y-21.384 Z5.430 A128.6842 B-0.1352 
N655 X-224.223 Y-22.352 Z3.249 A137.5429 B-0.3726 
N656 X-224.224 Y-23.263 Z0.449 A148.8015 B-0.6884 
N657 X-224.225 Y-23.677 Z-2.763 A161.3021 B-1.0172 
N658 X-224.226 Y-23.232 Z-5.189 A170.4031 B-1.1818 
N659 X-224.226 Y-22.277 Z-6.173 A173.7713 B-1.2097 
N660 X-224.226 Y-21.194 Z-6.945 A176.4319 B-1.2291 
N661 X-224.227 Y-20.006 Z-7.785 A179.5941 B-1.2636 
N662 X-224.227 Y-18.715 Z-8.258 A181.4900 B-1.2881 
N663 X-224.227 Y-17.357 Z-8.335 A181.8745 B-1.2969 
N664 X-224.227 Y-15.943 Z-8.317 A181.8900 B-1.3021 
N665 X-224.227 Y-14.483 Z-8.294 A181.8901 B-1.3073 
N666 X-224.227 Y-12.996 Z-8.271 B-1.3127 
N667 X-224.227 Y-11.501 Z-8.248 B-1.3181 
N668 X-224.227 Y-10.022 Z-8.225 A181.8901 B-1.3234 
N669 X-224.227 Y-8.580 Z-8.202 B-1.3286 
N670 X-224.227 Y-7.197 Z-8.181 B-1.3336 
N671 X-224.227 Y-5.892 Z-8.161 A181.8901 B-1.3383 
N672 X-224.227 Y-4.681 Z-8.142 A181.8911 B-1.3427 
N673 X-224.227 Y-3.574 Z-8.128 A181.9051 B-1.3469 
N674 X-224.227 Y-2.578 Z-8.127 A181.9671 B-1.3517 
N675 X-224.227 Y-1.693 Z-8.166 A182.1902 B-1.3591 
N676 X-224.227 Y-0.914 Z-8.323 A182.9101 B-1.3746 
N677 X-224.227 Y-0.218 Z-8.727 A184.6821 B-1.4068 
N678 X-224.227 Y0.447 Z-9.519 A188.1326 B-1.4634 
N679 X-224.228 Y1.178 Z-10.743 A193.5313 B-1.5417 
N680 X-224.228 Y2.089 Z-12.291 A200.5987 B-1.6267 
N681 X-224.228 Y3.296 Z-14.045 A209.1005 B-1.6996 
N682 X-224.229 Y4.921 Z-15.889 A218.9894 B-1.7389 
N683 X-224.228 Y7.021 Z-17.624 A229.9869 B-1.7185 
N684 X-224.228 Y9.333 Z-18.902 A240.6613 B-1.6067 
N685 X-224.227 Y11.891 Z-19.753 A251.5671 B-1.3563 
N686 X-224.226 Y13.932 Z-20.001 A259.8419 B-1.1413 
N687 X-224.225 Y15.591 Z-19.920 A266.4788 B-0.9642 
N688 X-224.225 Y16.928 Z-19.635 A271.8766 B-0.8178 
N689 X-224.224 Y18.043 Z-19.214 A276.4989 B-0.6913 
N690 X-224.224 Y19.002 Z-18.685 A280.6471 B-0.5774 
N691 X-224.223 Y19.819 Z-18.064 A284.4064 B-0.4740 
N692 X-224.223 Y20.487 Z-17.368 A287.7632 B-0.3822 
N693 X-224.222 Y20.982 Z-16.623 A290.6240 B-0.3047 
N694 X-224.222 Y21.280 Z-15.857 A292.8591 B-0.2444 
N695 X-224.222 Y21.367 Z-15.098 A294.3781 B-0.2024 
N696 X-224.222 Y21.260 Z-14.356 A295.1957 B-0.1773 
N697 X-224.222 Y21.009 Z-13.620 A295.5021 B-0.1634 
N698 X-224.222 Y20.694 Z-12.861 A295.6226 B-0.1528 
N699 X-224.222 Y20.383 Z-12.054 A295.8457 B-0.1393 
N700 X-224.222 Y20.129 Z-11.181 A296.4164 B-0.1192 
N701 X-224.221 Y19.990 Z-10.217 A297.6184 B-0.0895 
N702 X-224.221 Y19.986 Z-9.148 A299.6157 B-0.0510 
N703 X-224.221 Y20.032 Z-8.009 A302.0784 B-0.0123 
N704 X-224.221 Y19.964 Z-6.904 A304.2395 B0.0144 
N705 X-224.221 Y19.745 Z-5.872 A305.8499 B0.0275 
N706 X-224.221 Y19.570 Z-4.779 A307.8701 B0.0367 
N707 X-224.221 Y19.836 Z-3.256 A312.5998 B0.0519 
N708 X-224.221 Y20.553 Z-1.015 A321.1515 B0.0608 
N709 X-224.221 Y21.076 Z1.623 A331.1812 B0.0313 
N710 X-224.221 Y20.988 Z4.007 A339.7905 B0.0026 
N711 X-224.221 Y20.412 Z5.945 A346.5866 B0.0000 
N712 X-224.221 Y19.522 Z7.497 A352.0369 
N713 X-224.221 Y18.428 Z8.822 A356.8924 
N714 X-224.221 Y17.177 Z9.667 A0.1167 
N715 X-224.221 Y15.845 Z9.970 A1.3369 
N716 X-224.221 Y14.470 Z9.997 A1.4876 
N717 X-224.221 Y13.058 Z9.985 A1.4881 
N718 X-224.221 Y11.624 Z9.972 
N719 X-224.221 Y10.184 Z9.960 
N720 X-224.221 Y8.760 Z9.948 
N721 X-224.221 Y7.370 Z9.936 
N722 X-224.221 Y6.034 Z9.925 
N723 X-224.221 Y4.770 Z9.914 
N724 X-224.221 Y3.593 Z9.904 
N725 X-224.221 Y2.513 Z9.895 A1.4881 
N726 X-224.221 Y1.539 Z9.888 A1.4927 
N727 X-224.221 Y0.673 Z9.893 A1.5445 
N728 X-224.221 Y-0.089 Z9.976 A1.9210 
N729 X-224.221 Y-0.761 Z10.295 A3.2850 
N730 X-224.221 Y-1.379 Z10.959 A6.1340 
N731 X-224.221 Y-2.012 Z11.986 A10.5973 
N732 X-224.221 Y-2.751 Z13.327 A16.5635 
N733 X-224.221 Y-3.694 Z14.902 A23.8658 
N734 X-224.221 Y-4.948 Z16.627 A32.4332 
N735 X-224.221 Y-6.612 Z18.389 A42.2109 
N736 X-224.221 Y-8.601 Z19.913 A52.3436 
N737 X-224.221 Y-10.863 Z21.097 A62.6745 
N738 X-224.221 Y-13.471 Z21.909 A73.7388 
N739 X-224.221 Y-15.806 Z22.159 A83.2346 B0.0001 
N740 X-224.221 Y-17.827 Z22.013 A91.4012 B0.0006 
N741 X-224.221 Y-19.449 Z21.609 A98.0924 B0.0031 
N742 X-224.221 Y-20.729 Z21.053 A103.6048 B0.0088 
N743 X-224.221 Y-21.720 Z20.407 A108.1753 B0.0160 
N744 X-224.221 Y-22.443 Z19.715 A111.8747 B0.0214 
N745 X-224.221 Y-22.935 Z19.000 A114.8285 B0.0231 
N746 X-224.221 Y-23.222 Z18.277 A117.1286 B0.0220 
N747 X-224.221 Y-23.301 Z17.567 A118.7264 B0.0204 
N748 X-224.221 Y-23.177 Z16.885 A119.5943 B0.0202 
N749 X-224.221 Y-22.904 Z16.211 A119.9416 B0.0223 
N750 X-224.221 Y-22.552 Z15.512 A120.0663 B0.0258 
N751 X-224.221 Y-22.171 Z14.769 A120.1851 B0.0294 
N752 X-224.221 Y-21.772 Z13.982 A120.3298 B0.0326 
N753 X-224.221 Y-21.354 Z13.164 A120.4831 B0.0356 
N754 X-224.221 Y-20.921 Z12.322 A120.6425 B0.0380 
N755 X-224.221 Y-20.481 Z11.462 A120.8219 B0.0396 
N756 X-224.221 Y-20.057 Z10.578 A121.1247 B0.0381 
N757 X-224.221 Y-19.690 Z9.650 A121.7460 B0.0282 
N758 X-224.221 Y-19.434 Z8.645 A122.9769 B0.0006 
N759 X-224.222 Y-19.600 Z7.323 A126.5003 B-0.0947 
N760 X-224.222 Y-20.224 Z5.502 A133.1010 B-0.2977 
N761 X-224.224 Y-21.052 Z3.080 A142.5728 B-0.6181 
N762 X-224.225 Y-21.696 Z0.054 A154.3618 B-1.0203 
N763 X-224.227 Y-21.620 Z-2.815 A165.1681 B-1.2794 
N764 X-224.227 Y-20.879 Z-4.728 A172.1333 B-1.3947 
N765 X-224.227 Y-19.858 Z-6.210 A177.6982 B-1.4793 
N766 X-224.228 Y-18.669 Z-7.056 A181.0160 B-1.5297 
N767 X-224.228 Y-17.416 Z-7.255 A181.8756 B-1.5458 
N768 X-224.228 Y-16.120 Z-7.242 A181.9076 B-1.5509 
N769 X-224.228 Y-14.785 Z-7.221 A181.9077 B-1.5558 
N770 X-224.228 Y-13.423 Z-7.200 B-1.5609 
N771 X-224.228 Y-12.047 Z-7.178 B-1.5660 
N772 X-224.228 Y-10.676 Z-7.156 A181.9078 B-1.5711 
N773 X-224.228 Y-9.329 Z-7.135 B-1.5761 
N774 X-224.228 Y-8.026 Z-7.114 B-1.5809 
N775 X-224.228 Y-6.784 Z-7.094 A181.9078 B-1.5855 
N776 X-224.228 Y-5.618 Z-7.076 B-1.5898 
N777 X-224.228 Y-4.543 Z-7.059 B-1.5938 
N778 X-224.228 Y-3.567 Z-7.044 A181.9086 B-1.5974 
N779 X-224.228 Y-2.694 Z-7.034 A181.9260 B-1.6011 
N780 X-224.228 Y-1.923 Z-7.082 A182.1747 B-1.6089 
N781 X-224.228 Y-1.242 Z-7.340 A183.3023 B-1.6327 
N782 X-224.228 Y-0.625 Z-7.891 A185.6854 B-1.6787 
N783 X-224.229 Y-0.026 Z-8.719 A189.2948 B-1.7436 
N784 X-224.229 Y0.617 Z-9.807 A194.1208 B-1.8209 
N785 X-224.229 Y1.385 Z-11.132 A200.1570 B-1.9008 
N786 X-224.230 Y2.402 Z-12.708 A207.6645 B-1.9706 
N787 X-224.230 Y3.819 Z-14.488 A216.8419 B-2.0086 
N788 X-224.230 Y5.738 Z-16.282 A227.4697 B-1.9861 
N789 X-224.229 Y7.824 Z-17.630 A237.5295 B-1.9006 
N790 X-224.228 Y10.560 Z-18.777 A249.5562 B-1.6265 
N791 X-224.227 Y13.115 Z-19.269 A260.0988 B-1.3195 
N792 X-224.226 Y15.343 Z-19.271 A269.1042 B-1.0502 
N793 X-224.225 Y17.167 Z-18.952 A276.5645 B-0.8194 
N794 X-224.224 Y18.652 Z-18.434 A282.8522 B-0.6211 
N795 X-224.223 Y19.828 Z-17.798 A288.1279 B-0.4535 
N796 X-224.222 Y20.726 Z-17.096 A292.5178 B-0.3147 
N797 X-224.222 Y21.380 Z-16.359 A296.1501 B-0.2018 
N798 X-224.222 Y21.815 Z-15.610 A299.0947 B-0.1126 
N799 X-224.221 Y22.015 Z-14.883 A301.2496 B-0.0492 
N800 X-224.221 Y21.966 Z-14.212 A302.4798 B-0.0142 
N801 X-224.221 Y21.707 Z-13.591 A302.9103 B-0.0023 
N802 X-224.221 Y21.330 Z-12.967 A302.9548 B-0.0011 
N803 X-224.221 Y20.912 Z-12.296 A302.9548 B-0.0010 
N804 X-224.221 Y20.464 Z-11.579 B-0.0009 
N805 X-224.221 Y19.992 Z-10.821 B-0.0009 
N806 X-224.221 Y19.498 Z-10.030 B-0.0008 
N807 X-224.221 Y18.989 Z-9.214 B-0.0007 
N808 X-224.221 Y18.468 Z-8.378 B-0.0006 
N809 X-224.221 Y17.938 Z-7.529 B-0.0005 
N810 X-224.221 Y17.406 Z-6.666 A302.9764 B-0.0002 
N811 X-224.221 Y17.228 Z-5.554 A304.7967 B0.0121 
N812 X-224.221 Y17.724 Z-3.865 A310.4931 B0.0325 
N813 X-224.221 Y18.544 Z-1.566 A319.3627 B0.0275 
N814 X-224.221 Y19.245 Z1.287 A330.4136 B0.0028 
N815 X-224.221 Y19.418 Z4.411 A342.2748 B0.0000 
N816 X-224.221 Y18.825 Z6.821 A351.2014 
N817 X-224.221 Y17.812 Z8.410 A357.1485 
N818 X-224.221 Y16.618 Z9.182 A0.1006 
N819 X-224.221 Y15.360 Z9.396 A0.9380 
N820 X-224.221 Y14.065 Z9.411 A1.0008 
N821 X-224.221 Y12.736 Z9.411 
N822 X-224.221 Y11.387 Z9.411 
N823 X-224.221 Y10.030 Z9.411 
N824 X-224.221 Y8.683 Z9.411 
N825 X-224.221 Y7.363 Z9.411 
N826 X-224.221 Y6.090 Z9.411 
N827 X-224.221 Y4.879 Z9.411 
N828 X-224.221 Y3.747 Z9.411 
N829 X-224.221 Y2.704 Z9.411 A1.0008 
N830 X-224.221 Y1.759 Z9.413 A1.0062 
N831 X-224.221 Y0.915 Z9.427 A1.0671 
N832 X-224.221 Y0.172 Z9.511 A1.4161 
N833 X-224.221 Y-0.480 Z9.799 A2.6291 
N834 X-224.221 Y-1.071 Z10.383 A5.1158 
N835 X-224.221 Y-1.644 Z11.242 A8.8219 
N836 X-224.221 Y-2.265 Z12.351 A13.7025 
N837 X-224.221 Y-3.019 Z13.713 A19.8606 
N838 X-224.221 Y-4.027 Z15.322 A27.4729 
N839 X-224.221 Y-5.437 Z17.122 A36.6981 
N840 X-224.221 Y-7.324 Z18.907 A47.2108 
N841 X-224.221 Y-9.512 Z20.343 A57.8142 
N842 X-224.221 Y-12.223 Z21.471 A69.7240 
N843 X-224.221 Y-14.917 Z21.983 A80.8452 B0.0000 
N844 X-224.221 Y-17.090 Z21.961 A89.6343 B0.0004 
N845 X-224.221 Y-18.868 Z21.634 A96.9102 B0.0020 
N846 X-224.221 Y-20.281 Z21.126 A102.9083 B0.0061 
N847 X-224.221 Y-21.417 Z20.504 A108.0118 B0.0121 
N848 X-224.221 Y-22.299 Z19.813 A112.3246 B0.0169 
N849 X-224.221 Y-22.941 Z19.087 A115.8847 B0.0179 
N850 X-224.221 Y-23.363 Z18.349 A118.7526 B0.0147 
N851 X-224.221 Y-23.564 Z17.626 A120.8882 B0.0094 
N852 X-224.221 Y-23.522 Z16.953 A122.1301 B0.0049 
N853 X-224.221 Y-23.271 Z16.326 A122.5911 B0.0029 
N854 X-224.221 Y-22.910 Z15.690 A122.6961 B0.0026 
N855 X-224.221 Y-22.496 Z15.015 A122.7062 B0.0031 
N856 X-224.221 Y-22.050 Z14.294 B0.0036 
N857 X-224.221 Y-21.580 Z13.533 B0.0042 
N858 X-224.221 Y-21.089 Z12.739 B0.0048 
N859 X-224.221 Y-20.583 Z11.919 B0.0055 
N860 X-224.221 Y-20.065 Z11.081 B0.0061 
N861 X-224.221 Y-19.539 Z10.230 B0.0068 
N862 X-224.221 Y-19.014 Z9.366 A122.7332 B0.0068 
N863 X-224.221 Y-18.787 Z8.294 A124.2762 B-0.0354 
N864 X-224.222 Y-19.224 Z6.679 A129.5436 B-0.1982 
N865 X-224.223 Y-20.022 Z4.473 A138.0000 B-0.4914 
N866 X-224.225 Y-20.793 Z1.649 A149.0246 B-0.8978 
N867 X-224.226 Y-21.068 Z-1.515 A161.1023 B-1.2330 
N868 X-224.227 Y-20.562 Z-4.085 A170.6820 B-1.4216 
N869 X-224.228 Y-19.582 Z-5.816 A177.1993 B-1.5295 
N870 X-224.228 Y-18.398 Z-6.664 A180.4864 B-1.5809 
N871 X-224.228 Y-17.152 Z-6.829 A181.1516 B-1.5921 
N872 X-224.228 Y-15.866 Z-6.828 A181.1639 B-1.5930 
N873 X-224.228 Y-14.546 Z-6.825 B-1.5938 
N874 X-224.228 Y-13.201 Z-6.821 B-1.5946 
N875 X-224.228 Y-11.847 Z-6.817 B-1.5954 
N876 X-224.228 Y-10.499 Z-6.813 B-1.5962 
N877 X-224.228 Y-9.175 Z-6.809 B-1.5970 
N878 X-224.228 Y-7.893 Z-6.806 B-1.5977 
N879 X-224.228 Y-6.672 Z-6.802 B-1.5985 
N880 X-224.228 Y-5.526 Z-6.799 B-1.5992 
N881 X-224.228 Y-4.466 Z-6.796 B-1.5998 
N882 X-224.228 Y-3.502 Z-6.793 A181.1647 B-1.6004 
N883 X-224.228 Y-2.637 Z-6.796 A181.1839 B-1.6014 
N884 X-224.228 Y-1.870 Z-6.865 A181.4808 B-1.6078 
N885 X-224.228 Y-1.188 Z-7.169 A182.7655 B-1.6331 
N886 X-224.228 Y-0.559 Z-7.791 A185.4204 B-1.6832 
N887 X-224.229 Y0.075 Z-8.738 A189.5300 B-1.7559 
N888 X-224.229 Y0.817 Z-10.055 A195.3670 B-1.8463 
N889 X-224.229 Y1.868 Z-11.848 A203.6279 B-1.9434 
N890 X-224.230 Y3.689 Z-14.308 A215.9626 B-2.0112 
N891 X-224.229 Y6.962 Z-17.130 A233.4975 B-1.9456 
N892 G00 X-225.927 Y47.131 Z-46.856 
;RAPORT("TD999999","Spiral Rough Rhombic:105 End")
;trailer : concat=None
; points cnt = 847
N894 MSG (" --- GROUPED OF SUBPROGRAM --- ")
N895 FGROUP()
N896 TRAFOOF
; PROGRAM NAME: D99999914
; ORDER       : D999999
; OPER. NAME  : Spiral Finish Rhombic:106
; OPER. DESCR.: Spiral Finish rhombic shroud
; OPER. TYPE  : rhombMillFinish
; GEO. OPTION : 2
; MACHINE     : HSTM_300HD_SIM840D_Py
;             : HSTM300/500 - HAMUEL: 5-axis milling machine-SIM840D Traori PP_Script
; CONTROL     : SINUMERIK 840D
; created:   2022-11-03 09:01:54.462107
;-------DODATKOWE DANE-------------------
; PROGRAMISTA : Mariusz Malec
; PARTID      : 139T006893P1018_-
;  ae         : 24.0
;  lean_angle : 1.0
;  pln_offset : 0.25
;----------------------------------------
;RAPORT("TD999999","Spiral Finish Rhombic:106")
N10 TRAFOOF
N11 D0
N12 G90 G94
N13 G0 G53 D0 Z550
N14 STOPRE
M9 ; chlodziwo wyl
; --- Spiral Finish Rhombic:106 - Spiral Finish rhombic shroud ---
N16 ;ToolChange : concat=None ,current_tdmid=None, PP.tdmId=941293
N17 TRAFOOF
N18 G0 G53 D0 Z550 B0
N19 STOPRE
N20 MSG(" TLID=941293 D=40.0 R=6.0 Ang=0.0 Len=90.0 ")
N21 S2148 M03
N22 STOPRE
N23 CYCLE832(0.01,1,1)
N24 G0 G53 A1.0000 B-0.0000
N25 TRAORI
N26 G54 D1
N27 D1 
N28 X-224.221 Y40.636 Z58.163 A1.0000 
N29 M346 ; chlodziwo mgla
N30 X-224.221 Y41.509 Z8.171 
N31 G01 X-224.221 Y31.509 Z8.171 F800 
N32 X-224.221 Y26.509 Z8.171 
N33 X-224.221 Y26.242 Z8.171 
N34 X-224.221 Y25.976 Z8.171 
N35 X-224.221 Y25.709 Z8.171 
N36 X-224.221 Y25.442 Z8.171 
N37 X-224.221 Y25.176 Z8.171 
N38 X-224.221 Y24.909 Z8.171 
N39 X-224.221 Y24.642 Z8.171 
N40 X-224.221 Y24.376 Z8.171 
N41 X-224.221 Y24.109 Z8.171 
N42 X-224.221 Y23.842 Z8.171 
N43 X-224.221 Y23.576 Z8.171 
N44 X-224.221 Y23.309 Z8.171 
N45 X-224.221 Y23.042 Z8.171 
N46 X-224.221 Y22.776 Z8.171 
N47 X-224.221 Y22.509 Z8.171 
N48 X-224.221 Y22.242 Z8.171 
N49 X-224.221 Y21.976 Z8.171 
N50 X-224.221 Y21.709 Z8.171 
N51 X-224.221 Y21.442 Z8.171 
N52 X-224.221 Y21.176 Z8.171 
N53 X-224.221 Y20.909 Z8.171 
N54 X-224.221 Y20.642 Z8.171 
N55 X-224.221 Y20.376 Z8.171 
N56 X-224.221 Y20.109 Z8.171 
N57 X-224.221 Y19.842 Z8.171 
N58 X-224.221 Y19.576 Z8.171 
N59 X-224.221 Y19.309 Z8.171 
N60 X-224.221 Y19.042 Z8.171 
N61 X-224.221 Y18.776 Z8.171 
N62 X-224.221 Y18.509 Z8.171 
N63 X-224.221 Y18.242 Z8.171 
N64 X-224.221 Y17.976 Z8.171 
N65 X-224.221 Y17.709 Z8.171 
N66 X-224.221 Y17.442 Z8.171 
N67 X-224.221 Y17.176 Z8.171 
N68 X-224.221 Y16.909 Z8.171 
N69 X-224.221 Y16.642 Z8.171 
N70 X-224.221 Y16.376 Z8.171 
N71 X-224.221 Y16.109 Z8.171 
N72 X-224.221 Y15.842 Z8.171 
N73 X-224.221 Y15.576 Z8.171 
N74 X-224.221 Y15.309 Z8.171 
N75 X-224.221 Y15.042 Z8.171 
N76 X-224.221 Y14.776 Z8.171 
N77 X-224.221 Y14.509 Z8.171 
N78 X-224.221 Y14.242 Z8.171 
N79 X-224.221 Y13.976 Z8.171 
N80 X-224.221 Y13.709 Z8.171 
N81 X-224.221 Y13.442 Z8.171 
N82 X-224.221 Y13.176 Z8.171 
N83 X-224.221 Y12.909 Z8.171 
N84 X-224.221 Y12.642 Z8.171 
N85 X-224.221 Y12.376 Z8.171 
N86 X-224.221 Y12.109 Z8.171 
N87 X-224.221 Y11.842 Z8.171 
N88 X-224.221 Y11.576 Z8.171 
N89 X-224.221 Y11.309 Z8.171 
N90 X-224.221 Y11.042 Z8.171 
N91 X-224.221 Y10.776 Z8.171 
N92 X-224.221 Y10.509 Z8.171 
N93 X-224.221 Y10.242 Z8.171 
N94 X-224.221 Y9.976 Z8.171 
N95 X-224.221 Y9.709 Z8.171 
N96 X-224.221 Y9.442 Z8.171 
N97 X-224.221 Y9.176 Z8.171 
N98 X-224.221 Y8.909 Z8.171 
N99 X-224.221 Y8.642 Z8.171 
N100 X-224.221 Y8.376 Z8.171 
N101 X-224.221 Y8.109 Z8.171 
N102 X-224.221 Y7.842 Z8.171 
N103 X-224.221 Y7.576 Z8.171 
N104 X-224.221 Y7.309 Z8.171 
N105 X-224.221 Y7.042 Z8.171 
N106 X-224.221 Y6.776 Z8.171 
N107 X-224.221 Y6.509 Z8.171 
N108 X-224.221 Y-15.895 Z8.171 
N109 X-224.221 Y-16.162 Z8.171 
N110 X-224.221 Y-16.429 Z8.171 
N111 X-224.221 Y-16.695 Z8.171 
N112 X-224.221 Y-16.962 Z8.171 
N113 X-224.221 Y-17.229 Z8.171 
N114 X-224.221 Y-17.495 Z8.171 
N115 X-224.221 Y-17.762 Z8.171 
N116 X-224.221 Y-18.029 Z8.171 
N117 X-224.221 Y-18.295 Z8.171 
N118 X-224.221 Y-18.562 Z8.171 
N119 X-224.221 Y-18.829 Z8.171 
N120 X-224.221 Y-19.095 Z8.171 
N121 X-224.221 Y-19.362 Z8.171 
N122 X-224.221 Y-19.629 Z8.171 
N123 X-224.221 Y-19.895 Z8.171 
N124 X-224.221 Y-20.162 Z8.171 
N125 X-224.221 Y-20.429 Z8.171 
N126 X-224.221 Y-20.695 Z8.171 
N127 X-224.221 Y-20.962 Z8.171 
N128 X-224.221 Y-21.229 Z8.171 
N129 X-224.221 Y-21.495 Z8.171 
N130 X-224.221 Y-21.762 Z8.171 
N131 X-224.221 Y-22.029 Z8.171 
N132 X-224.221 Y-22.295 Z8.171 
N133 X-224.221 Y-22.562 Z8.171 
N134 X-224.221 Y-22.829 Z8.171 
N135 X-224.221 Y-23.095 Z8.171 
N136 X-224.221 Y-23.362 Z8.171 
N137 X-224.221 Y-23.629 Z8.171 
N138 X-224.221 Y-23.895 Z8.171 
N139 X-224.221 Y-24.162 Z8.171 
N140 X-224.221 Y-24.429 Z8.171 
N141 X-224.221 Y-24.695 Z8.171 
N142 X-224.221 Y-24.962 Z8.171 
N143 X-224.221 Y-25.229 Z8.171 
N144 X-224.221 Y-25.495 Z8.171 
N145 X-224.221 Y-25.762 Z8.171 
N146 X-224.221 Y-26.029 Z8.171 
N147 X-224.221 Y-26.295 Z8.171 
N148 X-224.221 Y-26.562 Z8.171 
N149 X-224.221 Y-26.829 Z8.171 
N150 X-224.221 Y-27.095 Z8.171 
N151 X-224.221 Y-27.362 Z8.171 
N152 X-224.221 Y-27.629 Z8.171 
N153 X-224.221 Y-27.895 Z8.171 
N154 X-224.221 Y-28.162 Z8.171 
N155 X-224.221 Y-28.429 Z8.171 
N156 X-224.221 Y-28.695 Z8.171 
N157 X-224.221 Y-28.962 Z8.171 
N158 X-224.221 Y-29.229 Z8.171 
N159 X-224.221 Y-29.495 Z8.171 
N160 X-224.221 Y-29.762 Z8.171 
N161 X-224.221 Y-30.029 Z8.171 
N162 X-224.221 Y-30.295 Z8.171 
N163 X-224.221 Y-30.562 Z8.171 
N164 X-224.221 Y-30.829 Z8.171 
N165 X-224.221 Y-31.095 Z8.171 
N166 X-224.221 Y-31.362 Z8.171 
N167 X-224.221 Y-31.629 Z8.171 
N168 X-224.221 Y-31.895 Z8.171 
N169 X-224.221 Y-32.162 Z8.171 
N170 X-224.221 Y-32.429 Z8.171 
N171 X-224.221 Y-32.695 Z8.171 
N172 X-224.221 Y-32.962 Z8.171 
N173 X-224.221 Y-33.229 Z8.171 
N174 X-224.221 Y-33.495 Z8.171 
N175 X-224.221 Y-33.762 Z8.171 
N176 X-224.221 Y-34.029 Z8.171 
N177 X-224.221 Y-34.295 Z8.171 
N178 X-224.221 Y-34.562 Z8.171 
N179 X-224.221 Y-34.829 Z8.171 
N180 X-224.221 Y-35.095 Z8.171 
N181 X-224.221 Y-35.362 Z8.171 
N182 X-224.221 Y-35.629 Z8.171 
N183 X-224.221 Y-35.895 Z8.171 
N184 X-224.221 Y-36.070 Z18.169 
N185 G00 X-224.221 Y-36.943 Z68.162 
N186 ; DELTA A > 40.1
N187 TRAFOOF
N188 D1
N189 STOPRE
N190 G00 G54 Z296.000
N191 G01 A123.0000 F10000
N192 TRAORI
N193 G54 D1
N194 STOPRE
N195 TRANS 
N196 X-224.221 Y-80.041 Z-3.977 A123.0000 F15000 
N197 X-224.221 Y-38.107 Z23.255 
N198 X-224.221 Y-29.720 Z28.701 F800 
N199 X-224.221 Y-27.071 Z24.461 
N200 X-224.221 Y-26.929 Z24.235 
N201 X-224.221 Y-26.788 Z24.009 
N202 X-224.221 Y-26.647 Z23.783 
N203 X-224.221 Y-26.505 Z23.556 
N204 X-224.221 Y-26.364 Z23.330 
N205 X-224.221 Y-26.223 Z23.104 
N206 X-224.221 Y-26.082 Z22.878 
N207 X-224.221 Y-25.940 Z22.652 
N208 X-224.221 Y-25.799 Z22.426 
N209 X-224.221 Y-25.658 Z22.200 
N210 X-224.221 Y-25.516 Z21.973 
N211 X-224.221 Y-25.375 Z21.747 
N212 X-224.221 Y-25.234 Z21.521 
N213 X-224.221 Y-25.092 Z21.295 
N214 X-224.221 Y-24.951 Z21.069 
N215 X-224.221 Y-24.810 Z20.843 
N216 X-224.221 Y-24.668 Z20.617 
N217 X-224.221 Y-24.527 Z20.390 
N218 X-224.221 Y-24.386 Z20.164 
N219 X-224.221 Y-24.244 Z19.938 
N220 X-224.221 Y-24.103 Z19.712 
N221 X-224.221 Y-23.962 Z19.486 
N222 X-224.221 Y-23.821 Z19.260 
N223 X-224.221 Y-23.679 Z19.034 
N224 X-224.221 Y-23.538 Z18.807 
N225 X-224.221 Y-23.397 Z18.581 
N226 X-224.221 Y-23.255 Z18.355 
N227 X-224.221 Y-23.114 Z18.129 
N228 X-224.221 Y-22.973 Z17.903 
N229 X-224.221 Y-22.831 Z17.677 
N230 X-224.221 Y-22.690 Z17.451 
N231 X-224.221 Y-22.549 Z17.224 
N232 X-224.221 Y-22.407 Z16.998 
N233 X-224.221 Y-22.266 Z16.772 
N234 X-224.221 Y-22.125 Z16.546 
N235 X-224.221 Y-21.983 Z16.320 
N236 X-224.221 Y-21.842 Z16.094 
N237 X-224.221 Y-21.701 Z15.867 
N238 X-224.221 Y-21.560 Z15.641 
N239 X-224.221 Y-21.418 Z15.415 
N240 X-224.221 Y-21.277 Z15.189 
N241 X-224.221 Y-21.136 Z14.963 
N242 X-224.221 Y-20.994 Z14.737 
N243 X-224.221 Y-20.853 Z14.511 
N244 X-224.221 Y-20.712 Z14.284 
N245 X-224.221 Y-20.570 Z14.058 
N246 X-224.221 Y-20.429 Z13.832 
N247 X-224.221 Y-20.288 Z13.606 
N248 X-224.221 Y-20.146 Z13.380 
N249 X-224.221 Y-20.005 Z13.154 
N250 X-224.221 Y-19.864 Z12.928 
N251 X-224.221 Y-19.722 Z12.701 
N252 X-224.221 Y-19.581 Z12.475 
N253 X-224.221 Y-19.440 Z12.249 
N254 X-224.221 Y-19.299 Z12.023 
N255 X-224.221 Y-19.157 Z11.797 
N256 X-224.221 Y-19.016 Z11.571 
N257 X-224.221 Y-18.875 Z11.345 
N258 X-224.221 Y-18.733 Z11.118 
N259 X-224.221 Y-18.592 Z10.892 
N260 X-224.221 Y-18.451 Z10.666 
N261 X-224.221 Y-18.309 Z10.440 
N262 X-224.221 Y-18.168 Z10.214 
N263 X-224.221 Y-18.027 Z9.988 
N264 X-224.221 Y-17.885 Z9.762 
N265 X-224.221 Y-17.744 Z9.535 
N266 X-224.221 Y-17.603 Z9.309 
N267 X-224.221 Y-17.462 Z9.083 
N268 X-224.221 Y-17.320 Z8.857 
N269 X-224.221 Y-17.179 Z8.631 
N270 X-224.221 Y-17.038 Z8.405 
N271 X-224.221 Y-16.896 Z8.179 
N272 X-224.221 Y-16.755 Z7.952 
N273 X-224.221 Y-16.614 Z7.726 
N274 X-224.221 Y-16.472 Z7.500 
N275 X-224.221 Y-8.526 Z-5.216 
N276 X-224.221 Y-8.385 Z-5.442 
N277 X-224.221 Y-8.244 Z-5.668 
N278 X-224.221 Y-8.102 Z-5.894 
N279 X-224.221 Y-7.961 Z-6.121 
N280 X-224.221 Y-7.820 Z-6.347 
N281 X-224.221 Y-7.679 Z-6.573 
N282 X-224.221 Y-7.537 Z-6.799 
N283 X-224.221 Y-7.396 Z-7.025 
N284 X-224.221 Y-7.255 Z-7.251 
N285 X-224.221 Y-7.113 Z-7.478 
N286 X-224.221 Y-6.972 Z-7.704 
N287 X-224.221 Y-6.831 Z-7.930 
N288 X-224.221 Y-6.689 Z-8.156 
N289 X-224.221 Y-6.548 Z-8.382 
N290 X-224.221 Y-6.407 Z-8.608 
N291 X-224.221 Y-6.265 Z-8.834 
N292 X-224.221 Y-6.124 Z-9.061 
N293 X-224.221 Y-5.983 Z-9.287 
N294 X-224.221 Y-5.841 Z-9.513 
N295 X-224.221 Y-5.700 Z-9.739 
N296 X-224.221 Y-5.559 Z-9.965 
N297 X-224.221 Y-5.418 Z-10.191 
N298 X-224.221 Y-5.276 Z-10.417 
N299 X-224.221 Y-5.135 Z-10.644 
N300 X-224.221 Y-4.994 Z-10.870 
N301 X-224.221 Y-4.852 Z-11.096 
N302 X-224.221 Y-4.711 Z-11.322 
N303 X-224.221 Y-4.570 Z-11.548 
N304 X-224.221 Y-4.428 Z-11.774 
N305 X-224.221 Y-4.287 Z-12.000 
N306 X-224.221 Y-4.146 Z-12.227 
N307 X-224.221 Y-4.004 Z-12.453 
N308 X-224.221 Y-3.863 Z-12.679 
N309 X-224.221 Y-3.722 Z-12.905 
N310 X-224.221 Y-3.580 Z-13.131 
N311 X-224.221 Y-3.439 Z-13.357 
N312 X-224.221 Y-3.298 Z-13.583 
N313 X-224.221 Y-3.157 Z-13.810 
N314 X-224.221 Y-3.015 Z-14.036 
N315 X-224.221 Y-2.874 Z-14.262 
N316 X-224.221 Y-2.733 Z-14.488 
N317 X-224.221 Y-2.591 Z-14.714 
N318 X-224.221 Y-2.450 Z-14.940 
N319 X-224.221 Y-2.309 Z-15.166 
N320 X-224.221 Y-2.167 Z-15.393 
N321 X-224.221 Y-2.026 Z-15.619 
N322 X-224.221 Y-1.885 Z-15.845 
N323 X-224.221 Y-1.743 Z-16.071 
N324 X-224.221 Y-1.602 Z-16.297 
N325 X-224.221 Y-1.461 Z-16.523 
N326 X-224.221 Y-1.319 Z-16.749 
N327 X-224.221 Y-1.178 Z-16.976 
N328 X-224.221 Y-1.037 Z-17.202 
N329 X-224.221 Y-0.896 Z-17.428 
N330 X-224.221 Y-0.754 Z-17.654 
N331 X-224.221 Y-0.613 Z-17.880 
N332 X-224.221 Y-0.472 Z-18.106 
N333 X-224.221 Y-0.330 Z-18.333 
N334 X-224.221 Y-0.189 Z-18.559 
N335 X-224.221 Y-0.048 Z-18.785 
N336 X-224.221 Y0.094 Z-19.011 
N337 X-224.221 Y0.235 Z-19.237 
N338 X-224.221 Y0.376 Z-19.463 
N339 X-224.221 Y0.518 Z-19.689 
N340 X-224.221 Y0.659 Z-19.916 
N341 X-224.221 Y0.800 Z-20.142 
N342 X-224.221 Y0.941 Z-20.368 
N343 X-224.221 Y1.083 Z-20.594 
N344 X-224.221 Y1.224 Z-20.820 
N345 X-224.221 Y1.365 Z-21.046 
N346 X-224.221 Y1.507 Z-21.272 
N347 X-224.221 Y1.648 Z-21.499 
N348 X-224.221 Y1.789 Z-21.725 
N349 X-224.221 Y1.931 Z-21.951 
N350 X-224.221 Y2.072 Z-22.177 
N351 X-224.221 Y-6.315 Z-27.623 
N352 G00 X-224.221 Y-48.248 Z-54.855 
N353 ; DELTA A > 40.1
N354 TRAFOOF
N355 D1
N356 STOPRE
N357 G00 G54 Z296.000
N358 G01 A180.9829 F10000
N359 TRAORI
N360 G54 D1
N361 STOPRE
N362 TRANS 
N363 X-226.114 Y-32.126 Z-65.490 A180.9829 B-1.7932 F15000 
N364 X-224.550 Y-32.983 Z-15.522 
N365 X-224.237 Y-33.155 Z-5.528 F800 
N366 X-224.237 Y-28.155 Z-5.529 
N367 X-224.237 Y-27.888 Z-5.530 
N368 X-224.237 Y-27.621 Z-5.530 
N369 X-224.237 Y-27.355 Z-5.530 
N370 X-224.237 Y-27.088 Z-5.530 
N371 X-224.237 Y-26.821 Z-5.530 
N372 X-224.237 Y-26.555 Z-5.530 
N373 X-224.237 Y-26.288 Z-5.530 
N374 X-224.237 Y-26.021 Z-5.530 
N375 X-224.237 Y-25.755 Z-5.530 
N376 X-224.237 Y-25.488 Z-5.530 
N377 X-224.237 Y-25.221 Z-5.530 
N378 X-224.237 Y-24.955 Z-5.530 
N379 X-224.237 Y-24.688 Z-5.531 
N380 X-224.237 Y-24.421 Z-5.531 
N381 X-224.237 Y-24.155 Z-5.531 
N382 X-224.237 Y-23.888 Z-5.531 
N383 X-224.237 Y-23.621 Z-5.531 
N384 X-224.237 Y-23.355 Z-5.531 
N385 X-224.237 Y-23.088 Z-5.531 
N386 X-224.237 Y-22.821 Z-5.531 
N387 X-224.237 Y-22.555 Z-5.531 
N388 X-224.237 Y-22.288 Z-5.531 
N389 X-224.237 Y-22.021 Z-5.531 
N390 X-224.237 Y-21.755 Z-5.531 
N391 X-224.237 Y-21.488 Z-5.531 
N392 X-224.237 Y-21.221 Z-5.532 
N393 X-224.237 Y-20.955 Z-5.532 
N394 X-224.237 Y-20.688 Z-5.532 
N395 X-224.237 Y-20.421 Z-5.532 
N396 X-224.237 Y-20.155 Z-5.532 
N397 X-224.237 Y-19.888 Z-5.532 
N398 X-224.237 Y-19.621 Z-5.532 
N399 X-224.237 Y-19.355 Z-5.532 
N400 X-224.237 Y-19.088 Z-5.532 
N401 X-224.237 Y-18.821 Z-5.532 
N402 X-224.237 Y-18.555 Z-5.532 
N403 X-224.237 Y-18.288 Z-5.532 
N404 X-224.237 Y-18.021 Z-5.533 
N405 X-224.237 Y-17.755 Z-5.533 
N406 X-224.237 Y-17.488 Z-5.533 
N407 X-224.237 Y-17.221 Z-5.533 
N408 X-224.237 Y-16.955 Z-5.533 
N409 X-224.237 Y-16.688 Z-5.533 
N410 X-224.237 Y-16.421 Z-5.533 
N411 X-224.237 Y-16.155 Z-5.533 
N412 X-224.237 Y-15.888 Z-5.533 
N413 X-224.237 Y-15.621 Z-5.533 
N414 X-224.237 Y-15.355 Z-5.533 
N415 X-224.237 Y-15.088 Z-5.533 
N416 X-224.237 Y-14.821 Z-5.534 
N417 X-224.237 Y-14.555 Z-5.534 
N418 X-224.237 Y-14.288 Z-5.534 
N419 X-224.237 Y-14.021 Z-5.534 
N420 X-224.237 Y-13.755 Z-5.534 
N421 X-224.237 Y-13.488 Z-5.534 
N422 X-224.237 Y-13.221 Z-5.534 
N423 X-224.237 Y-12.955 Z-5.534 
N424 X-224.237 Y-12.688 Z-5.534 
N425 X-224.237 Y-12.421 Z-5.534 
N426 X-224.237 Y-12.155 Z-5.534 
N427 X-224.237 Y-11.888 Z-5.534 
N428 X-224.237 Y-11.621 Z-5.535 
N429 X-224.237 Y-11.355 Z-5.535 
N430 X-224.237 Y-11.088 Z-5.535 
N431 X-224.237 Y-10.821 Z-5.535 
N432 X-224.237 Y-10.555 Z-5.535 
N433 X-224.237 Y-10.288 Z-5.535 
N434 X-224.237 Y-10.021 Z-5.535 
N435 X-224.237 Y-9.755 Z-5.535 
N436 X-224.237 Y-9.488 Z-5.535 
N437 X-224.237 Y-9.221 Z-5.535 
N438 X-224.237 Y-8.955 Z-5.535 
N439 X-224.237 Y-8.688 Z-5.535 
N440 X-224.237 Y-8.421 Z-5.535 
N441 X-224.237 Y-8.155 Z-5.536 
N442 X-224.237 Y14.254 Z-5.542 
N443 X-224.237 Y14.521 Z-5.543 
N444 X-224.237 Y14.787 Z-5.543 
N445 X-224.237 Y15.054 Z-5.543 
N446 X-224.237 Y15.321 Z-5.543 
N447 X-224.237 Y15.587 Z-5.543 
N448 X-224.237 Y15.854 Z-5.543 
N449 X-224.237 Y16.121 Z-5.543 
N450 X-224.237 Y16.387 Z-5.543 
N451 X-224.237 Y16.654 Z-5.543 
N452 X-224.237 Y16.921 Z-5.543 
N453 X-224.237 Y17.187 Z-5.543 
N454 X-224.237 Y17.454 Z-5.543 
N455 X-224.237 Y17.721 Z-5.543 
N456 X-224.237 Y17.987 Z-5.544 
N457 X-224.237 Y18.254 Z-5.544 
N458 X-224.237 Y18.521 Z-5.544 
N459 X-224.237 Y18.787 Z-5.544 
N460 X-224.237 Y19.054 Z-5.544 
N461 X-224.237 Y19.321 Z-5.544 
N462 X-224.237 Y19.587 Z-5.544 
N463 X-224.237 Y19.854 Z-5.544 
N464 X-224.237 Y20.121 Z-5.544 
N465 X-224.237 Y20.387 Z-5.544 
N466 X-224.237 Y20.654 Z-5.544 
N467 X-224.237 Y20.921 Z-5.544 
N468 X-224.237 Y21.187 Z-5.545 
N469 X-224.237 Y21.454 Z-5.545 
N470 X-224.237 Y21.721 Z-5.545 
N471 X-224.237 Y21.987 Z-5.545 
N472 X-224.237 Y22.254 Z-5.545 
N473 X-224.237 Y22.521 Z-5.545 
N474 X-224.237 Y22.787 Z-5.545 
N475 X-224.237 Y23.054 Z-5.545 
N476 X-224.237 Y23.321 Z-5.545 
N477 X-224.237 Y23.587 Z-5.545 
N478 X-224.237 Y23.854 Z-5.545 
N479 X-224.237 Y24.121 Z-5.545 
N480 X-224.237 Y24.387 Z-5.546 
N481 X-224.237 Y24.654 Z-5.546 
N482 X-224.237 Y24.921 Z-5.546 
N483 X-224.237 Y25.187 Z-5.546 
N484 X-224.237 Y25.454 Z-5.546 
N485 X-224.237 Y25.721 Z-5.546 
N486 X-224.237 Y25.987 Z-5.546 
N487 X-224.237 Y26.254 Z-5.546 
N488 X-224.237 Y26.521 Z-5.546 
N489 X-224.237 Y26.787 Z-5.546 
N490 X-224.237 Y27.054 Z-5.546 
N491 X-224.237 Y27.321 Z-5.546 
N492 X-224.237 Y27.587 Z-5.547 
N493 X-224.237 Y27.854 Z-5.547 
N494 X-224.237 Y28.121 Z-5.547 
N495 X-224.237 Y28.387 Z-5.547 
N496 X-224.237 Y28.654 Z-5.547 
N497 X-224.237 Y28.921 Z-5.547 
N498 X-224.237 Y29.187 Z-5.547 
N499 X-224.237 Y29.454 Z-5.547 
N500 X-224.237 Y29.721 Z-5.547 
N501 X-224.237 Y29.987 Z-5.547 
N502 X-224.237 Y30.254 Z-5.547 
N503 X-224.237 Y30.521 Z-5.547 
N504 X-224.237 Y30.787 Z-5.547 
N505 X-224.237 Y31.054 Z-5.548 
N506 X-224.237 Y31.321 Z-5.548 
N507 X-224.237 Y31.587 Z-5.548 
N508 X-224.237 Y31.854 Z-5.548 
N509 X-224.237 Y32.121 Z-5.548 
N510 X-224.237 Y32.387 Z-5.548 
N511 X-224.237 Y32.654 Z-5.548 
N512 X-224.237 Y32.921 Z-5.548 
N513 X-224.237 Y33.187 Z-5.548 
N514 X-224.237 Y33.454 Z-5.548 
N515 X-224.237 Y33.721 Z-5.548 
N516 X-224.237 Y33.987 Z-5.548 
N517 X-224.237 Y34.254 Z-5.549 
N518 X-224.550 Y34.425 Z-15.542 
N519 G00 X-226.114 Y35.283 Z-65.510 
N520 ; DELTA A > 40.1
N521 TRAFOOF
N522 D1
N523 STOPRE
N524 G00 G54 Z296.000
N525 G01 A303.0000 F10000
N526 TRAORI
N527 G54 D1
N528 STOPRE
N529 TRANS 
N530 X-224.221 Y78.399 Z6.605 A303.0000 B-0.0000 F15000 
N531 X-224.221 Y36.466 Z-20.627 
N532 X-224.221 Y28.079 Z-26.073 F800 
N533 X-224.221 Y25.429 Z-21.833 
N534 X-224.221 Y25.288 Z-21.607 
N535 X-224.221 Y25.147 Z-21.381 
N536 X-224.221 Y25.005 Z-21.155 
N537 X-224.221 Y24.864 Z-20.928 
N538 X-224.221 Y24.723 Z-20.702 
N539 X-224.221 Y24.582 Z-20.476 
N540 X-224.221 Y24.440 Z-20.250 
N541 X-224.221 Y24.299 Z-20.024 
N542 X-224.221 Y24.158 Z-19.798 
N543 X-224.221 Y24.016 Z-19.572 
N544 X-224.221 Y23.875 Z-19.345 
N545 X-224.221 Y23.734 Z-19.119 
N546 X-224.221 Y23.592 Z-18.893 
N547 X-224.221 Y23.451 Z-18.667 
N548 X-224.221 Y23.310 Z-18.441 
N549 X-224.221 Y23.168 Z-18.215 
N550 X-224.221 Y23.027 Z-17.988 
N551 X-224.221 Y22.886 Z-17.762 
N552 X-224.221 Y22.744 Z-17.536 
N553 X-224.221 Y22.603 Z-17.310 
N554 X-224.221 Y22.462 Z-17.084 
N555 X-224.221 Y22.321 Z-16.858 
N556 X-224.221 Y22.179 Z-16.632 
N557 X-224.221 Y22.038 Z-16.405 
N558 X-224.221 Y21.897 Z-16.179 
N559 X-224.221 Y21.755 Z-15.953 
N560 X-224.221 Y21.614 Z-15.727 
N561 X-224.221 Y21.473 Z-15.501 
N562 X-224.221 Y21.331 Z-15.275 
N563 X-224.221 Y21.190 Z-15.049 
N564 X-224.221 Y21.049 Z-14.822 
N565 X-224.221 Y20.907 Z-14.596 
N566 X-224.221 Y20.766 Z-14.370 
N567 X-224.221 Y20.625 Z-14.144 
N568 X-224.221 Y20.483 Z-13.918 
N569 X-224.221 Y20.342 Z-13.692 
N570 X-224.221 Y20.201 Z-13.466 
N571 X-224.221 Y20.060 Z-13.239 
N572 X-224.221 Y19.918 Z-13.013 
N573 X-224.221 Y19.777 Z-12.787 
N574 X-224.221 Y19.636 Z-12.561 
N575 X-224.221 Y19.494 Z-12.335 
N576 X-224.221 Y19.353 Z-12.109 
N577 X-224.221 Y19.212 Z-11.883 
N578 X-224.221 Y19.070 Z-11.656 
N579 X-224.221 Y18.929 Z-11.430 
N580 X-224.221 Y18.788 Z-11.204 
N581 X-224.221 Y18.646 Z-10.978 
N582 X-224.221 Y18.505 Z-10.752 
N583 X-224.221 Y18.364 Z-10.526 
N584 X-224.221 Y18.222 Z-10.300 
N585 X-224.221 Y18.081 Z-10.073 
N586 X-224.221 Y17.940 Z-9.847 
N587 X-224.221 Y17.799 Z-9.621 
N588 X-224.221 Y17.657 Z-9.395 
N589 X-224.221 Y17.516 Z-9.169 
N590 X-224.221 Y17.375 Z-8.943 
N591 X-224.221 Y17.233 Z-8.716 
N592 X-224.221 Y17.092 Z-8.490 
N593 X-224.221 Y16.951 Z-8.264 
N594 X-224.221 Y16.809 Z-8.038 
N595 X-224.221 Y16.668 Z-7.812 
N596 X-224.221 Y16.527 Z-7.586 
N597 X-224.221 Y16.385 Z-7.360 
N598 X-224.221 Y16.244 Z-7.133 
N599 X-224.221 Y16.103 Z-6.907 
N600 X-224.221 Y15.961 Z-6.681 
N601 X-224.221 Y15.820 Z-6.455 
N602 X-224.221 Y15.679 Z-6.229 
N603 X-224.221 Y15.538 Z-6.003 
N604 X-224.221 Y15.396 Z-5.777 
N605 X-224.221 Y15.255 Z-5.550 
N606 X-224.221 Y15.114 Z-5.324 
N607 X-224.221 Y14.972 Z-5.098 
N608 X-224.221 Y14.831 Z-4.872 
N609 X-224.221 Y6.881 Z7.851 
N610 X-224.221 Y6.739 Z8.077 
N611 X-224.221 Y6.598 Z8.303 
N612 X-224.221 Y6.457 Z8.529 
N613 X-224.221 Y6.316 Z8.756 
N614 X-224.221 Y6.174 Z8.982 
N615 X-224.221 Y6.033 Z9.208 
N616 X-224.221 Y5.892 Z9.434 
N617 X-224.221 Y5.750 Z9.660 
N618 X-224.221 Y5.609 Z9.886 
N619 X-224.221 Y5.468 Z10.112 
N620 X-224.221 Y5.326 Z10.339 
N621 X-224.221 Y5.185 Z10.565 
N622 X-224.221 Y5.044 Z10.791 
N623 X-224.221 Y4.902 Z11.017 
N624 X-224.221 Y4.761 Z11.243 
N625 X-224.221 Y4.620 Z11.469 
N626 X-224.221 Y4.478 Z11.695 
N627 X-224.221 Y4.337 Z11.922 
N628 X-224.221 Y4.196 Z12.148 
N629 X-224.221 Y4.055 Z12.374 
N630 X-224.221 Y3.913 Z12.600 
N631 X-224.221 Y3.772 Z12.826 
N632 X-224.221 Y3.631 Z13.052 
N633 X-224.221 Y3.489 Z13.278 
N634 X-224.221 Y3.348 Z13.505 
N635 X-224.221 Y3.207 Z13.731 
N636 X-224.221 Y3.065 Z13.957 
N637 X-224.221 Y2.924 Z14.183 
N638 X-224.221 Y2.783 Z14.409 
N639 X-224.221 Y2.641 Z14.635 
N640 X-224.221 Y2.500 Z14.862 
N641 X-224.221 Y2.359 Z15.088 
N642 X-224.221 Y2.217 Z15.314 
N643 X-224.221 Y2.076 Z15.540 
N644 X-224.221 Y1.935 Z15.766 
N645 X-224.221 Y1.794 Z15.992 
N646 X-224.221 Y1.652 Z16.218 
N647 X-224.221 Y1.511 Z16.445 
N648 X-224.221 Y1.370 Z16.671 
N649 X-224.221 Y1.228 Z16.897 
N650 X-224.221 Y1.087 Z17.123 
N651 X-224.221 Y0.946 Z17.349 
N652 X-224.221 Y0.804 Z17.575 
N653 X-224.221 Y0.663 Z17.801 
N654 X-224.221 Y0.522 Z18.028 
N655 X-224.221 Y0.380 Z18.254 
N656 X-224.221 Y0.239 Z18.480 
N657 X-224.221 Y0.098 Z18.706 
N658 X-224.221 Y-0.044 Z18.932 
N659 X-224.221 Y-0.185 Z19.158 
N660 X-224.221 Y-0.326 Z19.384 
N661 X-224.221 Y-0.467 Z19.611 
N662 X-224.221 Y-0.609 Z19.837 
N663 X-224.221 Y-0.750 Z20.063 
N664 X-224.221 Y-0.891 Z20.289 
N665 X-224.221 Y-1.033 Z20.515 
N666 X-224.221 Y-1.174 Z20.741 
N667 X-224.221 Y-1.315 Z20.967 
N668 X-224.221 Y-1.457 Z21.194 
N669 X-224.221 Y-1.598 Z21.420 
N670 X-224.221 Y-1.739 Z21.646 
N671 X-224.221 Y-1.881 Z21.872 
N672 X-224.221 Y-2.022 Z22.098 
N673 X-224.221 Y-2.163 Z22.324 
N674 X-224.221 Y-2.304 Z22.550 
N675 X-224.221 Y-2.446 Z22.777 
N676 X-224.221 Y-2.587 Z23.003 
N677 X-224.221 Y-2.728 Z23.229 
N678 X-224.221 Y-2.870 Z23.455 
N679 X-224.221 Y-3.011 Z23.681 
N680 X-224.221 Y-3.152 Z23.907 
N681 X-224.221 Y-3.294 Z24.134 
N682 X-224.221 Y-3.435 Z24.360 
N683 X-224.221 Y-3.576 Z24.586 
N684 X-224.221 Y-3.718 Z24.812 
N685 X-224.221 Y-9.017 Z33.292 
N686 G00 X-224.221 Y32.917 Z60.524 
;RAPORT("TD999999","Spiral Finish Rhombic:106 End")
;trailer : concat=None
; points cnt = 622
N688 M347 ; mgla wyl
N689 MSG (" --- KONIEC PODPROGRAMU --- ")
N690 FGROUP()
N691 TRAFOOF
N692 STOPRE
N693 G0 G53 D0 Z550.0 M9 M5
N694 G0 G53 Y150 A0 B0
N695 M17
