; PROGRAM NAME: D99999938
; ORDER       : D999999
; OPER. NAME  : Side Milling:139
; OPER. DESCR.: Side Milling/czolo nozki po luku zgr
; OPER. TYPE  : sideMill
; GEO. OPTION : 1
; MACHINE     : HSTM_300HD_SIM840D_Py
;             : HSTM300/500 - HAMUEL: 5-axis milling machine-SIM840D Traori PP_Script
; CONTROL     : SINUMERIK 840D
; created:   2022-11-03 09:03:56.850168
;-------DODATKOWE DANE-------------------
; PROGRAMISTA : Mariusz Malec
; PARTID      : 139T006893P1018_-
;  ap         : 4.4
;  ae         : 1.0
;  lean_angle : 0.0
;  fin_offset : -3.5
;----------------------------------------
;RAPORT("TD999999","Side Milling:139")
N10 TRAFOOF
N11 D0
N12 G90 G94
N13 G0 G53 D0 Z550
N14 STOPRE
M9 ; chlodziwo wyl
; --- Side Milling:139 - Side Milling/czolo nozki po luku zgr ---
N16 ;ToolChange : concat=None ,current_tdmid=None, PP.tdmId=957774
N17 TRAFOOF
N18 G0 G53 D0 X-200 Y150 Z550 B0
N19 T="7757774"
;RAPORT("TD999999","ToolChangeStart 7757774")
N20 M6
;RAPORT("TD999999","ToolChangeEnd")
N21 STOPRE
N22 MSG(" TLID=957774 D=10.0 R=0.0 Ang=0.0 Len=129.0 ")
N23 ; (Preloading tool)
N24 T="7757453"
N25 S2864 M03
N26 STOPRE
N27 CYCLE832(0.1,1,1)
N28 G0 G53 A302.0000 B-0.0000
N29 TRAORI
N30 G54 D1
;tol5=0.15
N31 D1 
STOPRE
E_ZDARZ=500001
;ACS_ROUGH_ROOT_FRONT=7757774
STOPRE
;UWAGA : ZMIENIONA TOLERANCJA OSI A i B, ruchy osi A i B beda usuniete : TOL5=0.15
N32 ; DELTA A > 40.1
N33 TRAFOOF
N34 D1
N35 STOPRE
N36 G00 G54 Z257.000
N37 G01 A302.0000 F10000
N38 TRAORI
N39 G54 D1
N40 STOPRE
N41 TRANS 
N42 G00 X-134.606 Y61.469 Z7.306 A302.0000 
N43 M342 ; chlodziwo woda
N44 X-134.606 Y19.067 Z-19.190 
N45 ;FSE_1
N46 G01 G41 X-134.569 Y18.537 Z-18.342 F458
N47 G01 X-134.569 Y18.537 Z-18.342 F458 
N48 X-134.563 Y18.458 Z-18.215 
N49 X-134.558 Y18.378 Z-18.088 
N50 X-134.552 Y18.299 Z-17.961 
N51 X-134.547 Y18.219 Z-17.834 
N52 X-134.541 Y18.140 Z-17.707 
N53 X-134.536 Y18.060 Z-17.580 
N54 X-134.530 Y17.981 Z-17.452 
N55 X-134.525 Y17.902 Z-17.325 
N56 X-134.519 Y17.822 Z-17.198 
N57 X-134.514 Y17.743 Z-17.071 
N58 X-134.508 Y17.663 Z-16.944 
N59 X-134.503 Y17.584 Z-16.817 
N60 X-134.497 Y17.504 Z-16.690 
N61 X-134.492 Y17.425 Z-16.563 
N62 X-134.486 Y17.346 Z-16.435 
N63 X-134.480 Y17.266 Z-16.308 
N64 X-134.475 Y17.187 Z-16.181 
N65 X-134.469 Y17.107 Z-16.054 
N66 X-134.464 Y17.028 Z-15.927 
N67 X-134.458 Y16.948 Z-15.800 
N68 X-134.453 Y16.868 Z-15.671 
N69 X-134.447 Y16.788 Z-15.543 
N70 X-134.442 Y16.708 Z-15.415 
N71 X-134.436 Y16.627 Z-15.286 
N72 X-134.430 Y16.547 Z-15.158 
N73 X-134.425 Y16.467 Z-15.029 
N74 X-134.419 Y16.387 Z-14.901 
N75 X-134.414 Y16.306 Z-14.773 
N76 X-134.408 Y16.226 Z-14.644 
N77 X-134.403 Y16.146 Z-14.516 
N78 X-134.397 Y16.066 Z-14.387 
N79 X-134.391 Y15.986 Z-14.259 
N80 X-134.386 Y15.905 Z-14.131 
N81 X-134.380 Y15.825 Z-14.002 
N82 X-134.375 Y15.745 Z-13.874 
N83 X-134.369 Y15.665 Z-13.745 
N84 X-134.363 Y15.584 Z-13.617 
N85 X-134.358 Y15.504 Z-13.489 
N86 X-134.352 Y15.424 Z-13.360 
N87 X-134.347 Y15.344 Z-13.232 
N88 X-134.341 Y15.263 Z-13.103 
N89 X-134.336 Y15.183 Z-12.975 
N90 X-134.330 Y15.103 Z-12.847 
N91 X-134.324 Y15.023 Z-12.718 
N92 X-134.319 Y14.942 Z-12.590 
N93 X-134.313 Y14.862 Z-12.461 
N94 X-134.308 Y14.782 Z-12.333 
N95 X-134.302 Y14.702 Z-12.205 
N96 X-134.296 Y14.622 Z-12.076 
N97 X-134.291 Y14.541 Z-11.948 
N98 X-134.285 Y14.461 Z-11.819 
N99 X-134.280 Y14.381 Z-11.691 
N100 X-134.274 Y14.301 Z-11.563 
N101 X-134.268 Y14.220 Z-11.433 
N102 X-134.263 Y14.139 Z-11.304 
N103 X-134.257 Y14.058 Z-11.174 
N104 X-134.252 Y13.977 Z-11.045 
N105 X-134.246 Y13.896 Z-10.916 
N106 X-134.240 Y13.815 Z-10.786 
N107 X-134.235 Y13.735 Z-10.657 
N108 X-134.229 Y13.654 Z-10.527 
N109 X-134.223 Y13.573 Z-10.398 
N110 X-134.218 Y13.492 Z-10.269 
N111 X-134.212 Y13.411 Z-10.139 
N112 X-134.207 Y13.330 Z-10.010 
N113 X-134.201 Y13.250 Z-9.881 
N114 X-134.195 Y13.169 Z-9.751 
N115 X-134.190 Y13.088 Z-9.622 
N116 X-134.184 Y13.007 Z-9.492 
N117 X-134.178 Y12.926 Z-9.363 
N118 X-134.173 Y12.845 Z-9.234 
N119 X-134.167 Y12.765 Z-9.104 
N120 X-134.162 Y12.684 Z-8.975 
N121 X-134.156 Y12.603 Z-8.846 
N122 X-134.150 Y12.522 Z-8.716 
N123 X-134.145 Y12.441 Z-8.587 
N124 X-134.139 Y12.360 Z-8.457 
N125 X-134.133 Y12.279 Z-8.328 
N126 X-134.128 Y12.199 Z-8.199 
N127 X-134.122 Y12.118 Z-8.069 
N128 X-134.117 Y12.037 Z-7.940 
N129 X-134.111 Y11.956 Z-7.811 
N130 X-134.106 Y11.875 Z-7.681 
N131 X-134.102 Y11.794 Z-7.552 
N132 X-134.098 Y11.713 Z-7.422 
N133 X-134.094 Y11.633 Z-7.293 
N134 X-134.090 Y11.552 Z-7.163 
N135 X-134.086 Y11.471 Z-7.034 
N136 X-134.082 Y11.390 Z-6.905 
N137 X-134.078 Y11.309 Z-6.775 
N138 X-134.074 Y11.228 Z-6.646 
N139 X-134.070 Y11.147 Z-6.516 
N140 X-134.066 Y11.066 Z-6.387 
N141 X-134.062 Y10.986 Z-6.257 
N142 X-134.058 Y10.905 Z-6.128 
N143 X-134.054 Y10.824 Z-5.999 
N144 X-134.050 Y10.743 Z-5.869 
N145 X-134.046 Y10.662 Z-5.740 
N146 X-134.042 Y10.581 Z-5.610 
N147 X-134.037 Y10.500 Z-5.481 
N148 X-134.033 Y10.419 Z-5.351 
N149 X-134.029 Y10.339 Z-5.222 
N150 X-134.025 Y10.258 Z-5.093 
N151 X-134.021 Y10.177 Z-4.963 
N152 X-134.017 Y10.096 Z-4.834 
N153 X-134.013 Y10.015 Z-4.704 
N154 X-134.009 Y9.934 Z-4.575 
N155 X-134.005 Y9.853 Z-4.446 
N156 X-134.001 Y9.773 Z-4.316 
N157 X-133.997 Y9.692 Z-4.187 
N158 X-133.993 Y9.611 Z-4.057 
N159 X-133.989 Y9.530 Z-3.928 
N160 X-133.985 Y9.449 Z-3.798 
N161 X-133.981 Y9.368 Z-3.669 
N162 X-133.977 Y9.287 Z-3.540 
N163 X-133.973 Y9.206 Z-3.410 
N164 X-133.968 Y9.126 Z-3.281 
N165 X-133.964 Y9.045 Z-3.151 
N166 X-133.960 Y8.964 Z-3.022 
N167 X-133.957 Y8.883 Z-2.892 
N168 X-133.955 Y8.802 Z-2.763 
N169 X-133.953 Y8.721 Z-2.634 
N170 X-133.951 Y8.640 Z-2.504 
N171 X-133.949 Y8.559 Z-2.375 
N172 X-133.948 Y8.478 Z-2.245 
N173 X-133.946 Y8.398 Z-2.116 
N174 X-133.944 Y8.317 Z-1.986 
N175 X-133.942 Y8.236 Z-1.857 
N176 X-133.940 Y8.155 Z-1.727 
N177 X-133.938 Y8.074 Z-1.598 
N178 X-133.936 Y7.993 Z-1.468 
N179 X-133.934 Y7.912 Z-1.339 
N180 X-133.933 Y7.831 Z-1.210 
N181 X-133.931 Y7.750 Z-1.080 
N182 X-133.929 Y7.669 Z-0.951 
N183 X-133.927 Y7.589 Z-0.821 
N184 X-133.925 Y7.508 Z-0.692 
N185 X-133.923 Y7.427 Z-0.562 
N186 X-133.921 Y7.346 Z-0.433 
N187 X-133.920 Y7.265 Z-0.303 
N188 X-133.918 Y7.184 Z-0.174 
N189 X-133.916 Y7.103 Z-0.044 
N190 X-133.914 Y7.022 Z0.085 
N191 X-133.912 Y6.941 Z0.215 
N192 X-133.910 Y6.861 Z0.344 
N193 X-133.908 Y6.780 Z0.473 
N194 X-133.906 Y6.699 Z0.603 
N195 X-133.905 Y6.618 Z0.732 
N196 X-133.903 Y6.537 Z0.862 
N197 X-133.901 Y6.456 Z0.991 
N198 X-133.899 Y6.375 Z1.121 
N199 X-133.897 Y6.294 Z1.250 
N200 X-133.895 Y6.213 Z1.380 
N201 X-133.893 Y6.133 Z1.509 
N202 X-133.892 Y6.052 Z1.639 
N203 X-133.890 Y5.971 Z1.768 
N204 X-133.888 Y5.890 Z1.897 
N205 X-133.886 Y5.809 Z2.027 
N206 X-133.884 Y5.728 Z2.156 
N207 X-133.882 Y5.647 Z2.286 
N208 X-133.880 Y5.566 Z2.415 
N209 X-133.878 Y5.485 Z2.545 
N210 X-133.877 Y5.404 Z2.674 
N211 X-133.875 Y5.324 Z2.804 
N212 X-133.873 Y5.243 Z2.933 
N213 X-133.871 Y5.162 Z3.063 
N214 X-133.869 Y5.081 Z3.192 
N215 X-133.867 Y5.000 Z3.322 
N216 X-133.865 Y4.919 Z3.451 
N217 X-133.864 Y4.838 Z3.580 
N218 X-133.862 Y4.757 Z3.710 
N219 X-133.860 Y4.676 Z3.839 
N220 X-133.858 Y4.596 Z3.969 
N221 X-133.856 Y4.515 Z4.098 
N222 X-133.854 Y4.434 Z4.228 
N223 X-133.853 Y4.353 Z4.357 
N224 X-133.854 Y4.272 Z4.487 
N225 X-133.854 Y4.191 Z4.616 
N226 X-133.854 Y4.110 Z4.746 
N227 X-133.854 Y4.029 Z4.875 
N228 X-133.855 Y3.948 Z5.005 
N229 X-133.855 Y3.867 Z5.134 
N230 X-133.855 Y3.787 Z5.263 
N231 X-133.855 Y3.706 Z5.393 
N232 X-133.856 Y3.625 Z5.522 
N233 X-133.856 Y3.544 Z5.652 
N234 X-133.856 Y3.463 Z5.781 
N235 X-133.857 Y3.382 Z5.911 
N236 X-133.857 Y3.301 Z6.040 
N237 X-133.857 Y3.220 Z6.170 
N238 X-133.857 Y3.139 Z6.299 
N239 X-133.858 Y3.058 Z6.429 
N240 X-133.858 Y2.978 Z6.558 
N241 X-133.858 Y2.897 Z6.688 
N242 X-133.858 Y2.816 Z6.817 
N243 X-133.859 Y2.735 Z6.947 
N244 X-133.859 Y2.654 Z7.076 
N245 X-133.859 Y2.573 Z7.205 
N246 X-133.859 Y2.492 Z7.335 
N247 X-133.860 Y2.411 Z7.464 
N248 X-133.860 Y2.330 Z7.594 
N249 X-133.860 Y2.249 Z7.723 
N250 X-133.860 Y2.169 Z7.853 
N251 X-133.861 Y2.088 Z7.982 
N252 X-133.861 Y2.007 Z8.112 
N253 X-133.861 Y1.926 Z8.241 
N254 X-133.861 Y1.845 Z8.371 
N255 X-133.862 Y1.764 Z8.500 
N256 X-133.862 Y1.683 Z8.630 
N257 X-133.862 Y1.602 Z8.759 
N258 X-133.864 Y1.521 Z8.889 
N259 X-133.866 Y1.440 Z9.018 
N260 X-133.867 Y1.360 Z9.147 
N261 X-133.869 Y1.279 Z9.277 
N262 X-133.871 Y1.198 Z9.406 
N263 X-133.873 Y1.117 Z9.536 
N264 X-133.874 Y1.036 Z9.665 
N265 X-133.876 Y0.955 Z9.795 
N266 X-133.878 Y0.874 Z9.924 
N267 X-133.880 Y0.793 Z10.054 
N268 X-133.881 Y0.712 Z10.183 
N269 X-133.883 Y0.631 Z10.313 
N270 X-133.885 Y0.551 Z10.442 
N271 X-133.887 Y0.470 Z10.572 
N272 X-133.888 Y0.389 Z10.701 
N273 X-133.890 Y0.308 Z10.830 
N274 X-133.892 Y0.227 Z10.960 
N275 X-133.894 Y0.146 Z11.089 
N276 X-133.895 Y0.065 Z11.219 
N277 X-133.897 Y-0.016 Z11.348 
N278 X-133.899 Y-0.097 Z11.478 
N279 X-133.901 Y-0.177 Z11.607 
N280 X-133.902 Y-0.258 Z11.737 
N281 X-133.904 Y-0.339 Z11.866 
N282 X-133.906 Y-0.420 Z11.996 
N283 X-133.908 Y-0.501 Z12.125 
N284 X-133.909 Y-0.582 Z12.255 
N285 X-133.911 Y-0.663 Z12.384 
N286 X-133.913 Y-0.744 Z12.513 
N287 X-133.915 Y-0.824 Z12.642 
N288 X-133.916 Y-0.904 Z12.770 
N289 X-133.918 Y-0.985 Z12.899 
N290 X-133.920 Y-1.065 Z13.027 
N291 X-133.922 Y-1.145 Z13.156 
N292 X-133.923 Y-1.225 Z13.284 
N293 X-133.925 Y-1.306 Z13.413 
N294 X-133.927 Y-1.386 Z13.541 
N295 X-133.929 Y-1.466 Z13.670 
N296 X-133.930 Y-1.547 Z13.798 
N297 X-133.932 Y-1.627 Z13.927 
N298 X-133.934 Y-1.707 Z14.055 
N299 X-133.935 Y-1.787 Z14.184 
N300 X-133.937 Y-1.868 Z14.312 
N301 X-133.939 Y-1.948 Z14.441 
N302 X-133.941 Y-2.028 Z14.569 
N303 X-133.942 Y-2.109 Z14.698 
N304 X-133.944 Y-2.189 Z14.826 
N305 X-133.946 Y-2.269 Z14.955 
N306 X-133.948 Y-2.349 Z15.083 
N307 X-133.949 Y-2.430 Z15.212 
N308 X-133.951 Y-2.510 Z15.340 
N309 X-133.953 Y-2.590 Z15.469 
N310 X-133.955 Y-2.671 Z15.597 
N311 X-133.956 Y-2.751 Z15.726 
N312 X-133.958 Y-2.831 Z15.854 
N313 X-133.960 Y-2.911 Z15.982 
N314 X-133.962 Y-2.992 Z16.111 
N315 X-133.963 Y-3.072 Z16.239 
N316 X-133.965 Y-3.152 Z16.368 
N317 X-133.967 Y-3.233 Z16.496 
N318 X-133.969 Y-3.313 Z16.625 
N319 X-133.970 Y-3.393 Z16.753 
N320 G40 X-133.982 Y-3.923 Z17.601 F458
N321 X-133.982 Y-3.923 Z17.601 
N322 G00 X-133.982 Y38.479 Z44.097 
;RAPORT("TD999999","Side Milling:139 End")
;trailer : concat=None
; points cnt = 274
N324 MSG (" --- GROUPED OF SUBPROGRAM --- ")
N325 FGROUP()
N326 TRAFOOF
; PROGRAM NAME: D99999938
; ORDER       : D999999
; OPER. NAME  : Side Milling:140
; OPER. DESCR.: rough face root outlet FSA
; OPER. TYPE  : sideMill
; GEO. OPTION : 1
; MACHINE     : HSTM_300HD_SIM840D_Py
;             : HSTM300/500 - HAMUEL: 5-axis milling machine-SIM840D Traori PP_Script
; CONTROL     : SINUMERIK 840D
; created:   2022-11-03 09:04:00.223351
;-------DODATKOWE DANE-------------------
; PROGRAMISTA : Mariusz Malec
; PARTID      : 139T006893P1018_-
;  ap         : 4.4
;  ae         : 1.0
;  lean_angle : 0.0
;  fin_offset : -3.5
;----------------------------------------
;RAPORT("TD999999","Side Milling:140")
N10 TRAFOOF
N11 D0
N12 G90 G94
N13 G0 G53 D0 Z550
N14 STOPRE
M9 ; chlodziwo wyl
; --- Side Milling:140 - rough face root outlet FSA ---
N16 ;ToolChange : concat=None ,current_tdmid=None, PP.tdmId=957774
N17 TRAFOOF
N18 G0 G53 D0 Z550 B0
N19 STOPRE
N20 MSG(" TLID=957774 D=10.0 R=0.0 Ang=0.0 Len=129.0 ")
N21 S2864 M03
N22 STOPRE
N23 CYCLE832(0.1,1,1)
N24 G0 G53 A122.0000 B0.0000
N25 TRAORI
N26 G54 D2
;tol5=0.15
N27 D2 
STOPRE
E_ZDARZ=500001
;ACS_ROUGH_ROOT_FRONT=7757774
STOPRE
;UWAGA : ZMIENIONA TOLERANCJA OSI A i B, ruchy osi A i B beda usuniete : TOL5=0.15
N28 ; DELTA A > 40.1
N29 TRAFOOF
N30 D2
N31 STOPRE
N32 G00 G54 Z257.000
N33 G01 A122.0000 F10000
N34 TRAORI
N35 G54 D2
N36 STOPRE
N37 TRANS 
N38 G00 X-134.264 Y-61.436 Z-7.357 A122.0000 
N39 M342 ; chlodziwo woda
N40 X-134.264 Y-19.034 Z19.139 
N41 ;FSA_1
N42 G01 G41 X-134.241 Y-18.504 Z18.291 F458
N43 G01 X-134.241 Y-18.504 Z18.291 F458 
N44 X-134.237 Y-18.425 Z18.164 
N45 X-134.234 Y-18.345 Z18.037 
N46 X-134.230 Y-18.266 Z17.910 
N47 X-134.227 Y-18.186 Z17.783 
N48 X-134.223 Y-18.107 Z17.655 
N49 X-134.220 Y-18.027 Z17.528 
N50 X-134.216 Y-17.948 Z17.401 
N51 X-134.213 Y-17.869 Z17.274 
N52 X-134.209 Y-17.789 Z17.147 
N53 X-134.206 Y-17.710 Z17.020 
N54 X-134.202 Y-17.630 Z16.892 
N55 X-134.199 Y-17.551 Z16.765 
N56 X-134.195 Y-17.471 Z16.638 
N57 X-134.192 Y-17.392 Z16.511 
N58 X-134.188 Y-17.312 Z16.384 
N59 X-134.185 Y-17.233 Z16.256 
N60 X-134.181 Y-17.153 Z16.129 
N61 X-134.178 Y-17.074 Z16.002 
N62 X-134.174 Y-16.994 Z15.875 
N63 X-134.171 Y-16.915 Z15.748 
N64 X-134.167 Y-16.835 Z15.619 
N65 X-134.164 Y-16.754 Z15.491 
N66 X-134.160 Y-16.674 Z15.362 
N67 X-134.156 Y-16.594 Z15.234 
N68 X-134.153 Y-16.514 Z15.105 
N69 X-134.149 Y-16.433 Z14.977 
N70 X-134.146 Y-16.353 Z14.849 
N71 X-134.142 Y-16.273 Z14.720 
N72 X-134.139 Y-16.193 Z14.592 
N73 X-134.135 Y-16.112 Z14.463 
N74 X-134.132 Y-16.032 Z14.335 
N75 X-134.128 Y-15.952 Z14.206 
N76 X-134.125 Y-15.871 Z14.078 
N77 X-134.121 Y-15.791 Z13.949 
N78 X-134.117 Y-15.711 Z13.821 
N79 X-134.114 Y-15.631 Z13.692 
N80 X-134.110 Y-15.550 Z13.564 
N81 X-134.107 Y-15.470 Z13.436 
N82 X-134.103 Y-15.390 Z13.307 
N83 X-134.100 Y-15.310 Z13.179 
N84 X-134.096 Y-15.229 Z13.050 
N85 X-134.093 Y-15.149 Z12.922 
N86 X-134.089 Y-15.069 Z12.793 
N87 X-134.086 Y-14.988 Z12.665 
N88 X-134.082 Y-14.908 Z12.536 
N89 X-134.078 Y-14.828 Z12.408 
N90 X-134.075 Y-14.748 Z12.279 
N91 X-134.071 Y-14.667 Z12.151 
N92 X-134.068 Y-14.587 Z12.023 
N93 X-134.064 Y-14.507 Z11.894 
N94 X-134.061 Y-14.427 Z11.766 
N95 X-134.057 Y-14.346 Z11.637 
N96 X-134.054 Y-14.266 Z11.509 
N97 X-134.050 Y-14.185 Z11.379 
N98 X-134.046 Y-14.104 Z11.250 
N99 X-134.043 Y-14.023 Z11.120 
N100 X-134.039 Y-13.943 Z10.991 
N101 X-134.036 Y-13.862 Z10.862 
N102 X-134.032 Y-13.781 Z10.732 
N103 X-134.029 Y-13.700 Z10.603 
N104 X-134.025 Y-13.619 Z10.473 
N105 X-134.021 Y-13.538 Z10.344 
N106 X-134.018 Y-13.457 Z10.214 
N107 X-134.014 Y-13.376 Z10.085 
N108 X-134.011 Y-13.296 Z9.955 
N109 X-134.007 Y-13.215 Z9.826 
N110 X-134.004 Y-13.134 Z9.697 
N111 X-134.000 Y-13.053 Z9.567 
N112 X-133.996 Y-12.972 Z9.438 
N113 X-133.993 Y-12.891 Z9.308 
N114 X-133.989 Y-12.810 Z9.179 
N115 X-133.986 Y-12.729 Z9.049 
N116 X-133.982 Y-12.648 Z8.920 
N117 X-133.979 Y-12.568 Z8.791 
N118 X-133.975 Y-12.487 Z8.661 
N119 X-133.971 Y-12.406 Z8.532 
N120 X-133.968 Y-12.325 Z8.402 
N121 X-133.964 Y-12.244 Z8.273 
N122 X-133.961 Y-12.163 Z8.143 
N123 X-133.957 Y-12.082 Z8.014 
N124 X-133.954 Y-12.001 Z7.885 
N125 X-133.950 Y-11.921 Z7.755 
N126 X-133.946 Y-11.840 Z7.626 
N127 X-133.943 Y-11.759 Z7.496 
N128 X-133.939 Y-11.678 Z7.367 
N129 X-133.936 Y-11.597 Z7.237 
N130 X-133.932 Y-11.516 Z7.108 
N131 X-133.930 Y-11.435 Z6.978 
N132 X-133.928 Y-11.354 Z6.849 
N133 X-133.925 Y-11.273 Z6.720 
N134 X-133.923 Y-11.193 Z6.590 
N135 X-133.921 Y-11.112 Z6.461 
N136 X-133.919 Y-11.031 Z6.331 
N137 X-133.917 Y-10.950 Z6.202 
N138 X-133.914 Y-10.869 Z6.072 
N139 X-133.912 Y-10.788 Z5.943 
N140 X-133.910 Y-10.707 Z5.813 
N141 X-133.908 Y-10.626 Z5.684 
N142 X-133.905 Y-10.545 Z5.554 
N143 X-133.903 Y-10.465 Z5.425 
N144 X-133.901 Y-10.384 Z5.296 
N145 X-133.899 Y-10.303 Z5.166 
N146 X-133.897 Y-10.222 Z5.037 
N147 X-133.894 Y-10.141 Z4.907 
N148 X-133.892 Y-10.060 Z4.778 
N149 X-133.890 Y-9.979 Z4.648 
N150 X-133.888 Y-9.898 Z4.519 
N151 X-133.886 Y-9.817 Z4.389 
N152 X-133.883 Y-9.737 Z4.260 
N153 X-133.881 Y-9.656 Z4.130 
N154 X-133.879 Y-9.575 Z4.001 
N155 X-133.878 Y-9.494 Z3.871 
N156 X-133.877 Y-9.413 Z3.742 
N157 X-133.876 Y-9.332 Z3.613 
N158 X-133.875 Y-9.251 Z3.483 
N159 X-133.875 Y-9.170 Z3.354 
N160 X-133.874 Y-9.089 Z3.224 
N161 X-133.873 Y-9.008 Z3.095 
N162 X-133.872 Y-8.928 Z2.965 
N163 X-133.871 Y-8.847 Z2.836 
N164 X-133.871 Y-8.766 Z2.706 
N165 X-133.870 Y-8.685 Z2.577 
N166 X-133.869 Y-8.604 Z2.447 
N167 X-133.868 Y-8.523 Z2.318 
N168 X-133.867 Y-8.442 Z2.188 
N169 X-133.866 Y-8.361 Z2.059 
N170 X-133.866 Y-8.280 Z1.929 
N171 X-133.865 Y-8.199 Z1.800 
N172 X-133.864 Y-8.119 Z1.671 
N173 X-133.863 Y-8.038 Z1.541 
N174 X-133.862 Y-7.957 Z1.412 
N175 X-133.861 Y-7.876 Z1.282 
N176 X-133.861 Y-7.795 Z1.153 
N177 X-133.860 Y-7.714 Z1.023 
N178 X-133.859 Y-7.633 Z0.894 
N179 X-133.858 Y-7.552 Z0.764 
N180 X-133.857 Y-7.471 Z0.635 
N181 X-133.857 Y-7.390 Z0.505 
N182 X-133.856 Y-7.309 Z0.376 
N183 X-133.855 Y-7.229 Z0.246 
N184 X-133.854 Y-7.148 Z0.117 
N185 X-133.853 Y-7.067 Z-0.013 
N186 X-133.852 Y-6.986 Z-0.142 
N187 X-133.852 Y-6.905 Z-0.271 
N188 X-133.851 Y-6.824 Z-0.401 
N189 X-133.850 Y-6.743 Z-0.530 
N190 X-133.851 Y-6.662 Z-0.660 
N191 X-133.852 Y-6.581 Z-0.789 
N192 X-133.853 Y-6.500 Z-0.919 
N193 X-133.853 Y-6.420 Z-1.048 
N194 X-133.854 Y-6.339 Z-1.178 
N195 X-133.855 Y-6.258 Z-1.307 
N196 X-133.856 Y-6.177 Z-1.437 
N197 X-133.857 Y-6.096 Z-1.566 
N198 X-133.857 Y-6.015 Z-1.696 
N199 X-133.858 Y-5.934 Z-1.825 
N200 X-133.859 Y-5.853 Z-1.955 
N201 X-133.860 Y-5.772 Z-2.084 
N202 X-133.861 Y-5.691 Z-2.214 
N203 X-133.861 Y-5.611 Z-2.343 
N204 X-133.862 Y-5.530 Z-2.472 
N205 X-133.863 Y-5.449 Z-2.602 
N206 X-133.864 Y-5.368 Z-2.731 
N207 X-133.865 Y-5.287 Z-2.861 
N208 X-133.865 Y-5.206 Z-2.990 
N209 X-133.866 Y-5.125 Z-3.120 
N210 X-133.867 Y-5.044 Z-3.249 
N211 X-133.868 Y-4.963 Z-3.379 
N212 X-133.869 Y-4.882 Z-3.508 
N213 X-133.870 Y-4.802 Z-3.638 
N214 X-133.870 Y-4.721 Z-3.767 
N215 X-133.871 Y-4.640 Z-3.897 
N216 X-133.872 Y-4.559 Z-4.026 
N217 X-133.873 Y-4.478 Z-4.156 
N218 X-133.874 Y-4.397 Z-4.285 
N219 X-133.874 Y-4.316 Z-4.414 
N220 X-133.875 Y-4.235 Z-4.544 
N221 X-133.876 Y-4.154 Z-4.673 
N222 X-133.877 Y-4.073 Z-4.803 
N223 X-133.878 Y-3.993 Z-4.932 
N224 X-133.879 Y-3.912 Z-5.062 
N225 X-133.881 Y-3.831 Z-5.191 
N226 X-133.883 Y-3.750 Z-5.321 
N227 X-133.885 Y-3.669 Z-5.450 
N228 X-133.888 Y-3.588 Z-5.580 
N229 X-133.890 Y-3.507 Z-5.709 
N230 X-133.892 Y-3.426 Z-5.839 
N231 X-133.894 Y-3.345 Z-5.968 
N232 X-133.896 Y-3.265 Z-6.097 
N233 X-133.899 Y-3.184 Z-6.227 
N234 X-133.901 Y-3.103 Z-6.356 
N235 X-133.903 Y-3.022 Z-6.486 
N236 X-133.905 Y-2.941 Z-6.615 
N237 X-133.907 Y-2.860 Z-6.745 
N238 X-133.910 Y-2.779 Z-6.874 
N239 X-133.912 Y-2.698 Z-7.004 
N240 X-133.914 Y-2.617 Z-7.133 
N241 X-133.916 Y-2.536 Z-7.263 
N242 X-133.918 Y-2.456 Z-7.392 
N243 X-133.921 Y-2.375 Z-7.521 
N244 X-133.923 Y-2.294 Z-7.651 
N245 X-133.925 Y-2.213 Z-7.780 
N246 X-133.927 Y-2.132 Z-7.910 
N247 X-133.929 Y-2.051 Z-8.039 
N248 X-133.932 Y-1.970 Z-8.169 
N249 X-133.935 Y-1.889 Z-8.298 
N250 X-133.939 Y-1.808 Z-8.428 
N251 X-133.943 Y-1.728 Z-8.557 
N252 X-133.946 Y-1.647 Z-8.687 
N253 X-133.950 Y-1.566 Z-8.816 
N254 X-133.953 Y-1.485 Z-8.945 
N255 X-133.957 Y-1.404 Z-9.075 
N256 X-133.960 Y-1.323 Z-9.204 
N257 X-133.964 Y-1.242 Z-9.334 
N258 X-133.968 Y-1.161 Z-9.463 
N259 X-133.971 Y-1.081 Z-9.593 
N260 X-133.975 Y-1.000 Z-9.722 
N261 X-133.978 Y-0.919 Z-9.851 
N262 X-133.982 Y-0.838 Z-9.981 
N263 X-133.985 Y-0.757 Z-10.110 
N264 X-133.989 Y-0.676 Z-10.240 
N265 X-133.992 Y-0.595 Z-10.369 
N266 X-133.996 Y-0.514 Z-10.499 
N267 X-134.000 Y-0.433 Z-10.628 
N268 X-134.003 Y-0.353 Z-10.757 
N269 X-134.007 Y-0.272 Z-10.887 
N270 X-134.010 Y-0.191 Z-11.016 
N271 X-134.014 Y-0.110 Z-11.146 
N272 X-134.017 Y-0.029 Z-11.275 
N273 X-134.021 Y0.052 Z-11.405 
N274 X-134.025 Y0.133 Z-11.534 
N275 X-134.028 Y0.214 Z-11.664 
N276 X-134.032 Y0.294 Z-11.793 
N277 X-134.035 Y0.375 Z-11.922 
N278 X-134.039 Y0.456 Z-12.052 
N279 X-134.042 Y0.537 Z-12.181 
N280 X-134.046 Y0.618 Z-12.311 
N281 X-134.050 Y0.699 Z-12.440 
N282 X-134.053 Y0.780 Z-12.570 
N283 X-134.057 Y0.860 Z-12.698 
N284 X-134.060 Y0.940 Z-12.826 
N285 X-134.064 Y1.021 Z-12.955 
N286 X-134.067 Y1.101 Z-13.083 
N287 X-134.071 Y1.181 Z-13.212 
N288 X-134.074 Y1.261 Z-13.340 
N289 X-134.078 Y1.342 Z-13.469 
N290 X-134.081 Y1.422 Z-13.597 
N291 X-134.085 Y1.502 Z-13.726 
N292 X-134.089 Y1.582 Z-13.854 
N293 X-134.092 Y1.663 Z-13.983 
N294 X-134.096 Y1.743 Z-14.111 
N295 X-134.099 Y1.823 Z-14.240 
N296 X-134.103 Y1.903 Z-14.368 
N297 X-134.106 Y1.984 Z-14.496 
N298 X-134.110 Y2.064 Z-14.625 
N299 X-134.113 Y2.144 Z-14.753 
N300 X-134.117 Y2.225 Z-14.882 
N301 X-134.120 Y2.305 Z-15.010 
N302 X-134.124 Y2.385 Z-15.139 
N303 X-134.127 Y2.465 Z-15.267 
N304 X-134.131 Y2.546 Z-15.396 
N305 X-134.135 Y2.626 Z-15.524 
N306 X-134.138 Y2.706 Z-15.653 
N307 X-134.142 Y2.786 Z-15.781 
N308 X-134.145 Y2.867 Z-15.909 
N309 X-134.149 Y2.947 Z-16.038 
N310 X-134.152 Y3.027 Z-16.166 
N311 X-134.156 Y3.107 Z-16.295 
N312 X-134.159 Y3.188 Z-16.423 
N313 X-134.163 Y3.268 Z-16.552 
N314 X-134.166 Y3.348 Z-16.680 
N315 X-134.170 Y3.429 Z-16.809 
N316 G40 X-134.193 Y3.958 Z-17.656 F458
N317 X-134.193 Y3.958 Z-17.656 
N318 G00 X-134.193 Y-38.444 Z-44.152 
;RAPORT("TD999999","Side Milling:140 End")
;trailer : concat=None
; points cnt = 274
N320 M9 ; chlodziwo wyl.
N321 MSG (" --- KONIEC PODPROGRAMU --- ")
N322 FGROUP()
N323 TRAFOOF
N324 STOPRE
N325 G0 G53 D0 Z550.0 M9 M5
N326 G0 G53 Y150 A0 B0
N327 M17
