; PROGRAM NAME: D99999911
; ORDER       : D999999
; OPER. NAME  : Spiral Rough Rhombic:102
; OPER. DESCR.: spiral roughing rhombic/nozka zgr
; OPER. TYPE  : rouRoot
; GEO. OPTION : 4
; MACHINE     : HSTM_300HD_SIM840D_Py
;             : HSTM300/500 - HAMUEL: 5-axis milling machine-SIM840D Traori PP_Script
; CONTROL     : SINUMERIK 840D
; created:   2022-11-03 09:01:27.961500
;-------DODATKOWE DANE-------------------
; PROGRAMISTA : Mariusz Malec
; PARTID      : 139T006893P1018_-
;  ap         : 2.5
;  ae         : 24.0
;  lean_angle : 1.0
;  fin_offset : 0.6
;----------------------------------------
;RAPORT("TD999999","Spiral Rough Rhombic:102")
N10 TRAFOOF
N11 D0
N12 G90 G94
N13 G0 G53 D0 Z550
N14 STOPRE
M9 ; chlodziwo wyl
; --- Spiral Rough Rhombic:102 - spiral roughing rhombic/nozka zgr ---
N16 ;ToolChange : concat=None ,current_tdmid=None, PP.tdmId=941293
N17 TRAFOOF
N18 G0 G53 D0 X-200 Y150 Z550 B0
N19 T="7741293"
;RAPORT("TD999999","ToolChangeStart 7741293")
N20 M6
;RAPORT("TD999999","ToolChangeEnd")
N21 STOPRE
N22 MSG(" TLID=941293 D=40.0 R=6.0 Ang=0.0 Len=90.0 ")
N23 ; (Preloading tool)
N24 T="7741294"
N25 S2148 M03
N26 STOPRE
N27 CYCLE832(0.1,1,1)
N28 G0 G53 A271.0728 B-0.1274
N29 TRAORI
N30 G54 D1
N31 D2 
N32 ; DELTA A > 40.1
N33 TRAFOOF
N34 D2
N35 STOPRE
N36 G00 G54 Z296.000
N37 G01 A271.0728 F10000
N38 TRAORI
N39 G54 D2
N40 STOPRE
N41 TRANS 
N42 G00 X-147.135 Y81.300 Z-36.653 A271.0728 B-0.1274 
N43 M346 ; chlodziwo mgla
N44 X-147.024 Y31.308 Z-37.590 
N45 G01 X-147.017 Y28.218 Z-37.104 F2835 
N46 X-147.011 Y25.428 Z-35.687 
N47 X-147.006 Y23.213 Z-33.478 
N48 X-147.003 Y21.789 Z-30.692 
N49 X-147.002 Y21.296 Z-27.602 
N50 X-147.002 Y21.292 Z-24.937 B-0.1148 
N51 X-147.002 Y21.289 Z-22.318 B-0.1024 
N52 X-147.001 Y21.286 Z-19.787 B-0.0905 
N53 X-147.001 Y21.283 Z-17.382 B-0.0791 
N54 X-147.001 Y21.280 Z-15.133 B-0.0677 
N55 X-147.001 Y21.277 Z-13.062 B-0.0519 
N56 X-147.001 Y21.275 Z-11.182 B-0.0325 
N57 X-147.001 Y21.273 Z-9.498 A271.0730 B-0.0176 
N58 X-147.001 Y21.308 Z-8.004 A271.2299 B-0.0079 
N59 X-147.001 Y21.621 Z-6.678 A272.5697 B-0.0026 
N60 X-147.001 Y22.452 Z-5.453 A276.2137 B-0.0016 
N61 X-147.001 Y23.834 Z-4.189 A282.4964 B-0.0033 
N62 X-147.001 Y25.677 Z-2.668 A291.3810 B-0.0045 
N63 X-147.001 Y27.862 Z-0.596 A303.0684 B0.0000 
N64 X-147.001 Y29.880 Z2.124 A316.4052 B0.0113 
N65 X-147.001 Y31.215 Z5.220 A329.6939 B0.0078 
N66 X-147.001 Y31.598 Z7.986 A340.5139 B0.0006 
N67 X-147.001 Y31.295 Z10.169 A348.6964 B0.0000 
N68 X-147.001 Y30.567 Z11.787 A354.7254 
N69 X-147.001 Y29.568 Z12.869 A358.8246 
N70 X-147.001 Y28.388 Z13.358 A0.7236 
N71 X-147.001 Y27.065 Z13.483 A1.2367 
N72 X-147.001 Y25.600 Z13.489 A1.2911 
N73 X-147.001 Y23.991 Z13.481 A1.2911 
N74 X-147.001 Y22.245 Z13.472 
N75 X-147.001 Y20.378 Z13.462 
N76 X-147.001 Y18.412 Z13.452 
N77 X-147.001 Y16.373 Z13.442 
N78 X-147.001 Y14.295 Z13.431 
N79 X-147.001 Y12.211 Z13.421 
N80 X-147.001 Y10.157 Z13.410 
N81 X-147.001 Y8.166 Z13.400 
N82 X-147.001 Y6.267 Z13.391 
N83 X-147.001 Y4.486 Z13.382 
N84 X-147.001 Y2.840 Z13.373 
N85 X-147.001 Y1.340 Z13.366 A1.2924 
N86 X-147.001 Y-0.010 Z13.381 A1.3859 
N87 X-147.001 Y-1.216 Z13.535 A2.0648 
N88 X-147.001 Y-2.313 Z14.086 A4.4608 
N89 X-147.001 Y-3.382 Z15.125 A9.0840 
N90 X-147.001 Y-4.542 Z16.530 A15.5987 
N91 X-147.001 Y-5.976 Z18.290 A24.2447 
N92 X-147.001 Y-7.920 Z20.307 A35.2334 
N93 X-147.001 Y-10.423 Z22.164 A47.5897 
N94 X-147.001 Y-13.311 Z23.485 A60.2170 
N95 X-147.001 Y-15.845 Z23.945 A70.3281 
N96 X-147.001 Y-17.856 Z23.818 A78.0132 
N97 X-147.001 Y-19.362 Z23.336 A83.7049 
N98 X-147.001 Y-20.414 Z22.638 A87.7096 
N99 X-147.001 Y-21.007 Z21.807 A89.9999 
N100 X-147.001 Y-21.222 Z20.888 A90.8393 
N101 X-147.001 Y-21.269 Z19.895 A91.0304 
N102 X-147.001 Y-21.274 Z18.831 A91.0548 
N103 X-147.001 Y-21.273 Z17.704 A91.0550 
N104 X-147.001 Y-21.272 Z16.525 
N105 X-147.001 Y-21.271 Z15.310 
N106 X-147.001 Y-21.270 Z14.077 
N107 X-147.001 Y-21.269 Z12.844 
N108 X-147.001 Y-21.268 Z11.629 
N109 X-147.001 Y-21.266 Z10.451 B0.0001 
N110 X-147.001 Y-21.266 Z9.324 A91.0560 B0.0004 
N111 X-147.001 Y-21.285 Z8.258 A91.1417 B0.0011 
N112 X-147.001 Y-21.425 Z7.260 A91.7372 B0.0028 
N113 X-147.001 Y-21.812 Z6.321 A93.4059 B0.0062 
N114 X-147.001 Y-22.516 Z5.408 A96.5033 B0.0125 
N115 X-147.001 Y-23.538 Z4.457 A101.1369 B0.0206 
N116 X-147.001 Y-24.844 Z3.376 A107.3004 B0.0253 
N117 X-147.001 Y-26.425 Z2.026 A115.2229 B0.0185 
N118 X-147.001 Y-28.182 Z0.244 A124.9869 B-0.0063 
N119 X-147.001 Y-29.811 Z-2.007 A135.9230 B-0.0511 
N120 X-147.002 Y-31.022 Z-4.617 A147.2579 B-0.0964 
N121 X-147.002 Y-31.560 Z-7.182 A157.4780 B-0.1124 
N122 X-147.002 Y-31.469 Z-9.369 A165.7546 B-0.1101 
N123 X-147.002 Y-30.928 Z-11.109 A172.2279 B-0.1011 
N124 X-147.002 Y-30.076 Z-12.403 A177.0873 B-0.0943 
N125 X-147.002 Y-29.001 Z-13.169 A180.0239 B-0.0937 
N126 X-147.002 Y-27.766 Z-13.444 A181.1153 B-0.0965 
N127 X-147.002 Y-26.386 Z-13.491 A181.3341 B-0.1000 
N128 X-147.002 Y-24.859 Z-13.484 A181.3424 B-0.1037 
N129 X-147.002 Y-23.188 Z-13.474 B-0.1078 
N130 X-147.002 Y-21.385 Z-13.463 B-0.1122 
N131 X-147.002 Y-19.470 Z-13.452 B-0.1168 
N132 X-147.002 Y-17.466 Z-13.440 B-0.1217 
N133 X-147.002 Y-15.405 Z-13.428 B-0.1267 
N134 X-147.002 Y-13.320 Z-13.415 B-0.1318 
N135 X-147.002 Y-11.246 Z-13.403 B-0.1369 
N136 X-147.002 Y-9.217 Z-13.391 B-0.1418 
N137 X-147.002 Y-7.266 Z-13.379 B-0.1466 
N138 X-147.002 Y-5.420 Z-13.368 B-0.1511 
N139 X-147.002 Y-3.700 Z-13.358 B-0.1553 
N140 X-147.002 Y-2.123 Z-13.348 B-0.1591 
N141 X-147.002 Y-0.695 Z-13.343 A181.3557 B-0.1626 
N142 X-147.002 Y0.584 Z-13.387 A181.5715 B-0.1671 
N143 X-147.002 Y1.728 Z-13.661 A182.7684 B-0.1781 
N144 X-147.002 Y2.788 Z-14.421 A186.0921 B-0.2054 
N145 X-147.002 Y3.866 Z-15.621 A191.5050 B-0.2573 
N146 X-147.003 Y5.101 Z-17.178 A198.8592 B-0.3387 
N147 X-147.003 Y6.702 Z-19.069 A208.4517 B-0.4507 
N148 X-147.004 Y8.861 Z-21.074 A220.0875 B-0.5807 
N149 X-147.004 Y11.574 Z-22.787 A232.8455 B-0.5887 
N150 X-147.003 Y14.336 Z-23.745 A244.4401 B-0.4126 
N151 X-147.002 Y16.633 Z-23.949 A253.4193 B-0.2796 
N152 X-147.002 Y18.427 Z-23.682 A260.2331 B-0.1962 
N153 X-147.002 Y19.767 Z-23.128 A265.3080 B-0.1454 
N154 X-147.002 Y20.684 Z-22.394 A268.8305 B-0.1157 
N155 X-147.002 Y21.171 Z-21.545 A270.7447 B-0.0998 
N156 X-147.001 Y21.341 Z-20.617 A271.4467 B-0.0914 
N157 X-147.001 Y21.373 Z-19.617 A271.6174 B-0.0859 
N158 X-147.001 Y21.367 Z-18.549 A271.6391 B-0.0809 
N159 X-147.001 Y21.359 Z-17.421 A271.6601 B-0.0758 
N160 X-147.001 Y21.356 Z-16.245 A271.7047 B-0.0709 
N161 X-147.001 Y21.355 Z-15.039 A271.7602 B-0.0660 
N162 X-147.001 Y21.352 Z-13.819 A271.8169 B-0.0614 
N163 X-147.001 Y21.348 Z-12.603 A271.8730 B-0.0567 
N164 X-147.001 Y21.341 Z-11.410 A271.9227 B-0.0505 
N165 X-147.001 Y21.329 Z-10.257 A271.9508 B-0.0426 
N166 X-147.001 Y21.314 Z-9.156 A271.9627 B-0.0345 
N167 X-147.001 Y21.338 Z-8.117 A272.1366 B-0.0272 
N168 X-147.001 Y21.532 Z-7.139 A273.0276 B-0.0214 
N169 X-147.001 Y22.012 Z-6.206 A275.1721 B-0.0176 
N170 X-147.001 Y22.823 Z-5.271 A278.8372 B-0.0157 
N171 X-147.001 Y23.945 Z-4.261 A284.0568 B-0.0146 
N172 X-147.001 Y25.344 Z-3.068 A290.8749 B-0.0120 
N173 X-147.001 Y26.976 Z-1.546 A299.4562 B-0.0045 
N174 X-147.001 Y28.659 Z0.420 A309.5758 B0.0098 
N175 X-147.001 Y30.069 Z2.774 A320.3526 B0.0224 
N176 X-147.001 Y31.008 Z5.394 A331.2721 B0.0129 
N177 X-147.001 Y31.269 Z7.805 A340.6196 B0.0015 
N178 X-147.001 Y30.991 Z9.843 A348.2507 B0.0000 
N179 X-147.001 Y30.317 Z11.434 A354.1690 B0.0000 
N180 X-147.001 Y29.367 Z12.545 A358.3662 
N181 X-147.001 Y28.224 Z13.104 A0.5226 
N182 X-147.001 Y26.933 Z13.272 A1.2011 
N183 X-147.001 Y25.500 Z13.286 A1.2843 
N184 X-147.001 Y23.924 Z13.278 A1.2853 
N185 X-147.001 Y22.211 Z13.276 A1.3110 
N186 X-147.001 Y20.376 Z13.289 A1.4098 
N187 X-147.001 Y18.442 Z13.300 A1.5197 
N188 X-147.001 Y16.435 Z13.289 A1.5538 
N189 X-147.001 Y14.387 Z13.270 A1.5558 
N190 X-147.001 Y12.332 Z13.250 
N191 X-147.001 Y10.304 Z13.230 
N192 X-147.001 Y8.336 Z13.211 
N193 X-147.001 Y6.458 Z13.193 
N194 X-147.001 Y4.695 Z13.176 
N195 X-147.001 Y3.065 Z13.160 
N196 X-147.001 Y1.580 Z13.146 A1.5562 
N197 X-147.001 Y0.244 Z13.148 A1.6195 
N198 X-147.001 Y-0.948 Z13.258 A2.1335 
N199 X-147.001 Y-2.022 Z13.695 A4.0560 
N200 X-147.001 Y-3.047 Z14.619 A8.1505 
N201 X-147.001 Y-4.144 Z15.972 A14.3416 
N202 X-147.001 Y-5.477 Z17.681 A22.5831 
N203 X-147.001 Y-7.241 Z19.627 A32.8730 
N204 X-147.001 Y-9.528 Z21.502 A44.6016 
N205 X-147.001 Y-12.261 Z22.973 A56.9603 
N206 X-147.001 Y-14.870 Z23.677 A67.6540 
N207 X-147.001 Y-17.051 Z23.751 A76.1434 
N208 X-147.001 Y-18.762 Z23.415 A82.6920 
N209 X-147.001 Y-20.002 Z22.823 A87.4622 
N210 X-147.001 Y-20.798 Z22.078 A90.6008 
N211 X-147.001 Y-21.198 Z21.240 A92.2604 
N212 X-147.001 Y-21.337 Z20.333 A92.9277 B0.0000 
N213 X-147.001 Y-21.354 Z19.360 A93.1394 B0.0002 
N214 X-147.001 Y-21.334 Z18.322 A93.2199 B0.0016 
N215 X-147.001 Y-21.307 Z17.229 A93.2841 B0.0057 
N216 X-147.001 Y-21.275 Z16.091 A93.3434 B0.0132 
N217 X-147.001 Y-21.242 Z14.925 A93.4042 B0.0240 
N218 X-147.001 Y-21.207 Z13.748 A93.4669 B0.0365 
N219 X-147.001 Y-21.172 Z12.576 A93.5287 B0.0479 
N220 X-147.001 Y-21.134 Z11.427 A93.5823 B0.0566 
N221 X-147.001 Y-21.092 Z10.316 A93.6179 B0.0631 
N222 X-147.001 Y-21.057 Z9.255 A93.6755 B0.0686 
N223 X-147.001 Y-21.102 Z8.247 A94.0581 B0.0733 
N224 X-147.001 Y-21.373 Z7.283 A95.4039 B0.0761 
N225 X-147.001 Y-21.969 Z6.331 A98.1948 B0.0755 
N226 X-147.001 Y-22.913 Z5.330 A102.6369 B0.0700 
N227 X-147.001 Y-24.154 Z4.190 A108.6818 B0.0568 
N228 X-147.001 Y-25.615 Z2.804 A116.2639 B0.0315 
N229 X-147.001 Y-27.165 Z1.069 A125.2314 B-0.0124 
N230 X-147.001 Y-28.572 Z-1.022 A135.0365 B-0.0776 
N231 X-147.002 Y-29.663 Z-3.437 A145.3754 B-0.1476 
N232 X-147.002 Y-30.239 Z-5.956 A155.3927 B-0.1958 
N233 X-147.002 Y-30.234 Z-8.261 A164.1340 B-0.2255 
N234 X-147.002 Y-29.743 Z-10.140 A171.1201 B-0.2441 
N235 X-147.002 Y-28.906 Z-11.496 A176.1622 B-0.2604 
N236 X-147.002 Y-27.839 Z-12.284 A179.1226 B-0.2794 
N237 X-147.002 Y-26.612 Z-12.605 A180.3251 B-0.2989 
N238 X-147.002 Y-25.248 Z-12.682 A180.5909 B-0.3085 
N239 X-147.002 Y-23.746 Z-12.708 A180.6553 B-0.3095 
N240 X-147.002 Y-22.112 Z-12.758 A180.8281 B-0.3093 
N241 X-147.002 Y-20.357 Z-12.839 A181.1528 B-0.3105 
N242 X-147.002 Y-18.500 Z-12.907 A181.4721 B-0.3150 
N243 X-147.002 Y-16.568 Z-12.917 A181.5881 B-0.3215 
N244 X-147.003 Y-14.588 Z-12.899 A181.5979 B-0.3285 
N245 X-147.003 Y-12.594 Z-12.878 B-0.3356 
N246 X-147.003 Y-10.617 Z-12.857 B-0.3426 
N247 X-147.003 Y-8.690 Z-12.837 B-0.3494 
N248 X-147.003 Y-6.844 Z-12.818 B-0.3559 
N249 X-147.003 Y-5.103 Z-12.800 B-0.3621 
N250 X-147.003 Y-3.488 Z-12.783 B-0.3678 
N251 X-147.003 Y-2.012 Z-12.768 A181.5979 B-0.3731 
N252 X-147.003 Y-0.680 Z-12.759 A181.6196 B-0.3779 
N253 X-147.003 Y0.508 Z-12.808 A181.8772 B-0.3844 
N254 X-147.003 Y1.567 Z-13.078 A183.0744 B-0.3992 
N255 X-147.003 Y2.546 Z-13.793 A186.2141 B-0.4324 
N256 X-147.003 Y3.553 Z-15.014 A191.6809 B-0.4914 
N257 X-147.004 Y4.741 Z-16.642 A199.2840 B-0.5779 
N258 X-147.004 Y6.276 Z-18.522 A208.7537 B-0.6867 
N259 X-147.005 Y8.294 Z-20.446 A219.7966 B-0.8026 
N260 X-147.005 Y10.833 Z-22.138 A231.9607 B-0.8250 
N261 X-147.004 Y13.514 Z-23.190 A243.4420 B-0.6480 
N262 X-147.003 Y15.829 Z-23.526 A252.6505 B-0.4885 
N263 X-147.003 Y17.760 Z-23.396 A260.1238 B-0.3768 
N264 X-147.002 Y19.249 Z-22.951 A265.8722 B-0.3018 
N265 X-147.002 Y20.279 Z-22.310 A269.9159 B-0.2536 
N266 X-147.002 Y20.899 Z-21.554 A272.4541 B-0.2240 
N267 X-147.002 Y21.202 Z-20.724 A273.8166 B-0.2066 
N268 X-147.002 Y21.309 Z-19.831 A274.4502 B-0.1960 
N269 X-147.002 Y21.316 Z-18.877 A274.7233 B-0.1882 
N270 X-147.002 Y21.284 Z-17.864 A274.8648 B-0.1809 
N271 X-147.002 Y21.231 Z-16.800 A274.9472 B-0.1734 
N272 X-147.002 Y21.170 Z-15.698 A275.0088 B-0.1655 
N273 X-147.002 Y21.106 Z-14.573 A275.0727 B-0.1572 
N274 X-147.002 Y21.041 Z-13.440 A275.1383 B-0.1487 
N275 X-147.002 Y20.975 Z-12.316 A275.2005 B-0.1402 
N276 X-147.002 Y20.905 Z-11.216 A275.2465 B-0.1319 
N277 X-147.002 Y20.837 Z-10.154 A275.2938 B-0.1238 
N278 X-147.002 Y20.812 Z-9.135 A275.5076 B-0.1154 
N279 X-147.002 Y20.950 Z-8.153 A276.4063 B-0.1052 
N280 X-147.001 Y21.390 Z-7.181 A278.6177 B-0.0916 
N281 X-147.001 Y22.202 Z-6.165 A282.5492 B-0.0738 
N282 X-147.001 Y23.351 Z-5.018 A288.2229 B-0.0517 
N283 X-147.001 Y24.717 Z-3.652 A295.3792 B-0.0259 
N284 X-147.001 Y26.136 Z-2.005 A303.6430 B0.0021 
N285 X-147.001 Y27.424 Z-0.073 A312.5567 B0.0290 
N286 X-147.001 Y28.474 Z2.147 A322.0316 B0.0472 
N287 X-147.001 Y29.150 Z4.585 A331.7912 B0.0470 
N288 X-147.001 Y29.308 Z6.981 A340.9259 B0.0238 
N289 X-147.001 Y28.952 Z9.050 A348.6101 B0.0054 
N290 X-147.001 Y28.192 Z10.575 A354.2221 B0.0005 
N291 X-147.001 Y27.169 Z11.480 A357.5304 B0.0000 
N292 X-147.001 Y25.975 Z11.884 A358.9503 B0.0000 
N293 X-147.001 Y24.643 Z12.035 A359.3943 
N294 X-147.001 Y23.182 Z12.145 A359.6886 
N295 X-147.001 Y21.595 Z12.288 A0.1464 
N296 X-147.001 Y19.892 Z12.463 A0.7938 
N297 X-147.001 Y18.092 Z12.596 A1.3443 
N298 X-147.001 Y16.220 Z12.626 A1.5284 
N299 X-147.001 Y14.303 Z12.611 A1.5404 
N300 X-147.001 Y12.371 Z12.593 
N301 X-147.001 Y10.455 Z12.575 
N302 X-147.001 Y8.588 Z12.557 
N303 X-147.001 Y6.797 Z12.540 
N304 X-147.001 Y5.107 Z12.524 
N305 X-147.001 Y3.538 Z12.509 
N306 X-147.001 Y2.103 Z12.496 
N307 X-147.001 Y0.809 Z12.488 A1.5590 
N308 X-147.001 Y-0.346 Z12.531 A1.7871 
N309 X-147.001 Y-1.372 Z12.768 A2.8352 
N310 X-147.001 Y-2.312 Z13.408 A5.6351 
N311 X-147.001 Y-3.259 Z14.543 A10.6774 
N312 X-147.001 Y-4.363 Z16.113 A17.9099 
N313 X-147.001 Y-5.776 Z17.949 A26.9473 
N314 X-147.001 Y-7.618 Z19.843 A37.4135 
N315 X-147.001 Y-9.856 Z21.493 A48.4934 
N316 X-147.001 Y-12.450 Z22.746 A60.0038 
N317 X-147.001 Y-14.887 Z23.329 A69.9572 
N318 X-147.001 Y-17.005 Z23.387 A78.2764 
N319 X-147.001 Y-18.709 Z23.074 A84.9101 
N320 X-147.001 Y-19.938 Z22.521 A89.7587 B0.0000 
N321 X-147.001 Y-20.736 Z21.834 A93.0265 B0.0002 
N322 X-147.001 Y-21.174 Z21.067 A94.9712 B0.0013 
N323 X-147.001 Y-21.363 Z20.241 A96.0044 B0.0049 
N324 X-147.001 Y-21.410 Z19.357 A96.5265 B0.0136 
N325 X-147.001 Y-21.382 Z18.416 A96.7892 B0.0274 
N326 X-147.001 Y-21.313 Z17.420 A96.9230 B0.0430 
N327 X-147.001 Y-21.222 Z16.380 A96.9976 B0.0567 
N328 X-147.001 Y-21.126 Z15.306 A97.0645 B0.0680 
N329 X-147.001 Y-21.027 Z14.213 A97.1366 B0.0787 
N330 X-147.001 Y-20.926 Z13.116 A97.2093 B0.0895 
N331 X-147.001 Y-20.823 Z12.031 A97.2728 B0.1004 
N332 X-147.001 Y-20.718 Z10.971 A97.3216 B0.1111 
N333 X-147.001 Y-20.633 Z9.946 A97.4402 B0.1214 
N334 X-147.001 Y-20.659 Z8.950 A98.0116 B0.1293 
N335 X-147.001 Y-20.951 Z7.960 A99.7297 B0.1313 
N336 X-147.001 Y-21.615 Z6.924 A103.1382 B0.1231 
N337 X-147.001 Y-22.646 Z5.763 A108.3811 B0.1008 
N338 X-147.001 Y-23.903 Z4.402 A115.1115 B0.0612 
N339 X-147.001 Y-25.186 Z2.812 A122.7442 B0.0022 
N340 X-147.001 Y-26.339 Z1.000 A130.8577 B-0.0778 
N341 X-147.002 Y-27.341 Z-1.100 A139.7303 B-0.1754 
N342 X-147.002 Y-28.107 Z-3.547 A149.5972 B-0.2727 
N343 X-147.003 Y-28.379 Z-6.047 A159.1912 B-0.3572 
N344 X-147.003 Y-28.098 Z-8.238 A167.3431 B-0.4242 
N345 X-147.003 Y-27.376 Z-9.860 A173.2937 B-0.4780 
N346 X-147.003 Y-26.371 Z-10.825 A176.7901 B-0.5240 
N347 X-147.003 Y-25.193 Z-11.266 A178.2993 B-0.5558 
N348 X-147.003 Y-23.882 Z-11.450 A178.8229 B-0.5602 
N349 X-147.003 Y-22.448 Z-11.598 A179.2225 B-0.5502 
N350 X-147.003 Y-20.896 Z-11.813 A179.9385 B-0.5425 
N351 X-147.003 Y-19.234 Z-12.054 A180.8443 B-0.5423 
N352 X-147.003 Y-17.481 Z-12.192 A181.4285 B-0.5473 
N353 X-147.003 Y-15.663 Z-12.210 A181.5685 B-0.5536 
N354 X-147.003 Y-13.806 Z-12.192 A181.5730 B-0.5598 
N355 X-147.004 Y-11.936 Z-12.174 B-0.5662 
N356 X-147.004 Y-10.086 Z-12.155 B-0.5724 
N357 X-147.004 Y-8.286 Z-12.137 B-0.5785 
N358 X-147.004 Y-6.561 Z-12.120 B-0.5843 
N359 X-147.004 Y-4.937 Z-12.104 A181.5730 B-0.5898 
N360 X-147.004 Y-3.431 Z-12.089 B-0.5949 
N361 X-147.004 Y-2.055 Z-12.075 A181.5730 B-0.5995 
N362 X-147.004 Y-0.817 Z-12.067 A181.5906 B-0.6038 
N363 X-147.004 Y0.284 Z-12.102 A181.7867 B-0.6098 
N364 X-147.004 Y1.262 Z-12.325 A182.7717 B-0.6243 
N365 X-147.004 Y2.155 Z-12.957 A185.5231 B-0.6581 
N366 X-147.004 Y3.058 Z-14.092 A190.5365 B-0.7181 
N367 X-147.005 Y4.110 Z-15.642 A197.6302 B-0.8026 
N368 X-147.005 Y5.454 Z-17.449 A206.4441 B-0.9032 
N369 X-147.005 Y7.226 Z-19.350 A216.7649 B-1.0053 
N370 X-147.006 Y9.433 Z-21.064 A227.9316 B-1.0667 
N371 X-147.005 Y12.035 Z-22.399 A239.6524 B-0.9435 
N372 X-147.004 Y14.427 Z-23.026 A249.5046 B-0.7506 
N373 X-147.004 Y16.507 Z-23.138 A257.7201 B-0.5992 
N374 X-147.003 Y18.231 Z-22.891 A264.4547 B-0.4863 
N375 X-147.003 Y19.537 Z-22.401 A269.6203 B-0.4055 
N376 X-147.003 Y20.439 Z-21.765 A273.3133 B-0.3496 
N377 X-147.002 Y20.989 Z-21.044 A275.7277 B-0.3127 
N378 X-147.002 Y21.276 Z-20.264 A277.1917 B-0.2890 
N379 X-147.002 Y21.388 Z-19.431 A278.0369 B-0.2733 
N380 X-147.002 Y21.391 Z-18.545 A278.5094 B-0.2615 
N381 X-147.002 Y21.326 Z-17.608 A278.7537 B-0.2515 
N382 X-147.002 Y21.218 Z-16.627 A278.8588 B-0.2418 
N383 X-147.002 Y21.093 Z-15.608 A278.9265 B-0.2315 
N384 X-147.002 Y20.966 Z-14.564 A279.0006 B-0.2202 
N385 X-147.002 Y20.836 Z-13.508 A279.0775 B-0.2085 
N386 X-147.002 Y20.703 Z-12.455 A279.1473 B-0.1965 
N387 X-147.002 Y20.568 Z-11.419 A279.2014 B-0.1845 
N388 X-147.002 Y20.452 Z-10.406 A279.3279 B-0.1721 
N389 X-147.002 Y20.449 Z-9.411 A279.9150 B-0.1571 
N390 X-147.002 Y20.720 Z-8.401 A281.6930 B-0.1359 
N391 X-147.002 Y21.379 Z-7.318 A285.2448 B-0.1065 
N392 X-147.001 Y22.397 Z-6.085 A290.6535 B-0.0697 
N393 X-147.001 Y23.578 Z-4.654 A297.3406 B-0.0298 
N394 X-147.001 Y24.680 Z-3.058 A304.4575 B0.0071 
N395 X-147.001 Y25.609 Z-1.318 A311.7328 B0.0372 
N396 X-147.001 Y26.456 Z0.707 A319.9774 B0.0569 
N397 X-147.001 Y27.102 Z3.046 A329.1933 B0.0625 
N398 X-147.001 Y27.341 Z5.517 A338.5853 B0.0484 
N399 X-147.001 Y27.051 Z7.731 A346.7770 B0.0195 
N400 X-147.001 Y26.307 Z9.312 A352.4996 B0.0032 
N401 X-147.001 Y25.281 Z10.184 A355.5256 B0.0002 
N402 X-147.001 Y24.090 Z10.602 A356.8211 B0.0000 
N403 X-147.001 Y22.775 Z10.885 A357.6153 
N404 X-147.001 Y21.346 Z11.200 A358.6011 
N405 X-147.001 Y19.805 Z11.567 A359.8962 
N406 X-147.001 Y18.162 Z11.858 A1.0244 
N407 X-147.001 Y16.442 Z11.960 A1.4761 
N408 X-147.001 Y14.668 Z11.957 A1.5261 
N409 X-147.001 Y12.865 Z11.940 A1.5262 
N410 X-147.001 Y11.062 Z11.924 
N411 X-147.001 Y9.286 Z11.907 
N412 X-147.001 Y7.566 Z11.892 
N413 X-147.001 Y5.927 Z11.876 
N414 X-147.001 Y4.391 Z11.862 A1.5266 
N415 X-147.001 Y2.973 Z11.851 A1.5345 
N416 X-147.001 Y1.684 Z11.843 A1.5521 
N417 X-147.001 Y0.528 Z11.842 A1.5922 
N418 X-147.001 Y-0.497 Z11.897 A1.8673 
N419 X-147.001 Y-1.407 Z12.184 A3.1174 
N420 X-147.001 Y-2.247 Z12.902 A6.2373 
N421 X-147.001 Y-3.124 Z14.126 A11.6452 
N422 X-147.001 Y-4.183 Z15.755 A19.1202 
N423 X-147.001 Y-5.552 Z17.590 A28.1437 
N424 X-147.001 Y-7.307 Z19.420 A38.2409 
N425 X-147.001 Y-9.384 Z20.982 A48.6309 
N426 X-147.001 Y-11.805 Z22.221 A59.5362 
N427 X-147.001 Y-14.207 Z22.902 A69.5221 
N428 X-147.001 Y-16.383 Z23.079 A78.1908 
N429 X-147.001 Y-18.214 Z22.872 A85.4142 
N430 X-147.001 Y-19.596 Z22.406 A90.9379 B0.0000 
N431 X-147.001 Y-20.556 Z21.793 A94.9239 B0.0007 
N432 X-147.001 Y-21.147 Z21.101 A97.5810 B0.0042 
N433 X-147.001 Y-21.456 Z20.357 A99.2190 B0.0128 
N434 X-147.001 Y-21.585 Z19.565 A100.2242 B0.0258 
N435 X-147.001 Y-21.594 Z18.724 A100.8311 B0.0405 
N436 X-147.001 Y-21.520 Z17.834 A101.1623 B0.0541 
N437 X-147.001 Y-21.387 Z16.899 A101.3067 B0.0667 
N438 X-147.001 Y-21.228 Z15.924 A101.3823 B0.0797 
N439 X-147.001 Y-21.063 Z14.917 A101.4623 B0.0933 
N440 X-147.001 Y-20.894 Z13.891 A101.5481 B0.1073 
N441 X-147.001 Y-20.722 Z12.859 A101.6310 B0.1216 
N442 X-147.001 Y-20.546 Z11.836 A101.6980 B0.1359 
N443 X-147.000 Y-20.384 Z10.829 A101.8137 B0.1498 
N444 X-147.000 Y-20.320 Z9.830 A102.3347 B0.1606 
N445 X-147.000 Y-20.526 Z8.799 A104.0282 B0.1616 
N446 X-147.000 Y-21.121 Z7.674 A107.5187 B0.1450 
N447 X-147.001 Y-22.059 Z6.386 A112.8305 B0.1054 
N448 X-147.001 Y-23.099 Z4.925 A119.1667 B0.0442 
N449 X-147.001 Y-23.993 Z3.365 A125.5731 B-0.0331 
N450 X-147.002 Y-24.757 Z1.680 A132.2247 B-0.1296 
N451 X-147.002 Y-25.580 Z-0.403 A140.5987 B-0.2550 
N452 X-147.003 Y-26.235 Z-2.884 A150.3579 B-0.3961 
N453 X-147.003 Y-26.416 Z-5.444 A160.0621 B-0.5315 
N454 X-147.004 Y-26.021 Z-7.592 A167.9634 B-0.6448 
N455 X-147.004 Y-25.195 Z-9.005 A173.0194 B-0.7332 
N456 X-147.004 Y-24.125 Z-9.736 A175.4730 B-0.7862 
N457 X-147.004 Y-22.911 Z-10.127 A176.6335 B-0.7902 
N458 X-147.004 Y-21.585 Z-10.463 A177.6322 B-0.7749 
N459 X-147.004 Y-20.153 Z-10.886 A179.0776 B-0.7675 
N460 X-147.004 Y-18.616 Z-11.287 A180.5830 B-0.7706 
N461 X-147.004 Y-16.991 Z-11.482 A181.3804 B-0.7773 
N462 X-147.004 Y-15.304 Z-11.507 A181.5419 B-0.7832 
N463 X-147.004 Y-13.577 Z-11.491 A181.5455 B-0.7886 
N464 X-147.004 Y-11.833 Z-11.475 B-0.7941 
N465 X-147.005 Y-10.101 Z-11.458 B-0.7995 
N466 X-147.005 Y-8.408 Z-11.442 B-0.8048 
N467 X-147.005 Y-6.780 Z-11.427 A181.5455 B-0.8098 
N468 X-147.005 Y-5.239 Z-11.412 A181.5455 B-0.8146 
N469 X-147.005 Y-3.805 Z-11.399 A181.5477 B-0.8191 
N470 X-147.005 Y-2.490 Z-11.390 A181.5610 B-0.8235 
N471 X-147.005 Y-1.302 Z-11.382 A181.5785 B-0.8279 
N472 X-147.005 Y-0.243 Z-11.386 A181.6376 B-0.8327 
N473 X-147.005 Y0.691 Z-11.484 A182.0901 B-0.8423 
N474 X-147.005 Y1.525 Z-11.894 A183.8612 B-0.8683 
N475 X-147.005 Y2.321 Z-12.781 A187.7116 B-0.9202 
N476 X-147.005 Y3.195 Z-14.135 A193.7241 B-0.9980 
N477 X-147.006 Y4.275 Z-15.797 A201.4468 B-1.0915 
N478 X-147.006 Y5.687 Z-17.630 A210.6256 B-1.1870 
N479 X-147.007 Y7.518 Z-19.451 A220.9557 B-1.2651 
N480 X-147.007 Y9.712 Z-21.005 A231.7469 B-1.2737 
N481 X-147.006 Y12.211 Z-22.160 A242.8188 B-1.1080 
N482 X-147.005 Y14.484 Z-22.688 A252.1565 B-0.9055 
N483 X-147.004 Y16.496 Z-22.771 A260.1553 B-0.7395 
N484 X-147.004 Y18.190 Z-22.529 A266.8587 B-0.6077 
N485 X-147.003 Y19.505 Z-22.065 A272.1564 B-0.5070 
N486 X-147.003 Y20.452 Z-21.467 A276.1399 B-0.4324 
N487 X-147.003 Y21.073 Z-20.792 A278.9602 B-0.3793 
N488 X-147.003 Y21.436 Z-20.066 A280.8810 B-0.3425 
N489 X-147.002 Y21.609 Z-19.297 A282.1433 B-0.3168 
N490 X-147.002 Y21.639 Z-18.487 A282.9232 B-0.2986 
N491 X-147.002 Y21.559 Z-17.635 A283.3368 B-0.2850 
N492 X-147.002 Y21.403 Z-16.744 A283.4960 B-0.2738 
N493 X-147.002 Y21.216 Z-15.813 A283.5738 B-0.2623 
N494 X-147.002 Y21.021 Z-14.846 A283.6595 B-0.2496 
N495 X-147.002 Y20.821 Z-13.857 A283.7518 B-0.2358 
N496 X-147.002 Y20.616 Z-12.858 A283.8382 B-0.2216 
N497 X-147.002 Y20.408 Z-11.860 A283.9175 B-0.2070 
N498 X-147.002 Y20.234 Z-10.865 A284.1391 B-0.1909 
N499 X-147.002 Y20.220 Z-9.849 A285.0475 B-0.1689 
N500 X-147.002 Y20.537 Z-8.756 A287.4459 B-0.1356 
N501 X-147.001 Y21.235 Z-7.516 A291.7293 B-0.0907 
N502 X-147.001 Y22.139 Z-6.105 A297.3847 B-0.0413 
N503 X-147.001 Y22.938 Z-4.611 A303.1890 B0.0012 
N504 X-147.001 Y23.530 Z-3.099 A308.6805 B0.0323 
N505 X-147.001 Y24.124 Z-1.390 A315.0421 B0.0541 
N506 X-147.001 Y24.781 Z0.732 A323.2430 B0.0657 
N507 X-147.001 Y25.276 Z3.273 A333.0153 B0.0633 
N508 X-147.001 Y25.256 Z5.776 A342.3434 B0.0343 
N509 X-147.001 Y24.660 Z7.599 A348.8701 B0.0068 
N510 X-147.001 Y23.712 Z8.651 A352.3967 B0.0002 
N511 X-147.001 Y22.585 Z9.290 A354.3699 B0.0000 
N512 X-147.001 Y21.342 Z9.844 A356.1020 
N513 X-147.001 Y19.992 Z10.447 A358.1761 
N514 X-147.001 Y18.532 Z10.989 A0.1941 
N515 X-147.001 Y16.981 Z11.257 A1.2643 
N516 X-147.001 Y15.367 Z11.302 A1.4970 
N517 X-147.001 Y13.709 Z11.289 A1.5037 
N518 X-147.001 Y12.029 Z11.274 
N519 X-147.001 Y10.353 Z11.260 
N520 X-147.001 Y8.705 Z11.245 
N521 X-147.001 Y7.112 Z11.231 
N522 X-147.001 Y5.596 Z11.218 
N523 X-147.001 Y4.177 Z11.206 A1.5069 
N524 X-147.001 Y2.869 Z11.202 A1.5399 
N525 X-147.001 Y1.681 Z11.204 A1.5937 
N526 X-147.001 Y0.618 Z11.199 A1.6190 
N527 X-147.001 Y-0.321 Z11.224 A1.7669 
N528 X-147.001 Y-1.150 Z11.457 A2.7790 
N529 X-147.001 Y-1.907 Z12.105 A5.5661 
N530 X-147.001 Y-2.686 Z13.253 A10.5780 
N531 X-147.001 Y-3.619 Z14.812 A17.6013 
N532 X-147.001 Y-4.821 Z16.585 A26.0722 
N533 X-147.001 Y-6.360 Z18.381 A35.5156 
N534 X-147.001 Y-8.220 Z19.999 A45.4033 
N535 X-147.001 Y-10.336 Z21.303 A55.3903 
N536 X-147.001 Y-12.724 Z22.264 A65.7498 
N537 X-147.001 Y-14.994 Z22.707 A75.0284 
N538 X-147.001 Y-17.054 Z22.729 A83.2496 B0.0000 
N539 X-147.001 Y-18.748 Z22.429 A90.0286 B0.0003 
N540 X-147.001 Y-20.022 Z21.927 A95.2671 B0.0018 
N541 X-147.001 Y-20.924 Z21.312 A99.1874 B0.0057 
N542 X-147.001 Y-21.493 Z20.640 A101.9231 B0.0135 
N543 X-147.001 Y-21.807 Z19.931 A103.7668 B0.0250 
N544 X-147.001 Y-21.947 Z19.183 A105.0264 B0.0370 
N545 X-147.001 Y-21.952 Z18.396 A105.8469 B0.0475 
N546 X-147.001 Y-21.844 Z17.572 A106.2946 B0.0581 
N547 X-147.001 Y-21.651 Z16.711 A106.4679 B0.0703 
N548 X-147.001 Y-21.422 Z15.808 A106.5525 B0.0839 
N549 X-147.001 Y-21.183 Z14.865 A106.6475 B0.0983 
N550 X-147.001 Y-20.937 Z13.896 A106.7510 B0.1132 
N551 X-147.001 Y-20.684 Z12.911 A106.8504 B0.1285 
N552 X-147.000 Y-20.427 Z11.922 A106.9465 B0.1439 
N553 X-147.000 Y-20.208 Z10.927 A107.2094 B0.1578 
N554 X-147.000 Y-20.172 Z9.888 A108.2767 B0.1628 
N555 X-147.000 Y-20.479 Z8.738 A110.9426 B0.1472 
N556 X-147.001 Y-21.118 Z7.422 A115.3519 B0.1032 
N557 X-147.001 Y-21.821 Z5.987 A120.5413 B0.0367 
N558 X-147.001 Y-22.317 Z4.566 A125.3090 B-0.0382 
N559 X-147.002 Y-22.738 Z3.080 A130.2890 B-0.1310 
N560 X-147.002 Y-23.407 Z1.156 A137.5965 B-0.2737 
N561 X-147.003 Y-24.132 Z-1.328 A147.3278 B-0.4659 
N562 X-147.004 Y-24.448 Z-4.040 A157.6430 B-0.6708 
N563 X-147.005 Y-24.116 Z-6.297 A165.8867 B-0.8455 
N564 X-147.005 Y-23.296 Z-7.684 A170.6702 B-0.9613 
N565 X-147.005 Y-22.246 Z-8.532 A173.4209 B-0.9951 
N566 X-147.005 Y-21.062 Z-9.164 A175.4238 B-0.9855 
N567 X-147.005 Y-19.777 Z-9.849 A177.7947 B-0.9846 
N568 X-147.005 Y-18.382 Z-10.458 A180.0695 B-0.9950 
N569 X-147.005 Y-16.896 Z-10.753 A181.2448 B-1.0052 
N570 X-147.005 Y-15.349 Z-10.805 A181.5031 B-1.0115 
N571 X-147.005 Y-13.757 Z-10.793 A181.5126 B-1.0162 
N572 X-147.005 Y-12.140 Z-10.779 B-1.0209 
N573 X-147.005 Y-10.522 Z-10.764 B-1.0256 
N574 X-147.006 Y-8.926 Z-10.750 B-1.0303 
N575 X-147.006 Y-7.378 Z-10.736 A181.5126 B-1.0348 
N576 X-147.006 Y-5.900 Z-10.723 B-1.0391 
N577 X-147.006 Y-4.512 Z-10.711 A181.5136 B-1.0431 
N578 X-147.006 Y-3.227 Z-10.704 A181.5311 B-1.0472 
N579 X-147.006 Y-2.058 Z-10.702 A181.5716 B-1.0514 
N580 X-147.006 Y-1.010 Z-10.697 A181.5940 B-1.0555 
N581 X-147.006 Y-0.082 Z-10.701 A181.6503 B-1.0601 
N582 X-147.006 Y0.733 Z-10.843 A182.2769 B-1.0727 
N583 X-147.006 Y1.463 Z-11.345 A184.4273 B-1.1069 
N584 X-147.006 Y2.181 Z-12.326 A188.6665 B-1.1697 
N585 X-147.006 Y2.995 Z-13.717 A194.8337 B-1.2548 
N586 X-147.007 Y4.017 Z-15.362 A202.4583 B-1.3480 
N587 X-147.007 Y5.355 Z-17.147 A211.3593 B-1.4337 
N588 X-147.007 Y7.082 Z-18.916 A221.2896 B-1.4928 
N589 X-147.007 Y9.114 Z-20.417 A231.4618 B-1.4935 
N590 X-147.007 Y11.507 Z-21.618 A242.2632 B-1.3479 
N591 X-147.006 Y13.793 Z-22.257 A251.8195 B-1.1228 
N592 X-147.005 Y15.845 Z-22.443 A260.0750 B-0.9260 
N593 X-147.004 Y17.646 Z-22.298 A267.2648 B-0.7595 
N594 X-147.004 Y19.117 Z-21.912 A273.2270 B-0.6238 
N595 X-147.003 Y20.252 Z-21.373 A278.0055 B-0.5159 
N596 X-147.003 Y21.068 Z-20.744 A281.6805 B-0.4330 
N597 X-147.003 Y21.613 Z-20.062 A284.4280 B-0.3710 
N598 X-147.002 Y21.935 Z-19.343 A286.4268 B-0.3257 
N599 X-147.002 Y22.068 Z-18.595 A287.7892 B-0.2936 
N600 X-147.002 Y22.039 Z-17.823 A288.6064 B-0.2719 
N601 X-147.002 Y21.877 Z-17.024 A288.9758 B-0.2577 
N602 X-147.002 Y21.638 Z-16.190 A289.1015 B-0.2466 
N603 X-147.002 Y21.374 Z-15.310 A289.1967 B-0.2347 
N604 X-147.002 Y21.099 Z-14.389 A289.3063 B-0.2213 
N605 X-147.002 Y20.813 Z-13.439 A289.4198 B-0.2070 
N606 X-147.002 Y20.517 Z-12.472 A289.5261 B-0.1922 
N607 X-147.002 Y20.243 Z-11.487 A289.7442 B-0.1755 
N608 X-147.002 Y20.103 Z-10.453 A290.5815 B-0.1513 
N609 X-147.002 Y20.257 Z-9.305 A292.8041 B-0.1135 
N610 X-147.001 Y20.706 Z-8.001 A296.5967 B-0.0644 
N611 X-147.001 Y21.210 Z-6.601 A301.0658 B-0.0172 
N612 X-147.001 Y21.506 Z-5.251 A305.0007 B0.0154 
N613 X-147.001 Y21.684 Z-3.912 A308.7699 B0.0361 
N614 X-147.001 Y22.069 Z-2.283 A314.2480 B0.0525 
N615 X-147.001 Y22.750 Z-0.037 A322.8363 B0.0631 
N616 X-147.001 Y23.271 Z2.693 A333.3142 B0.0535 
N617 X-147.001 Y23.123 Z5.067 A341.9582 B0.0135 
N618 X-147.001 Y22.433 Z6.681 A347.4897 B0.0002 
N619 X-147.001 Y21.475 Z7.825 A351.2667 B0.0000 
N620 X-147.001 Y20.365 Z8.803 A354.5694 
N621 X-147.001 Y19.128 Z9.732 A357.9168 
N622 X-147.001 Y17.769 Z10.382 A0.3929 
N623 X-147.001 Y16.330 Z10.616 A1.3394 
N624 X-147.001 Y14.838 Z10.639 A1.4811 
N625 X-147.001 Y13.305 Z10.627 A1.4825 
N626 X-147.001 Y11.750 Z10.614 
N627 X-147.001 Y10.194 Z10.601 
N628 X-147.001 Y8.660 Z10.588 
N629 X-147.001 Y7.171 Z10.575 
N630 X-147.001 Y5.749 Z10.563 
N631 X-147.001 Y4.412 Z10.552 A1.4840 
N632 X-147.001 Y3.174 Z10.546 A1.5031 
N633 X-147.001 Y2.045 Z10.546 A1.5423 
N634 X-147.001 Y1.033 Z10.541 A1.5630 
N635 X-147.001 Y0.137 Z10.544 A1.6121 
N636 X-147.001 Y-0.650 Z10.663 A2.1396 
N637 X-147.001 Y-1.349 Z11.090 A3.9670 
N638 X-147.001 Y-2.020 Z11.967 A7.7410 
N639 X-147.001 Y-2.772 Z13.298 A13.5783 
N640 X-147.001 Y-3.716 Z14.919 A20.9733 
N641 X-147.001 Y-4.938 Z16.663 A29.4754 
N642 X-147.001 Y-6.487 Z18.382 A38.7690 
N643 X-147.001 Y-8.307 Z19.883 A48.2727 
N644 X-147.001 Y-10.374 Z21.097 A57.9369 
N645 X-147.001 Y-12.743 Z22.004 A68.1803 
N646 X-147.001 Y-15.000 Z22.417 A77.4281 
N647 X-147.001 Y-17.082 Z22.428 A85.7903 B0.0000 
N648 X-147.001 Y-18.814 Z22.127 A92.7986 B0.0006 
N649 X-147.001 Y-20.153 Z21.631 A98.3883 B0.0032 
N650 X-147.001 Y-21.151 Z21.024 A102.8042 B0.0085 
N651 X-147.001 Y-21.828 Z20.363 A106.1090 B0.0158 
N652 X-147.001 Y-22.241 Z19.675 A108.5068 B0.0239 
N653 X-147.001 Y-22.460 Z18.957 A110.2747 B0.0312 
N654 X-147.001 Y-22.515 Z18.215 A111.5144 B0.0376 
N655 X-147.001 Y-22.415 Z17.452 A112.2384 B0.0446 
N656 X-147.001 Y-22.185 Z16.669 A112.5309 B0.0536 
N657 X-147.001 Y-21.887 Z15.845 A112.6359 B0.0643 
N658 X-147.001 Y-21.568 Z14.972 A112.7450 B0.0758 
N659 X-147.001 Y-21.235 Z14.056 A112.8703 B0.0878 
N660 X-147.001 Y-20.888 Z13.110 A112.9984 B0.1001 
N661 X-147.001 Y-20.532 Z12.144 A113.1314 B0.1126 
N662 X-147.001 Y-20.211 Z11.150 A113.4546 B0.1227 
N663 X-147.001 Y-20.066 Z10.073 A114.6152 B0.1204 
N664 X-147.001 Y-20.194 Z8.859 A117.1582 B0.0932 
N665 X-147.001 Y-20.467 Z7.535 A120.6507 B0.0415 
N666 X-147.001 Y-20.591 Z6.256 A123.7820 B-0.0153 
N667 X-147.001 Y-20.577 Z5.033 A126.5223 B-0.0753 
N668 X-147.002 Y-20.867 Z3.507 A131.2393 B-0.1879 
N669 X-147.003 Y-21.597 Z1.329 A139.5343 B-0.3949 
N670 X-147.004 Y-22.271 Z-1.412 A150.1556 B-0.6708 
N671 X-147.005 Y-22.326 Z-4.031 A159.8499 B-0.9389 
N672 X-147.006 Y-21.749 Z-5.910 A166.4122 B-1.1122 
N673 X-147.006 Y-20.848 Z-7.270 A171.0486 B-1.1619 
N674 X-147.006 Y-19.769 Z-8.397 A174.9761 B-1.1813 
N675 X-147.006 Y-18.551 Z-9.381 A178.6095 B-1.2082 
N676 X-147.006 Y-17.219 Z-9.942 A180.7802 B-1.2287 
N677 X-147.006 Y-15.821 Z-10.094 A181.4151 B-1.2380 
N678 X-147.006 Y-14.377 Z-10.098 A181.4799 B-1.2426 
N679 X-147.006 Y-12.897 Z-10.086 A181.4800 B-1.2466 
N680 X-147.006 Y-11.399 Z-10.073 B-1.2507 
N681 X-147.006 Y-9.903 Z-10.061 B-1.2547 
N682 X-147.006 Y-8.431 Z-10.048 B-1.2587 
N683 X-147.007 Y-7.004 Z-10.036 A181.4800 B-1.2626 
N684 X-147.007 Y-5.643 Z-10.025 B-1.2663 
N685 X-147.007 Y-4.365 Z-10.014 A181.4811 B-1.2697 
N686 X-147.007 Y-3.184 Z-10.007 A181.4927 B-1.2733 
N687 X-147.007 Y-2.109 Z-10.003 A181.5144 B-1.2772 
N688 X-147.007 Y-1.147 Z-9.997 A181.5255 B-1.2812 
N689 X-147.007 Y-0.298 Z-10.001 A181.5744 B-1.2854 
N690 X-147.007 Y0.446 Z-10.120 A182.0953 B-1.2966 
N691 X-147.007 Y1.105 Z-10.543 A183.9002 B-1.3284 
N692 X-147.007 Y1.737 Z-11.404 A187.5904 B-1.3895 
N693 X-147.007 Y2.435 Z-12.667 A193.1109 B-1.4737 
N694 X-147.008 Y3.291 Z-14.184 A199.9794 B-1.5654 
N695 X-147.008 Y4.407 Z-15.871 A208.0604 B-1.6493 
N696 X-147.008 Y5.873 Z-17.623 A217.2529 B-1.7075 
N697 X-147.008 Y7.693 Z-19.249 A227.1040 B-1.7206 
N698 X-147.008 Y9.790 Z-20.578 A237.1363 B-1.6570 
N699 X-147.007 Y12.218 Z-21.583 A247.7699 B-1.4482 
N700 X-147.006 Y14.447 Z-22.043 A256.9589 B-1.1997 
N701 X-147.005 Y16.457 Z-22.105 A265.0545 B-0.9815 
N702 X-147.004 Y18.207 Z-21.869 A272.1266 B-0.7922 
N703 X-147.004 Y19.643 Z-21.423 A278.0815 B-0.6332 
N704 X-147.003 Y20.771 Z-20.846 A282.9909 B-0.5022 
N705 X-147.003 Y21.605 Z-20.192 A286.9280 B-0.3976 
N706 X-147.002 Y22.191 Z-19.493 A290.0560 B-0.3154 
N707 X-147.002 Y22.555 Z-18.766 A292.4664 B-0.2527 
N708 X-147.002 Y22.705 Z-18.030 A294.1700 B-0.2081 
N709 X-147.002 Y22.654 Z-17.293 A295.1844 B-0.1803 
N710 X-147.002 Y22.434 Z-16.553 A295.6153 B-0.1656 
N711 X-147.002 Y22.117 Z-15.782 A295.7538 B-0.1567 
N712 X-147.002 Y21.767 Z-14.956 A295.8718 B-0.1472 
N713 X-147.002 Y21.396 Z-14.079 A296.0100 B-0.1366 
N714 X-147.002 Y21.006 Z-13.161 A296.1544 B-0.1253 
N715 X-147.002 Y20.602 Z-12.211 A296.3160 B-0.1133 
N716 X-147.002 Y20.236 Z-11.217 A296.7093 B-0.0976 
N717 X-147.001 Y20.015 Z-10.130 A297.8548 B-0.0721 
N718 X-147.001 Y19.968 Z-8.935 A299.9522 B-0.0379 
N719 X-147.001 Y19.947 Z-7.700 A302.3999 B-0.0065 
N720 X-147.001 Y19.777 Z-6.542 A304.3429 B0.0122 
N721 X-147.001 Y19.533 Z-5.424 A306.0712 B0.0223 
N722 X-147.001 Y19.590 Z-4.049 A309.5853 B0.0350 
N723 X-147.001 Y20.248 Z-1.979 A317.2117 B0.0494 
N724 X-147.001 Y20.958 Z0.679 A327.4526 B0.0368 
N725 X-147.001 Y21.095 Z3.262 A336.9434 B0.0045 
N726 X-147.001 Y20.683 Z5.481 A344.8501 B0.0000 
N727 X-147.001 Y19.881 Z7.276 A351.2434 B0.0000 
N728 X-147.001 Y18.824 Z8.727 A356.5734 
N729 X-147.001 Y17.592 Z9.633 A0.0356 
N730 X-147.001 Y16.278 Z9.938 A1.2563 
N731 X-147.001 Y14.916 Z9.978 A1.4558 
N732 X-147.001 Y13.516 Z9.968 A1.4602 
N733 X-147.001 Y12.087 Z9.956 
N734 X-147.001 Y10.647 Z9.945 
N735 X-147.001 Y9.214 Z9.933 
N736 X-147.001 Y7.808 Z9.922 
N737 X-147.001 Y6.450 Z9.911 
N738 X-147.001 Y5.158 Z9.901 A1.4602 
N739 X-147.001 Y3.949 Z9.891 A1.4611 
N740 X-147.001 Y2.834 Z9.883 A1.4655 
N741 X-147.001 Y1.824 Z9.876 A1.4707 
N742 X-147.001 Y0.921 Z9.870 A1.4737 
N743 X-147.001 Y0.127 Z9.890 A1.5866 
N744 X-147.001 Y-0.569 Z10.070 A2.3581 
N745 X-147.001 Y-1.189 Z10.562 A4.4547 
N746 X-147.001 Y-1.788 Z11.424 A8.1622 
N747 X-147.001 Y-2.447 Z12.627 A13.4288 
N748 X-147.001 Y-3.256 Z14.087 A20.0295 
N749 X-147.001 Y-4.316 Z15.732 A27.8642 
N750 X-147.001 Y-5.724 Z17.471 A36.8823 
N751 X-147.001 Y-7.504 Z19.121 A46.6930 
N752 X-147.001 Y-9.506 Z20.444 A56.3987 
N753 X-147.001 Y-11.898 Z21.503 A66.9914 
N754 X-147.001 Y-14.356 Z22.081 A77.2172 
N755 X-147.001 Y-16.539 Z22.181 A86.0450 
N756 X-147.001 Y-18.413 Z21.944 A93.6450 B0.0003 
N757 X-147.001 Y-19.905 Z21.489 A99.8673 B0.0024 
N758 X-147.001 Y-21.091 Z20.899 A105.0726 B0.0073 
N759 X-147.001 Y-22.005 Z20.225 A109.4073 B0.0133 
N760 X-147.001 Y-22.651 Z19.511 A112.8761 B0.0175 
N761 X-147.001 Y-23.068 Z18.775 A115.6137 B0.0187 
N762 X-147.001 Y-23.273 Z18.030 A117.6817 B0.0179 
N763 X-147.001 Y-23.252 Z17.302 A118.9637 B0.0174 
N764 X-147.001 Y-23.028 Z16.593 A119.5290 B0.0188 
N765 X-147.001 Y-22.680 Z15.867 A119.7038 B0.0221 
N766 X-147.001 Y-22.283 Z15.086 A119.8163 B0.0259 
N767 X-147.001 Y-21.861 Z14.246 A119.9622 B0.0295 
N768 X-147.001 Y-21.412 Z13.357 A120.1213 B0.0329 
N769 X-147.001 Y-20.942 Z12.430 A120.2901 B0.0359 
N770 X-147.001 Y-20.464 Z11.470 A120.5128 B0.0377 
N771 X-147.001 Y-20.028 Z10.460 A121.0105 B0.0341 
N772 X-147.001 Y-19.671 Z9.387 A121.9694 B0.0198 
N773 X-147.001 Y-19.330 Z8.296 A123.1059 B-0.0023 
N774 X-147.001 Y-18.904 Z7.258 A123.9172 B-0.0216 
N775 X-147.001 Y-18.458 Z6.238 A124.6761 B-0.0430 
N776 X-147.002 Y-18.537 Z4.825 A128.2391 B-0.1445 
N777 X-147.003 Y-19.198 Z2.766 A135.7371 B-0.3740 
N778 X-147.004 Y-19.958 Z0.097 A146.0133 B-0.7148 
N779 X-147.006 Y-20.226 Z-2.693 A156.4121 B-1.0641 
N780 X-147.007 Y-19.930 Z-5.356 A166.2296 B-1.2702 
N781 X-147.007 Y-19.102 Z-7.362 A173.6028 B-1.3688 
N782 X-147.007 Y-17.983 Z-8.711 A178.7020 B-1.4314 
N783 X-147.007 Y-16.735 Z-9.277 A180.9151 B-1.4593 
N784 X-147.007 Y-15.439 Z-9.389 A181.3918 B-1.4680 
N785 X-147.007 Y-14.106 Z-9.389 A181.4293 B-1.4718 
N786 X-147.007 Y-12.742 Z-9.378 A181.4293 B-1.4752 
N787 X-147.007 Y-11.361 Z-9.368 B-1.4786 
N788 X-147.007 Y-9.976 Z-9.358 B-1.4820 
N789 X-147.007 Y-8.608 Z-9.348 B-1.4854 
N790 X-147.007 Y-7.273 Z-9.338 A181.4293 B-1.4886 
N791 X-147.007 Y-5.991 Z-9.328 B-1.4918 
N792 X-147.007 Y-4.779 Z-9.319 B-1.4948 
N793 X-147.008 Y-3.652 Z-9.310 B-1.4976 
N794 X-147.008 Y-2.619 Z-9.303 A181.4294 B-1.5001 
N795 X-147.008 Y-1.689 Z-9.296 A181.4312 B-1.5025 
N796 X-147.008 Y-0.863 Z-9.296 A181.4567 B-1.5051 
N797 X-147.008 Y-0.140 Z-9.354 A181.7216 B-1.5124 
N798 X-147.008 Y0.493 Z-9.621 A182.8587 B-1.5359 
N799 X-147.008 Y1.065 Z-10.212 A185.3742 B-1.5842 
N800 X-147.008 Y1.630 Z-11.111 A189.2555 B-1.6545 
N801 X-147.009 Y2.252 Z-12.263 A194.3220 B-1.7378 
N802 X-147.009 Y3.021 Z-13.665 A200.6669 B-1.8249 
N803 X-147.009 Y4.072 Z-15.327 A208.5688 B-1.9020 
N804 X-147.009 Y5.549 Z-17.162 A218.0838 B-1.9453 
N805 X-147.009 Y7.470 Z-18.908 A228.5957 B-1.9289 
N806 X-147.009 Y9.614 Z-20.253 A238.8498 B-1.8407 
N807 X-147.008 Y12.275 Z-21.314 A250.4672 B-1.6056 
N808 X-147.007 Y14.924 Z-21.787 A261.3797 B-1.2743 
N809 X-147.005 Y17.064 Z-21.745 A270.0334 B-1.0045 
N810 X-147.004 Y18.839 Z-21.403 A277.3113 B-0.7774 
N811 X-147.004 Y20.272 Z-20.873 A283.4087 B-0.5872 
N812 X-147.003 Y21.398 Z-20.230 A288.5091 B-0.4287 
N813 X-147.002 Y22.257 Z-19.517 A292.7750 B-0.2979 
N814 X-147.002 Y22.887 Z-18.760 A296.3512 B-0.1905 
N815 X-147.002 Y23.284 Z-17.989 A299.2081 B-0.1068 
N816 X-147.001 Y23.413 Z-17.249 A301.1367 B-0.0514 
N817 X-147.001 Y23.274 Z-16.567 A302.0652 B-0.0251 
N818 X-147.001 Y22.950 Z-15.903 A302.3388 B-0.0169 
N819 X-147.001 Y22.532 Z-15.204 A302.3651 B-0.0154 
N820 X-147.001 Y22.070 Z-14.446 B-0.0144 
N821 X-147.001 Y21.573 Z-13.631 B-0.0134 
N822 X-147.001 Y21.046 Z-12.767 B-0.0123 
N823 X-147.001 Y20.496 Z-11.864 B-0.0112 
N824 X-147.001 Y19.928 Z-10.933 B-0.0100 
N825 X-147.001 Y19.350 Z-9.984 B-0.0088 
N826 X-147.001 Y18.766 Z-9.027 B-0.0076 
N827 X-147.001 Y18.182 Z-8.068 B-0.0064 
N828 X-147.001 Y17.599 Z-7.112 B-0.0052 
N829 X-147.001 Y17.174 Z-6.063 A303.1217 B0.0008 
N830 X-147.001 Y17.546 Z-4.435 A308.0955 B0.0217 
N831 X-147.001 Y18.374 Z-2.184 A316.6502 B0.0260 
N832 X-147.001 Y19.229 Z0.745 A328.1252 B0.0039 
N833 X-147.001 Y19.587 Z4.122 A341.0899 B0.0000 
N834 X-147.001 Y19.067 Z6.811 A351.1507 
N835 X-147.001 Y18.048 Z8.516 A357.5830 
N836 X-147.001 Y16.842 Z9.230 A0.3287 
N837 X-147.001 Y15.581 Z9.387 A0.9425 
N838 X-147.001 Y14.283 Z9.401 A0.9981 
N839 X-147.001 Y12.952 Z9.401 A0.9981 
N840 X-147.001 Y11.599 Z9.401 
N841 X-147.001 Y10.236 Z9.401 
N842 X-147.001 Y8.880 Z9.401 
N843 X-147.001 Y7.549 Z9.401 
N844 X-147.001 Y6.262 Z9.401 
N845 X-147.001 Y5.036 Z9.401 
N846 X-147.001 Y3.886 Z9.401 
N847 X-147.001 Y2.825 Z9.401 
N848 X-147.001 Y1.862 Z9.401 A0.9990 
N849 X-147.001 Y1.002 Z9.405 A1.0139 
N850 X-147.001 Y0.244 Z9.444 A1.1770 
N851 X-147.001 Y-0.418 Z9.644 A2.0131 
N852 X-147.001 Y-1.006 Z10.129 A4.0621 
N853 X-147.001 Y-1.561 Z10.905 A7.3823 
N854 X-147.001 Y-2.141 Z11.942 A11.8997 
N855 X-147.001 Y-2.826 Z13.231 A17.6447 
N856 X-147.001 Y-3.723 Z14.770 A24.7717 
N857 X-147.001 Y-4.968 Z16.519 A33.4273 
N858 X-147.001 Y-6.664 Z18.323 A43.4476 
N859 X-147.001 Y-8.684 Z19.856 A53.7199 
N860 X-147.001 Y-11.116 Z21.096 A64.7864 
N861 X-147.001 Y-13.943 Z21.894 A76.7118 
N862 X-147.001 Y-16.250 Z22.051 A86.0711 
N863 X-147.001 Y-18.204 Z21.839 A94.0048 B0.0001 
N864 X-147.001 Y-19.763 Z21.396 A100.5028 B0.0016 
N865 X-147.001 Y-21.020 Z20.809 A106.0055 B0.0058 
N866 X-147.001 Y-22.033 Z20.122 A110.7690 B0.0112 
N867 X-147.001 Y-22.787 Z19.380 A114.7379 B0.0141 
N868 X-147.001 Y-23.295 Z18.616 A117.9314 B0.0129 
N869 X-147.001 Y-23.566 Z17.855 A120.3685 B0.0090 
N870 X-147.001 Y-23.569 Z17.139 A121.8390 B0.0051 
N871 X-147.001 Y-23.322 Z16.477 A122.3750 B0.0035 
N872 X-147.001 Y-22.942 Z15.804 A122.4835 B0.0037 
N873 X-147.001 Y-22.500 Z15.079 A122.4910 B0.0044 
N874 X-147.001 Y-22.019 Z14.295 B0.0053 
N875 X-147.001 Y-21.506 Z13.457 B0.0063 
N876 X-147.001 Y-20.966 Z12.575 B0.0073 
N877 X-147.001 Y-20.405 Z11.659 B0.0083 
N878 X-147.001 Y-19.829 Z10.720 B0.0094 
N879 X-147.001 Y-19.245 Z9.766 B0.0105 
N880 X-147.001 Y-18.658 Z8.808 B0.0115 
N881 X-147.001 Y-18.071 Z7.849 B0.0126 
N882 X-147.001 Y-17.512 Z6.879 A122.6137 B0.0104 
N883 X-147.001 Y-17.505 Z5.541 A125.5235 B-0.0732 
N884 X-147.002 Y-18.137 Z3.603 A132.3762 B-0.2910 
N885 X-147.004 Y-19.040 Z0.972 A142.6425 B-0.6490 
N886 X-147.006 Y-19.614 Z-2.118 A154.4964 B-1.0530 
N887 X-147.007 Y-19.515 Z-5.238 A166.2694 B-1.3061 
N888 X-147.007 Y-18.700 Z-7.415 A174.3803 B-1.4257 
N889 X-147.007 Y-17.565 Z-8.659 A179.1049 B-1.4864 
N890 X-147.008 Y-16.323 Z-9.070 A180.6968 B-1.5056 
N891 X-147.008 Y-15.040 Z-9.139 A180.9655 B-1.5088 
N892 X-147.008 Y-13.724 Z-9.143 A180.9775 
N893 X-147.008 Y-12.380 Z-9.143 B-1.5086 
N894 X-147.008 Y-11.021 Z-9.144 B-1.5084 
N895 X-147.008 Y-9.661 Z-9.144 B-1.5082 
N896 X-147.008 Y-8.318 Z-9.145 B-1.5081 
N897 X-147.008 Y-7.010 Z-9.146 B-1.5079 
N898 X-147.008 Y-5.756 Z-9.146 B-1.5077 
N899 X-147.008 Y-4.571 Z-9.146 B-1.5076 
N900 X-147.008 Y-3.469 Z-9.147 B-1.5074 
N901 X-147.008 Y-2.461 Z-9.147 A180.9775 B-1.5073 
N902 X-147.008 Y-1.553 Z-9.149 A180.9810 B-1.5072 
N903 X-147.008 Y-0.747 Z-9.159 A181.0235 B-1.5082 
N904 X-147.008 Y-0.041 Z-9.247 A181.3871 B-1.5156 
N905 X-147.008 Y0.579 Z-9.569 A182.7393 B-1.5418 
N906 X-147.008 Y1.147 Z-10.225 A185.5202 B-1.5941 
N907 X-147.008 Y1.722 Z-11.196 A189.7013 B-1.6687 
N908 X-147.009 Y2.382 Z-12.449 A195.2221 B-1.7571 
N909 X-147.009 Y3.262 Z-14.039 A202.4634 B-1.8503 
N910 X-147.009 Y4.590 Z-16.010 A212.0393 B-1.9271 
N911 X-147.009 Y6.640 Z-18.214 A224.2245 B-1.9459 
N912 X-147.009 Y9.336 Z-20.100 A237.5647 B-1.8728 
N913 X-147.336 Y17.771 Z-25.460 
N914 G00 X-148.970 Y59.948 Z-52.264 
N915 G01 X-161.171 Y81.219 Z-26.606 A270.9520 B-0.1316 F15000 
N916 X-161.056 Y31.226 Z-27.437 
N917 X-161.033 Y21.228 Z-27.603 F2835 
N918 X-161.033 Y21.230 Z-24.942 B-0.1185 
N919 X-161.033 Y21.232 Z-22.327 B-0.1057 
N920 X-161.033 Y21.234 Z-19.799 B-0.0933 
N921 X-161.033 Y21.236 Z-17.397 B-0.0816 
N922 X-161.033 Y21.238 Z-15.150 B-0.0702 
N923 X-161.033 Y21.240 Z-13.080 B-0.0551 
N924 X-161.033 Y21.241 Z-11.201 B-0.0348 
N925 X-161.033 Y21.243 Z-9.517 A270.9521 B-0.0189 
N926 X-161.033 Y21.287 Z-8.021 A271.1296 B-0.0085 
N927 X-161.033 Y21.649 Z-6.690 A272.6680 B-0.0030 
N928 X-161.033 Y22.534 Z-5.455 A276.5518 B-0.0022 
N929 X-161.033 Y23.922 Z-4.174 A282.8986 B-0.0041 
N930 X-161.033 Y25.757 Z-2.633 A291.8074 B-0.0051 
N931 X-161.033 Y27.924 Z-0.539 A303.4947 B0.0004 
N932 X-161.033 Y29.907 Z2.193 A316.7750 B0.0128 
N933 X-161.033 Y31.208 Z5.288 A329.9949 B0.0083 
N934 X-161.033 Y31.561 Z8.039 A340.7239 B0.0006 
N935 X-161.033 Y31.238 Z10.210 A348.8485 B0.0000 
N936 X-161.033 Y30.495 Z11.818 A354.8374 
N937 X-161.033 Y29.484 Z12.885 A358.8790 
N938 X-161.033 Y28.293 Z13.366 A0.7516 
N939 X-161.033 Y26.962 Z13.491 A1.2662 
N940 X-161.033 Y25.489 Z13.495 A1.3152 
N941 X-161.033 Y23.874 Z13.487 A1.3152 
N942 X-161.033 Y22.124 Z13.477 
N943 X-161.033 Y20.256 Z13.467 
N944 X-161.033 Y18.290 Z13.456 
N945 X-161.033 Y16.256 Z13.445 
N946 X-161.033 Y14.184 Z13.433 
N947 X-161.033 Y12.110 Z13.422 
N948 X-161.033 Y10.067 Z13.411 
N949 X-161.033 Y8.089 Z13.400 
N950 X-161.033 Y6.204 Z13.389 
N951 X-161.033 Y4.436 Z13.380 
N952 X-161.033 Y2.803 Z13.371 
N953 X-161.033 Y1.315 Z13.363 A1.3183 
N954 X-161.033 Y-0.026 Z13.402 A1.5135 
N955 X-161.033 Y-1.231 Z13.659 A2.6347 
N956 X-161.033 Y-2.340 Z14.322 A5.5534 
N957 X-161.033 Y-3.443 Z15.422 A10.5265 
N958 X-161.033 Y-4.662 Z16.865 A17.3390 
N959 X-161.033 Y-6.182 Z18.634 A26.2454 
N960 X-161.033 Y-8.213 Z20.591 A37.3073 
N961 X-161.033 Y-10.753 Z22.315 A49.4537 
N962 X-161.033 Y-13.550 Z23.453 A61.4154 
N963 X-161.033 Y-15.963 Z23.797 A70.9222 
N964 X-161.033 Y-17.872 Z23.610 A78.1595 
N965 X-161.033 Y-19.308 Z23.096 A83.5475 
N966 X-161.033 Y-20.324 Z22.379 A87.3826 
N967 X-161.033 Y-20.925 Z21.532 A89.6853 
N968 X-161.033 Y-21.193 Z20.596 A90.7256 
N969 X-161.033 Y-21.267 Z19.586 A91.0203 
N970 X-161.033 Y-21.273 Z18.510 A91.0475 
N971 X-161.033 Y-21.272 Z17.374 A91.0475 
N972 X-161.033 Y-21.271 Z16.191 
N973 X-161.033 Y-21.270 Z14.976 
N974 X-161.033 Y-21.269 Z13.748 
N975 X-161.033 Y-21.268 Z12.524 
N976 X-161.033 Y-21.267 Z11.322 B0.0000 
N977 X-161.033 Y-21.266 Z10.160 B0.0001 
N978 X-161.033 Y-21.266 Z9.051 A91.0531 B0.0006 
N979 X-161.033 Y-21.309 Z8.005 A91.2349 B0.0017 
N980 X-161.033 Y-21.529 Z7.023 A92.1690 B0.0040 
N981 X-161.033 Y-22.028 Z6.091 A94.3376 B0.0085 
N982 X-161.033 Y-22.819 Z5.169 A97.8623 B0.0161 
N983 X-161.032 Y-23.889 Z4.191 A102.7919 B0.0243 
N984 X-161.032 Y-25.239 Z3.056 A109.2778 B0.0263 
N985 X-161.033 Y-26.860 Z1.610 A117.6061 B0.0145 
N986 X-161.033 Y-28.608 Z-0.296 A127.7225 B-0.0166 
N987 X-161.033 Y-30.146 Z-2.655 A138.8065 B-0.0659 
N988 X-161.033 Y-31.218 Z-5.340 A150.1904 B-0.1038 
N989 X-161.033 Y-31.565 Z-7.826 A159.9144 B-0.1123 
N990 X-161.033 Y-31.334 Z-9.914 A167.7590 B-0.1062 
N991 X-161.033 Y-30.690 Z-11.544 A173.8313 B-0.0963 
N992 X-161.033 Y-29.761 Z-12.709 A178.2312 B-0.0908 
N993 X-161.033 Y-28.631 Z-13.305 A180.5421 B-0.0912 
N994 X-161.033 Y-27.350 Z-13.486 A181.2742 B-0.0940 
N995 X-161.033 Y-25.925 Z-13.503 A181.3782 B-0.0973 
N996 X-161.033 Y-24.353 Z-13.492 A181.3791 B-0.1009 
N997 X-161.033 Y-22.640 Z-13.481 B-0.1048 
N998 X-161.033 Y-20.801 Z-13.469 B-0.1090 
N999 X-161.033 Y-18.856 Z-13.456 B-0.1134 
N1000 X-161.033 Y-16.833 Z-13.443 B-0.1180 
N1001 X-161.033 Y-14.761 Z-13.429 B-0.1227 
N1002 X-161.033 Y-12.677 Z-13.415 B-0.1275 
N1003 X-161.033 Y-10.614 Z-13.401 B-0.1322 
N1004 X-161.033 Y-8.607 Z-13.388 B-0.1368 
N1005 X-161.033 Y-6.687 Z-13.375 B-0.1411 
N1006 X-161.033 Y-4.879 Z-13.364 B-0.1453 
N1007 X-161.033 Y-3.203 Z-13.352 B-0.1491 
N1008 X-161.033 Y-1.671 Z-13.342 A181.3792 B-0.1526 
N1009 X-161.033 Y-0.290 Z-13.342 A181.4165 B-0.1559 
N1010 X-161.033 Y0.945 Z-13.424 A181.7980 B-0.1612 
N1011 X-161.033 Y2.056 Z-13.834 A183.5783 B-0.1752 
N1012 X-161.033 Y3.116 Z-14.766 A187.6852 B-0.2077 
N1013 X-161.034 Y4.241 Z-16.118 A193.8638 B-0.2655 
N1014 X-161.034 Y5.603 Z-17.838 A202.1579 B-0.3527 
N1015 X-161.035 Y7.435 Z-19.852 A212.8033 B-0.4674 
N1016 X-161.035 Y9.850 Z-21.802 A225.1023 B-0.5793 
N1017 X-161.035 Y12.744 Z-23.291 A238.0558 B-0.5034 
N1018 X-161.034 Y15.350 Z-23.890 A248.5904 B-0.3442 
N1019 X-161.034 Y17.436 Z-23.855 A256.6046 B-0.2379 
N1020 X-161.033 Y19.021 Z-23.436 A262.5896 B-0.1721 
N1021 X-161.033 Y20.169 Z-22.786 A266.9511 B-0.1325 
N1022 X-161.033 Y20.891 Z-21.988 A269.7419 B-0.1102 
N1023 X-161.033 Y21.216 Z-21.096 A271.0301 B-0.0985 
N1024 X-161.033 Y21.311 Z-20.130 A271.4322 B-0.0918 
N1025 X-161.033 Y21.320 Z-19.094 A271.5065 B-0.0865 
N1026 X-161.033 Y21.314 Z-17.995 A271.5198 B-0.0813 
N1027 X-161.033 Y21.311 Z-16.842 A271.5530 B-0.0760 
N1028 X-161.033 Y21.312 Z-15.650 A271.6047 B-0.0709 
N1029 X-161.033 Y21.312 Z-14.435 A271.6601 B-0.0659 
N1030 X-161.033 Y21.311 Z-13.217 A271.7154 B-0.0610 
N1031 X-161.033 Y21.308 Z-12.012 A271.7685 B-0.0556 
N1032 X-161.033 Y21.302 Z-10.838 A271.8092 B-0.0484 
N1033 X-161.033 Y21.292 Z-9.711 A271.8313 B-0.0399 
N1034 X-161.033 Y21.294 Z-8.641 A271.9056 B-0.0318 
N1035 X-161.033 Y21.406 Z-7.633 A272.4400 B-0.0250 
N1036 X-161.033 Y21.775 Z-6.678 A274.0823 B-0.0202 
N1037 X-161.033 Y22.452 Z-5.744 A277.1229 B-0.0175 
N1038 X-161.033 Y23.431 Z-4.773 A281.6234 B-0.0163 
N1039 X-161.033 Y24.687 Z-3.676 A287.6246 B-0.0147 
N1040 X-161.033 Y26.199 Z-2.327 A295.2952 B-0.0095 
N1041 X-161.033 Y27.872 Z-0.580 A304.6854 B0.0026 
N1042 X-161.033 Y29.433 Z1.603 A315.2043 B0.0196 
N1043 X-161.032 Y30.612 Z4.124 A326.1254 B0.0219 
N1044 X-161.033 Y31.187 Z6.677 A336.3157 B0.0059 
N1045 X-161.033 Y31.144 Z8.914 A344.7870 B0.0003 
N1046 X-161.033 Y30.636 Z10.724 A351.5171 B0.0000 
N1047 X-161.033 Y29.800 Z12.079 A356.5822 B0.0000 
N1048 X-161.033 Y28.733 Z12.903 A359.7288 
N1049 X-161.033 Y27.504 Z13.233 A1.0263 
N1050 X-161.033 Y26.134 Z13.296 A1.3033 
N1051 X-161.033 Y24.622 Z13.290 A1.3128 
N1052 X-161.033 Y22.970 Z13.283 A1.3217 
N1053 X-161.033 Y21.190 Z13.289 A1.3919 
N1054 X-161.033 Y19.301 Z13.304 A1.5122 
N1055 X-161.033 Y17.328 Z13.300 A1.5707 
N1056 X-161.033 Y15.301 Z13.281 A1.5774 
N1057 X-161.033 Y13.252 Z13.260 A1.5775 
N1058 X-161.033 Y11.215 Z13.240 
N1059 X-161.033 Y9.224 Z13.220 
N1060 X-161.033 Y7.310 Z13.200 
N1061 X-161.033 Y5.500 Z13.182 
N1062 X-161.033 Y3.815 Z13.165 
N1063 X-161.033 Y2.269 Z13.150 
N1064 X-161.033 Y0.869 Z13.141 A1.6001 
N1065 X-161.033 Y-0.385 Z13.220 A1.9869 
N1066 X-161.033 Y-1.512 Z13.563 A3.5059 
N1067 X-161.033 Y-2.564 Z14.326 A6.8988 
N1068 X-161.033 Y-3.642 Z15.524 A12.3545 
N1069 X-161.033 Y-4.891 Z17.093 A19.8229 
N1070 X-161.033 Y-6.493 Z18.936 A29.2871 
N1071 X-161.033 Y-8.588 Z20.830 A40.4303 
N1072 X-161.033 Y-11.114 Z22.402 A52.2371 
N1073 X-161.033 Y-13.784 Z23.373 A63.5036 
N1074 X-161.033 Y-16.093 Z23.647 A72.5903 
N1075 X-161.033 Y-17.963 Z23.449 A79.7427 
N1076 X-161.033 Y-19.374 Z22.946 A85.1203 
N1077 X-161.033 Y-20.362 Z22.255 A88.9387 
N1078 X-161.033 Y-20.963 Z21.447 A91.3353 
N1079 X-161.033 Y-21.249 Z20.559 A92.5618 
N1080 X-161.033 Y-21.333 Z19.606 A93.0274 B0.0001 
N1081 X-161.033 Y-21.328 Z18.591 A93.1605 B0.0011 
N1082 X-161.033 Y-21.302 Z17.518 A93.2202 B0.0045 
N1083 X-161.033 Y-21.271 Z16.398 A93.2738 B0.0113 
N1084 X-161.032 Y-21.239 Z15.245 A93.3323 B0.0216 
N1085 X-161.032 Y-21.206 Z14.075 A93.3937 B0.0341 
N1086 X-161.032 Y-21.171 Z12.906 A93.4549 B0.0461 
N1087 X-161.032 Y-21.135 Z11.754 A93.5094 B0.0556 
N1088 X-161.032 Y-21.094 Z10.635 A93.5451 B0.0626 
N1089 X-161.032 Y-21.061 Z9.562 A93.6053 B0.0684 
N1090 X-161.032 Y-21.091 Z8.540 A93.9257 B0.0733 
N1091 X-161.032 Y-21.317 Z7.563 A95.0747 B0.0766 
N1092 X-161.032 Y-21.838 Z6.607 A97.5358 B0.0770 
N1093 X-161.032 Y-22.678 Z5.623 A101.4956 B0.0731 
N1094 X-161.032 Y-23.812 Z4.532 A106.9890 B0.0626 
N1095 X-161.032 Y-25.190 Z3.232 A114.0268 B0.0412 
N1096 X-161.033 Y-26.719 Z1.606 A122.5749 B0.0023 
N1097 X-161.033 Y-28.197 Z-0.402 A132.2581 B-0.0593 
N1098 X-161.033 Y-29.404 Z-2.760 A142.5924 B-0.1329 
N1099 X-161.033 Y-30.157 Z-5.340 A153.0601 B-0.1882 
N1100 X-161.034 Y-30.296 Z-7.762 A162.3409 B-0.2223 
N1101 X-161.034 Y-29.904 Z-9.776 A169.8598 B-0.2427 
N1102 X-161.034 Y-29.129 Z-11.266 A175.4070 B-0.2588 
N1103 X-161.034 Y-28.101 Z-12.183 A178.8571 B-0.2764 
N1104 X-161.034 Y-26.905 Z-12.587 A180.3977 B-0.2934 
N1105 X-161.034 Y-25.572 Z-12.685 A180.7599 B-0.3020 
N1106 X-161.034 Y-24.101 Z-12.704 A180.8170 B-0.3020 
N1107 X-161.034 Y-22.497 Z-12.747 A180.9773 B-0.3016 
N1108 X-161.034 Y-20.769 Z-12.822 A181.2966 B-0.3039 
N1109 X-161.034 Y-18.935 Z-12.877 A181.5794 B-0.3091 
N1110 X-161.034 Y-17.020 Z-12.875 A181.6594 B-0.3158 
N1111 X-161.034 Y-15.051 Z-12.854 A181.6636 B-0.3229 
N1112 X-161.034 Y-13.060 Z-12.831 A181.6636 B-0.3301 
N1113 X-161.034 Y-11.080 Z-12.808 B-0.3374 
N1114 X-161.034 Y-9.143 Z-12.785 B-0.3444 
N1115 X-161.034 Y-7.280 Z-12.764 B-0.3512 
N1116 X-161.034 Y-5.517 Z-12.743 B-0.3576 
N1117 X-161.034 Y-3.875 Z-12.724 B-0.3636 
N1118 X-161.034 Y-2.370 Z-12.707 B-0.3691 
N1119 X-161.034 Y-1.008 Z-12.693 A181.6719 B-0.3741 
N1120 X-161.034 Y0.210 Z-12.716 A181.8294 B-0.3798 
N1121 X-161.034 Y1.295 Z-12.911 A182.7090 B-0.3914 
N1122 X-161.034 Y2.287 Z-13.522 A185.3856 B-0.4187 
N1123 X-161.035 Y3.284 Z-14.661 A190.4564 B-0.4699 
N1124 X-161.035 Y4.443 Z-16.258 A197.8379 B-0.5477 
N1125 X-161.035 Y5.936 Z-18.147 A207.2019 B-0.6479 
N1126 X-161.036 Y7.921 Z-20.124 A218.2842 B-0.7581 
N1127 X-161.036 Y10.427 Z-21.876 A230.4695 B-0.8106 
N1128 X-161.035 Y13.186 Z-23.042 A242.4172 B-0.6636 
N1129 X-161.035 Y15.554 Z-23.432 A251.8734 B-0.5033 
N1130 X-161.034 Y17.511 Z-23.327 A259.4428 B-0.3901 
N1131 X-161.034 Y19.020 Z-22.898 A265.2504 B-0.3137 
N1132 X-161.034 Y20.068 Z-22.267 A269.3443 B-0.2644 
N1133 X-161.034 Y20.709 Z-21.517 A271.9373 B-0.2340 
N1134 X-161.034 Y21.034 Z-20.691 A273.3556 B-0.2159 
N1135 X-161.033 Y21.160 Z-19.801 A274.0431 B-0.2044 
N1136 X-161.033 Y21.190 Z-18.850 A274.3801 B-0.1956 
N1137 X-161.033 Y21.181 Z-17.839 A274.5940 B-0.1875 
N1138 X-161.033 Y21.145 Z-16.780 A274.7251 B-0.1795 
N1139 X-161.033 Y21.092 Z-15.683 A274.8028 B-0.1712 
N1140 X-161.033 Y21.033 Z-14.563 A274.8656 B-0.1626 
N1141 X-161.033 Y20.971 Z-13.435 A274.9281 B-0.1538 
N1142 X-161.033 Y20.908 Z-12.315 A274.9869 B-0.1450 
N1143 X-161.033 Y20.842 Z-11.220 A275.0281 B-0.1363 
N1144 X-161.033 Y20.782 Z-10.160 A275.0916 B-0.1278 
N1145 X-161.033 Y20.781 Z-9.142 A275.3887 B-0.1187 
N1146 X-161.033 Y20.957 Z-8.157 A276.4374 B-0.1077 
N1147 X-161.033 Y21.434 Z-7.180 A278.8112 B-0.0933 
N1148 X-161.033 Y22.263 Z-6.156 A282.8316 B-0.0748 
N1149 X-161.033 Y23.406 Z-5.002 A288.5067 B-0.0522 
N1150 X-161.033 Y24.752 Z-3.633 A295.6045 B-0.0259 
N1151 X-161.033 Y26.146 Z-1.989 A303.7842 B0.0026 
N1152 X-161.032 Y27.413 Z-0.064 A312.6183 B0.0299 
N1153 X-161.032 Y28.451 Z2.153 A322.0529 B0.0483 
N1154 X-161.032 Y29.121 Z4.594 A331.8071 B0.0479 
N1155 X-161.032 Y29.274 Z6.993 A340.9451 B0.0241 
N1156 X-161.033 Y28.911 Z9.062 A348.6258 B0.0055 
N1157 X-161.033 Y28.145 Z10.588 A354.2382 B0.0006 
N1158 X-161.033 Y27.116 Z11.496 A357.5600 B0.0000 
N1159 X-161.033 Y25.917 Z11.906 A359.0032 B0.0000 
N1160 X-161.033 Y24.581 Z12.060 A359.4650 
N1161 X-161.033 Y23.115 Z12.169 A359.7630 
N1162 X-161.033 Y21.525 Z12.314 A0.2385 
N1163 X-161.033 Y19.821 Z12.488 A0.8924 
N1164 X-161.033 Y18.022 Z12.607 A1.3987 
N1165 X-161.033 Y16.152 Z12.627 A1.5451 
N1166 X-161.033 Y14.239 Z12.610 A1.5533 
N1167 X-161.033 Y12.312 Z12.592 
N1168 X-161.033 Y10.403 Z12.573 
N1169 X-161.033 Y8.543 Z12.555 
N1170 X-161.033 Y6.761 Z12.538 
N1171 X-161.033 Y5.080 Z12.522 
N1172 X-161.033 Y3.519 Z12.507 
N1173 X-161.033 Y2.092 Z12.493 A1.5533 
N1174 X-161.033 Y0.805 Z12.489 A1.5870 
N1175 X-161.033 Y-0.345 Z12.565 A1.9553 
N1176 X-161.033 Y-1.372 Z12.869 A3.2969 
N1177 X-161.033 Y-2.322 Z13.567 A6.3755 
N1178 X-161.033 Y-3.296 Z14.749 A11.6679 
N1179 X-161.033 Y-4.449 Z16.356 A19.1529 
N1180 X-161.033 Y-5.932 Z18.209 A28.4271 
N1181 X-161.033 Y-7.845 Z20.073 A39.0081 
N1182 X-161.033 Y-10.129 Z21.648 A50.0560 
N1183 X-161.033 Y-12.693 Z22.783 A61.2383 
N1184 X-161.033 Y-15.079 Z23.278 A70.8936 
N1185 X-161.033 Y-17.138 Z23.275 A78.9432 
N1186 X-161.033 Y-18.766 Z22.919 A85.2622 
N1187 X-161.033 Y-19.931 Z22.342 A89.8575 B0.0000 
N1188 X-161.033 Y-20.697 Z21.637 A92.9977 B0.0004 
N1189 X-161.033 Y-21.126 Z20.854 A94.9077 B0.0019 
N1190 X-161.033 Y-21.320 Z20.012 A95.9592 B0.0068 
N1191 X-161.033 Y-21.368 Z19.115 A96.4885 B0.0172 
N1192 X-161.032 Y-21.334 Z18.162 A96.7304 B0.0322 
N1193 X-161.032 Y-21.259 Z17.159 A96.8376 B0.0479 
N1194 X-161.032 Y-21.167 Z16.115 A96.9034 B0.0611 
N1195 X-161.032 Y-21.072 Z15.040 A96.9706 B0.0723 
N1196 X-161.032 Y-20.975 Z13.950 A97.0423 B0.0833 
N1197 X-161.032 Y-20.877 Z12.860 A97.1122 B0.0944 
N1198 X-161.032 Y-20.775 Z11.786 A97.1673 B0.1055 
N1199 X-161.032 Y-20.676 Z10.739 A97.2289 B0.1163 
N1200 X-161.032 Y-20.626 Z9.724 A97.4777 B0.1262 
N1201 X-161.032 Y-20.734 Z8.734 A98.3952 B0.1326 
N1202 X-161.032 Y-21.134 Z7.738 A100.5900 B0.1320 
N1203 X-161.032 Y-21.883 Z6.683 A104.4191 B0.1207 
N1204 X-161.032 Y-22.942 Z5.495 A109.8881 B0.0950 
N1205 X-161.032 Y-24.178 Z4.107 A116.6697 B0.0517 
N1206 X-161.033 Y-25.423 Z2.488 A124.3123 B-0.0121 
N1207 X-161.033 Y-26.558 Z0.622 A132.5891 B-0.0991 
N1208 X-161.033 Y-27.580 Z-1.615 A142.0316 B-0.2026 
N1209 X-161.034 Y-28.277 Z-4.159 A152.2061 B-0.3013 
N1210 X-161.034 Y-28.421 Z-6.656 A161.7325 B-0.3838 
N1211 X-161.035 Y-28.009 Z-8.734 A169.4467 B-0.4479 
N1212 X-161.035 Y-27.198 Z-10.192 A174.8122 B-0.4994 
N1213 X-161.035 Y-26.142 Z-11.008 A177.7801 B-0.5392 
N1214 X-161.035 Y-24.930 Z-11.343 A178.9226 B-0.5564 
N1215 X-161.035 Y-23.590 Z-11.472 A179.2674 B-0.5503 
N1216 X-161.035 Y-22.128 Z-11.630 A179.7531 B-0.5421 
N1217 X-161.035 Y-20.549 Z-11.859 A180.5890 B-0.5404 
N1218 X-161.035 Y-18.865 Z-12.042 A181.3314 B-0.5444 
N1219 X-161.035 Y-17.096 Z-12.094 A181.6042 B-0.5505 
N1220 X-161.035 Y-15.269 Z-12.081 A181.6337 B-0.5568 
N1221 X-161.035 Y-13.407 Z-12.060 A181.6340 B-0.5633 
N1222 X-161.035 Y-11.542 Z-12.040 B-0.5697 
N1223 X-161.035 Y-9.703 Z-12.019 B-0.5761 
N1224 X-161.035 Y-7.920 Z-12.000 B-0.5823 
N1225 X-161.035 Y-6.220 Z-11.981 B-0.5882 
N1226 X-161.035 Y-4.625 Z-11.963 A181.6340 B-0.5937 
N1227 X-161.035 Y-3.152 Z-11.947 B-0.5988 
N1228 X-161.035 Y-1.812 Z-11.932 A181.6343 B-0.6035 
N1229 X-161.035 Y-0.609 Z-11.927 A181.6670 B-0.6080 
N1230 X-161.035 Y0.459 Z-11.984 A181.9587 B-0.6149 
N1231 X-161.035 Y1.410 Z-12.289 A183.2955 B-0.6327 
N1232 X-161.035 Y2.298 Z-13.061 A186.6610 B-0.6720 
N1233 X-161.036 Y3.238 Z-14.353 A192.4102 B-0.7374 
N1234 X-161.036 Y4.382 Z-16.035 A200.2233 B-0.8247 
N1235 X-161.037 Y5.887 Z-17.942 A209.7913 B-0.9231 
N1236 X-161.037 Y7.879 Z-19.874 A220.8485 B-1.0143 
N1237 X-161.037 Y10.319 Z-21.513 A232.6115 B-1.0272 
N1238 X-161.036 Y12.946 Z-22.585 A243.9704 B-0.8623 
N1239 X-161.036 Y15.231 Z-22.971 A253.1680 B-0.6879 
N1240 X-161.035 Y17.154 Z-22.904 A260.6893 B-0.5558 
N1241 X-161.035 Y18.670 Z-22.533 A266.6169 B-0.4591 
N1242 X-161.034 Y19.766 Z-21.969 A270.9828 B-0.3913 
N1243 X-161.034 Y20.483 Z-21.293 A273.9751 B-0.3454 
N1244 X-161.034 Y20.899 Z-20.547 A275.8719 B-0.3151 
N1245 X-161.034 Y21.109 Z-19.743 A277.0353 B-0.2946 
N1246 X-161.034 Y21.193 Z-18.885 A277.7634 B-0.2793 
N1247 X-161.034 Y21.198 Z-17.973 A278.2367 B-0.2667 
N1248 X-161.034 Y21.138 Z-17.015 A278.4957 B-0.2556 
N1249 X-161.034 Y21.035 Z-16.019 A278.6125 B-0.2449 
N1250 X-161.034 Y20.915 Z-14.994 A278.6854 B-0.2337 
N1251 X-161.034 Y20.791 Z-13.950 A278.7570 B-0.2218 
N1252 X-161.033 Y20.666 Z-12.903 A278.8283 B-0.2094 
N1253 X-161.033 Y20.537 Z-11.866 A278.8849 B-0.1970 
N1254 X-161.033 Y20.421 Z-10.848 A278.9881 B-0.1842 
N1255 X-161.033 Y20.384 Z-9.849 A279.4171 B-0.1695 
N1256 X-161.033 Y20.558 Z-8.850 A280.7467 B-0.1499 
N1257 X-161.033 Y21.066 Z-7.806 A283.5828 B-0.1229 
N1258 X-161.033 Y21.941 Z-6.649 A288.2183 B-0.0881 
N1259 X-161.033 Y23.060 Z-5.313 A294.3629 B-0.0483 
N1260 X-161.033 Y24.194 Z-3.798 A301.2511 B-0.0091 
N1261 X-161.032 Y25.177 Z-2.144 A308.3117 B0.0248 
N1262 X-161.032 Y26.034 Z-0.295 A315.8735 B0.0502 
N1263 X-161.032 Y26.807 Z1.913 A324.7287 B0.0626 
N1264 X-161.032 Y27.262 Z4.359 A334.1768 B0.0589 
N1265 X-161.032 Y27.224 Z6.751 A343.1242 B0.0332 
N1266 X-161.033 Y26.673 Z8.668 A350.1362 B0.0083 
N1267 X-161.033 Y25.759 Z9.868 A354.4108 B0.0008 
N1268 X-161.033 Y24.635 Z10.470 A356.4174 B0.0000 
N1269 X-161.033 Y23.374 Z10.792 A357.3587 B0.0000 
N1270 X-161.033 Y21.996 Z11.083 A358.2222 
N1271 X-161.033 Y20.506 Z11.434 A359.4147 
N1272 X-161.033 Y18.908 Z11.772 A0.6844 
N1273 X-161.033 Y17.223 Z11.939 A1.3731 
N1274 X-161.033 Y15.474 Z11.959 A1.5115 
N1275 X-161.033 Y13.685 Z11.943 A1.5148 
N1276 X-161.033 Y11.882 Z11.927 
N1277 X-161.033 Y10.095 Z11.911 
N1278 X-161.033 Y8.351 Z11.895 
N1279 X-161.033 Y6.677 Z11.880 
N1280 X-161.033 Y5.097 Z11.866 A1.5148 
N1281 X-161.033 Y3.627 Z11.855 A1.5238 
N1282 X-161.033 Y2.282 Z11.853 A1.5671 
N1283 X-161.033 Y1.068 Z11.853 A1.6190 
N1284 X-161.033 Y-0.014 Z11.882 A1.7875 
N1285 X-161.033 Y-0.973 Z12.057 A2.5712 
N1286 X-161.033 Y-1.840 Z12.579 A4.8447 
N1287 X-161.033 Y-2.693 Z13.589 A9.2827 
N1288 X-161.033 Y-3.673 Z15.083 A16.0212 
N1289 X-161.033 Y-4.926 Z16.877 A24.5836 
N1290 X-161.033 Y-6.551 Z18.748 A34.4198 
N1291 X-161.033 Y-8.549 Z20.449 A44.8998 
N1292 X-161.033 Y-10.831 Z21.791 A55.4938 
N1293 X-161.033 Y-13.296 Z22.686 A65.9971 
N1294 X-161.033 Y-15.563 Z23.024 A75.1184 
N1295 X-161.033 Y-17.533 Z22.938 A82.8849 
N1296 X-161.033 Y-19.059 Z22.546 A88.9309 B0.0000 
N1297 X-161.033 Y-20.155 Z21.974 A93.3984 B0.0004 
N1298 X-161.033 Y-20.880 Z21.301 A96.5309 B0.0028 
N1299 X-161.033 Y-21.290 Z20.569 A98.5262 B0.0101 
N1300 X-161.032 Y-21.484 Z19.790 A99.7594 B0.0225 
N1301 X-161.032 Y-21.537 Z18.963 A100.5101 B0.0375 
N1302 X-161.032 Y-21.491 Z18.088 A100.9263 B0.0519 
N1303 X-161.032 Y-21.375 Z17.169 A101.1125 B0.0650 
N1304 X-161.032 Y-21.223 Z16.209 A101.1941 B0.0782 
N1305 X-161.032 Y-21.063 Z15.214 A101.2704 B0.0921 
N1306 X-161.032 Y-20.899 Z14.198 A101.3544 B0.1064 
N1307 X-161.032 Y-20.732 Z13.172 A101.4374 B0.1210 
N1308 X-161.032 Y-20.560 Z12.152 A101.5064 B0.1357 
N1309 X-161.032 Y-20.401 Z11.146 A101.6197 B0.1500 
N1310 X-161.032 Y-20.324 Z10.149 A102.0697 B0.1617 
N1311 X-161.032 Y-20.469 Z9.133 A103.4810 B0.1653 
N1312 X-161.032 Y-20.954 Z8.048 A106.4476 B0.1540 
N1313 X-161.032 Y-21.778 Z6.830 A111.1384 B0.1219 
N1314 X-161.032 Y-22.774 Z5.445 A117.0646 B0.0677 
N1315 X-161.033 Y-23.707 Z3.936 A123.3683 B-0.0047 
N1316 X-161.033 Y-24.526 Z2.299 A129.9508 B-0.0975 
N1317 X-161.034 Y-25.403 Z0.298 A138.0980 B-0.2218 
N1318 X-161.034 Y-26.200 Z-2.175 A148.0204 B-0.3685 
N1319 X-161.035 Y-26.541 Z-4.810 A158.1505 B-0.5125 
N1320 X-161.035 Y-26.281 Z-7.127 A166.7643 B-0.6349 
N1321 X-161.036 Y-25.539 Z-8.748 A172.6531 B-0.7288 
N1322 X-161.036 Y-24.515 Z-9.631 A175.7417 B-0.7849 
N1323 X-161.036 Y-23.333 Z-10.042 A177.0263 B-0.7897 
N1324 X-161.036 Y-22.035 Z-10.348 A177.9443 B-0.7762 
N1325 X-161.036 Y-20.631 Z-10.745 A179.3162 B-0.7718 
N1326 X-161.036 Y-19.118 Z-11.118 A180.7328 B-0.7766 
N1327 X-161.036 Y-17.515 Z-11.292 A181.4598 B-0.7835 
N1328 X-161.036 Y-15.844 Z-11.309 A181.5911 B-0.7892 
N1329 X-161.036 Y-14.126 Z-11.293 A181.5977 B-0.7947 
N1330 X-161.036 Y-12.384 Z-11.274 B-0.8003 
N1331 X-161.036 Y-10.647 Z-11.256 B-0.8059 
N1332 X-161.036 Y-8.941 Z-11.238 B-0.8113 
N1333 X-161.036 Y-7.295 Z-11.221 A181.5977 B-0.8166 
N1334 X-161.036 Y-5.730 Z-11.205 B-0.8216 
N1335 X-161.036 Y-4.268 Z-11.190 A181.5991 B-0.8263 
N1336 X-161.036 Y-2.922 Z-11.180 A181.6156 B-0.8309 
N1337 X-161.036 Y-1.703 Z-11.174 A181.6446 B-0.8355 
N1338 X-161.036 Y-0.613 Z-11.169 A181.6775 B-0.8400 
N1339 X-161.036 Y0.350 Z-11.219 A181.9304 B-0.8472 
N1340 X-161.036 Y1.204 Z-11.524 A183.2574 B-0.8672 
N1341 X-161.036 Y2.002 Z-12.300 A186.6121 B-0.9118 
N1342 X-161.037 Y2.855 Z-13.586 A192.2819 B-0.9831 
N1343 X-161.037 Y3.900 Z-15.237 A199.8583 B-1.0721 
N1344 X-161.038 Y5.277 Z-17.101 A209.0359 B-1.1648 
N1345 X-161.038 Y7.099 Z-19.004 A219.5719 B-1.2421 
N1346 X-161.038 Y9.333 Z-20.659 A230.7342 B-1.2634 
N1347 X-161.037 Y11.861 Z-21.874 A242.0081 B-1.1285 
N1348 X-161.037 Y14.201 Z-22.451 A251.6618 B-0.9265 
N1349 X-161.036 Y16.218 Z-22.547 A259.6778 B-0.7601 
N1350 X-161.035 Y17.897 Z-22.314 A266.3081 B-0.6285 
N1351 X-161.035 Y19.189 Z-21.861 A271.4933 B-0.5285 
N1352 X-161.035 Y20.119 Z-21.275 A275.3757 B-0.4545 
N1353 X-161.034 Y20.734 Z-20.611 A278.1391 B-0.4014 
N1354 X-161.034 Y21.110 Z-19.893 A280.0646 B-0.3633 
N1355 X-161.034 Y21.312 Z-19.126 A281.4003 B-0.3353 
N1356 X-161.034 Y21.386 Z-18.314 A282.3226 B-0.3138 
N1357 X-161.034 Y21.352 Z-17.461 A282.8863 B-0.2973 
N1358 X-161.034 Y21.227 Z-16.573 A283.1418 B-0.2841 
N1359 X-161.034 Y21.055 Z-15.649 A283.2509 B-0.2717 
N1360 X-161.034 Y20.867 Z-14.693 A283.3322 B-0.2585 
N1361 X-161.034 Y20.675 Z-13.715 A283.4199 B-0.2443 
N1362 X-161.034 Y20.477 Z-12.728 A283.5006 B-0.2295 
N1363 X-161.034 Y20.283 Z-11.742 A283.6003 B-0.2141 
N1364 X-161.033 Y20.153 Z-10.751 A283.9738 B-0.1960 
N1365 X-161.033 Y20.214 Z-9.729 A285.1828 B-0.1706 
N1366 X-161.033 Y20.599 Z-8.625 A287.8802 B-0.1343 
N1367 X-161.033 Y21.327 Z-7.376 A292.3268 B-0.0875 
N1368 X-161.033 Y22.210 Z-5.969 A297.9398 B-0.0379 
N1369 X-161.033 Y22.965 Z-4.496 A303.5772 B0.0039 
N1370 X-161.032 Y23.531 Z-3.001 A308.9597 B0.0343 
N1371 X-161.032 Y24.128 Z-1.283 A315.3771 B0.0559 
N1372 X-161.032 Y24.788 Z0.860 A323.6746 B0.0670 
N1373 X-161.032 Y25.265 Z3.406 A333.4535 B0.0631 
N1374 X-161.032 Y25.217 Z5.881 A342.6584 B0.0324 
N1375 X-161.033 Y24.603 Z7.676 A349.0776 B0.0059 
N1376 X-161.033 Y23.647 Z8.723 A352.5954 B0.0001 
N1377 X-161.033 Y22.515 Z9.368 A354.6068 B0.0000 
N1378 X-161.033 Y21.266 Z9.926 A356.3768 
N1379 X-161.033 Y19.909 Z10.529 A358.4781 
N1380 X-161.033 Y18.443 Z11.042 A0.4059 
N1381 X-161.033 Y16.889 Z11.265 A1.3056 
N1382 X-161.033 Y15.274 Z11.294 A1.4708 
N1383 X-161.033 Y13.616 Z11.281 A1.4744 
N1384 X-161.033 Y11.938 Z11.267 
N1385 X-161.033 Y10.264 Z11.253 
N1386 X-161.033 Y8.621 Z11.239 
N1387 X-161.033 Y7.034 Z11.226 
N1388 X-161.033 Y5.526 Z11.214 
N1389 X-161.033 Y4.115 Z11.204 A1.4817 
N1390 X-161.033 Y2.815 Z11.208 A1.5437 
N1391 X-161.033 Y1.636 Z11.217 A1.6315 
N1392 X-161.033 Y0.582 Z11.213 A1.6655 
N1393 X-161.033 Y-0.349 Z11.244 A1.8387 
N1394 X-161.033 Y-1.171 Z11.494 A2.9267 
N1395 X-161.033 Y-1.927 Z12.168 A5.8299 
N1396 X-161.033 Y-2.715 Z13.360 A11.0372 
N1397 X-161.033 Y-3.676 Z14.968 A18.3041 
N1398 X-161.033 Y-4.929 Z16.790 A27.0646 
N1399 X-161.033 Y-6.540 Z18.613 A36.7901 
N1400 X-161.033 Y-8.479 Z20.227 A46.9139 
N1401 X-161.033 Y-10.661 Z21.491 A57.0472 
N1402 X-161.033 Y-13.083 Z22.378 A67.4195 
N1403 X-161.033 Y-15.346 Z22.741 A76.6051 
N1404 X-161.033 Y-17.368 Z22.693 A84.6626 B0.0000 
N1405 X-161.033 Y-18.969 Z22.340 A91.0881 B0.0004 
N1406 X-161.033 Y-20.153 Z21.809 A95.9964 B0.0021 
N1407 X-161.033 Y-20.985 Z21.178 A99.6634 B0.0067 
N1408 X-161.033 Y-21.492 Z20.497 A102.1740 B0.0159 
N1409 X-161.032 Y-21.761 Z19.780 A103.8527 B0.0286 
N1410 X-161.032 Y-21.872 Z19.023 A105.0067 B0.0409 
N1411 X-161.032 Y-21.856 Z18.227 A105.7511 B0.0516 
N1412 X-161.032 Y-21.731 Z17.395 A106.1322 B0.0630 
N1413 X-161.032 Y-21.530 Z16.527 A106.2699 B0.0762 
N1414 X-161.032 Y-21.303 Z15.618 A106.3551 B0.0905 
N1415 X-161.032 Y-21.067 Z14.673 A106.4528 B0.1056 
N1416 X-161.032 Y-20.825 Z13.705 A106.5555 B0.1211 
N1417 X-161.032 Y-20.576 Z12.726 A106.6497 B0.1369 
N1418 X-161.032 Y-20.333 Z11.744 A106.7822 B0.1524 
N1419 X-161.032 Y-20.170 Z10.747 A107.2593 B0.1644 
N1420 X-161.032 Y-20.232 Z9.693 A108.7416 B0.1646 
N1421 X-161.032 Y-20.620 Z8.524 A111.7891 B0.1429 
N1422 X-161.032 Y-21.266 Z7.208 A116.2919 B0.0945 
N1423 X-161.032 Y-21.909 Z5.807 A121.2576 B0.0271 
N1424 X-161.033 Y-22.384 Z4.404 A125.9532 B-0.0507 
N1425 X-161.033 Y-22.924 Z2.814 A131.6368 B-0.1598 
N1426 X-161.034 Y-23.732 Z0.676 A140.0857 B-0.3274 
N1427 X-161.035 Y-24.438 Z-1.980 A150.5354 B-0.5364 
N1428 X-161.036 Y-24.596 Z-4.677 A160.7357 B-0.7424 
N1429 X-161.036 Y-24.106 Z-6.738 A168.2256 B-0.9040 
N1430 X-161.037 Y-23.210 Z-7.970 A172.4929 B-0.9908 
N1431 X-161.037 Y-22.115 Z-8.680 A174.7953 B-0.9970 
N1432 X-161.037 Y-20.906 Z-9.296 A176.8431 B-0.9921 
N1433 X-161.037 Y-19.590 Z-9.941 A179.1793 B-1.0004 
N1434 X-161.037 Y-18.169 Z-10.387 A180.9075 B-1.0129 
N1435 X-161.037 Y-16.671 Z-10.523 A181.4869 B-1.0207 
N1436 X-161.037 Y-15.115 Z-10.525 A181.5565 B-1.0258 
N1437 X-161.037 Y-13.516 Z-10.510 A181.5581 B-1.0305 
N1438 X-161.037 Y-11.898 Z-10.494 B-1.0354 
N1439 X-161.037 Y-10.283 Z-10.478 B-1.0402 
N1440 X-161.037 Y-8.697 Z-10.463 B-1.0449 
N1441 X-161.037 Y-7.164 Z-10.448 A181.5581 B-1.0495 
N1442 X-161.037 Y-5.706 Z-10.434 B-1.0539 
N1443 X-161.037 Y-4.342 Z-10.421 A181.5604 B-1.0580 
N1444 X-161.037 Y-3.086 Z-10.415 A181.5875 B-1.0623 
N1445 X-161.037 Y-1.947 Z-10.415 A181.6355 B-1.0672 
N1446 X-161.037 Y-0.930 Z-10.409 A181.6564 B-1.0719 
N1447 X-161.037 Y-0.033 Z-10.424 A181.7605 B-1.0773 
N1448 X-161.037 Y0.756 Z-10.625 A182.6394 B-1.0927 
N1449 X-161.037 Y1.474 Z-11.239 A185.2706 B-1.1324 
N1450 X-161.038 Y2.208 Z-12.357 A190.1225 B-1.2012 
N1451 X-161.038 Y3.079 Z-13.865 A196.8670 B-1.2887 
N1452 X-161.038 Y4.208 Z-15.613 A205.1078 B-1.3792 
N1453 X-161.039 Y5.712 Z-17.476 A214.6910 B-1.4549 
N1454 X-161.039 Y7.644 Z-19.255 A225.2611 B-1.4930 
N1455 X-161.039 Y9.905 Z-20.698 A236.0741 B-1.4478 
N1456 X-161.038 Y12.357 Z-21.684 A246.7306 B-1.2582 
N1457 X-161.037 Y14.557 Z-22.100 A255.7253 B-1.0432 
N1458 X-161.036 Y16.490 Z-22.118 A263.4484 B-0.8612 
N1459 X-161.036 Y18.103 Z-21.849 A269.9087 B-0.7112 
N1460 X-161.035 Y19.374 Z-21.391 A275.1243 B-0.5912 
N1461 X-161.035 Y20.323 Z-20.816 A279.2139 B-0.4973 
N1462 X-161.034 Y20.990 Z-20.172 A282.3338 B-0.4254 
N1463 X-161.034 Y21.430 Z-19.480 A284.6880 B-0.3707 
N1464 X-161.034 Y21.681 Z-18.750 A286.4256 B-0.3294 
N1465 X-161.034 Y21.775 Z-17.988 A287.6485 B-0.2988 
N1466 X-161.034 Y21.719 Z-17.200 A288.3722 B-0.2775 
N1467 X-161.034 Y21.542 Z-16.387 A288.6830 B-0.2630 
N1468 X-161.034 Y21.303 Z-15.539 A288.8100 B-0.2506 
N1469 X-161.034 Y21.042 Z-14.650 A288.9082 B-0.2373 
N1470 X-161.034 Y20.772 Z-13.727 A289.0176 B-0.2228 
N1471 X-161.033 Y20.490 Z-12.782 A289.1226 B-0.2076 
N1472 X-161.033 Y20.223 Z-11.817 A289.3132 B-0.1906 
N1473 X-161.033 Y20.062 Z-10.810 A289.9975 B-0.1673 
N1474 X-161.033 Y20.139 Z-9.711 A291.8053 B-0.1321 
N1475 X-161.033 Y20.508 Z-8.474 A295.1011 B-0.0847 
N1476 X-161.033 Y21.018 Z-7.114 A299.4016 B-0.0345 
N1477 X-161.033 Y21.387 Z-5.758 A303.4885 B0.0041 
N1478 X-161.032 Y21.564 Z-4.462 A307.0494 B0.0284 
N1479 X-161.032 Y21.843 Z-2.999 A311.6145 B0.0467 
N1480 X-161.032 Y22.428 Z-1.041 A318.8565 B0.0609 
N1481 X-161.032 Y23.096 Z1.542 A328.8637 B0.0623 
N1482 X-161.032 Y23.252 Z4.157 A338.6234 B0.0303 
N1483 X-161.033 Y22.763 Z6.102 A345.4781 B0.0019 
N1484 X-161.033 Y21.904 Z7.437 A349.9703 B0.0000 
N1485 X-161.033 Y20.852 Z8.463 A353.3957 
N1486 X-161.033 Y19.667 Z9.422 A356.7786 
N1487 X-161.033 Y18.355 Z10.206 A359.7126 
N1488 X-161.033 Y16.945 Z10.563 A1.1200 
N1489 X-161.033 Y15.475 Z10.629 A1.4208 
N1490 X-161.033 Y13.959 Z10.621 A1.4352 
N1491 X-161.033 Y12.411 Z10.609 
N1492 X-161.033 Y10.854 Z10.597 
N1493 X-161.033 Y9.309 Z10.586 
N1494 X-161.033 Y7.799 Z10.574 
N1495 X-161.033 Y6.347 Z10.563 
N1496 X-161.033 Y4.973 Z10.553 A1.4355 
N1497 X-161.033 Y3.692 Z10.546 A1.4467 
N1498 X-161.033 Y2.518 Z10.546 A1.4880 
N1499 X-161.033 Y1.457 Z10.546 A1.5229 
N1500 X-161.033 Y0.513 Z10.541 A1.5392 
N1501 X-161.033 Y-0.316 Z10.587 A1.7638 
N1502 X-161.033 Y-1.045 Z10.840 A2.8526 
N1503 X-161.033 Y-1.712 Z11.488 A5.6245 
N1504 X-161.033 Y-2.409 Z12.644 A10.6287 
N1505 X-161.033 Y-3.262 Z14.196 A17.5521 
N1506 X-161.033 Y-4.379 Z15.961 A25.8651 
N1507 X-161.033 Y-5.831 Z17.765 A35.1562 
N1508 X-161.033 Y-7.635 Z19.440 A45.0713 
N1509 X-161.033 Y-9.673 Z20.787 A54.9209 
N1510 X-161.033 Y-11.984 Z21.810 A65.1200 
N1511 X-161.033 Y-14.374 Z22.385 A75.0408 
N1512 X-161.033 Y-16.554 Z22.498 A83.8200 
N1513 X-161.033 Y-18.414 Z22.260 A91.3170 B0.0002 
N1514 X-161.033 Y-19.829 Z21.800 A97.1692 B0.0019 
N1515 X-161.033 Y-20.894 Z21.215 A101.8039 B0.0061 
N1516 X-161.033 Y-21.636 Z20.566 A105.3266 B0.0129 
N1517 X-161.032 Y-22.082 Z19.892 A107.8090 B0.0215 
N1518 X-161.032 Y-22.324 Z19.191 A109.6140 B0.0301 
N1519 X-161.032 Y-22.415 Z18.458 A110.9521 B0.0375 
N1520 X-161.032 Y-22.361 Z17.701 A111.8193 B0.0446 
N1521 X-161.032 Y-22.168 Z16.924 A112.2216 B0.0536 
N1522 X-161.032 Y-21.888 Z16.116 A112.3536 B0.0645 
N1523 X-161.032 Y-21.580 Z15.260 A112.4585 B0.0764 
N1524 X-161.032 Y-21.258 Z14.361 A112.5811 B0.0888 
N1525 X-161.032 Y-20.923 Z13.431 A112.7090 B0.1016 
N1526 X-161.032 Y-20.578 Z12.480 A112.8394 B0.1146 
N1527 X-161.032 Y-20.260 Z11.504 A113.1243 B0.1257 
N1528 X-161.032 Y-20.078 Z10.464 A114.0604 B0.1271 
N1529 X-161.032 Y-20.138 Z9.309 A116.1913 B0.1076 
N1530 X-161.032 Y-20.379 Z8.041 A119.3832 B0.0633 
N1531 X-161.033 Y-20.558 Z6.767 A122.6050 B0.0076 
N1532 X-161.033 Y-20.596 Z5.547 A125.4345 B-0.0517 
N1533 X-161.033 Y-20.877 Z4.083 A129.8846 B-0.1570 
N1534 X-161.034 Y-21.621 Z1.993 A137.8639 B-0.3563 
N1535 X-161.035 Y-22.403 Z-0.733 A148.5700 B-0.6349 
N1536 X-161.037 Y-22.609 Z-3.492 A158.9484 B-0.9174 
N1537 X-161.037 Y-22.135 Z-5.582 A166.4321 B-1.1136 
N1538 X-161.038 Y-21.266 Z-7.004 A171.3597 B-1.1726 
N1539 X-161.038 Y-20.202 Z-8.111 A175.2412 B-1.1964 
N1540 X-161.038 Y-18.999 Z-9.062 A178.7616 B-1.2256 
N1541 X-161.038 Y-17.683 Z-9.609 A180.8884 B-1.2473 
N1542 X-161.038 Y-16.301 Z-9.743 A181.4594 B-1.2561 
N1543 X-161.038 Y-14.868 Z-9.745 A181.5178 B-1.2606 
N1544 X-161.038 Y-13.395 Z-9.732 A181.5190 B-1.2647 
N1545 X-161.038 Y-11.900 Z-9.718 B-1.2688 
N1546 X-161.038 Y-10.402 Z-9.705 B-1.2730 
N1547 X-161.038 Y-8.923 Z-9.692 B-1.2771 
N1548 X-161.038 Y-7.485 Z-9.679 A181.5190 B-1.2811 
N1549 X-161.038 Y-6.109 Z-9.666 B-1.2849 
N1550 X-161.038 Y-4.814 Z-9.654 A181.5194 B-1.2885 
N1551 X-161.038 Y-3.613 Z-9.646 A181.5296 B-1.2921 
N1552 X-161.038 Y-2.518 Z-9.643 A181.5599 B-1.2961 
N1553 X-161.038 Y-1.535 Z-9.639 A181.5822 B-1.3001 
N1554 X-161.038 Y-0.665 Z-9.635 A181.6024 B-1.3039 
N1555 X-161.038 Y0.096 Z-9.704 A181.9200 B-1.3120 
N1556 X-161.038 Y0.765 Z-10.032 A183.3234 B-1.3371 
N1557 X-161.039 Y1.391 Z-10.792 A186.5715 B-1.3910 
N1558 X-161.039 Y2.067 Z-12.002 A191.8234 B-1.4711 
N1559 X-161.039 Y2.892 Z-13.510 A198.5825 B-1.5615 
N1560 X-161.040 Y3.976 Z-15.220 A206.6664 B-1.6459 
N1561 X-161.040 Y5.427 Z-17.034 A216.0100 B-1.7057 
N1562 X-161.040 Y7.299 Z-18.774 A226.3286 B-1.7187 
N1563 X-161.040 Y9.477 Z-20.191 A236.8353 B-1.6586 
N1564 X-161.039 Y11.908 Z-21.207 A247.4917 B-1.4700 
N1565 X-161.038 Y14.211 Z-21.692 A257.0018 B-1.2163 
N1566 X-161.037 Y16.229 Z-21.751 A265.1249 B-0.9960 
N1567 X-161.036 Y17.951 Z-21.511 A272.0824 B-0.8075 
N1568 X-161.035 Y19.350 Z-21.071 A277.8844 B-0.6501 
N1569 X-161.035 Y20.444 Z-20.505 A282.6470 B-0.5208 
N1570 X-161.034 Y21.261 Z-19.864 A286.4884 B-0.4168 
N1571 X-161.034 Y21.841 Z-19.174 A289.5648 B-0.3340 
N1572 X-161.034 Y22.207 Z-18.456 A291.9549 B-0.2699 
N1573 X-161.034 Y22.376 Z-17.721 A293.7027 B-0.2228 
N1574 X-161.033 Y22.350 Z-16.983 A294.7941 B-0.1920 
N1575 X-161.033 Y22.151 Z-16.243 A295.2830 B-0.1752 
N1576 X-161.033 Y21.852 Z-15.477 A295.4617 B-0.1647 
N1577 X-161.033 Y21.512 Z-14.662 A295.5810 B-0.1546 
N1578 X-161.033 Y21.153 Z-13.797 A295.7182 B-0.1432 
N1579 X-161.033 Y20.774 Z-12.893 A295.8618 B-0.1312 
N1580 X-161.033 Y20.397 Z-11.952 A296.0835 B-0.1176 
N1581 X-161.033 Y20.094 Z-10.949 A296.7164 B-0.0976 
N1582 X-161.033 Y19.946 Z-9.847 A298.1667 B-0.0676 
N1583 X-161.033 Y19.931 Z-8.653 A300.4098 B-0.0321 
N1584 X-161.033 Y19.885 Z-7.451 A302.7337 B-0.0029 
N1585 X-161.033 Y19.681 Z-6.334 A304.4836 B0.0133 
N1586 X-161.032 Y19.468 Z-5.211 A306.3459 B0.0236 
N1587 X-161.032 Y19.651 Z-3.741 A310.5452 B0.0385 
N1588 X-161.032 Y20.355 Z-1.583 A318.6470 B0.0507 
N1589 X-161.032 Y21.000 Z1.084 A328.8711 B0.0308 
N1590 X-161.033 Y21.064 Z3.640 A338.2279 B0.0026 
N1591 X-161.033 Y20.600 Z5.840 A346.0975 B0.0000 
N1592 X-161.033 Y19.754 Z7.595 A352.3892 B0.0000 
N1593 X-161.033 Y18.661 Z8.974 A357.5093 
N1594 X-161.033 Y17.410 Z9.739 A0.4551 
N1595 X-161.033 Y16.089 Z9.943 A1.2820 
N1596 X-161.033 Y14.721 Z9.959 A1.3846 
N1597 X-161.033 Y13.315 Z9.950 A1.3857 
N1598 X-161.033 Y11.882 Z9.940 
N1599 X-161.033 Y10.441 Z9.931 
N1600 X-161.033 Y9.009 Z9.921 
N1601 X-161.033 Y7.608 Z9.912 
N1602 X-161.033 Y6.257 Z9.903 
N1603 X-161.033 Y4.976 Z9.894 
N1604 X-161.033 Y3.779 Z9.886 
N1605 X-161.033 Y2.679 Z9.879 
N1606 X-161.033 Y1.685 Z9.872 
N1607 X-161.033 Y0.799 Z9.867 A1.3904 
N1608 X-161.033 Y0.021 Z9.898 A1.5404 
N1609 X-161.033 Y-0.657 Z10.081 A2.3249 
N1610 X-161.033 Y-1.261 Z10.562 A4.3714 
N1611 X-161.033 Y-1.847 Z11.447 A8.1619 
N1612 X-161.033 Y-2.507 Z12.703 A13.6479 
N1613 X-161.033 Y-3.338 Z14.233 A20.5559 
N1614 X-161.033 Y-4.453 Z15.961 A28.8053 
N1615 X-161.033 Y-5.963 Z17.780 A38.3429 
N1616 X-161.033 Y-7.890 Z19.482 A48.7435 
N1617 X-161.033 Y-10.082 Z20.821 A59.1438 
N1618 X-161.033 Y-12.507 Z21.757 A69.6702 
N1619 X-161.033 Y-15.035 Z22.224 A80.0795 
N1620 X-161.033 Y-17.193 Z22.208 A88.7963 
N1621 X-161.033 Y-18.977 Z21.880 A96.0813 B0.0003 
N1622 X-161.033 Y-20.330 Z21.375 A101.8150 B0.0024 
N1623 X-161.033 Y-21.397 Z20.760 A106.6115 B0.0072 
N1624 X-161.033 Y-22.209 Z20.076 A110.6016 B0.0130 
N1625 X-161.033 Y-22.746 Z19.371 A113.6725 B0.0172 
N1626 X-161.033 Y-23.062 Z18.653 A116.0288 B0.0188 
N1627 X-161.033 Y-23.188 Z17.923 A117.7889 B0.0189 
N1628 X-161.033 Y-23.111 Z17.206 A118.8531 B0.0193 
N1629 X-161.032 Y-22.858 Z16.495 A119.3084 B0.0216 
N1630 X-161.032 Y-22.502 Z15.759 A119.4546 B0.0255 
N1631 X-161.032 Y-22.107 Z14.967 A119.5807 B0.0298 
N1632 X-161.032 Y-21.687 Z14.121 A119.7323 B0.0339 
N1633 X-161.032 Y-21.244 Z13.232 A119.8949 B0.0377 
N1634 X-161.032 Y-20.782 Z12.309 A120.0728 B0.0410 
N1635 X-161.032 Y-20.327 Z11.351 A120.3568 B0.0422 
N1636 X-161.032 Y-19.926 Z10.341 A120.9718 B0.0365 
N1637 X-161.033 Y-19.590 Z9.280 A121.9789 B0.0205 
N1638 X-161.033 Y-19.243 Z8.220 A123.0277 B-0.0006 
N1639 X-161.033 Y-18.818 Z7.211 A123.7676 B-0.0188 
N1640 X-161.033 Y-18.583 Z6.071 A125.5190 B-0.0668 
N1641 X-161.034 Y-18.993 Z4.385 A130.9719 B-0.2267 
N1642 X-161.035 Y-19.767 Z2.074 A139.7742 B-0.5072 
N1643 X-161.036 Y-20.430 Z-0.787 A150.7985 B-0.8822 
N1644 X-161.038 Y-20.502 Z-3.692 A161.6556 B-1.1982 
N1645 X-161.038 Y-19.921 Z-6.061 A170.3720 B-1.3412 
N1646 X-161.039 Y-18.931 Z-7.763 A176.7278 B-1.4270 
N1647 X-161.039 Y-17.736 Z-8.701 A180.3499 B-1.4745 
N1648 X-161.039 Y-16.467 Z-8.953 A181.3766 B-1.4898 
N1649 X-161.039 Y-15.158 Z-8.964 A181.4641 B-1.4940 
N1650 X-161.039 Y-13.811 Z-8.954 A181.4674 B-1.4974 
N1651 X-161.039 Y-12.438 Z-8.943 B-1.5009 
N1652 X-161.039 Y-11.051 Z-8.932 B-1.5045 
N1653 X-161.039 Y-9.669 Z-8.920 B-1.5080 
N1654 X-161.039 Y-8.309 Z-8.909 A181.4674 B-1.5115 
N1655 X-161.039 Y-6.992 Z-8.899 B-1.5148 
N1656 X-161.039 Y-5.736 Z-8.888 B-1.5180 
N1657 X-161.039 Y-4.556 Z-8.879 B-1.5210 
N1658 X-161.039 Y-3.466 Z-8.870 A181.4674 B-1.5238 
N1659 X-161.039 Y-2.476 Z-8.862 A181.4675 B-1.5263 
N1660 X-161.039 Y-1.590 Z-8.856 A181.4731 B-1.5287 
N1661 X-161.039 Y-0.809 Z-8.865 A181.5366 B-1.5321 
N1662 X-161.039 Y-0.129 Z-8.971 A182.0034 B-1.5431 
N1663 X-161.039 Y0.469 Z-9.336 A183.5548 B-1.5741 
N1664 X-161.040 Y1.023 Z-10.035 A186.5409 B-1.6299 
N1665 X-161.040 Y1.592 Z-11.032 A190.8607 B-1.7049 
N1666 X-161.040 Y2.250 Z-12.288 A196.4232 B-1.7896 
N1667 X-161.041 Y3.118 Z-13.833 A203.5032 B-1.8739 
N1668 X-161.041 Y4.354 Z-15.644 A212.3407 B-1.9383 
N1669 X-161.041 Y6.095 Z-17.559 A222.8177 B-1.9533 
N1670 X-161.041 Y8.252 Z-19.223 A233.8579 B-1.8961 
N1671 X-161.040 Y10.609 Z-20.416 A244.5675 B-1.7559 
N1672 X-161.039 Y13.581 Z-21.256 A257.1022 B-1.4298 
N1673 X-161.037 Y15.957 Z-21.398 A266.7363 B-1.1260 
N1674 X-161.036 Y17.928 Z-21.158 A274.7499 B-0.8733 
N1675 X-161.035 Y19.499 Z-20.688 A281.3262 B-0.6649 
N1676 X-161.035 Y20.732 Z-20.084 A286.7672 B-0.4925 
N1677 X-161.034 Y21.674 Z-19.404 A291.2629 B-0.3511 
N1678 X-161.034 Y22.364 Z-18.679 A294.9754 B-0.2362 
N1679 X-161.033 Y22.823 Z-17.935 A297.9603 B-0.1457 
N1680 X-161.033 Y23.052 Z-17.196 A300.1980 B-0.0793 
N1681 X-161.033 Y23.040 Z-16.490 A301.5895 B-0.0388 
N1682 X-161.033 Y22.794 Z-15.830 A302.1093 B-0.0234 
N1683 X-161.033 Y22.408 Z-15.165 A302.1636 B-0.0208 
N1684 X-161.033 Y21.971 Z-14.444 A302.1636 B-0.0196 
N1685 X-161.033 Y21.500 Z-13.664 B-0.0183 
N1686 X-161.033 Y20.998 Z-12.834 B-0.0169 
N1687 X-161.033 Y20.471 Z-11.963 B-0.0154 
N1688 X-161.033 Y19.925 Z-11.059 B-0.0139 
N1689 X-161.033 Y19.365 Z-10.135 B-0.0123 
N1690 X-161.033 Y18.798 Z-9.197 B-0.0107 
N1691 X-161.033 Y18.229 Z-8.255 B-0.0092 
N1692 X-161.033 Y17.659 Z-7.313 A302.1649 B-0.0075 
N1693 X-161.033 Y17.182 Z-6.316 A302.6096 B-0.0027 
N1694 X-161.033 Y17.384 Z-4.849 A306.5648 B0.0172 
N1695 X-161.032 Y18.104 Z-2.803 A314.0798 B0.0283 
N1696 X-161.033 Y19.030 Z-0.021 A325.0442 B0.0078 
N1697 X-161.033 Y19.594 Z3.365 A338.1747 B0.0000 
N1698 X-161.033 Y19.275 Z6.345 A349.4027 B0.0000 
N1699 X-161.033 Y18.332 Z8.282 A356.7017 
N1700 X-161.033 Y17.146 Z9.164 A0.0884 
N1701 X-161.033 Y15.894 Z9.354 A0.8259 
N1702 X-161.033 Y14.603 Z9.376 A0.9026 
N1703 X-161.033 Y13.277 Z9.378 A0.9034 
N1704 X-161.033 Y11.925 Z9.381 
N1705 X-161.033 Y10.560 Z9.383 
N1706 X-161.033 Y9.197 Z9.385 
N1707 X-161.033 Y7.856 Z9.388 
N1708 X-161.033 Y6.554 Z9.390 
N1709 X-161.033 Y5.310 Z9.392 
N1710 X-161.033 Y4.140 Z9.394 
N1711 X-161.033 Y3.057 Z9.396 
N1712 X-161.033 Y2.070 Z9.397 
N1713 X-161.033 Y1.187 Z9.399 A0.9038 
N1714 X-161.033 Y0.407 Z9.416 A0.9683 
N1715 X-161.033 Y-0.274 Z9.535 A1.4588 
N1716 X-161.033 Y-0.868 Z9.879 A2.9022 
N1717 X-161.033 Y-1.409 Z10.526 A5.6451 
N1718 X-161.033 Y-1.956 Z11.489 A9.7899 
N1719 X-161.033 Y-2.587 Z12.738 A15.2692 
N1720 X-161.033 Y-3.408 Z14.261 A22.1777 
N1721 X-161.033 Y-4.561 Z16.033 A30.6962 
N1722 X-161.033 Y-6.189 Z17.934 A40.8205 
N1723 X-161.033 Y-8.276 Z19.666 A51.8152 
N1724 X-161.033 Y-10.673 Z20.990 A62.9167 
N1725 X-161.033 Y-13.478 Z21.883 A74.8606 
N1726 X-161.033 Y-16.058 Z22.143 A85.3761 
N1727 X-161.033 Y-18.098 Z21.954 A93.6514 B0.0000 
N1728 X-161.033 Y-19.689 Z21.523 A100.2684 B0.0006 
N1729 X-161.033 Y-20.907 Z20.961 A105.5881 B0.0035 
N1730 X-161.033 Y-21.911 Z20.297 A110.2767 B0.0086 
N1731 X-161.033 Y-22.680 Z19.570 A114.2647 B0.0127 
N1732 X-161.033 Y-23.180 Z18.833 A117.3694 B0.0131 
N1733 X-161.033 Y-23.452 Z18.096 A119.7382 B0.0105 
N1734 X-161.033 Y-23.493 Z17.383 A121.3123 B0.0071 
N1735 X-161.033 Y-23.295 Z16.715 A122.0082 B0.0054 
N1736 X-161.033 Y-22.944 Z16.049 A122.1890 B0.0056 
N1737 X-161.033 Y-22.520 Z15.339 A122.2068 B0.0067 
N1738 X-161.033 Y-22.055 Z14.572 A122.2068 B0.0081 
N1739 X-161.033 Y-21.559 Z13.753 B0.0096 
N1740 X-161.033 Y-21.036 Z12.889 B0.0112 
N1741 X-161.033 Y-20.492 Z11.992 B0.0128 
N1742 X-161.033 Y-19.934 Z11.071 B0.0145 
N1743 X-161.033 Y-19.367 Z10.135 B0.0162 
N1744 X-161.033 Y-18.796 Z9.193 B0.0179 
N1745 X-161.033 Y-18.225 Z8.250 B0.0196 
N1746 X-161.033 Y-17.707 Z7.278 A122.4565 B0.0146 
N1747 X-161.033 Y-17.752 Z5.926 A125.5722 B-0.0746 
N1748 X-161.034 Y-18.362 Z4.029 A132.2489 B-0.2875 
N1749 X-161.035 Y-19.260 Z1.437 A142.3754 B-0.6414 
N1750 X-161.037 Y-19.904 Z-1.742 A154.6924 B-1.0631 
N1751 X-161.038 Y-19.819 Z-4.921 A166.7364 B-1.3255 
N1752 X-161.039 Y-18.995 Z-7.095 A174.8709 B-1.4525 
N1753 X-161.039 Y-17.856 Z-8.285 A179.4127 B-1.5144 
N1754 X-161.039 Y-16.617 Z-8.647 A180.8245 B-1.5324 
N1755 X-161.039 Y-15.339 Z-8.682 A180.9564 B-1.5336 
N1756 X-161.039 Y-14.024 Z-8.684 A180.9617 B-1.5335 
N1757 X-161.039 Y-12.681 Z-8.685 B-1.5333 
N1758 X-161.039 Y-11.322 Z-8.686 B-1.5331 
N1759 X-161.039 Y-9.961 Z-8.687 B-1.5329 
N1760 X-161.039 Y-8.616 Z-8.688 B-1.5327 
N1761 X-161.039 Y-7.307 Z-8.688 B-1.5326 
N1762 X-161.039 Y-6.050 Z-8.689 B-1.5324 
N1763 X-161.039 Y-4.862 Z-8.690 B-1.5322 
N1764 X-161.039 Y-3.758 Z-8.691 B-1.5321 
N1765 X-161.039 Y-2.748 Z-8.691 B-1.5319 
N1766 X-161.039 Y-1.838 Z-8.693 A180.9645 B-1.5318 
N1767 X-161.039 Y-1.032 Z-8.702 A180.9993 B-1.5325 
N1768 X-161.039 Y-0.325 Z-8.773 A181.2926 B-1.5385 
N1769 X-161.039 Y0.292 Z-9.056 A182.4782 B-1.5615 
N1770 X-161.039 Y0.853 Z-9.669 A185.0687 B-1.6101 
N1771 X-161.040 Y1.412 Z-10.608 A189.0979 B-1.6817 
N1772 X-161.040 Y2.051 Z-11.843 A194.5135 B-1.7680 
N1773 X-161.041 Y2.906 Z-13.435 A201.7159 B-1.8601 
N1774 X-161.041 Y4.217 Z-15.441 A211.3688 B-1.9366 
N1775 X-161.041 Y6.280 Z-17.713 A223.7965 B-1.9532 
N1776 X-161.041 Y9.096 Z-19.707 A237.7972 B-1.8663 
N1777 G00 X-162.669 Y51.382 Z-46.339 
;RAPORT("TD999999","Spiral Rough Rhombic:102 End")
;trailer : concat=None
; points cnt = 1731
N1779 MSG (" --- GROUPED OF SUBPROGRAM --- ")
N1780 FGROUP()
N1781 TRAFOOF
; PROGRAM NAME: D99999911
; ORDER       : D999999
; OPER. NAME  : Spiral Finish Rhombic:103
; OPER. DESCR.: Spiral Finish rhombic Root
; OPER. TYPE  : rhombMillFinish
; GEO. OPTION : 2
; MACHINE     : HSTM_300HD_SIM840D_Py
;             : HSTM300/500 - HAMUEL: 5-axis milling machine-SIM840D Traori PP_Script
; CONTROL     : SINUMERIK 840D
; created:   2022-11-03 09:01:33.499593
;-------DODATKOWE DANE-------------------
; PROGRAMISTA : Mariusz Malec
; PARTID      : 139T006893P1018_-
;  ae         : 24.0
;  lean_angle : 1.0
;  pln_offset : 0.25
;----------------------------------------
;RAPORT("TD999999","Spiral Finish Rhombic:103")
N10 TRAFOOF
N11 D0
N12 G90 G94
N13 G0 G53 D0 Z550
N14 STOPRE
M9 ; chlodziwo wyl
; --- Spiral Finish Rhombic:103 - Spiral Finish rhombic Root ---
N16 ;ToolChange : concat=None ,current_tdmid=None, PP.tdmId=941293
N17 TRAFOOF
N18 G0 G53 D0 Z550 B0
N19 STOPRE
N20 MSG(" TLID=941293 D=40.0 R=6.0 Ang=0.0 Len=90.0 ")
N21 S2148 M03
N22 STOPRE
N23 CYCLE832(0.01,1,1)
N24 G0 G53 A1.0000 B-0.0000
N25 TRAORI
N26 G54 D1
N27 D2 
N28 X-147.501 Y40.636 Z58.163 A1.0000 
N29 M346 ; chlodziwo mgla
N30 X-147.501 Y41.509 Z8.171 
N31 G01 X-147.501 Y31.509 Z8.171 F800 
N32 X-147.501 Y26.509 Z8.171 
N33 X-147.501 Y26.242 Z8.171 
N34 X-147.501 Y25.976 Z8.171 
N35 X-147.501 Y25.709 Z8.171 
N36 X-147.501 Y25.442 Z8.171 
N37 X-147.501 Y25.176 Z8.171 
N38 X-147.501 Y24.909 Z8.171 
N39 X-147.501 Y24.642 Z8.171 
N40 X-147.501 Y24.376 Z8.171 
N41 X-147.501 Y24.109 Z8.171 
N42 X-147.501 Y23.842 Z8.171 
N43 X-147.501 Y23.576 Z8.171 
N44 X-147.501 Y23.309 Z8.171 
N45 X-147.501 Y23.042 Z8.171 
N46 X-147.501 Y22.776 Z8.171 
N47 X-147.501 Y22.509 Z8.171 
N48 X-147.501 Y22.242 Z8.171 
N49 X-147.501 Y21.976 Z8.171 
N50 X-147.501 Y21.709 Z8.171 
N51 X-147.501 Y21.442 Z8.171 
N52 X-147.501 Y21.176 Z8.171 
N53 X-147.501 Y20.909 Z8.171 
N54 X-147.501 Y20.642 Z8.171 
N55 X-147.501 Y20.376 Z8.171 
N56 X-147.501 Y20.109 Z8.171 
N57 X-147.501 Y19.842 Z8.171 
N58 X-147.501 Y19.576 Z8.171 
N59 X-147.501 Y19.309 Z8.171 
N60 X-147.501 Y19.042 Z8.171 
N61 X-147.501 Y18.776 Z8.171 
N62 X-147.501 Y18.509 Z8.171 
N63 X-147.501 Y18.242 Z8.171 
N64 X-147.501 Y17.976 Z8.171 
N65 X-147.501 Y17.709 Z8.171 
N66 X-147.501 Y17.442 Z8.171 
N67 X-147.501 Y17.176 Z8.171 
N68 X-147.501 Y16.909 Z8.171 
N69 X-147.501 Y16.642 Z8.171 
N70 X-147.501 Y16.376 Z8.171 
N71 X-147.501 Y16.109 Z8.171 
N72 X-147.501 Y15.842 Z8.171 
N73 X-147.501 Y15.576 Z8.171 
N74 X-147.501 Y15.309 Z8.171 
N75 X-147.501 Y15.042 Z8.171 
N76 X-147.501 Y14.776 Z8.171 
N77 X-147.501 Y14.509 Z8.171 
N78 X-147.501 Y14.242 Z8.171 
N79 X-147.501 Y13.976 Z8.171 
N80 X-147.501 Y13.709 Z8.171 
N81 X-147.501 Y13.442 Z8.171 
N82 X-147.501 Y13.176 Z8.171 
N83 X-147.501 Y12.909 Z8.171 
N84 X-147.501 Y12.642 Z8.171 
N85 X-147.501 Y12.376 Z8.171 
N86 X-147.501 Y12.109 Z8.171 
N87 X-147.501 Y11.842 Z8.171 
N88 X-147.501 Y11.576 Z8.171 
N89 X-147.501 Y11.309 Z8.171 
N90 X-147.501 Y11.042 Z8.171 
N91 X-147.501 Y10.776 Z8.171 
N92 X-147.501 Y10.509 Z8.171 
N93 X-147.501 Y10.242 Z8.171 
N94 X-147.501 Y9.976 Z8.171 
N95 X-147.501 Y9.709 Z8.171 
N96 X-147.501 Y9.442 Z8.171 
N97 X-147.501 Y9.176 Z8.171 
N98 X-147.501 Y8.909 Z8.171 
N99 X-147.501 Y8.642 Z8.171 
N100 X-147.501 Y8.376 Z8.171 
N101 X-147.501 Y8.109 Z8.171 
N102 X-147.501 Y7.842 Z8.171 
N103 X-147.501 Y7.576 Z8.171 
N104 X-147.501 Y7.309 Z8.171 
N105 X-147.501 Y7.042 Z8.171 
N106 X-147.501 Y6.776 Z8.171 
N107 X-147.501 Y6.509 Z8.171 
N108 X-147.501 Y-15.895 Z8.171 
N109 X-147.501 Y-16.162 Z8.171 
N110 X-147.501 Y-16.429 Z8.171 
N111 X-147.501 Y-16.695 Z8.171 
N112 X-147.501 Y-16.962 Z8.171 
N113 X-147.501 Y-17.229 Z8.171 
N114 X-147.501 Y-17.495 Z8.171 
N115 X-147.501 Y-17.762 Z8.171 
N116 X-147.501 Y-18.029 Z8.171 
N117 X-147.501 Y-18.295 Z8.171 
N118 X-147.501 Y-18.562 Z8.171 
N119 X-147.501 Y-18.829 Z8.171 
N120 X-147.501 Y-19.095 Z8.171 
N121 X-147.501 Y-19.362 Z8.171 
N122 X-147.501 Y-19.629 Z8.171 
N123 X-147.501 Y-19.895 Z8.171 
N124 X-147.501 Y-20.162 Z8.171 
N125 X-147.501 Y-20.429 Z8.171 
N126 X-147.501 Y-20.695 Z8.171 
N127 X-147.501 Y-20.962 Z8.171 
N128 X-147.501 Y-21.229 Z8.171 
N129 X-147.501 Y-21.495 Z8.171 
N130 X-147.501 Y-21.762 Z8.171 
N131 X-147.501 Y-22.029 Z8.171 
N132 X-147.501 Y-22.295 Z8.171 
N133 X-147.501 Y-22.562 Z8.171 
N134 X-147.501 Y-22.829 Z8.171 
N135 X-147.501 Y-23.095 Z8.171 
N136 X-147.501 Y-23.362 Z8.171 
N137 X-147.501 Y-23.629 Z8.171 
N138 X-147.501 Y-23.895 Z8.171 
N139 X-147.501 Y-24.162 Z8.171 
N140 X-147.501 Y-24.429 Z8.171 
N141 X-147.501 Y-24.695 Z8.171 
N142 X-147.501 Y-24.962 Z8.171 
N143 X-147.501 Y-25.229 Z8.171 
N144 X-147.501 Y-25.495 Z8.171 
N145 X-147.501 Y-25.762 Z8.171 
N146 X-147.501 Y-26.029 Z8.171 
N147 X-147.501 Y-26.295 Z8.171 
N148 X-147.501 Y-26.562 Z8.171 
N149 X-147.501 Y-26.829 Z8.171 
N150 X-147.501 Y-27.095 Z8.171 
N151 X-147.501 Y-27.362 Z8.171 
N152 X-147.501 Y-27.629 Z8.171 
N153 X-147.501 Y-27.895 Z8.171 
N154 X-147.501 Y-28.162 Z8.171 
N155 X-147.501 Y-28.429 Z8.171 
N156 X-147.501 Y-28.695 Z8.171 
N157 X-147.501 Y-28.962 Z8.171 
N158 X-147.501 Y-29.229 Z8.171 
N159 X-147.501 Y-29.495 Z8.171 
N160 X-147.501 Y-29.762 Z8.171 
N161 X-147.501 Y-30.029 Z8.171 
N162 X-147.501 Y-30.295 Z8.171 
N163 X-147.501 Y-30.562 Z8.171 
N164 X-147.501 Y-30.829 Z8.171 
N165 X-147.501 Y-31.095 Z8.171 
N166 X-147.501 Y-31.362 Z8.171 
N167 X-147.501 Y-31.629 Z8.171 
N168 X-147.501 Y-31.895 Z8.171 
N169 X-147.501 Y-32.162 Z8.171 
N170 X-147.501 Y-32.429 Z8.171 
N171 X-147.501 Y-32.695 Z8.171 
N172 X-147.501 Y-32.962 Z8.171 
N173 X-147.501 Y-33.229 Z8.171 
N174 X-147.501 Y-33.495 Z8.171 
N175 X-147.501 Y-33.762 Z8.171 
N176 X-147.501 Y-34.029 Z8.171 
N177 X-147.501 Y-34.295 Z8.171 
N178 X-147.501 Y-34.562 Z8.171 
N179 X-147.501 Y-34.829 Z8.171 
N180 X-147.501 Y-35.095 Z8.171 
N181 X-147.501 Y-35.362 Z8.171 
N182 X-147.501 Y-35.629 Z8.171 
N183 X-147.501 Y-35.895 Z8.171 
N184 X-147.501 Y-36.070 Z18.169 
N185 G00 X-147.501 Y-36.943 Z68.162 
N186 G01 X-160.533 Y30.462 Z68.162 F15000 
N187 X-160.533 Y31.334 Z18.169 
N188 X-160.533 Y31.509 Z8.171 F800 
N189 X-160.533 Y26.509 Z8.171 
N190 X-160.533 Y26.242 Z8.171 
N191 X-160.533 Y25.976 Z8.171 
N192 X-160.533 Y25.709 Z8.171 
N193 X-160.533 Y25.442 Z8.171 
N194 X-160.533 Y25.176 Z8.171 
N195 X-160.533 Y24.909 Z8.171 
N196 X-160.533 Y24.642 Z8.171 
N197 X-160.533 Y24.376 Z8.171 
N198 X-160.533 Y24.109 Z8.171 
N199 X-160.533 Y23.842 Z8.171 
N200 X-160.533 Y23.576 Z8.171 
N201 X-160.533 Y23.309 Z8.171 
N202 X-160.533 Y23.042 Z8.171 
N203 X-160.533 Y22.776 Z8.171 
N204 X-160.533 Y22.509 Z8.171 
N205 X-160.533 Y22.242 Z8.171 
N206 X-160.533 Y21.976 Z8.171 
N207 X-160.533 Y21.709 Z8.171 
N208 X-160.533 Y21.442 Z8.171 
N209 X-160.533 Y21.176 Z8.171 
N210 X-160.533 Y20.909 Z8.171 
N211 X-160.533 Y20.642 Z8.171 
N212 X-160.533 Y20.376 Z8.171 
N213 X-160.533 Y20.109 Z8.171 
N214 X-160.533 Y19.842 Z8.171 
N215 X-160.533 Y19.576 Z8.171 
N216 X-160.533 Y19.309 Z8.171 
N217 X-160.533 Y19.042 Z8.171 
N218 X-160.533 Y18.776 Z8.171 
N219 X-160.533 Y18.509 Z8.171 
N220 X-160.533 Y18.242 Z8.171 
N221 X-160.533 Y17.976 Z8.171 
N222 X-160.533 Y17.709 Z8.171 
N223 X-160.533 Y17.442 Z8.171 
N224 X-160.533 Y17.176 Z8.171 
N225 X-160.533 Y16.909 Z8.171 
N226 X-160.533 Y16.642 Z8.171 
N227 X-160.533 Y16.376 Z8.171 
N228 X-160.533 Y16.109 Z8.171 
N229 X-160.533 Y15.842 Z8.171 
N230 X-160.533 Y15.576 Z8.171 
N231 X-160.533 Y15.309 Z8.171 
N232 X-160.533 Y15.042 Z8.171 
N233 X-160.533 Y14.776 Z8.171 
N234 X-160.533 Y14.509 Z8.171 
N235 X-160.533 Y14.242 Z8.171 
N236 X-160.533 Y13.976 Z8.171 
N237 X-160.533 Y13.709 Z8.171 
N238 X-160.533 Y13.442 Z8.171 
N239 X-160.533 Y13.176 Z8.171 
N240 X-160.533 Y12.909 Z8.171 
N241 X-160.533 Y12.642 Z8.171 
N242 X-160.533 Y12.376 Z8.171 
N243 X-160.533 Y12.109 Z8.171 
N244 X-160.533 Y11.842 Z8.171 
N245 X-160.533 Y11.576 Z8.171 
N246 X-160.533 Y11.309 Z8.171 
N247 X-160.533 Y11.042 Z8.171 
N248 X-160.533 Y10.776 Z8.171 
N249 X-160.533 Y10.509 Z8.171 
N250 X-160.533 Y10.242 Z8.171 
N251 X-160.533 Y9.976 Z8.171 
N252 X-160.533 Y9.709 Z8.171 
N253 X-160.533 Y9.442 Z8.171 
N254 X-160.533 Y9.176 Z8.171 
N255 X-160.533 Y8.909 Z8.171 
N256 X-160.533 Y8.642 Z8.171 
N257 X-160.533 Y8.376 Z8.171 
N258 X-160.533 Y8.109 Z8.171 
N259 X-160.533 Y7.842 Z8.171 
N260 X-160.533 Y7.576 Z8.171 
N261 X-160.533 Y7.309 Z8.171 
N262 X-160.533 Y7.042 Z8.171 
N263 X-160.533 Y6.776 Z8.171 
N264 X-160.533 Y6.509 Z8.171 
N265 X-160.533 Y-15.895 Z8.171 
N266 X-160.533 Y-16.162 Z8.171 
N267 X-160.533 Y-16.429 Z8.171 
N268 X-160.533 Y-16.695 Z8.171 
N269 X-160.533 Y-16.962 Z8.171 
N270 X-160.533 Y-17.229 Z8.171 
N271 X-160.533 Y-17.495 Z8.171 
N272 X-160.533 Y-17.762 Z8.171 
N273 X-160.533 Y-18.029 Z8.171 
N274 X-160.533 Y-18.295 Z8.171 
N275 X-160.533 Y-18.562 Z8.171 
N276 X-160.533 Y-18.829 Z8.171 
N277 X-160.533 Y-19.095 Z8.171 
N278 X-160.533 Y-19.362 Z8.171 
N279 X-160.533 Y-19.629 Z8.171 
N280 X-160.533 Y-19.895 Z8.171 
N281 X-160.533 Y-20.162 Z8.171 
N282 X-160.533 Y-20.429 Z8.171 
N283 X-160.533 Y-20.695 Z8.171 
N284 X-160.533 Y-20.962 Z8.171 
N285 X-160.533 Y-21.229 Z8.171 
N286 X-160.533 Y-21.495 Z8.171 
N287 X-160.533 Y-21.762 Z8.171 
N288 X-160.533 Y-22.029 Z8.171 
N289 X-160.533 Y-22.295 Z8.171 
N290 X-160.533 Y-22.562 Z8.171 
N291 X-160.533 Y-22.829 Z8.171 
N292 X-160.533 Y-23.095 Z8.171 
N293 X-160.533 Y-23.362 Z8.171 
N294 X-160.533 Y-23.629 Z8.171 
N295 X-160.533 Y-23.895 Z8.171 
N296 X-160.533 Y-24.162 Z8.171 
N297 X-160.533 Y-24.429 Z8.171 
N298 X-160.533 Y-24.695 Z8.171 
N299 X-160.533 Y-24.962 Z8.171 
N300 X-160.533 Y-25.229 Z8.171 
N301 X-160.533 Y-25.495 Z8.171 
N302 X-160.533 Y-25.762 Z8.171 
N303 X-160.533 Y-26.029 Z8.171 
N304 X-160.533 Y-26.295 Z8.171 
N305 X-160.533 Y-26.562 Z8.171 
N306 X-160.533 Y-26.829 Z8.171 
N307 X-160.533 Y-27.095 Z8.171 
N308 X-160.533 Y-27.362 Z8.171 
N309 X-160.533 Y-27.629 Z8.171 
N310 X-160.533 Y-27.895 Z8.171 
N311 X-160.533 Y-28.162 Z8.171 
N312 X-160.533 Y-28.429 Z8.171 
N313 X-160.533 Y-28.695 Z8.171 
N314 X-160.533 Y-28.962 Z8.171 
N315 X-160.533 Y-29.229 Z8.171 
N316 X-160.533 Y-29.495 Z8.171 
N317 X-160.533 Y-29.762 Z8.171 
N318 X-160.533 Y-30.029 Z8.171 
N319 X-160.533 Y-30.295 Z8.171 
N320 X-160.533 Y-30.562 Z8.171 
N321 X-160.533 Y-30.829 Z8.171 
N322 X-160.533 Y-31.095 Z8.171 
N323 X-160.533 Y-31.362 Z8.171 
N324 X-160.533 Y-31.629 Z8.171 
N325 X-160.533 Y-31.895 Z8.171 
N326 X-160.533 Y-32.162 Z8.171 
N327 X-160.533 Y-32.429 Z8.171 
N328 X-160.533 Y-32.695 Z8.171 
N329 X-160.533 Y-32.962 Z8.171 
N330 X-160.533 Y-33.229 Z8.171 
N331 X-160.533 Y-33.495 Z8.171 
N332 X-160.533 Y-33.762 Z8.171 
N333 X-160.533 Y-34.029 Z8.171 
N334 X-160.533 Y-34.295 Z8.171 
N335 X-160.533 Y-34.562 Z8.171 
N336 X-160.533 Y-34.829 Z8.171 
N337 X-160.533 Y-35.095 Z8.171 
N338 X-160.533 Y-35.362 Z8.171 
N339 X-160.533 Y-35.629 Z8.171 
N340 X-160.533 Y-35.895 Z8.171 
N341 X-160.533 Y-36.070 Z18.169 
N342 G00 X-160.533 Y-36.943 Z68.162 
N343 ; DELTA A > 40.1
N344 TRAFOOF
N345 D2
N346 STOPRE
N347 G00 G54 Z296.000
N348 G01 A123.0000 F10000
N349 TRAORI
N350 G54 D2
N351 STOPRE
N352 TRANS 
N353 X-147.501 Y-80.041 Z-3.977 A123.0000 F15000 
N354 X-147.501 Y-38.107 Z23.255 
N355 X-147.501 Y-29.720 Z28.701 F800 
N356 X-147.501 Y-27.071 Z24.461 
N357 X-147.501 Y-26.929 Z24.235 
N358 X-147.501 Y-26.788 Z24.009 
N359 X-147.501 Y-26.647 Z23.783 
N360 X-147.501 Y-26.505 Z23.556 
N361 X-147.501 Y-26.364 Z23.330 
N362 X-147.501 Y-26.223 Z23.104 
N363 X-147.501 Y-26.082 Z22.878 
N364 X-147.501 Y-25.940 Z22.652 
N365 X-147.501 Y-25.799 Z22.426 
N366 X-147.501 Y-25.658 Z22.200 
N367 X-147.501 Y-25.516 Z21.973 
N368 X-147.501 Y-25.375 Z21.747 
N369 X-147.501 Y-25.234 Z21.521 
N370 X-147.501 Y-25.092 Z21.295 
N371 X-147.501 Y-24.951 Z21.069 
N372 X-147.501 Y-24.810 Z20.843 
N373 X-147.501 Y-24.668 Z20.617 
N374 X-147.501 Y-24.527 Z20.390 
N375 X-147.501 Y-24.386 Z20.164 
N376 X-147.501 Y-24.244 Z19.938 
N377 X-147.501 Y-24.103 Z19.712 
N378 X-147.501 Y-23.962 Z19.486 
N379 X-147.501 Y-23.821 Z19.260 
N380 X-147.501 Y-23.679 Z19.034 
N381 X-147.501 Y-23.538 Z18.807 
N382 X-147.501 Y-23.397 Z18.581 
N383 X-147.501 Y-23.255 Z18.355 
N384 X-147.501 Y-23.114 Z18.129 
N385 X-147.501 Y-22.973 Z17.903 
N386 X-147.501 Y-22.831 Z17.677 
N387 X-147.501 Y-22.690 Z17.451 
N388 X-147.501 Y-22.549 Z17.224 
N389 X-147.501 Y-22.407 Z16.998 
N390 X-147.501 Y-22.266 Z16.772 
N391 X-147.501 Y-22.125 Z16.546 
N392 X-147.501 Y-21.983 Z16.320 
N393 X-147.501 Y-21.842 Z16.094 
N394 X-147.501 Y-21.701 Z15.867 
N395 X-147.501 Y-21.560 Z15.641 
N396 X-147.501 Y-21.418 Z15.415 
N397 X-147.501 Y-21.277 Z15.189 
N398 X-147.501 Y-21.136 Z14.963 
N399 X-147.501 Y-20.994 Z14.737 
N400 X-147.501 Y-20.853 Z14.511 
N401 X-147.501 Y-20.712 Z14.284 
N402 X-147.501 Y-20.570 Z14.058 
N403 X-147.501 Y-20.429 Z13.832 
N404 X-147.501 Y-20.288 Z13.606 
N405 X-147.501 Y-20.146 Z13.380 
N406 X-147.501 Y-20.005 Z13.154 
N407 X-147.501 Y-19.864 Z12.928 
N408 X-147.501 Y-19.722 Z12.701 
N409 X-147.501 Y-19.581 Z12.475 
N410 X-147.501 Y-19.440 Z12.249 
N411 X-147.501 Y-19.299 Z12.023 
N412 X-147.501 Y-19.157 Z11.797 
N413 X-147.501 Y-19.016 Z11.571 
N414 X-147.501 Y-18.875 Z11.345 
N415 X-147.501 Y-18.733 Z11.118 
N416 X-147.501 Y-18.592 Z10.892 
N417 X-147.501 Y-18.451 Z10.666 
N418 X-147.501 Y-18.309 Z10.440 
N419 X-147.501 Y-18.168 Z10.214 
N420 X-147.501 Y-18.027 Z9.988 
N421 X-147.501 Y-17.885 Z9.762 
N422 X-147.501 Y-17.744 Z9.535 
N423 X-147.501 Y-17.603 Z9.309 
N424 X-147.501 Y-17.462 Z9.083 
N425 X-147.501 Y-17.320 Z8.857 
N426 X-147.501 Y-17.179 Z8.631 
N427 X-147.501 Y-17.038 Z8.405 
N428 X-147.501 Y-16.896 Z8.179 
N429 X-147.501 Y-16.755 Z7.952 
N430 X-147.501 Y-16.614 Z7.726 
N431 X-147.501 Y-16.472 Z7.500 
N432 X-147.501 Y-7.045 Z-7.587 
N433 X-147.501 Y-6.904 Z-7.813 
N434 X-147.501 Y-6.762 Z-8.039 
N435 X-147.501 Y-6.621 Z-8.265 
N436 X-147.501 Y-6.480 Z-8.492 
N437 X-147.501 Y-6.338 Z-8.718 
N438 X-147.501 Y-6.197 Z-8.944 
N439 X-147.501 Y-6.056 Z-9.170 
N440 X-147.501 Y-5.914 Z-9.396 
N441 X-147.501 Y-5.773 Z-9.622 
N442 X-147.501 Y-5.632 Z-9.848 
N443 X-147.501 Y-5.490 Z-10.075 
N444 X-147.501 Y-5.349 Z-10.301 
N445 X-147.501 Y-5.208 Z-10.527 
N446 X-147.501 Y-5.067 Z-10.753 
N447 X-147.501 Y-4.925 Z-10.979 
N448 X-147.501 Y-4.784 Z-11.205 
N449 X-147.501 Y-4.643 Z-11.431 
N450 X-147.501 Y-4.501 Z-11.658 
N451 X-147.501 Y-4.360 Z-11.884 
N452 X-147.501 Y-4.219 Z-12.110 
N453 X-147.501 Y-4.077 Z-12.336 
N454 X-147.501 Y-3.936 Z-12.562 
N455 X-147.501 Y-3.795 Z-12.788 
N456 X-147.501 Y-3.653 Z-13.014 
N457 X-147.501 Y-3.512 Z-13.241 
N458 X-147.501 Y-3.371 Z-13.467 
N459 X-147.501 Y-3.229 Z-13.693 
N460 X-147.501 Y-3.088 Z-13.919 
N461 X-147.501 Y-2.947 Z-14.145 
N462 X-147.501 Y-2.806 Z-14.371 
N463 X-147.501 Y-2.664 Z-14.597 
N464 X-147.501 Y-2.523 Z-14.824 
N465 X-147.501 Y-2.382 Z-15.050 
N466 X-147.501 Y-2.240 Z-15.276 
N467 X-147.501 Y-2.099 Z-15.502 
N468 X-147.501 Y-1.958 Z-15.728 
N469 X-147.501 Y-1.816 Z-15.954 
N470 X-147.501 Y-1.675 Z-16.181 
N471 X-147.501 Y-1.534 Z-16.407 
N472 X-147.501 Y-1.392 Z-16.633 
N473 X-147.501 Y-1.251 Z-16.859 
N474 X-147.501 Y-1.110 Z-17.085 
N475 X-147.501 Y-0.968 Z-17.311 
N476 X-147.501 Y-0.827 Z-17.537 
N477 X-147.501 Y-0.686 Z-17.764 
N478 X-147.501 Y-0.545 Z-17.990 
N479 X-147.501 Y-0.403 Z-18.216 
N480 X-147.501 Y-0.262 Z-18.442 
N481 X-147.501 Y-0.121 Z-18.668 
N482 X-147.501 Y0.021 Z-18.894 
N483 X-147.501 Y0.162 Z-19.120 
N484 X-147.501 Y0.303 Z-19.347 
N485 X-147.501 Y0.445 Z-19.573 
N486 X-147.501 Y0.586 Z-19.799 
N487 X-147.501 Y0.727 Z-20.025 
N488 X-147.501 Y0.869 Z-20.251 
N489 X-147.501 Y1.010 Z-20.477 
N490 X-147.501 Y1.151 Z-20.703 
N491 X-147.501 Y1.293 Z-20.930 
N492 X-147.501 Y1.434 Z-21.156 
N493 X-147.501 Y1.575 Z-21.382 
N494 X-147.501 Y1.716 Z-21.608 
N495 X-147.501 Y1.858 Z-21.834 
N496 X-147.501 Y1.999 Z-22.060 
N497 X-147.501 Y2.140 Z-22.286 
N498 X-147.501 Y2.282 Z-22.513 
N499 X-147.501 Y2.423 Z-22.739 
N500 X-147.501 Y2.564 Z-22.965 
N501 X-147.501 Y2.706 Z-23.191 
N502 X-147.501 Y2.847 Z-23.417 
N503 X-147.501 Y2.988 Z-23.643 
N504 X-147.501 Y3.130 Z-23.869 
N505 X-147.501 Y3.271 Z-24.096 
N506 X-147.501 Y3.412 Z-24.322 
N507 X-147.501 Y3.553 Z-24.548 
N508 X-147.501 Y-4.833 Z-29.994 
N509 G00 X-147.501 Y-46.767 Z-57.226 
N510 G01 X-160.533 Y-80.041 Z-3.977 F15000 
N511 X-160.533 Y-38.107 Z23.255 
N512 X-160.533 Y-29.720 Z28.701 F800 
N513 X-160.533 Y-27.071 Z24.461 
N514 X-160.533 Y-26.929 Z24.235 
N515 X-160.533 Y-26.788 Z24.009 
N516 X-160.533 Y-26.647 Z23.783 
N517 X-160.533 Y-26.505 Z23.556 
